ncols         100
nrows         50
xllcorner     0.0
yllcorner     0.0
cellsize      2.0
NODATA_value  -9999
0.08 0.32 0.72 1.28 2.00 2.88 3.92 5.12 6.48 8.00 9.68 11.52 13.52 15.68 18.00 20.48 23.12 25.92 28.88 32.00 35.28 38.72 42.32 46.08 50.00 54.08 58.32 62.72 67.28 72.00 76.88 81.92 87.12 92.48 98.00 103.68 109.52 115.52 121.68 128.00 134.48 141.12 147.92 154.88 162.00 169.28 176.72 184.32 192.08 200.00 208.08 216.32 224.72 233.28 242.00 250.88 259.92 269.12 278.48 288.00 297.68 307.52 317.52 327.68 338.00 348.48 359.12 369.92 380.88 392.00 403.28 414.72 426.32 438.08 450.00 462.08 474.32 486.72 499.28 512.00 524.88 537.92 551.12 564.48 578.00 591.68 605.52 619.52 633.68 648.00 662.48 677.12 691.92 706.88 722.00 737.28 752.72 768.32 784.08 800.00
0.08 0.32 0.72 1.28 2.00 2.88 3.92 5.12 6.48 8.00 9.68 11.52 13.52 15.68 18.00 20.48 23.12 25.92 28.88 32.00 35.28 38.72 42.32 46.08 50.00 54.08 58.32 62.72 67.28 72.00 76.88 81.92 87.12 92.48 98.00 103.68 109.52 115.52 121.68 128.00 134.48 141.12 147.92 154.88 162.00 169.28 176.72 184.32 192.08 200.00 208.08 216.32 224.72 233.28 242.00 250.88 259.92 269.12 278.48 288.00 297.68 307.52 317.52 327.68 338.00 348.48 359.12 369.92 380.88 392.00 403.28 414.72 426.32 438.08 450.00 462.08 474.32 486.72 499.28 512.00 524.88 537.92 551.12 564.48 578.00 591.68 605.52 619.52 633.68 648.00 662.48 677.12 691.92 706.88 722.00 737.28 752.72 768.32 784.08 800.00
0.08 0.32 0.72 1.28 2.00 2.88 3.92 5.12 6.48 8.00 9.68 11.52 13.52 15.68 18.00 20.48 23.12 25.92 28.88 32.00 35.28 38.72 42.32 46.08 50.00 54.08 58.32 62.72 67.28 72.00 76.88 81.92 87.12 92.48 98.00 103.68 109.52 115.52 121.68 128.00 134.48 141.12 147.92 154.88 162.00 169.28 176.72 184.32 192.08 200.00 208.08 216.32 224.72 233.28 242.00 250.88 259.92 269.12 278.48 288.00 297.68 307.52 317.52 327.68 338.00 348.48 359.12 369.92 380.88 392.00 403.28 414.72 426.32 438.08 450.00 462.08 474.32 486.72 499.28 512.00 524.88 537.92 551.12 564.48 578.00 591.68 605.52 619.52 633.68 648.00 662.48 677.12 691.92 706.88 722.00 737.28 752.72 768.32 784.08 800.00
0.08 0.32 0.72 1.28 2.00 2.88 3.92 5.12 6.48 8.00 9.68 11.52 13.52 15.68 18.00 20.48 23.12 25.92 28.88 32.00 35.28 38.72 42.32 46.08 50.00 54.08 58.32 62.72 67.28 72.00 76.88 81.92 87.12 92.48 98.00 103.68 109.52 115.52 121.68 128.00 134.48 141.12 147.92 154.88 162.00 169.28 176.72 184.32 192.08 200.00 208.08 216.32 224.72 233.28 242.00 250.88 259.92 269.12 278.48 288.00 297.68 307.52 317.52 327.68 338.00 348.48 359.12 369.92 380.88 392.00 403.28 414.72 426.32 438.08 450.00 462.08 474.32 486.72 499.28 512.00 524.88 537.92 551.12 564.48 578.00 591.68 605.52 619.52 633.68 648.00 662.48 677.12 691.92 706.88 722.00 737.28 752.72 768.32 784.08 800.00
0.08 0.32 0.72 1.28 2.00 2.88 3.92 5.12 6.48 8.00 9.68 11.52 13.52 15.68 18.00 20.48 23.12 25.92 28.88 32.00 35.28 38.72 42.32 46.08 50.00 54.08 58.32 62.72 67.28 72.00 76.88 81.92 87.12 92.48 98.00 103.68 109.52 115.52 121.68 128.00 134.48 141.12 147.92 154.88 162.00 169.28 176.72 184.32 192.08 200.00 208.08 216.32 224.72 233.28 242.00 250.88 259.92 269.12 278.48 288.00 297.68 307.52 317.52 327.68 338.00 348.48 359.12 369.92 380.88 392.00 403.28 414.72 426.32 438.08 450.00 462.08 474.32 486.72 499.28 512.00 524.88 537.92 551.12 564.48 578.00 591.68 605.52 619.52 633.68 648.00 662.48 677.12 691.92 706.88 722.00 737.28 752.72 768.32 784.08 800.00
0.08 0.32 0.72 1.28 2.00 2.88 3.92 5.12 6.48 8.00 9.68 11.52 13.52 15.68 18.00 20.48 23.12 25.92 28.88 32.00 35.28 38.72 42.32 46.08 50.00 54.08 58.32 62.72 67.28 72.00 76.88 81.92 87.12 92.48 98.00 103.68 109.52 115.52 121.68 128.00 134.48 141.12 147.92 154.88 162.00 169.28 176.72 184.32 192.08 200.00 208.08 216.32 224.72 233.28 242.00 250.88 259.92 269.12 278.48 288.00 297.68 307.52 317.52 327.68 338.00 348.48 359.12 369.92 380.88 392.00 403.28 414.72 426.32 438.08 450.00 462.08 474.32 486.72 499.28 512.00 524.88 537.92 551.12 564.48 578.00 591.68 605.52 619.52 633.68 648.00 662.48 677.12 691.92 706.88 722.00 737.28 752.72 768.32 784.08 800.00
0.08 0.32 0.72 1.28 2.00 2.88 3.92 5.12 6.48 8.00 9.68 11.52 13.52 15.68 18.00 20.48 23.12 25.92 28.88 32.00 35.28 38.72 42.32 46.08 50.00 54.08 58.32 62.72 67.28 72.00 76.88 81.92 87.12 92.48 98.00 103.68 109.52 115.52 121.68 128.00 134.48 141.12 147.92 154.88 162.00 169.28 176.72 184.32 192.08 200.00 208.08 216.32 224.72 233.28 242.00 250.88 259.92 269.12 278.48 288.00 297.68 307.52 317.52 327.68 338.00 348.48 359.12 369.92 380.88 392.00 403.28 414.72 426.32 438.08 450.00 462.08 474.32 486.72 499.28 512.00 524.88 537.92 551.12 564.48 578.00 591.68 605.52 619.52 633.68 648.00 662.48 677.12 691.92 706.88 722.00 737.28 752.72 768.32 784.08 800.00
0.08 0.32 0.72 1.28 2.00 2.88 3.92 5.12 6.48 8.00 9.68 11.52 13.52 15.68 18.00 20.48 23.12 25.92 28.88 32.00 35.28 38.72 42.32 46.08 50.00 54.08 58.32 62.72 67.28 72.00 76.88 81.92 87.12 92.48 98.00 103.68 109.52 115.52 121.68 128.00 134.48 141.12 147.92 154.88 162.00 169.28 176.72 184.32 192.08 200.00 208.08 216.32 224.72 233.28 242.00 250.88 259.92 269.12 278.48 288.00 297.68 307.52 317.52 327.68 338.00 348.48 359.12 369.92 380.88 392.00 403.28 414.72 426.32 438.08 450.00 462.08 474.32 486.72 499.28 512.00 524.88 537.92 551.12 564.48 578.00 591.68 605.52 619.52 633.68 648.00 662.48 677.12 691.92 706.88 722.00 737.28 752.72 768.32 784.08 800.00
0.08 0.32 0.72 1.28 2.00 2.88 3.92 5.12 6.48 8.00 9.68 11.52 13.52 15.68 18.00 20.48 23.12 25.92 28.88 32.00 35.28 38.72 42.32 46.08 50.00 54.08 58.32 62.72 67.28 72.00 76.88 81.92 87.12 92.48 98.00 103.68 109.52 115.52 121.68 128.00 134.48 141.12 147.92 154.88 162.00 169.28 176.72 184.32 192.08 200.00 208.08 216.32 224.72 233.28 242.00 250.88 259.92 269.12 278.48 288.00 297.68 307.52 317.52 327.68 338.00 348.48 359.12 369.92 380.88 392.00 403.28 414.72 426.32 438.08 450.00 462.08 474.32 486.72 499.28 512.00 524.88 537.92 551.12 564.48 578.00 591.68 605.52 619.52 633.68 648.00 662.48 677.12 691.92 706.88 722.00 737.28 752.72 768.32 784.08 800.00
0.08 0.32 0.72 1.28 2.00 2.88 3.92 5.12 6.48 8.00 9.68 11.52 13.52 15.68 18.00 20.48 23.12 25.92 28.88 32.00 35.28 38.72 42.32 46.08 50.00 54.08 58.32 62.72 67.28 72.00 76.88 81.92 87.12 92.48 98.00 103.68 109.52 115.52 121.68 128.00 134.48 141.12 147.92 154.88 162.00 169.28 176.72 184.32 192.08 200.00 208.08 216.32 224.72 233.28 242.00 250.88 259.92 269.12 278.48 288.00 297.68 307.52 317.52 327.68 338.00 348.48 359.12 369.92 380.88 392.00 403.28 414.72 426.32 438.08 450.00 462.08 474.32 486.72 499.28 512.00 524.88 537.92 551.12 564.48 578.00 591.68 605.52 619.52 633.68 648.00 662.48 677.12 691.92 706.88 722.00 737.28 752.72 768.32 784.08 800.00
0.08 0.32 0.72 1.28 2.00 2.88 3.92 5.12 6.48 8.00 9.68 11.52 13.52 15.68 18.00 20.48 23.12 25.92 28.88 32.00 35.28 38.72 42.32 46.08 50.00 54.08 58.32 62.72 67.28 72.00 76.88 81.92 87.12 92.48 98.00 103.68 109.52 115.52 121.68 128.00 134.48 141.12 147.92 154.88 162.00 169.28 176.72 184.32 192.08 200.00 208.08 216.32 224.72 233.28 242.00 250.88 259.92 269.12 278.48 288.00 297.68 307.52 317.52 327.68 338.00 348.48 359.12 369.92 380.88 392.00 403.28 414.72 426.32 438.08 450.00 462.08 474.32 486.72 499.28 512.00 524.88 537.92 551.12 564.48 578.00 591.68 605.52 619.52 633.68 648.00 662.48 677.12 691.92 706.88 722.00 737.28 752.72 768.32 784.08 800.00
0.08 0.32 0.72 1.28 2.00 2.88 3.92 5.12 6.48 8.00 9.68 11.52 13.52 15.68 18.00 20.48 23.12 25.92 28.88 32.00 35.28 38.72 42.32 46.08 50.00 54.08 58.32 62.72 67.28 72.00 76.88 81.92 87.12 92.48 98.00 103.68 109.52 115.52 121.68 128.00 134.48 141.12 147.92 154.88 162.00 169.28 176.72 184.32 192.08 200.00 208.08 216.32 224.72 233.28 242.00 250.88 259.92 269.12 278.48 288.00 297.68 307.52 317.52 327.68 338.00 348.48 359.12 369.92 380.88 392.00 403.28 414.72 426.32 438.08 450.00 462.08 474.32 486.72 499.28 512.00 524.88 537.92 551.12 564.48 578.00 591.68 605.52 619.52 633.68 648.00 662.48 677.12 691.92 706.88 722.00 737.28 752.72 768.32 784.08 800.00
0.08 0.32 0.72 1.28 2.00 2.88 3.92 5.12 6.48 8.00 9.68 11.52 13.52 15.68 18.00 20.48 23.12 25.92 28.88 32.00 35.28 38.72 42.32 46.08 50.00 54.08 58.32 62.72 67.28 72.00 76.88 81.92 87.12 92.48 98.00 103.68 109.52 115.52 121.68 128.00 134.48 141.12 147.92 154.88 162.00 169.28 176.72 184.32 192.08 200.00 208.08 216.32 224.72 233.28 242.00 250.88 259.92 269.12 278.48 288.00 297.68 307.52 317.52 327.68 338.00 348.48 359.12 369.92 380.88 392.00 403.28 414.72 426.32 438.08 450.00 462.08 474.32 486.72 499.28 512.00 524.88 537.92 551.12 564.48 578.00 591.68 605.52 619.52 633.68 648.00 662.48 677.12 691.92 706.88 722.00 737.28 752.72 768.32 784.08 800.00
0.08 0.32 0.72 1.28 2.00 2.88 3.92 5.12 6.48 8.00 9.68 11.52 13.52 15.68 18.00 20.48 23.12 25.92 28.88 32.00 35.28 38.72 42.32 46.08 50.00 54.08 58.32 62.72 67.28 72.00 76.88 81.92 87.12 92.48 98.00 103.68 109.52 115.52 121.68 128.00 134.48 141.12 147.92 154.88 162.00 169.28 176.72 184.32 192.08 200.00 208.08 216.32 224.72 233.28 242.00 250.88 259.92 269.12 278.48 288.00 297.68 307.52 317.52 327.68 338.00 348.48 359.12 369.92 380.88 392.00 403.28 414.72 426.32 438.08 450.00 462.08 474.32 486.72 499.28 512.00 524.88 537.92 551.12 564.48 578.00 591.68 605.52 619.52 633.68 648.00 662.48 677.12 691.92 706.88 722.00 737.28 752.72 768.32 784.08 800.00
0.08 0.32 0.72 1.28 2.00 2.88 3.92 5.12 6.48 8.00 9.68 11.52 13.52 15.68 18.00 20.48 23.12 25.92 28.88 32.00 35.28 38.72 42.32 46.08 50.00 54.08 58.32 62.72 67.28 72.00 76.88 81.92 87.12 92.48 98.00 103.68 109.52 115.52 121.68 128.00 134.48 141.12 147.92 154.88 162.00 169.28 176.72 184.32 192.08 200.00 208.08 216.32 224.72 233.28 242.00 250.88 259.92 269.12 278.48 288.00 297.68 307.52 317.52 327.68 338.00 348.48 359.12 369.92 380.88 392.00 403.28 414.72 426.32 438.08 450.00 462.08 474.32 486.72 499.28 512.00 524.88 537.92 551.12 564.48 578.00 591.68 605.52 619.52 633.68 648.00 662.48 677.12 691.92 706.88 722.00 737.28 752.72 768.32 784.08 800.00
0.08 0.32 0.72 1.28 2.00 2.88 3.92 5.12 6.48 8.00 9.68 11.52 13.52 15.68 18.00 20.48 23.12 25.92 28.88 32.00 35.28 38.72 42.32 46.08 50.00 54.08 58.32 62.72 67.28 72.00 76.88 81.92 87.12 92.48 98.00 103.68 109.52 115.52 121.68 128.00 134.48 141.12 147.92 154.88 162.00 169.28 176.72 184.32 192.08 200.00 208.08 216.32 224.72 233.28 242.00 250.88 259.92 269.12 278.48 288.00 297.68 307.52 317.52 327.68 338.00 348.48 359.12 369.92 380.88 392.00 403.28 414.72 426.32 438.08 450.00 462.08 474.32 486.72 499.28 512.00 524.88 537.92 551.12 564.48 578.00 591.68 605.52 619.52 633.68 648.00 662.48 677.12 691.92 706.88 722.00 737.28 752.72 768.32 784.08 800.00
0.08 0.32 0.72 1.28 2.00 2.88 3.92 5.12 6.48 8.00 9.68 11.52 13.52 15.68 18.00 20.48 23.12 25.92 28.88 32.00 35.28 38.72 42.32 46.08 50.00 54.08 58.32 62.72 67.28 72.00 76.88 81.92 87.12 92.48 98.00 103.68 109.52 115.52 121.68 128.00 134.48 141.12 147.92 154.88 162.00 169.28 176.72 184.32 192.08 200.00 208.08 216.32 224.72 233.28 242.00 250.88 259.92 269.12 278.48 288.00 297.68 307.52 317.52 327.68 338.00 348.48 359.12 369.92 380.88 392.00 403.28 414.72 426.32 438.08 450.00 462.08 474.32 486.72 499.28 512.00 524.88 537.92 551.12 564.48 578.00 591.68 605.52 619.52 633.68 648.00 662.48 677.12 691.92 706.88 722.00 737.28 752.72 768.32 784.08 800.00
0.08 0.32 0.72 1.28 2.00 2.88 3.92 5.12 6.48 8.00 9.68 11.52 13.52 15.68 18.00 20.48 23.12 25.92 28.88 32.00 35.28 38.72 42.32 46.08 50.00 54.08 58.32 62.72 67.28 72.00 76.88 81.92 87.12 92.48 98.00 103.68 109.52 115.52 121.68 128.00 134.48 141.12 147.92 154.88 162.00 169.28 176.72 184.32 192.08 200.00 208.08 216.32 224.72 233.28 242.00 250.88 259.92 269.12 278.48 288.00 297.68 307.52 317.52 327.68 338.00 348.48 359.12 369.92 380.88 392.00 403.28 414.72 426.32 438.08 450.00 462.08 474.32 486.72 499.28 512.00 524.88 537.92 551.12 564.48 578.00 591.68 605.52 619.52 633.68 648.00 662.48 677.12 691.92 706.88 722.00 737.28 752.72 768.32 784.08 800.00
0.08 0.32 0.72 1.28 2.00 2.88 3.92 5.12 6.48 8.00 9.68 11.52 13.52 15.68 18.00 20.48 23.12 25.92 28.88 32.00 35.28 38.72 42.32 46.08 50.00 54.08 58.32 62.72 67.28 72.00 76.88 81.92 87.12 92.48 98.00 103.68 109.52 115.52 121.68 128.00 134.48 141.12 147.92 154.88 162.00 169.28 176.72 184.32 192.08 200.00 208.08 216.32 224.72 233.28 242.00 250.88 259.92 269.12 278.48 288.00 297.68 307.52 317.52 327.68 338.00 348.48 359.12 369.92 380.88 392.00 403.28 414.72 426.32 438.08 450.00 462.08 474.32 486.72 499.28 512.00 524.88 537.92 551.12 564.48 578.00 591.68 605.52 619.52 633.68 648.00 662.48 677.12 691.92 706.88 722.00 737.28 752.72 768.32 784.08 800.00
0.08 0.32 0.72 1.28 2.00 2.88 3.92 5.12 6.48 8.00 9.68 11.52 13.52 15.68 18.00 20.48 23.12 25.92 28.88 32.00 35.28 38.72 42.32 46.08 50.00 54.08 58.32 62.72 67.28 72.00 76.88 81.92 87.12 92.48 98.00 103.68 109.52 115.52 121.68 128.00 134.48 141.12 147.92 154.88 162.00 169.28 176.72 184.32 192.08 200.00 208.08 216.32 224.72 233.28 242.00 250.88 259.92 269.12 278.48 288.00 297.68 307.52 317.52 327.68 338.00 348.48 359.12 369.92 380.88 392.00 403.28 414.72 426.32 438.08 450.00 462.08 474.32 486.72 499.28 512.00 524.88 537.92 551.12 564.48 578.00 591.68 605.52 619.52 633.68 648.00 662.48 677.12 691.92 706.88 722.00 737.28 752.72 768.32 784.08 800.00
0.08 0.32 0.72 1.28 2.00 2.88 3.92 5.12 6.48 8.00 9.68 11.52 13.52 15.68 18.00 20.48 23.12 25.92 28.88 32.00 35.28 38.72 42.32 46.08 50.00 54.08 58.32 62.72 67.28 72.00 76.88 81.92 87.12 92.48 98.00 103.68 109.52 115.52 121.68 128.00 134.48 141.12 147.92 154.88 162.00 169.28 176.72 184.32 192.08 200.00 208.08 216.32 224.72 233.28 242.00 250.88 259.92 269.12 278.48 288.00 297.68 307.52 317.52 327.68 338.00 348.48 359.12 369.92 380.88 392.00 403.28 414.72 426.32 438.08 450.00 462.08 474.32 486.72 499.28 512.00 524.88 537.92 551.12 564.48 578.00 591.68 605.52 619.52 633.68 648.00 662.48 677.12 691.92 706.88 722.00 737.28 752.72 768.32 784.08 800.00
0.08 0.32 0.72 1.28 2.00 2.88 3.92 5.12 6.48 8.00 9.68 11.52 13.52 15.68 18.00 20.48 23.12 25.92 28.88 32.00 35.28 38.72 42.32 46.08 50.00 54.08 58.32 62.72 67.28 72.00 76.88 81.92 87.12 92.48 98.00 103.68 109.52 115.52 121.68 128.00 134.48 141.12 147.92 154.88 162.00 169.28 176.72 184.32 192.08 200.00 208.08 216.32 224.72 233.28 242.00 250.88 259.92 269.12 278.48 288.00 297.68 307.52 317.52 327.68 338.00 348.48 359.12 369.92 380.88 392.00 403.28 414.72 426.32 438.08 450.00 462.08 474.32 486.72 499.28 512.00 524.88 537.92 551.12 564.48 578.00 591.68 605.52 619.52 633.68 648.00 662.48 677.12 691.92 706.88 722.00 737.28 752.72 768.32 784.08 800.00
0.08 0.32 0.72 1.28 2.00 2.88 3.92 5.12 6.48 8.00 9.68 11.52 13.52 15.68 18.00 20.48 23.12 25.92 28.88 32.00 35.28 38.72 42.32 46.08 50.00 54.08 58.32 62.72 67.28 72.00 76.88 81.92 87.12 92.48 98.00 103.68 109.52 115.52 121.68 128.00 134.48 141.12 147.92 154.88 162.00 169.28 176.72 184.32 192.08 200.00 208.08 216.32 224.72 233.28 242.00 250.88 259.92 269.12 278.48 288.00 297.68 307.52 317.52 327.68 338.00 348.48 359.12 369.92 380.88 392.00 403.28 414.72 426.32 438.08 450.00 462.08 474.32 486.72 499.28 512.00 524.88 537.92 551.12 564.48 578.00 591.68 605.52 619.52 633.68 648.00 662.48 677.12 691.92 706.88 722.00 737.28 752.72 768.32 784.08 800.00
0.08 0.32 0.72 1.28 2.00 2.88 3.92 5.12 6.48 8.00 9.68 11.52 13.52 15.68 18.00 20.48 23.12 25.92 28.88 32.00 35.28 38.72 42.32 46.08 50.00 54.08 58.32 62.72 67.28 72.00 76.88 81.92 87.12 92.48 98.00 103.68 109.52 115.52 121.68 128.00 134.48 141.12 147.92 154.88 162.00 169.28 176.72 184.32 192.08 200.00 208.08 216.32 224.72 233.28 242.00 250.88 259.92 269.12 278.48 288.00 297.68 307.52 317.52 327.68 338.00 348.48 359.12 369.92 380.88 392.00 403.28 414.72 426.32 438.08 450.00 462.08 474.32 486.72 499.28 512.00 524.88 537.92 551.12 564.48 578.00 591.68 605.52 619.52 633.68 648.00 662.48 677.12 691.92 706.88 722.00 737.28 752.72 768.32 784.08 800.00
0.08 0.32 0.72 1.28 2.00 2.88 3.92 5.12 6.48 8.00 9.68 11.52 13.52 15.68 18.00 20.48 23.12 25.92 28.88 32.00 35.28 38.72 42.32 46.08 50.00 54.08 58.32 62.72 67.28 72.00 76.88 81.92 87.12 92.48 98.00 103.68 109.52 115.52 121.68 128.00 134.48 141.12 147.92 154.88 162.00 169.28 176.72 184.32 192.08 200.00 208.08 216.32 224.72 233.28 242.00 250.88 259.92 269.12 278.48 288.00 297.68 307.52 317.52 327.68 338.00 348.48 359.12 369.92 380.88 392.00 403.28 414.72 426.32 438.08 450.00 462.08 474.32 486.72 499.28 512.00 524.88 537.92 551.12 564.48 578.00 591.68 605.52 619.52 633.68 648.00 662.48 677.12 691.92 706.88 722.00 737.28 752.72 768.32 784.08 800.00
0.08 0.32 0.72 1.28 2.00 2.88 3.92 5.12 6.48 8.00 9.68 11.52 13.52 15.68 18.00 20.48 23.12 25.92 28.88 32.00 35.28 38.72 42.32 46.08 50.00 54.08 58.32 62.72 67.28 72.00 76.88 81.92 87.12 92.48 98.00 103.68 109.52 115.52 121.68 128.00 134.48 141.12 147.92 154.88 162.00 169.28 176.72 184.32 192.08 200.00 208.08 216.32 224.72 233.28 242.00 250.88 259.92 269.12 278.48 288.00 297.68 307.52 317.52 327.68 338.00 348.48 359.12 369.92 380.88 392.00 403.28 414.72 426.32 438.08 450.00 462.08 474.32 486.72 499.28 512.00 524.88 537.92 551.12 564.48 578.00 591.68 605.52 619.52 633.68 648.00 662.48 677.12 691.92 706.88 722.00 737.28 752.72 768.32 784.08 800.00
0.08 0.32 0.72 1.28 2.00 2.88 3.92 5.12 6.48 8.00 9.68 11.52 13.52 15.68 18.00 20.48 23.12 25.92 28.88 32.00 35.28 38.72 42.32 46.08 50.00 54.08 58.32 62.72 67.28 72.00 76.88 81.92 87.12 92.48 98.00 103.68 109.52 115.52 121.68 128.00 134.48 141.12 147.92 154.88 162.00 169.28 176.72 184.32 192.08 200.00 208.08 216.32 224.72 233.28 242.00 250.88 259.92 269.12 278.48 288.00 297.68 307.52 317.52 327.68 338.00 348.48 359.12 369.92 380.88 392.00 403.28 414.72 426.32 438.08 450.00 462.08 474.32 486.72 499.28 512.00 524.88 537.92 551.12 564.48 578.00 591.68 605.52 619.52 633.68 648.00 662.48 677.12 691.92 706.88 722.00 737.28 752.72 768.32 784.08 800.00
0.08 0.32 0.72 1.28 2.00 2.88 3.92 5.12 6.48 8.00 9.68 11.52 13.52 15.68 18.00 20.48 23.12 25.92 28.88 32.00 35.28 38.72 42.32 46.08 50.00 54.08 58.32 62.72 67.28 72.00 76.88 81.92 87.12 92.48 98.00 103.68 109.52 115.52 121.68 128.00 134.48 141.12 147.92 154.88 162.00 169.28 176.72 184.32 192.08 200.00 208.08 216.32 224.72 233.28 242.00 250.88 259.92 269.12 278.48 288.00 297.68 307.52 317.52 327.68 338.00 348.48 359.12 369.92 380.88 392.00 403.28 414.72 426.32 438.08 450.00 462.08 474.32 486.72 499.28 512.00 524.88 537.92 551.12 564.48 578.00 591.68 605.52 619.52 633.68 648.00 662.48 677.12 691.92 706.88 722.00 737.28 752.72 768.32 784.08 800.00
0.08 0.32 0.72 1.28 2.00 2.88 3.92 5.12 6.48 8.00 9.68 11.52 13.52 15.68 18.00 20.48 23.12 25.92 28.88 32.00 35.28 38.72 42.32 46.08 50.00 54.08 58.32 62.72 67.28 72.00 76.88 81.92 87.12 92.48 98.00 103.68 109.52 115.52 121.68 128.00 134.48 141.12 147.92 154.88 162.00 169.28 176.72 184.32 192.08 200.00 208.08 216.32 224.72 233.28 242.00 250.88 259.92 269.12 278.48 288.00 297.68 307.52 317.52 327.68 338.00 348.48 359.12 369.92 380.88 392.00 403.28 414.72 426.32 438.08 450.00 462.08 474.32 486.72 499.28 512.00 524.88 537.92 551.12 564.48 578.00 591.68 605.52 619.52 633.68 648.00 662.48 677.12 691.92 706.88 722.00 737.28 752.72 768.32 784.08 800.00
0.08 0.32 0.72 1.28 2.00 2.88 3.92 5.12 6.48 8.00 9.68 11.52 13.52 15.68 18.00 20.48 23.12 25.92 28.88 32.00 35.28 38.72 42.32 46.08 50.00 54.08 58.32 62.72 67.28 72.00 76.88 81.92 87.12 92.48 98.00 103.68 109.52 115.52 121.68 128.00 134.48 141.12 147.92 154.88 162.00 169.28 176.72 184.32 192.08 200.00 208.08 216.32 224.72 233.28 242.00 250.88 259.92 269.12 278.48 288.00 297.68 307.52 317.52 327.68 338.00 348.48 359.12 369.92 380.88 392.00 403.28 414.72 426.32 438.08 450.00 462.08 474.32 486.72 499.28 512.00 524.88 537.92 551.12 564.48 578.00 591.68 605.52 619.52 633.68 648.00 662.48 677.12 691.92 706.88 722.00 737.28 752.72 768.32 784.08 800.00
0.08 0.32 0.72 1.28 2.00 2.88 3.92 5.12 6.48 8.00 9.68 11.52 13.52 15.68 18.00 20.48 23.12 25.92 28.88 32.00 35.28 38.72 42.32 46.08 50.00 54.08 58.32 62.72 67.28 72.00 76.88 81.92 87.12 92.48 98.00 103.68 109.52 115.52 121.68 128.00 134.48 141.12 147.92 154.88 162.00 169.28 176.72 184.32 192.08 200.00 208.08 216.32 224.72 233.28 242.00 250.88 259.92 269.12 278.48 288.00 297.68 307.52 317.52 327.68 338.00 348.48 359.12 369.92 380.88 392.00 403.28 414.72 426.32 438.08 450.00 462.08 474.32 486.72 499.28 512.00 524.88 537.92 551.12 564.48 578.00 591.68 605.52 619.52 633.68 648.00 662.48 677.12 691.92 706.88 722.00 737.28 752.72 768.32 784.08 800.00
0.08 0.32 0.72 1.28 2.00 2.88 3.92 5.12 6.48 8.00 9.68 11.52 13.52 15.68 18.00 20.48 23.12 25.92 28.88 32.00 35.28 38.72 42.32 46.08 50.00 54.08 58.32 62.72 67.28 72.00 76.88 81.92 87.12 92.48 98.00 103.68 109.52 115.52 121.68 128.00 134.48 141.12 147.92 154.88 162.00 169.28 176.72 184.32 192.08 200.00 208.08 216.32 224.72 233.28 242.00 250.88 259.92 269.12 278.48 288.00 297.68 307.52 317.52 327.68 338.00 348.48 359.12 369.92 380.88 392.00 403.28 414.72 426.32 438.08 450.00 462.08 474.32 486.72 499.28 512.00 524.88 537.92 551.12 564.48 578.00 591.68 605.52 619.52 633.68 648.00 662.48 677.12 691.92 706.88 722.00 737.28 752.72 768.32 784.08 800.00
0.08 0.32 0.72 1.28 2.00 2.88 3.92 5.12 6.48 8.00 9.68 11.52 13.52 15.68 18.00 20.48 23.12 25.92 28.88 32.00 35.28 38.72 42.32 46.08 50.00 54.08 58.32 62.72 67.28 72.00 76.88 81.92 87.12 92.48 98.00 103.68 109.52 115.52 121.68 128.00 134.48 141.12 147.92 154.88 162.00 169.28 176.72 184.32 192.08 200.00 208.08 216.32 224.72 233.28 242.00 250.88 259.92 269.12 278.48 288.00 297.68 307.52 317.52 327.68 338.00 348.48 359.12 369.92 380.88 392.00 403.28 414.72 426.32 438.08 450.00 462.08 474.32 486.72 499.28 512.00 524.88 537.92 551.12 564.48 578.00 591.68 605.52 619.52 633.68 648.00 662.48 677.12 691.92 706.88 722.00 737.28 752.72 768.32 784.08 800.00
0.08 0.32 0.72 1.28 2.00 2.88 3.92 5.12 6.48 8.00 9.68 11.52 13.52 15.68 18.00 20.48 23.12 25.92 28.88 32.00 35.28 38.72 42.32 46.08 50.00 54.08 58.32 62.72 67.28 72.00 76.88 81.92 87.12 92.48 98.00 103.68 109.52 115.52 121.68 128.00 134.48 141.12 147.92 154.88 162.00 169.28 176.72 184.32 192.08 200.00 208.08 216.32 224.72 233.28 242.00 250.88 259.92 269.12 278.48 288.00 297.68 307.52 317.52 327.68 338.00 348.48 359.12 369.92 380.88 392.00 403.28 414.72 426.32 438.08 450.00 462.08 474.32 486.72 499.28 512.00 524.88 537.92 551.12 564.48 578.00 591.68 605.52 619.52 633.68 648.00 662.48 677.12 691.92 706.88 722.00 737.28 752.72 768.32 784.08 800.00
0.08 0.32 0.72 1.28 2.00 2.88 3.92 5.12 6.48 8.00 9.68 11.52 13.52 15.68 18.00 20.48 23.12 25.92 28.88 32.00 35.28 38.72 42.32 46.08 50.00 54.08 58.32 62.72 67.28 72.00 76.88 81.92 87.12 92.48 98.00 103.68 109.52 115.52 121.68 128.00 134.48 141.12 147.92 154.88 162.00 169.28 176.72 184.32 192.08 200.00 208.08 216.32 224.72 233.28 242.00 250.88 259.92 269.12 278.48 288.00 297.68 307.52 317.52 327.68 338.00 348.48 359.12 369.92 380.88 392.00 403.28 414.72 426.32 438.08 450.00 462.08 474.32 486.72 499.28 512.00 524.88 537.92 551.12 564.48 578.00 591.68 605.52 619.52 633.68 648.00 662.48 677.12 691.92 706.88 722.00 737.28 752.72 768.32 784.08 800.00
0.08 0.32 0.72 1.28 2.00 2.88 3.92 5.12 6.48 8.00 9.68 11.52 13.52 15.68 18.00 20.48 23.12 25.92 28.88 32.00 35.28 38.72 42.32 46.08 50.00 54.08 58.32 62.72 67.28 72.00 76.88 81.92 87.12 92.48 98.00 103.68 109.52 115.52 121.68 128.00 134.48 141.12 147.92 154.88 162.00 169.28 176.72 184.32 192.08 200.00 208.08 216.32 224.72 233.28 242.00 250.88 259.92 269.12 278.48 288.00 297.68 307.52 317.52 327.68 338.00 348.48 359.12 369.92 380.88 392.00 403.28 414.72 426.32 438.08 450.00 462.08 474.32 486.72 499.28 512.00 524.88 537.92 551.12 564.48 578.00 591.68 605.52 619.52 633.68 648.00 662.48 677.12 691.92 706.88 722.00 737.28 752.72 768.32 784.08 800.00
0.08 0.32 0.72 1.28 2.00 2.88 3.92 5.12 6.48 8.00 9.68 11.52 13.52 15.68 18.00 20.48 23.12 25.92 28.88 32.00 35.28 38.72 42.32 46.08 50.00 54.08 58.32 62.72 67.28 72.00 76.88 81.92 87.12 92.48 98.00 103.68 109.52 115.52 121.68 128.00 134.48 141.12 147.92 154.88 162.00 169.28 176.72 184.32 192.08 200.00 208.08 216.32 224.72 233.28 242.00 250.88 259.92 269.12 278.48 288.00 297.68 307.52 317.52 327.68 338.00 348.48 359.12 369.92 380.88 392.00 403.28 414.72 426.32 438.08 450.00 462.08 474.32 486.72 499.28 512.00 524.88 537.92 551.12 564.48 578.00 591.68 605.52 619.52 633.68 648.00 662.48 677.12 691.92 706.88 722.00 737.28 752.72 768.32 784.08 800.00
0.08 0.32 0.72 1.28 2.00 2.88 3.92 5.12 6.48 8.00 9.68 11.52 13.52 15.68 18.00 20.48 23.12 25.92 28.88 32.00 35.28 38.72 42.32 46.08 50.00 54.08 58.32 62.72 67.28 72.00 76.88 81.92 87.12 92.48 98.00 103.68 109.52 115.52 121.68 128.00 134.48 141.12 147.92 154.88 162.00 169.28 176.72 184.32 192.08 200.00 208.08 216.32 224.72 233.28 242.00 250.88 259.92 269.12 278.48 288.00 297.68 307.52 317.52 327.68 338.00 348.48 359.12 369.92 380.88 392.00 403.28 414.72 426.32 438.08 450.00 462.08 474.32 486.72 499.28 512.00 524.88 537.92 551.12 564.48 578.00 591.68 605.52 619.52 633.68 648.00 662.48 677.12 691.92 706.88 722.00 737.28 752.72 768.32 784.08 800.00
0.08 0.32 0.72 1.28 2.00 2.88 3.92 5.12 6.48 8.00 9.68 11.52 13.52 15.68 18.00 20.48 23.12 25.92 28.88 32.00 35.28 38.72 42.32 46.08 50.00 54.08 58.32 62.72 67.28 72.00 76.88 81.92 87.12 92.48 98.00 103.68 109.52 115.52 121.68 128.00 134.48 141.12 147.92 154.88 162.00 169.28 176.72 184.32 192.08 200.00 208.08 216.32 224.72 233.28 242.00 250.88 259.92 269.12 278.48 288.00 297.68 307.52 317.52 327.68 338.00 348.48 359.12 369.92 380.88 392.00 403.28 414.72 426.32 438.08 450.00 462.08 474.32 486.72 499.28 512.00 524.88 537.92 551.12 564.48 578.00 591.68 605.52 619.52 633.68 648.00 662.48 677.12 691.92 706.88 722.00 737.28 752.72 768.32 784.08 800.00
0.08 0.32 0.72 1.28 2.00 2.88 3.92 5.12 6.48 8.00 9.68 11.52 13.52 15.68 18.00 20.48 23.12 25.92 28.88 32.00 35.28 38.72 42.32 46.08 50.00 54.08 58.32 62.72 67.28 72.00 76.88 81.92 87.12 92.48 98.00 103.68 109.52 115.52 121.68 128.00 134.48 141.12 147.92 154.88 162.00 169.28 176.72 184.32 192.08 200.00 208.08 216.32 224.72 233.28 242.00 250.88 259.92 269.12 278.48 288.00 297.68 307.52 317.52 327.68 338.00 348.48 359.12 369.92 380.88 392.00 403.28 414.72 426.32 438.08 450.00 462.08 474.32 486.72 499.28 512.00 524.88 537.92 551.12 564.48 578.00 591.68 605.52 619.52 633.68 648.00 662.48 677.12 691.92 706.88 722.00 737.28 752.72 768.32 784.08 800.00
0.08 0.32 0.72 1.28 2.00 2.88 3.92 5.12 6.48 8.00 9.68 11.52 13.52 15.68 18.00 20.48 23.12 25.92 28.88 32.00 35.28 38.72 42.32 46.08 50.00 54.08 58.32 62.72 67.28 72.00 76.88 81.92 87.12 92.48 98.00 103.68 109.52 115.52 121.68 128.00 134.48 141.12 147.92 154.88 162.00 169.28 176.72 184.32 192.08 200.00 208.08 216.32 224.72 233.28 242.00 250.88 259.92 269.12 278.48 288.00 297.68 307.52 317.52 327.68 338.00 348.48 359.12 369.92 380.88 392.00 403.28 414.72 426.32 438.08 450.00 462.08 474.32 486.72 499.28 512.00 524.88 537.92 551.12 564.48 578.00 591.68 605.52 619.52 633.68 648.00 662.48 677.12 691.92 706.88 722.00 737.28 752.72 768.32 784.08 800.00
0.08 0.32 0.72 1.28 2.00 2.88 3.92 5.12 6.48 8.00 9.68 11.52 13.52 15.68 18.00 20.48 23.12 25.92 28.88 32.00 35.28 38.72 42.32 46.08 50.00 54.08 58.32 62.72 67.28 72.00 76.88 81.92 87.12 92.48 98.00 103.68 109.52 115.52 121.68 128.00 134.48 141.12 147.92 154.88 162.00 169.28 176.72 184.32 192.08 200.00 208.08 216.32 224.72 233.28 242.00 250.88 259.92 269.12 278.48 288.00 297.68 307.52 317.52 327.68 338.00 348.48 359.12 369.92 380.88 392.00 403.28 414.72 426.32 438.08 450.00 462.08 474.32 486.72 499.28 512.00 524.88 537.92 551.12 564.48 578.00 591.68 605.52 619.52 633.68 648.00 662.48 677.12 691.92 706.88 722.00 737.28 752.72 768.32 784.08 800.00
0.08 0.32 0.72 1.28 2.00 2.88 3.92 5.12 6.48 8.00 9.68 11.52 13.52 15.68 18.00 20.48 23.12 25.92 28.88 32.00 35.28 38.72 42.32 46.08 50.00 54.08 58.32 62.72 67.28 72.00 76.88 81.92 87.12 92.48 98.00 103.68 109.52 115.52 121.68 128.00 134.48 141.12 147.92 154.88 162.00 169.28 176.72 184.32 192.08 200.00 208.08 216.32 224.72 233.28 242.00 250.88 259.92 269.12 278.48 288.00 297.68 307.52 317.52 327.68 338.00 348.48 359.12 369.92 380.88 392.00 403.28 414.72 426.32 438.08 450.00 462.08 474.32 486.72 499.28 512.00 524.88 537.92 551.12 564.48 578.00 591.68 605.52 619.52 633.68 648.00 662.48 677.12 691.92 706.88 722.00 737.28 752.72 768.32 784.08 800.00
0.08 0.32 0.72 1.28 2.00 2.88 3.92 5.12 6.48 8.00 9.68 11.52 13.52 15.68 18.00 20.48 23.12 25.92 28.88 32.00 35.28 38.72 42.32 46.08 50.00 54.08 58.32 62.72 67.28 72.00 76.88 81.92 87.12 92.48 98.00 103.68 109.52 115.52 121.68 128.00 134.48 141.12 147.92 154.88 162.00 169.28 176.72 184.32 192.08 200.00 208.08 216.32 224.72 233.28 242.00 250.88 259.92 269.12 278.48 288.00 297.68 307.52 317.52 327.68 338.00 348.48 359.12 369.92 380.88 392.00 403.28 414.72 426.32 438.08 450.00 462.08 474.32 486.72 499.28 512.00 524.88 537.92 551.12 564.48 578.00 591.68 605.52 619.52 633.68 648.00 662.48 677.12 691.92 706.88 722.00 737.28 752.72 768.32 784.08 800.00
0.08 0.32 0.72 1.28 2.00 2.88 3.92 5.12 6.48 8.00 9.68 11.52 13.52 15.68 18.00 20.48 23.12 25.92 28.88 32.00 35.28 38.72 42.32 46.08 50.00 54.08 58.32 62.72 67.28 72.00 76.88 81.92 87.12 92.48 98.00 103.68 109.52 115.52 121.68 128.00 134.48 141.12 147.92 154.88 162.00 169.28 176.72 184.32 192.08 200.00 208.08 216.32 224.72 233.28 242.00 250.88 259.92 269.12 278.48 288.00 297.68 307.52 317.52 327.68 338.00 348.48 359.12 369.92 380.88 392.00 403.28 414.72 426.32 438.08 450.00 462.08 474.32 486.72 499.28 512.00 524.88 537.92 551.12 564.48 578.00 591.68 605.52 619.52 633.68 648.00 662.48 677.12 691.92 706.88 722.00 737.28 752.72 768.32 784.08 800.00
0.08 0.32 0.72 1.28 2.00 2.88 3.92 5.12 6.48 8.00 9.68 11.52 13.52 15.68 18.00 20.48 23.12 25.92 28.88 32.00 35.28 38.72 42.32 46.08 50.00 54.08 58.32 62.72 67.28 72.00 76.88 81.92 87.12 92.48 98.00 103.68 109.52 115.52 121.68 128.00 134.48 141.12 147.92 154.88 162.00 169.28 176.72 184.32 192.08 200.00 208.08 216.32 224.72 233.28 242.00 250.88 259.92 269.12 278.48 288.00 297.68 307.52 317.52 327.68 338.00 348.48 359.12 369.92 380.88 392.00 403.28 414.72 426.32 438.08 450.00 462.08 474.32 486.72 499.28 512.00 524.88 537.92 551.12 564.48 578.00 591.68 605.52 619.52 633.68 648.00 662.48 677.12 691.92 706.88 722.00 737.28 752.72 768.32 784.08 800.00
0.08 0.32 0.72 1.28 2.00 2.88 3.92 5.12 6.48 8.00 9.68 11.52 13.52 15.68 18.00 20.48 23.12 25.92 28.88 32.00 35.28 38.72 42.32 46.08 50.00 54.08 58.32 62.72 67.28 72.00 76.88 81.92 87.12 92.48 98.00 103.68 109.52 115.52 121.68 128.00 134.48 141.12 147.92 154.88 162.00 169.28 176.72 184.32 192.08 200.00 208.08 216.32 224.72 233.28 242.00 250.88 259.92 269.12 278.48 288.00 297.68 307.52 317.52 327.68 338.00 348.48 359.12 369.92 380.88 392.00 403.28 414.72 426.32 438.08 450.00 462.08 474.32 486.72 499.28 512.00 524.88 537.92 551.12 564.48 578.00 591.68 605.52 619.52 633.68 648.00 662.48 677.12 691.92 706.88 722.00 737.28 752.72 768.32 784.08 800.00
