ncols         100
nrows         50
xllcorner     0.0
yllcorner     0.0
cellsize      2.0
NODATA_value  -9999
0.000 0.000 0.000 0.000 0.001 0.001 0.001 0.001 0.001 0.001 0.001 0.001 0.001 0.001 0.001 0.001 0.001 0.001 0.001 0.001 0.001 0.001 0.001 0.001 0.001 0.001 0.001 0.001 0.001 0.001 0.001 0.001 0.001 0.001 0.001 0.001 0.002 0.002 0.002 0.002 0.002 0.002 0.003 0.003 0.003 0.003 0.004 0.004 0.004 0.004 0.005 0.005 0.005 0.006 0.006 0.006 0.006 0.007 0.007 0.007 0.007 0.007 0.007 0.008 0.008 0.008 0.008 0.008 0.008 0.008 0.008 0.008 0.008 0.008 0.008 0.007 0.007 0.007 0.007 0.007 0.007 0.006 0.006 0.006 0.006 0.005 0.005 0.005 0.004 0.004 0.004 0.004 0.003 0.003 0.003 0.003 0.002 0.002 0.002 0.002
0.000 0.000 0.000 0.001 0.001 0.001 0.001 0.001 0.001 0.002 0.002 0.002 0.002 0.002 0.002 0.002 0.002 0.002 0.002 0.003 0.003 0.003 0.003 0.003 0.003 0.003 0.003 0.003 0.004 0.004 0.004 0.004 0.004 0.004 0.005 0.005 0.005 0.005 0.006 0.006 0.006 0.007 0.007 0.008 0.008 0.009 0.009 0.010 0.010 0.011 0.011 0.012 0.012 0.013 0.014 0.014 0.015 0.015 0.016 0.016 0.017 0.017 0.017 0.018 0.018 0.018 0.019 0.019 0.019 0.019 0.019 0.019 0.019 0.019 0.019 0.018 0.018 0.018 0.017 0.017 0.017 0.016 0.016 0.015 0.015 0.014 0.014 0.013 0.012 0.012 0.011 0.011 0.010 0.010 0.009 0.009 0.008 0.008 0.007 0.007
0.000 0.000 0.001 0.001 0.001 0.001 0.002 0.002 0.002 0.002 0.003 0.003 0.003 0.003 0.004 0.004 0.004 0.004 0.005 0.005 0.005 0.005 0.006 0.006 0.006 0.007 0.007 0.007 0.008 0.008 0.008 0.009 0.009 0.010 0.010 0.011 0.011 0.012 0.013 0.013 0.014 0.015 0.016 0.017 0.017 0.018 0.019 0.020 0.021 0.022 0.023 0.024 0.025 0.026 0.027 0.028 0.029 0.030 0.031 0.032 0.033 0.034 0.035 0.036 0.037 0.037 0.038 0.039 0.039 0.040 0.040 0.041 0.041 0.041 0.041 0.041 0.041 0.041 0.040 0.040 0.039 0.039 0.038 0.037 0.037 0.036 0.035 0.034 0.033 0.032 0.031 0.030 0.029 0.028 0.027 0.026 0.025 0.024 0.023 0.022
0.000 0.001 0.001 0.001 0.002 0.002 0.002 0.003 0.003 0.004 0.004 0.005 0.005 0.006 0.006 0.007 0.007 0.008 0.008 0.009 0.009 0.010 0.010 0.011 0.012 0.012 0.013 0.014 0.014 0.015 0.016 0.017 0.018 0.019 0.020 0.021 0.022 0.023 0.024 0.025 0.027 0.028 0.029 0.031 0.032 0.034 0.035 0.037 0.038 0.040 0.042 0.043 0.045 0.047 0.049 0.051 0.053 0.055 0.057 0.059 0.061 0.063 0.065 0.067 0.069 0.070 0.072 0.074 0.075 0.077 0.078 0.079 0.081 0.082 0.083 0.083 0.084 0.085 0.085 0.085 0.086 0.086 0.086 0.085 0.085 0.085 0.084 0.083 0.083 0.082 0.081 0.079 0.078 0.077 0.075 0.074 0.072 0.070 0.069 0.067
0.001 0.001 0.001 0.002 0.002 0.003 0.004 0.004 0.005 0.006 0.006 0.007 0.008 0.009 0.010 0.010 0.011 0.012 0.013 0.014 0.015 0.016 0.017 0.018 0.020 0.021 0.022 0.023 0.025 0.026 0.028 0.029 0.031 0.032 0.034 0.036 0.038 0.040 0.042 0.044 0.046 0.048 0.051 0.053 0.055 0.058 0.060 0.063 0.066 0.068 0.071 0.074 0.077 0.080 0.083 0.087 0.090 0.093 0.097 0.100 0.104 0.107 0.111 0.114 0.118 0.121 0.124 0.128 0.131 0.134 0.137 0.140 0.143 0.146 0.148 0.150 0.152 0.154 0.156 0.158 0.159 0.160 0.161 0.162 0.162 0.163 0.162 0.162 0.161 0.160 0.159 0.158 0.156 0.154 0.152 0.150 0.148 0.146 0.143 0.140
0.001 0.001 0.002 0.002 0.003 0.004 0.005 0.006 0.007 0.008 0.009 0.010 0.011 0.013 0.014 0.015 0.017 0.018 0.020 0.021 0.023 0.024 0.026 0.028 0.030 0.032 0.034 0.036 0.038 0.041 0.043 0.045 0.048 0.050 0.053 0.056 0.059 0.062 0.065 0.068 0.071 0.075 0.078 0.082 0.085 0.089 0.093 0.097 0.101 0.105 0.109 0.113 0.118 0.122 0.127 0.132 0.136 0.141 0.146 0.151 0.156 0.161 0.166 0.171 0.177 0.182 0.187 0.192 0.197 0.202 0.207 0.212 0.217 0.221 0.226 0.230 0.234 0.238 0.242 0.245 0.248 0.251 0.254 0.257 0.259 0.261 0.262 0.263 0.264 0.265 0.265 0.265 0.264 0.263 0.262 0.261 0.259 0.257 0.254 0.251
0.001 0.001 0.002 0.003 0.004 0.005 0.006 0.008 0.009 0.011 0.012 0.014 0.016 0.018 0.020 0.022 0.024 0.026 0.028 0.031 0.033 0.036 0.038 0.041 0.044 0.047 0.050 0.053 0.056 0.059 0.063 0.066 0.070 0.074 0.078 0.082 0.086 0.090 0.095 0.099 0.104 0.109 0.114 0.119 0.124 0.130 0.135 0.141 0.147 0.153 0.159 0.165 0.171 0.178 0.184 0.191 0.198 0.205 0.212 0.219 0.227 0.234 0.242 0.249 0.257 0.265 0.273 0.280 0.288 0.296 0.304 0.312 0.319 0.327 0.334 0.342 0.349 0.356 0.363 0.369 0.376 0.382 0.388 0.393 0.398 0.403 0.408 0.412 0.416 0.419 0.422 0.424 0.426 0.428 0.429 0.430 0.430 0.430 0.428 0.426
0.001 0.002 0.003 0.004 0.005 0.007 0.008 0.010 0.012 0.014 0.017 0.019 0.022 0.025 0.027 0.030 0.034 0.037 0.040 0.044 0.047 0.051 0.055 0.059 0.063 0.067 0.072 0.076 0.081 0.086 0.091 0.096 0.102 0.107 0.113 0.119 0.125 0.131 0.138 0.144 0.151 0.158 0.166 0.173 0.181 0.189 0.197 0.205 0.213 0.222 0.230 0.239 0.248 0.257 0.267 0.276 0.286 0.296 0.306 0.316 0.326 0.337 0.347 0.358 0.368 0.379 0.390 0.401 0.412 0.423 0.434 0.445 0.456 0.467 0.478 0.488 0.498 0.509 0.519 0.529 0.538 0.547 0.556 0.565 0.573 0.581 0.588 0.595 0.602 0.608 0.613 0.618 0.623 0.627 0.630 0.633 0.636 0.638 0.639 0.639
0.001 0.002 0.003 0.005 0.006 0.008 0.011 0.013 0.016 0.019 0.022 0.025 0.029 0.033 0.037 0.041 0.045 0.050 0.055 0.060 0.065 0.070 0.076 0.082 0.088 0.094 0.101 0.107 0.114 0.122 0.129 0.137 0.145 0.153 0.162 0.170 0.179 0.189 0.198 0.208 0.218 0.228 0.239 0.250 0.261 0.272 0.284 0.296 0.308 0.320 0.333 0.346 0.359 0.372 0.386 0.400 0.414 0.428 0.443 0.458 0.473 0.488 0.503 0.519 0.535 0.551 0.567 0.583 0.599 0.615 0.632 0.648 0.665 0.681 0.698 0.714 0.730 0.747 0.763 0.779 0.794 0.810 0.825 0.840 0.854 0.868 0.882 0.895 0.908 0.920 0.932 0.943 0.953 0.963 0.972 0.980 0.988 0.995 1.001 1.006
0.001 0.002 0.004 0.006 0.008 0.011 0.013 0.017 0.020 0.024 0.028 0.033 0.038 0.043 0.048 0.054 0.060 0.066 0.073 0.080 0.087 0.095 0.103 0.111 0.120 0.128 0.138 0.147 0.157 0.167 0.178 0.189 0.200 0.212 0.224 0.236 0.249 0.262 0.275 0.289 0.303 0.318 0.333 0.348 0.363 0.379 0.396 0.412 0.429 0.446 0.464 0.482 0.500 0.519 0.538 0.557 0.576 0.596 0.616 0.636 0.657 0.678 0.699 0.720 0.742 0.764 0.786 0.808 0.830 0.853 0.875 0.898 0.921 0.944 0.967 0.990 1.013 1.036 1.059 1.082 1.105 1.127 1.150 1.172 1.194 1.216 1.237 1.258 1.279 1.299 1.318 1.337 1.356 1.374 1.391 1.407 1.423 1.438 1.452 1.465
0.001 0.003 0.004 0.007 0.009 0.013 0.016 0.020 0.025 0.030 0.036 0.042 0.048 0.055 0.062 0.070 0.078 0.087 0.096 0.105 0.115 0.125 0.136 0.147 0.159 0.171 0.183 0.196 0.210 0.224 0.238 0.253 0.269 0.285 0.301 0.318 0.335 0.353 0.371 0.390 0.409 0.429 0.449 0.470 0.491 0.512 0.534 0.556 0.579 0.602 0.626 0.650 0.674 0.699 0.724 0.750 0.776 0.802 0.829 0.856 0.883 0.911 0.939 0.967 0.996 1.025 1.054 1.083 1.113 1.143 1.173 1.203 1.233 1.264 1.294 1.325 1.356 1.386 1.417 1.448 1.479 1.509 1.540 1.570 1.600 1.630 1.660 1.689 1.718 1.746 1.774 1.801 1.828 1.855 1.880 1.905 1.930 1.953 1.976 1.998
0.002 0.003 0.005 0.008 0.011 0.015 0.019 0.024 0.030 0.036 0.043 0.050 0.058 0.067 0.076 0.086 0.096 0.107 0.119 0.131 0.144 0.157 0.171 0.186 0.201 0.217 0.233 0.250 0.268 0.286 0.305 0.324 0.344 0.365 0.386 0.408 0.430 0.453 0.476 0.500 0.525 0.550 0.576 0.602 0.629 0.656 0.684 0.713 0.742 0.772 0.802 0.832 0.863 0.895 0.927 0.960 0.993 1.026 1.060 1.094 1.129 1.164 1.200 1.236 1.272 1.308 1.345 1.382 1.420 1.457 1.495 1.533 1.572 1.610 1.649 1.688 1.727 1.766 1.805 1.844 1.883 1.922 1.961 2.000 2.038 2.077 2.115 2.153 2.191 2.228 2.265 2.302 2.338 2.374 2.409 2.444 2.478 2.511 2.544 2.576
0.002 0.003 0.006 0.009 0.013 0.017 0.023 0.029 0.036 0.043 0.052 0.061 0.071 0.081 0.093 0.105 0.118 0.131 0.146 0.161 0.177 0.194 0.212 0.230 0.249 0.269 0.290 0.311 0.333 0.356 0.380 0.404 0.430 0.456 0.483 0.510 0.538 0.567 0.597 0.627 0.658 0.690 0.722 0.755 0.789 0.823 0.858 0.894 0.930 0.967 1.005 1.043 1.082 1.121 1.161 1.202 1.243 1.284 1.326 1.369 1.412 1.456 1.500 1.544 1.589 1.634 1.680 1.726 1.773 1.820 1.867 1.914 1.962 2.010 2.058 2.107 2.155 2.204 2.253 2.302 2.351 2.400 2.449 2.498 2.547 2.596 2.644 2.693 2.741 2.789 2.836 2.884 2.931 2.977 3.023 3.069 3.114 3.158 3.202 3.245
0.002 0.004 0.007 0.010 0.015 0.020 0.026 0.033 0.041 0.050 0.060 0.071 0.083 0.096 0.110 0.125 0.141 0.158 0.175 0.194 0.213 0.234 0.255 0.277 0.300 0.324 0.349 0.375 0.402 0.430 0.458 0.488 0.518 0.549 0.581 0.614 0.648 0.682 0.718 0.754 0.791 0.829 0.868 0.908 0.948 0.989 1.031 1.074 1.118 1.162 1.207 1.253 1.300 1.347 1.395 1.444 1.493 1.543 1.594 1.645 1.697 1.749 1.802 1.856 1.910 1.964 2.019 2.075 2.131 2.187 2.244 2.301 2.359 2.417 2.475 2.533 2.592 2.651 2.710 2.769 2.829 2.888 2.948 3.007 3.067 3.127 3.186 3.246 3.305 3.365 3.424 3.483 3.542 3.600 3.658 3.715 3.772 3.829 3.885 3.940
0.002 0.005 0.008 0.012 0.017 0.023 0.030 0.038 0.047 0.058 0.069 0.082 0.096 0.111 0.127 0.145 0.163 0.183 0.204 0.226 0.249 0.273 0.299 0.325 0.353 0.382 0.411 0.442 0.474 0.507 0.541 0.576 0.612 0.649 0.687 0.726 0.766 0.807 0.849 0.892 0.936 0.981 1.027 1.074 1.122 1.170 1.220 1.270 1.322 1.374 1.427 1.481 1.536 1.591 1.648 1.705 1.763 1.822 1.881 1.941 2.002 2.063 2.125 2.188 2.251 2.315 2.379 2.444 2.510 2.576 2.642 2.709 2.776 2.844 2.912 2.980 3.049 3.118 3.187 3.257 3.327 3.397 3.467 3.537 3.608 3.678 3.749 3.819 3.890 3.961 4.031 4.102 4.172 4.242 4.312 4.381 4.450 4.519 4.587 4.655
0.003 0.005 0.009 0.013 0.019 0.026 0.034 0.043 0.054 0.066 0.079 0.093 0.109 0.126 0.144 0.164 0.185 0.207 0.231 0.256 0.282 0.310 0.339 0.369 0.401 0.434 0.468 0.503 0.540 0.578 0.617 0.657 0.699 0.742 0.786 0.831 0.877 0.925 0.974 1.024 1.075 1.127 1.180 1.235 1.290 1.347 1.405 1.463 1.523 1.584 1.646 1.709 1.772 1.837 1.902 1.969 2.036 2.104 2.173 2.242 2.313 2.384 2.455 2.528 2.601 2.675 2.749 2.824 2.900 2.976 3.052 3.129 3.207 3.285 3.363 3.442 3.521 3.601 3.681 3.761 3.842 3.923 4.004 4.085 4.167 4.248 4.330 4.412 4.494 4.576 4.658 4.740 4.822 4.904 4.985 5.067 5.148 5.229 5.310 5.390
0.003 0.006 0.010 0.015 0.021 0.029 0.038 0.048 0.060 0.073 0.088 0.104 0.121 0.140 0.161 0.183 0.206 0.231 0.258 0.286 0.315 0.346 0.379 0.413 0.449 0.486 0.524 0.564 0.606 0.649 0.693 0.739 0.787 0.835 0.886 0.937 0.990 1.044 1.100 1.157 1.215 1.274 1.335 1.397 1.460 1.525 1.590 1.657 1.725 1.794 1.864 1.935 2.008 2.081 2.155 2.231 2.307 2.384 2.462 2.541 2.621 2.702 2.783 2.866 2.949 3.033 3.117 3.202 3.288 3.374 3.461 3.549 3.637 3.725 3.814 3.904 3.994 4.084 4.175 4.266 4.357 4.449 4.541 4.633 4.725 4.818 4.911 5.004 5.097 5.190 5.283 5.376 5.469 5.562 5.655 5.747 5.840 5.932 6.024 6.116
0.003 0.006 0.011 0.017 0.024 0.032 0.042 0.053 0.066 0.081 0.097 0.115 0.135 0.156 0.179 0.203 0.230 0.258 0.288 0.319 0.352 0.387 0.424 0.462 0.502 0.544 0.587 0.632 0.679 0.728 0.778 0.830 0.884 0.939 0.996 1.055 1.115 1.177 1.240 1.305 1.371 1.439 1.509 1.579 1.652 1.725 1.800 1.877 1.954 2.033 2.113 2.194 2.277 2.360 2.445 2.531 2.618 2.706 2.795 2.885 2.976 3.068 3.161 3.254 3.349 3.444 3.540 3.637 3.734 3.832 3.931 4.030 4.130 4.230 4.331 4.432 4.534 4.636 4.738 4.841 4.944 5.047 5.151 5.255 5.359 5.463 5.567 5.671 5.776 5.880 5.985 6.089 6.194 6.298 6.402 6.506 6.610 6.713 6.816 6.919
0.004 0.007 0.012 0.018 0.026 0.035 0.046 0.059 0.073 0.089 0.107 0.127 0.148 0.172 0.197 0.224 0.253 0.284 0.317 0.352 0.389 0.427 0.468 0.510 0.555 0.601 0.649 0.699 0.751 0.805 0.861 0.919 0.978 1.040 1.104 1.169 1.236 1.305 1.376 1.449 1.523 1.599 1.677 1.756 1.837 1.920 2.004 2.090 2.177 2.266 2.356 2.448 2.541 2.635 2.731 2.828 2.926 3.025 3.126 3.228 3.330 3.434 3.539 3.645 3.752 3.859 3.968 4.077 4.187 4.298 4.409 4.521 4.634 4.747 4.861 4.975 5.089 5.204 5.319 5.435 5.551 5.667 5.783 5.900 6.016 6.133 6.250 6.367 6.484 6.601 6.717 6.834 6.950 7.066 7.182 7.298 7.413 7.528 7.643 7.757
0.004 0.008 0.013 0.020 0.029 0.039 0.051 0.064 0.080 0.097 0.117 0.138 0.162 0.188 0.216 0.246 0.278 0.312 0.348 0.387 0.427 0.470 0.515 0.562 0.611 0.663 0.716 0.772 0.830 0.890 0.952 1.016 1.083 1.151 1.222 1.294 1.369 1.446 1.525 1.606 1.689 1.774 1.861 1.950 2.041 2.133 2.228 2.324 2.422 2.522 2.623 2.726 2.831 2.937 3.045 3.154 3.265 3.377 3.491 3.606 3.722 3.839 3.957 4.077 4.197 4.319 4.441 4.565 4.689 4.814 4.940 5.066 5.193 5.321 5.449 5.578 5.707 5.836 5.966 6.096 6.226 6.357 6.487 6.618 6.749 6.879 7.010 7.140 7.271 7.401 7.531 7.661 7.790 7.919 8.048 8.176 8.304 8.431 8.558 8.684
0.004 0.009 0.015 0.022 0.032 0.043 0.056 0.071 0.088 0.107 0.129 0.152 0.178 0.206 0.237 0.269 0.305 0.342 0.382 0.425 0.470 0.517 0.567 0.619 0.674 0.731 0.791 0.853 0.917 0.984 1.053 1.125 1.199 1.275 1.354 1.435 1.518 1.604 1.692 1.782 1.875 1.969 2.066 2.165 2.267 2.370 2.475 2.583 2.692 2.804 2.917 3.033 3.150 3.269 3.389 3.512 3.636 3.762 3.889 4.018 4.148 4.280 4.413 4.547 4.683 4.819 4.957 5.096 5.236 5.377 5.519 5.661 5.805 5.949 6.094 6.239 6.385 6.531 6.678 6.825 6.973 7.120 7.268 7.416 7.564 7.712 7.860 8.007 8.155 8.302 8.449 8.596 8.742 8.888 9.033 9.178 9.323 9.466 9.609 9.752
0.005 0.010 0.016 0.025 0.035 0.047 0.061 0.077 0.096 0.117 0.140 0.166 0.194 0.225 0.258 0.294 0.333 0.374 0.418 0.464 0.513 0.565 0.619 0.676 0.736 0.799 0.864 0.932 1.003 1.076 1.152 1.231 1.312 1.396 1.483 1.572 1.664 1.758 1.855 1.955 2.057 2.161 2.268 2.378 2.490 2.604 2.721 2.840 2.961 3.084 3.210 3.338 3.467 3.599 3.733 3.869 4.007 4.147 4.288 4.432 4.577 4.723 4.872 5.021 5.173 5.325 5.479 5.634 5.791 5.948 6.107 6.266 6.427 6.588 6.750 6.913 7.077 7.241 7.405 7.570 7.735 7.900 8.066 8.232 8.397 8.563 8.729 8.894 9.060 9.225 9.390 9.554 9.718 9.882 10.045 10.208 10.370 10.531 10.691 10.851
0.005 0.011 0.018 0.027 0.038 0.051 0.067 0.084 0.105 0.128 0.153 0.182 0.213 0.247 0.283 0.322 0.364 0.409 0.457 0.508 0.561 0.618 0.677 0.739 0.805 0.873 0.945 1.019 1.096 1.177 1.260 1.346 1.435 1.527 1.622 1.720 1.821 1.924 2.031 2.140 2.253 2.368 2.486 2.606 2.730 2.856 2.984 3.115 3.249 3.385 3.524 3.665 3.808 3.954 4.102 4.252 4.404 4.559 4.715 4.873 5.034 5.196 5.360 5.526 5.693 5.863 6.034 6.206 6.380 6.555 6.732 6.909 7.088 7.268 7.449 7.630 7.813 7.996 8.180 8.364 8.549 8.734 8.919 9.105 9.290 9.476 9.661 9.847 10.032 10.217 10.402 10.586 10.770 10.953 11.136 11.318 11.500 11.680 11.860 12.039
0.006 0.012 0.020 0.030 0.042 0.056 0.073 0.092 0.114 0.139 0.167 0.197 0.231 0.268 0.308 0.351 0.397 0.446 0.498 0.553 0.612 0.673 0.738 0.806 0.877 0.951 1.029 1.110 1.194 1.281 1.372 1.466 1.563 1.663 1.767 1.873 1.983 2.096 2.212 2.331 2.454 2.579 2.708 2.839 2.974 3.111 3.251 3.394 3.540 3.688 3.840 3.994 4.150 4.310 4.471 4.636 4.802 4.972 5.143 5.317 5.493 5.671 5.851 6.033 6.217 6.403 6.591 6.780 6.971 7.164 7.359 7.554 7.751 7.950 8.149 8.350 8.552 8.754 8.958 9.162 9.367 9.572 9.778 9.984 10.190 10.397 10.603 10.809 11.015 11.221 11.427 11.632 11.836 12.040 12.244 12.446 12.648 12.849 13.049 13.248
0.006 0.013 0.022 0.033 0.046 0.062 0.080 0.101 0.125 0.152 0.182 0.215 0.252 0.292 0.335 0.382 0.432 0.485 0.542 0.602 0.666 0.733 0.803 0.877 0.954 1.035 1.119 1.207 1.298 1.393 1.491 1.593 1.699 1.807 1.920 2.036 2.155 2.278 2.404 2.533 2.666 2.802 2.942 3.084 3.230 3.379 3.531 3.686 3.844 4.005 4.169 4.336 4.506 4.678 4.853 5.031 5.212 5.395 5.580 5.768 5.959 6.151 6.346 6.543 6.743 6.944 7.147 7.352 7.559 7.768 7.978 8.190 8.403 8.618 8.834 9.051 9.269 9.488 9.709 9.930 10.151 10.374 10.597 10.820 11.044 11.268 11.492 11.716 11.940 12.164 12.388 12.611 12.834 13.056 13.278 13.499 13.719 13.939 14.157 14.374
0.007 0.015 0.024 0.036 0.050 0.068 0.088 0.111 0.137 0.166 0.199 0.235 0.275 0.318 0.365 0.415 0.469 0.527 0.588 0.653 0.722 0.794 0.870 0.950 1.034 1.121 1.213 1.308 1.407 1.510 1.616 1.727 1.841 1.959 2.081 2.206 2.335 2.468 2.604 2.744 2.887 3.034 3.184 3.338 3.495 3.655 3.819 3.986 4.156 4.329 4.505 4.684 4.866 5.051 5.239 5.429 5.623 5.819 6.017 6.218 6.422 6.628 6.836 7.047 7.260 7.475 7.692 7.912 8.133 8.356 8.581 8.807 9.036 9.265 9.497 9.729 9.963 10.198 10.434 10.672 10.910 11.149 11.388 11.629 11.870 12.111 12.353 12.595 12.837 13.079 13.321 13.563 13.804 14.045 14.286 14.526 14.765 15.003 15.240 15.476
0.007 0.016 0.027 0.040 0.056 0.074 0.096 0.121 0.150 0.182 0.217 0.257 0.300 0.347 0.398 0.453 0.512 0.574 0.641 0.711 0.785 0.864 0.946 1.032 1.123 1.217 1.316 1.419 1.525 1.636 1.751 1.870 1.993 2.120 2.251 2.386 2.525 2.668 2.815 2.965 3.119 3.277 3.438 3.603 3.771 3.943 4.118 4.297 4.478 4.663 4.851 5.042 5.236 5.433 5.633 5.835 6.041 6.249 6.460 6.674 6.890 7.109 7.330 7.553 7.779 8.007 8.237 8.469 8.703 8.939 9.177 9.417 9.658 9.901 10.146 10.392 10.639 10.888 11.138 11.389 11.641 11.894 12.148 12.402 12.657 12.913 13.169 13.426 13.683 13.940 14.197 14.454 14.711 14.967 15.223 15.479 15.734 15.988 16.241 16.493
0.008 0.017 0.029 0.043 0.061 0.082 0.106 0.133 0.164 0.199 0.238 0.280 0.327 0.378 0.433 0.492 0.556 0.623 0.695 0.771 0.851 0.936 1.025 1.118 1.216 1.318 1.424 1.535 1.650 1.769 1.893 2.020 2.153 2.289 2.429 2.574 2.722 2.875 3.031 3.192 3.356 3.524 3.696 3.872 4.051 4.234 4.420 4.610 4.803 5.000 5.199 5.402 5.608 5.817 6.029 6.244 6.462 6.682 6.906 7.132 7.361 7.592 7.826 8.062 8.301 8.542 8.785 9.030 9.277 9.526 9.777 10.030 10.284 10.540 10.798 11.057 11.318 11.580 11.843 12.107 12.373 12.639 12.906 13.174 13.443 13.712 13.982 14.252 14.523 14.794 15.065 15.336 15.607 15.878 16.148 16.419 16.688 16.957 17.225 17.492
0.009 0.019 0.032 0.047 0.066 0.089 0.115 0.145 0.179 0.217 0.259 0.305 0.356 0.411 0.471 0.535 0.603 0.676 0.753 0.835 0.921 1.012 1.108 1.208 1.312 1.422 1.536 1.654 1.777 1.905 2.037 2.174 2.315 2.461 2.611 2.765 2.924 3.086 3.253 3.424 3.599 3.777 3.960 4.146 4.336 4.530 4.727 4.928 5.132 5.340 5.551 5.765 5.983 6.204 6.428 6.655 6.885 7.118 7.353 7.592 7.833 8.077 8.323 8.572 8.823 9.076 9.332 9.590 9.849 10.111 10.375 10.641 10.908 11.177 11.448 11.720 11.993 12.268 12.544 12.821 13.099 13.378 13.658 13.939 14.221 14.503 14.786 15.069 15.353 15.637 15.921 16.206 16.490 16.774 17.058 17.342 17.625 17.908 18.190 18.471
0.010 0.021 0.035 0.052 0.073 0.097 0.126 0.158 0.195 0.236 0.282 0.332 0.387 0.447 0.511 0.580 0.654 0.732 0.815 0.902 0.995 1.092 1.194 1.301 1.413 1.530 1.652 1.778 1.910 2.046 2.187 2.333 2.483 2.638 2.798 2.962 3.130 3.303 3.480 3.662 3.847 4.036 4.230 4.427 4.628 4.833 5.041 5.253 5.469 5.688 5.911 6.136 6.366 6.598 6.834 7.072 7.314 7.559 7.806 8.056 8.309 8.565 8.823 9.084 9.347 9.612 9.880 10.150 10.422 10.696 10.972 11.250 11.529 11.810 12.093 12.377 12.662 12.949 13.237 13.526 13.816 14.107 14.399 14.692 14.985 15.279 15.574 15.869 16.164 16.460 16.756 17.052 17.348 17.644 17.940 18.235 18.530 18.825 19.119 19.412
0.011 0.023 0.039 0.058 0.081 0.107 0.138 0.173 0.213 0.257 0.307 0.361 0.421 0.485 0.555 0.629 0.708 0.793 0.882 0.976 1.076 1.180 1.289 1.404 1.523 1.648 1.777 1.912 2.052 2.197 2.347 2.501 2.661 2.826 2.995 3.169 3.347 3.530 3.717 3.909 4.105 4.305 4.509 4.717 4.929 5.145 5.364 5.588 5.815 6.045 6.279 6.517 6.757 7.001 7.249 7.499 7.753 8.009 8.269 8.531 8.796 9.064 9.334 9.607 9.883 10.160 10.441 10.723 11.007 11.294 11.582 11.872 12.164 12.458 12.753 13.050 13.348 13.647 13.948 14.249 14.552 14.856 15.160 15.466 15.772 16.078 16.386 16.693 17.001 17.310 17.618 17.927 18.236 18.544 18.853 19.161 19.468 19.775 20.082 20.387
0.012 0.026 0.043 0.064 0.089 0.118 0.152 0.190 0.233 0.281 0.334 0.393 0.457 0.526 0.601 0.681 0.767 0.857 0.953 1.054 1.161 1.272 1.389 1.511 1.638 1.771 1.908 2.051 2.199 2.352 2.511 2.674 2.842 3.016 3.194 3.377 3.565 3.757 3.954 4.155 4.361 4.571 4.786 5.004 5.227 5.453 5.684 5.918 6.156 6.397 6.642 6.891 7.143 7.398 7.656 7.918 8.183 8.450 8.721 8.994 9.271 9.550 9.831 10.115 10.402 10.691 10.982 11.276 11.571 11.869 12.169 12.471 12.774 13.079 13.386 13.695 14.005 14.317 14.629 14.943 15.258 15.574 15.891 16.209 16.527 16.846 17.166 17.486 17.807 18.128 18.449 18.770 19.091 19.413 19.734 20.055 20.376 20.696 21.016 21.335
0.014 0.029 0.048 0.071 0.099 0.131 0.168 0.210 0.257 0.309 0.366 0.429 0.498 0.572 0.652 0.738 0.829 0.926 1.028 1.136 1.250 1.369 1.493 1.623 1.759 1.900 2.046 2.198 2.355 2.517 2.685 2.858 3.035 3.218 3.406 3.599 3.796 3.998 4.205 4.416 4.632 4.852 5.076 5.305 5.537 5.774 6.015 6.260 6.508 6.760 7.015 7.275 7.537 7.803 8.072 8.345 8.621 8.900 9.181 9.466 9.753 10.043 10.336 10.631 10.929 11.229 11.532 11.837 12.144 12.453 12.764 13.077 13.392 13.708 14.027 14.347 14.668 14.991 15.315 15.641 15.968 16.296 16.625 16.955 17.286 17.617 17.950 18.283 18.616 18.950 19.285 19.620 19.955 20.290 20.625 20.960 21.295 21.629 21.963 22.297
0.016 0.032 0.054 0.080 0.111 0.147 0.188 0.234 0.286 0.343 0.406 0.474 0.548 0.628 0.714 0.806 0.903 1.006 1.115 1.230 1.351 1.478 1.610 1.748 1.892 2.042 2.197 2.357 2.523 2.695 2.872 3.054 3.241 3.434 3.631 3.834 4.041 4.253 4.470 4.691 4.917 5.147 5.382 5.621 5.864 6.111 6.362 6.617 6.876 7.138 7.404 7.673 7.946 8.222 8.502 8.785 9.071 9.360 9.652 9.947 10.245 10.545 10.849 11.154 11.463 11.774 12.087 12.403 12.721 13.041 13.363 13.687 14.013 14.340 14.670 15.001 15.333 15.667 16.003 16.340 16.678 17.017 17.358 17.699 18.042 18.385 18.729 19.074 19.420 19.766 20.112 20.459 20.806 21.154 21.501 21.848 22.196 22.543 22.890 23.236
0.017 0.037 0.061 0.090 0.125 0.165 0.211 0.262 0.319 0.382 0.451 0.525 0.606 0.693 0.785 0.884 0.989 1.099 1.216 1.338 1.467 1.601 1.741 1.888 2.040 2.198 2.362 2.532 2.707 2.888 3.074 3.266 3.464 3.666 3.873 4.086 4.303 4.525 4.752 4.983 5.219 5.459 5.703 5.952 6.205 6.462 6.723 6.988 7.256 7.528 7.803 8.082 8.365 8.650 8.939 9.231 9.526 9.824 10.125 10.429 10.736 11.046 11.358 11.673 11.990 12.310 12.632 12.957 13.284 13.613 13.944 14.277 14.612 14.949 15.288 15.628 15.970 16.314 16.659 17.005 17.353 17.702 18.052 18.403 18.756 19.109 19.463 19.818 20.174 20.530 20.887 21.244 21.602 21.960 22.318 22.676 23.034 23.392 23.750 24.107
0.019 0.041 0.069 0.102 0.141 0.186 0.237 0.294 0.357 0.426 0.502 0.583 0.671 0.765 0.866 0.973 1.086 1.205 1.330 1.461 1.599 1.742 1.891 2.047 2.208 2.375 2.548 2.727 2.912 3.102 3.298 3.499 3.706 3.918 4.135 4.357 4.585 4.817 5.053 5.295 5.541 5.791 6.046 6.305 6.568 6.835 7.106 7.381 7.659 7.941 8.226 8.515 8.808 9.103 9.402 9.704 10.009 10.317 10.627 10.941 11.257 11.576 11.898 12.221 12.548 12.876 13.207 13.540 13.875 14.212 14.551 14.892 15.235 15.580 15.926 16.274 16.624 16.975 17.327 17.681 18.036 18.392 18.749 19.108 19.467 19.827 20.188 20.550 20.912 21.275 21.638 22.002 22.366 22.730 23.095 23.459 23.824 24.188 24.552 24.916
0.022 0.046 0.077 0.114 0.158 0.209 0.266 0.329 0.399 0.476 0.559 0.648 0.744 0.847 0.956 1.072 1.194 1.323 1.457 1.598 1.745 1.898 2.057 2.222 2.393 2.570 2.753 2.942 3.136 3.336 3.541 3.752 3.968 4.189 4.416 4.647 4.884 5.125 5.372 5.623 5.878 6.138 6.402 6.671 6.943 7.220 7.500 7.785 8.072 8.364 8.659 8.957 9.259 9.563 9.871 10.182 10.496 10.813 11.132 11.455 11.779 12.107 12.437 12.769 13.104 13.441 13.780 14.121 14.464 14.809 15.156 15.505 15.856 16.208 16.562 16.918 17.275 17.633 17.993 18.354 18.716 19.079 19.443 19.809 20.175 20.542 20.909 21.277 21.646 22.015 22.385 22.755 23.125 23.495 23.865 24.235 24.605 24.975 25.344 25.713
0.024 0.052 0.086 0.127 0.176 0.233 0.297 0.368 0.446 0.531 0.623 0.721 0.827 0.939 1.058 1.183 1.315 1.454 1.598 1.750 1.907 2.071 2.241 2.417 2.599 2.787 2.981 3.180 3.385 3.596 3.812 4.033 4.259 4.491 4.727 4.969 5.215 5.466 5.722 5.982 6.247 6.516 6.789 7.067 7.348 7.633 7.922 8.215 8.511 8.811 9.114 9.421 9.731 10.044 10.360 10.679 11.001 11.326 11.653 11.983 12.316 12.651 12.988 13.328 13.670 14.014 14.360 14.708 15.058 15.410 15.764 16.119 16.476 16.835 17.195 17.557 17.920 18.284 18.650 19.017 19.385 19.754 20.124 20.495 20.866 21.238 21.610 21.983 22.357 22.730 23.104 23.479 23.853 24.227 24.601 24.975 25.349 25.722 26.095 26.468
0.027 0.058 0.096 0.142 0.197 0.260 0.331 0.410 0.497 0.592 0.694 0.804 0.921 1.045 1.176 1.315 1.460 1.612 1.771 1.936 2.108 2.286 2.471 2.662 2.859 3.062 3.271 3.486 3.706 3.932 4.163 4.400 4.641 4.888 5.140 5.397 5.658 5.924 6.195 6.470 6.749 7.032 7.319 7.610 7.904 8.202 8.504 8.809 9.117 9.428 9.742 10.059 10.379 10.701 11.026 11.353 11.683 12.015 12.349 12.685 13.023 13.363 13.705 14.049 14.394 14.741 15.089 15.439 15.790 16.143 16.497 16.852 17.208 17.565 17.924 18.283 18.643 19.004 19.365 19.728 20.091 20.454 20.818 21.183 21.547 21.913 22.278 22.644 23.010 23.376 23.741 24.107 24.473 24.838 25.203 25.567 25.931 26.294 26.657 27.019
0.031 0.065 0.108 0.159 0.220 0.290 0.370 0.458 0.556 0.662 0.777 0.900 1.031 1.171 1.318 1.473 1.636 1.806 1.983 2.167 2.358 2.556 2.761 2.972 3.189 3.413 3.642 3.878 4.119 4.365 4.617 4.874 5.136 5.403 5.674 5.950 6.231 6.515 6.804 7.097 7.393 7.693 7.997 8.304 8.614 8.928 9.244 9.563 9.885 10.209 10.535 10.864 11.195 11.528 11.863 12.199 12.538 12.878 13.219 13.562 13.906 14.251 14.598 14.946 15.295 15.645 15.995 16.347 16.699 17.052 17.406 17.760 18.115 18.471 18.827 19.183 19.540 19.897 20.254 20.611 20.968 21.326 21.683 22.040 22.397 22.754 23.111 23.467 23.823 24.179 24.534 24.889 25.243 25.597 25.950 26.302 26.654 27.005 27.355 27.704
0.035 0.074 0.122 0.180 0.249 0.328 0.418 0.518 0.628 0.748 0.878 1.018 1.167 1.326 1.493 1.670 1.855 2.049 2.251 2.461 2.679 2.905 3.138 3.378 3.625 3.879 4.140 4.407 4.680 4.959 5.244 5.534 5.829 6.129 6.434 6.743 7.057 7.375 7.697 8.023 8.352 8.685 9.021 9.361 9.703 10.048 10.396 10.746 11.098 11.453 11.809 12.167 12.527 12.888 13.251 13.615 13.980 14.346 14.714 15.082 15.451 15.821 16.191 16.562 16.934 17.305 17.678 18.050 18.423 18.796 19.169 19.542 19.915 20.288 20.661 21.033 21.405 21.777 22.148 22.519 22.889 23.259 23.628 23.997 24.364 24.731 25.098 25.463 25.827 26.191 26.554 26.915 27.276 27.636 27.994 28.351 28.707 29.062 29.415 29.767
0.039 0.083 0.138 0.203 0.281 0.371 0.473 0.587 0.713 0.850 0.999 1.160 1.332 1.515 1.709 1.914 2.130 2.356 2.593 2.840 3.097 3.364 3.641 3.927 4.222 4.527 4.841 5.163 5.494 5.833 6.180 6.535 6.897 7.266 7.643 8.025 8.415 8.810 9.211 9.618 10.030 10.447 10.869 11.295 11.726 12.161 12.600 13.042 13.488 13.937 14.389 14.843 15.300 15.759 16.220 16.683 17.148 17.614 18.082 18.551 19.021 19.492 19.964 20.436 20.909 21.382 21.855 22.329 22.802 23.276 23.749 24.222 24.694 25.166 25.637 26.108 26.578 27.047 27.515 27.982 28.448 28.913 29.376 29.839 30.300 30.759 31.217 31.673 32.127 32.580 33.030 33.479 33.926 34.370 34.812 35.252 35.690 36.125 36.557 36.987
0.044 0.093 0.155 0.229 0.317 0.419 0.535 0.664 0.807 0.963 1.133 1.316 1.512 1.721 1.943 2.178 2.425 2.685 2.956 3.240 3.535 3.842 4.160 4.489 4.830 5.181 5.542 5.914 6.296 6.688 7.089 7.500 7.919 8.348 8.785 9.230 9.683 10.143 10.611 11.086 11.568 12.056 12.550 13.050 13.555 14.066 14.582 15.102 15.627 16.156 16.689 17.225 17.765 18.308 18.854 19.402 19.953 20.506 21.061 21.617 22.174 22.733 23.293 23.853 24.414 24.975 25.537 26.098 26.659 27.220 27.780 28.339 28.898 29.456 30.013 30.569 31.123 31.676 32.228 32.778 33.326 33.872 34.416 34.958 35.497 36.034 36.569 37.101 37.630 38.156 38.679 39.199 39.716 40.230 40.740 41.246 41.749 42.248 42.743 43.234
0.049 0.104 0.173 0.256 0.355 0.469 0.599 0.743 0.903 1.077 1.267 1.471 1.690 1.924 2.172 2.434 2.711 3.001 3.305 3.622 3.952 4.295 4.651 5.019 5.399 5.791 6.195 6.610 7.036 7.473 7.921 8.378 8.846 9.323 9.809 10.305 10.809 11.321 11.842 12.370 12.906 13.449 13.999 14.555 15.117 15.685 16.258 16.837 17.420 18.008 18.600 19.196 19.796 20.399 21.005 21.614 22.226 22.839 23.455 24.072 24.691 25.311 25.931 26.553 27.175 27.797 28.419 29.041 29.663 30.284 30.905 31.525 32.144 32.761 33.378 33.993 34.606 35.217 35.827 36.434 37.039 37.641 38.241 38.837 39.431 40.021 40.608 41.192 41.772 42.348 42.920 43.488 44.052 44.611 45.166 45.716 46.261 46.802 47.337 47.867
0.054 0.115 0.192 0.284 0.393 0.519 0.661 0.820 0.995 1.187 1.394 1.618 1.857 2.113 2.383 2.670 2.971 3.288 3.619 3.965 4.325 4.699 5.088 5.490 5.906 6.335 6.777 7.232 7.699 8.178 8.669 9.171 9.684 10.209 10.744 11.289 11.844 12.409 12.983 13.566 14.158 14.758 15.366 15.982 16.606 17.236 17.873 18.516 19.165 19.819 20.479 21.143 21.812 22.485 23.161 23.841 24.525 25.211 25.900 26.591 27.284 27.979 28.676 29.373 30.072 30.771 31.471 32.170 32.870 33.569 34.268 34.966 35.663 36.360 37.055 37.749 38.441 39.132 39.820 40.506 41.190 41.871 42.549 43.224 43.896 44.564 45.229 45.890 46.547 47.200 47.849 48.493 49.133 49.768 50.398 51.023 51.643 52.257 52.866 53.470
0.060 0.127 0.212 0.314 0.434 0.572 0.728 0.902 1.093 1.302 1.528 1.771 2.032 2.309 2.603 2.913 3.240 3.582 3.941 4.315 4.705 5.110 5.530 5.965 6.415 6.879 7.357 7.849 8.355 8.874 9.406 9.950 10.507 11.076 11.656 12.248 12.851 13.464 14.088 14.722 15.365 16.018 16.680 17.350 18.029 18.716 19.410 20.112 20.820 21.535 22.256 22.982 23.713 24.449 25.189 25.933 26.681 27.432 28.186 28.943 29.702 30.463 31.225 31.988 32.753 33.518 34.284 35.049 35.815 36.580 37.345 38.109 38.872 39.633 40.393 41.151 41.907 42.661 43.412 44.161 44.907 45.649 46.388 47.123 47.854 48.581 49.304 50.022 50.736 51.444 52.147 52.845 53.537 54.223 54.903 55.577 56.244 56.905 57.560 58.207
0.066 0.140 0.233 0.345 0.476 0.627 0.797 0.987 1.196 1.424 1.671 1.937 2.222 2.525 2.847 3.186 3.543 3.918 4.310 4.719 5.144 5.586 6.045 6.519 7.009 7.515 8.036 8.571 9.122 9.687 10.266 10.858 11.465 12.084 12.717 13.362 14.019 14.688 15.369 16.061 16.763 17.476 18.199 18.932 19.674 20.425 21.185 21.952 22.728 23.510 24.299 25.095 25.896 26.702 27.514 28.329 29.149 29.973 30.800 31.630 32.463 33.298 34.134 34.972 35.811 36.651 37.491 38.331 39.171 40.011 40.850 41.688 42.525 43.360 44.193 45.025 45.854 46.681 47.505 48.325 49.143 49.957 50.767 51.573 52.375 53.172 53.964 54.751 55.533 56.309 57.079 57.843 58.601 59.352 60.096 60.833 61.563 62.285 62.999 63.706
0.072 0.153 0.255 0.378 0.522 0.687 0.873 1.080 1.309 1.558 1.828 2.118 2.429 2.760 3.111 3.481 3.871 4.280 4.708 5.155 5.620 6.103 6.604 7.123 7.659 8.212 8.781 9.367 9.968 10.585 11.217 11.863 12.525 13.200 13.889 14.591 15.307 16.035 16.775 17.527 18.291 19.066 19.851 20.647 21.453 22.268 23.093 23.926 24.767 25.617 26.473 27.336 28.206 29.081 29.962 30.847 31.737 32.631 33.529 34.429 35.333 36.239 37.147 38.057 38.968 39.880 40.793 41.706 42.619 43.532 44.444 45.355 46.265 47.174 48.081 48.985 49.888 50.788 51.685 52.579 53.469 54.355 55.237 56.115 56.988 57.856 58.719 59.576 60.428 61.274 62.113 62.946 63.772 64.590 65.401 66.205 67.000 67.787 68.566 69.335
