ncols         100
nrows         50
xllcorner     0.0
yllcorner     0.0
cellsize      2.0
NODATA_value  -9999
10.000 9.899 9.798 9.697 9.596 9.495 9.394 9.293 9.192 9.091 8.990 8.889 8.788 8.687 8.586 8.485 8.384 8.283 8.182 8.081 7.980 7.879 7.778 7.677 7.576 7.475 7.374 7.273 7.172 7.071 6.970 6.869 6.768 6.667 6.566 6.465 6.364 6.263 6.162 6.061 5.960 5.859 5.758 5.657 5.556 5.455 5.354 5.253 5.152 5.051 4.950 4.849 4.748 4.647 4.546 4.445 4.344 4.243 4.142 4.041 3.940 3.839 3.738 3.637 3.536 3.435 3.334 3.233 3.132 3.031 2.930 2.829 2.728 2.627 2.526 2.425 2.324 2.223 2.122 2.021 1.920 1.819 1.718 1.617 1.516 1.415 1.314 1.213 1.112 1.011 0.910 0.809 0.708 0.607 0.506 0.405 0.304 0.203 0.102 0.001
10.000 9.899 9.798 9.697 9.596 9.495 9.394 9.293 9.192 9.091 8.990 8.889 8.788 8.687 8.586 8.485 8.384 8.283 8.182 8.081 7.980 7.879 7.778 7.677 7.576 7.475 7.374 7.273 7.172 7.071 6.970 6.869 6.768 6.667 6.566 6.465 6.364 6.263 6.162 6.061 5.960 5.859 5.758 5.657 5.556 5.455 5.354 5.253 5.152 5.051 4.950 4.849 4.748 4.647 4.546 4.445 4.344 4.243 4.142 4.041 3.940 3.839 3.738 3.637 3.536 3.435 3.334 3.233 3.132 3.031 2.930 2.829 2.728 2.627 2.526 2.425 2.324 2.223 2.122 2.021 1.920 1.819 1.718 1.617 1.516 1.415 1.314 1.213 1.112 1.011 0.910 0.809 0.708 0.607 0.506 0.405 0.304 0.203 0.102 0.001
10.000 9.899 9.798 9.697 9.596 9.495 9.394 9.293 9.192 9.091 8.990 8.889 8.788 8.687 8.586 8.485 8.384 8.283 8.182 8.081 7.980 7.879 7.778 7.677 7.576 7.475 7.374 7.273 7.172 7.071 6.970 6.869 6.768 6.667 6.566 6.465 6.364 6.263 6.162 6.061 5.960 5.859 5.758 5.657 5.556 5.455 5.354 5.253 5.152 5.051 4.950 4.849 4.748 4.647 4.546 4.445 4.344 4.243 4.142 4.041 3.940 3.839 3.738 3.637 3.536 3.435 3.334 3.233 3.132 3.031 2.930 2.829 2.728 2.627 2.526 2.425 2.324 2.223 2.122 2.021 1.920 1.819 1.718 1.617 1.516 1.415 1.314 1.213 1.112 1.011 0.910 0.809 0.708 0.607 0.506 0.405 0.304 0.203 0.102 0.001
10.000 9.899 9.798 9.697 9.596 9.495 9.394 9.293 9.192 9.091 8.990 8.889 8.788 8.687 8.586 8.485 8.384 8.283 8.182 8.081 7.980 7.879 7.778 7.677 7.576 7.475 7.374 7.273 7.172 7.071 6.970 6.869 6.768 6.667 6.566 6.465 6.364 6.263 6.162 6.061 5.960 5.859 5.758 5.657 5.556 5.455 5.354 5.253 5.152 5.051 4.950 4.849 4.748 4.647 4.546 4.445 4.344 4.243 4.142 4.041 3.940 3.839 3.738 3.637 3.536 3.435 3.334 3.233 3.132 3.031 2.930 2.829 2.728 2.627 2.526 2.425 2.324 2.223 2.122 2.021 1.920 1.819 1.718 1.617 1.516 1.415 1.314 1.213 1.112 1.011 0.910 0.809 0.708 0.607 0.506 0.405 0.304 0.203 0.102 0.001
10.000 9.899 9.798 9.697 9.596 9.495 9.394 9.293 9.192 9.091 8.990 8.889 8.788 8.687 8.586 8.485 8.384 8.283 8.182 8.081 7.980 7.879 7.778 7.677 7.576 7.475 7.374 7.273 7.172 7.071 6.970 6.869 6.768 6.667 6.566 6.465 6.364 6.263 6.162 6.061 5.960 5.859 5.758 5.657 5.556 5.455 5.354 5.253 5.152 5.051 4.950 4.849 4.748 4.647 4.546 4.445 4.344 4.243 4.142 4.041 3.940 3.839 3.738 3.637 3.536 3.435 3.334 3.233 3.132 3.031 2.930 2.829 2.728 2.627 2.526 2.425 2.324 2.223 2.122 2.021 1.920 1.819 1.718 1.617 1.516 1.415 1.314 1.213 1.112 1.011 0.910 0.809 0.708 0.607 0.506 0.405 0.304 0.203 0.102 0.001
10.000 9.899 9.798 9.697 9.596 9.495 9.394 9.293 9.192 9.091 8.990 8.889 8.788 8.687 8.586 8.485 8.384 8.283 8.182 8.081 7.980 7.879 7.778 7.677 7.576 7.475 7.374 7.273 7.172 7.071 6.970 6.869 6.768 6.667 6.566 6.465 6.364 6.263 6.162 6.061 5.960 5.859 5.758 5.657 5.556 5.455 5.354 5.253 5.152 5.051 4.950 4.849 4.748 4.647 4.546 4.445 4.344 4.243 4.142 4.041 3.940 3.839 3.738 3.637 3.536 3.435 3.334 3.233 3.132 3.031 2.930 2.829 2.728 2.627 2.526 2.425 2.324 2.223 2.122 2.021 1.920 1.819 1.718 1.617 1.516 1.415 1.314 1.213 1.112 1.011 0.910 0.809 0.708 0.607 0.506 0.405 0.304 0.203 0.102 0.001
10.000 9.899 9.798 9.697 9.596 9.495 9.394 9.293 9.192 9.091 8.990 8.889 8.788 8.687 8.586 8.485 8.384 8.283 8.182 8.081 7.980 7.879 7.778 7.677 7.576 7.475 7.374 7.273 7.172 7.071 6.970 6.869 6.768 6.667 6.566 6.465 6.364 6.263 6.162 6.061 5.960 5.859 5.758 5.657 5.556 5.455 5.354 5.253 5.152 5.051 4.950 4.849 4.748 4.647 4.546 4.445 4.344 4.243 4.142 4.041 3.940 3.839 3.738 3.637 3.536 3.435 3.334 3.233 3.132 3.031 2.930 2.829 2.728 2.627 2.526 2.425 2.324 2.223 2.122 2.021 1.920 1.819 1.718 1.617 1.516 1.415 1.314 1.213 1.112 1.011 0.910 0.809 0.708 0.607 0.506 0.405 0.304 0.203 0.102 0.001
10.000 9.899 9.798 9.697 9.596 9.495 9.394 9.293 9.192 9.091 8.990 8.889 8.788 8.687 8.586 8.485 8.384 8.283 8.182 8.081 7.980 7.879 7.778 7.677 7.576 7.475 7.374 7.273 7.172 7.071 6.970 6.869 6.768 6.667 6.566 6.465 6.364 6.263 6.162 6.061 5.960 5.859 5.758 5.657 5.556 5.455 5.354 5.253 5.152 5.051 4.950 4.849 4.748 4.647 4.546 4.445 4.344 4.243 4.142 4.041 3.940 3.839 3.738 3.637 3.536 3.435 3.334 3.233 3.132 3.031 2.930 2.829 2.728 2.627 2.526 2.425 2.324 2.223 2.122 2.021 1.920 1.819 1.718 1.617 1.516 1.415 1.314 1.213 1.112 1.011 0.910 0.809 0.708 0.607 0.506 0.405 0.304 0.203 0.102 0.001
10.000 9.899 9.798 9.697 9.596 9.495 9.394 9.293 9.192 9.091 8.990 8.889 8.788 8.687 8.586 8.485 8.384 8.283 8.182 8.081 7.980 7.879 7.778 7.677 7.576 7.475 7.374 7.273 7.172 7.071 6.970 6.869 6.768 6.667 6.566 6.465 6.364 6.263 6.162 6.061 5.960 5.859 5.758 5.657 5.556 5.455 5.354 5.253 5.152 5.051 4.950 4.849 4.748 4.647 4.546 4.445 4.344 4.243 4.142 4.041 3.940 3.839 3.738 3.637 3.536 3.435 3.334 3.233 3.132 3.031 2.930 2.829 2.728 2.627 2.526 2.425 2.324 2.223 2.122 2.021 1.920 1.819 1.718 1.617 1.516 1.415 1.314 1.213 1.112 1.011 0.910 0.809 0.708 0.607 0.506 0.405 0.304 0.203 0.102 0.001
10.000 9.899 9.798 9.697 9.596 9.495 9.394 9.293 9.192 9.091 8.990 8.889 8.788 8.687 8.586 8.485 8.384 8.283 8.182 8.081 7.980 7.879 7.778 7.677 7.576 7.475 7.374 7.273 7.172 7.071 6.970 6.869 6.768 6.667 6.566 6.465 6.364 6.263 6.162 6.061 5.960 5.859 5.758 5.657 5.556 5.455 5.354 5.253 5.152 5.051 4.950 4.849 4.748 4.647 4.546 4.445 4.344 4.243 4.142 4.041 3.940 3.839 3.738 3.637 3.536 3.435 3.334 3.233 3.132 3.031 2.930 2.829 2.728 2.627 2.526 2.425 2.324 2.223 2.122 2.021 1.920 1.819 1.718 1.617 1.516 1.415 1.314 1.213 1.112 1.011 0.910 0.809 0.708 0.607 0.506 0.405 0.304 0.203 0.102 0.001
10.000 9.899 9.798 9.697 9.596 9.495 9.394 9.293 9.192 9.091 8.990 8.889 8.788 8.687 8.586 8.485 8.384 8.283 8.182 8.081 7.980 7.879 7.778 7.677 7.576 7.475 7.374 7.273 7.172 7.071 6.970 6.869 6.768 6.667 6.566 6.465 6.364 6.263 6.162 6.061 5.960 5.859 5.758 5.657 5.556 5.455 5.354 5.253 5.152 5.051 4.950 4.849 4.748 4.647 4.546 4.445 4.344 4.243 4.142 4.041 3.940 3.839 3.738 3.637 3.536 3.435 3.334 3.233 3.132 3.031 2.930 2.829 2.728 2.627 2.526 2.425 2.324 2.223 2.122 2.021 1.920 1.819 1.718 1.617 1.516 1.415 1.314 1.213 1.112 1.011 0.910 0.809 0.708 0.607 0.506 0.405 0.304 0.203 0.102 0.001
10.000 9.899 9.798 9.697 9.596 9.495 9.394 9.293 9.192 9.091 8.990 8.889 8.788 8.687 8.586 8.485 8.384 8.283 8.182 8.081 7.980 7.879 7.778 7.677 7.576 7.475 7.374 7.273 7.172 7.071 6.970 6.869 6.768 6.667 6.566 6.465 6.364 6.263 6.162 6.061 5.960 5.859 5.758 5.657 5.556 5.455 5.354 5.253 5.152 5.051 4.950 4.849 4.748 4.647 4.546 4.445 4.344 4.243 4.142 4.041 3.940 3.839 3.738 3.637 3.536 3.435 3.334 3.233 3.132 3.031 2.930 2.829 2.728 2.627 2.526 2.425 2.324 2.223 2.122 2.021 1.920 1.819 1.718 1.617 1.516 1.415 1.314 1.213 1.112 1.011 0.910 0.809 0.708 0.607 0.506 0.405 0.304 0.203 0.102 0.001
10.000 9.899 9.798 9.697 9.596 9.495 9.394 9.293 9.192 9.091 8.990 8.889 8.788 8.687 8.586 8.485 8.384 8.283 8.182 8.081 7.980 7.879 7.778 7.677 7.576 7.475 7.374 7.273 7.172 7.071 6.970 6.869 6.768 6.667 6.566 6.465 6.364 6.263 6.162 6.061 5.960 5.859 5.758 5.657 5.556 5.455 5.354 5.253 5.152 5.051 4.950 4.849 4.748 4.647 4.546 4.445 4.344 4.243 4.142 4.041 3.940 3.839 3.738 3.637 3.536 3.435 3.334 3.233 3.132 3.031 2.930 2.829 2.728 2.627 2.526 2.425 2.324 2.223 2.122 2.021 1.920 1.819 1.718 1.617 1.516 1.415 1.314 1.213 1.112 1.011 0.910 0.809 0.708 0.607 0.506 0.405 0.304 0.203 0.102 0.001
10.000 9.899 9.798 9.697 9.596 9.495 9.394 9.293 9.192 9.091 8.990 8.889 8.788 8.687 8.586 8.485 8.384 8.283 8.182 8.081 7.980 7.879 7.778 7.677 7.576 7.475 7.374 7.273 7.172 7.071 6.970 6.869 6.768 6.667 6.566 6.465 6.364 6.263 6.162 6.061 5.960 5.859 5.758 5.657 5.556 5.455 5.354 5.253 5.152 5.051 4.950 4.849 4.748 4.647 4.546 4.445 4.344 4.243 4.142 4.041 3.940 3.839 3.738 3.637 3.536 3.435 3.334 3.233 3.132 3.031 2.930 2.829 2.728 2.627 2.526 2.425 2.324 2.223 2.122 2.021 1.920 1.819 1.718 1.617 1.516 1.415 1.314 1.213 1.112 1.011 0.910 0.809 0.708 0.607 0.506 0.405 0.304 0.203 0.102 0.001
10.000 9.899 9.798 9.697 9.596 9.495 9.394 9.293 9.192 9.091 8.990 8.889 8.788 8.687 8.586 8.485 8.384 8.283 8.182 8.081 7.980 7.879 7.778 7.677 7.576 7.475 7.374 7.273 7.172 7.071 6.970 6.869 6.768 6.667 6.566 6.465 6.364 6.263 6.162 6.061 5.960 5.859 5.758 5.657 5.556 5.455 5.354 5.253 5.152 5.051 4.950 4.849 4.748 4.647 4.546 4.445 4.344 4.243 4.142 4.041 3.940 3.839 3.738 3.637 3.536 3.435 3.334 3.233 3.132 3.031 2.930 2.829 2.728 2.627 2.526 2.425 2.324 2.223 2.122 2.021 1.920 1.819 1.718 1.617 1.516 1.415 1.314 1.213 1.112 1.011 0.910 0.809 0.708 0.607 0.506 0.405 0.304 0.203 0.102 0.001
10.000 9.899 9.798 9.697 9.596 9.495 9.394 9.293 9.192 9.091 8.990 8.889 8.788 8.687 8.586 8.485 8.384 8.283 8.182 8.081 7.980 7.879 7.778 7.677 7.576 7.475 7.374 7.273 7.172 7.071 6.970 6.869 6.768 6.667 6.566 6.465 6.364 6.263 6.162 6.061 5.960 5.859 5.758 5.657 5.556 5.455 5.354 5.253 5.152 5.051 4.950 4.849 4.748 4.647 4.546 4.445 4.344 4.243 4.142 4.041 3.940 3.839 3.738 3.637 3.536 3.435 3.334 3.233 3.132 3.031 2.930 2.829 2.728 2.627 2.526 2.425 2.324 2.223 2.122 2.021 1.920 1.819 1.718 1.617 1.516 1.415 1.314 1.213 1.112 1.011 0.910 0.809 0.708 0.607 0.506 0.405 0.304 0.203 0.102 0.001
10.000 9.899 9.798 9.697 9.596 9.495 9.394 9.293 9.192 9.091 8.990 8.889 8.788 8.687 8.586 8.485 8.384 8.283 8.182 8.081 7.980 7.879 7.778 7.677 7.576 7.475 7.374 7.273 7.172 7.071 6.970 6.869 6.768 6.667 6.566 6.465 6.364 6.263 6.162 6.061 5.960 5.859 5.758 5.657 5.556 5.455 5.354 5.253 5.152 5.051 4.950 4.849 4.748 4.647 4.546 4.445 4.344 4.243 4.142 4.041 3.940 3.839 3.738 3.637 3.536 3.435 3.334 3.233 3.132 3.031 2.930 2.829 2.728 2.627 2.526 2.425 2.324 2.223 2.122 2.021 1.920 1.819 1.718 1.617 1.516 1.415 1.314 1.213 1.112 1.011 0.910 0.809 0.708 0.607 0.506 0.405 0.304 0.203 0.102 0.001
10.000 9.899 9.798 9.697 9.596 9.495 9.394 9.293 9.192 9.091 8.990 8.889 8.788 8.687 8.586 8.485 8.384 8.283 8.182 8.081 7.980 7.879 7.778 7.677 7.576 7.475 7.374 7.273 7.172 7.071 6.970 6.869 6.768 6.667 6.566 6.465 6.364 6.263 6.162 6.061 5.960 5.859 5.758 5.657 5.556 5.455 5.354 5.253 5.152 5.051 4.950 4.849 4.748 4.647 4.546 4.445 4.344 4.243 4.142 4.041 3.940 3.839 3.738 3.637 3.536 3.435 3.334 3.233 3.132 3.031 2.930 2.829 2.728 2.627 2.526 2.425 2.324 2.223 2.122 2.021 1.920 1.819 1.718 1.617 1.516 1.415 1.314 1.213 1.112 1.011 0.910 0.809 0.708 0.607 0.506 0.405 0.304 0.203 0.102 0.001
10.000 9.899 9.798 9.697 9.596 9.495 9.394 9.293 9.192 9.091 8.990 8.889 8.788 8.687 8.586 8.485 8.384 8.283 8.182 8.081 7.980 7.879 7.778 7.677 7.576 7.475 7.374 7.273 7.172 7.071 6.970 6.869 6.768 6.667 6.566 6.465 6.364 6.263 6.162 6.061 5.960 5.859 5.758 5.657 5.556 5.455 5.354 5.253 5.152 5.051 4.950 4.849 4.748 4.647 4.546 4.445 4.344 4.243 4.142 4.041 3.940 3.839 3.738 3.637 3.536 3.435 3.334 3.233 3.132 3.031 2.930 2.829 2.728 2.627 2.526 2.425 2.324 2.223 2.122 2.021 1.920 1.819 1.718 1.617 1.516 1.415 1.314 1.213 1.112 1.011 0.910 0.809 0.708 0.607 0.506 0.405 0.304 0.203 0.102 0.001
10.000 9.899 9.798 9.697 9.596 9.495 9.394 9.293 9.192 9.091 8.990 8.889 8.788 8.687 8.586 8.485 8.384 8.283 8.182 8.081 7.980 7.879 7.778 7.677 7.576 7.475 7.374 7.273 7.172 7.071 6.970 6.869 6.768 6.667 6.566 6.465 6.364 6.263 6.162 6.061 5.960 5.859 5.758 5.657 5.556 5.455 5.354 5.253 5.152 5.051 4.950 4.849 4.748 4.647 4.546 4.445 4.344 4.243 4.142 4.041 3.940 3.839 3.738 3.637 3.536 3.435 3.334 3.233 3.132 3.031 2.930 2.829 2.728 2.627 2.526 2.425 2.324 2.223 2.122 2.021 1.920 1.819 1.718 1.617 1.516 1.415 1.314 1.213 1.112 1.011 0.910 0.809 0.708 0.607 0.506 0.405 0.304 0.203 0.102 0.001
10.000 9.899 9.798 9.697 9.596 9.495 9.394 9.293 9.192 9.091 8.990 8.889 8.788 8.687 8.586 8.485 8.384 8.283 8.182 8.081 7.980 7.879 7.778 7.677 7.576 7.475 7.374 7.273 7.172 7.071 6.970 6.869 6.768 6.667 6.566 6.465 6.364 6.263 6.162 6.061 5.960 5.859 5.758 5.657 5.556 5.455 5.354 5.253 5.152 5.051 4.950 4.849 4.748 4.647 4.546 4.445 4.344 4.243 4.142 4.041 3.940 3.839 3.738 3.637 3.536 3.435 3.334 3.233 3.132 3.031 2.930 2.829 2.728 2.627 2.526 2.425 2.324 2.223 2.122 2.021 1.920 1.819 1.718 1.617 1.516 1.415 1.314 1.213 1.112 1.011 0.910 0.809 0.708 0.607 0.506 0.405 0.304 0.203 0.102 0.001
10.000 9.899 9.798 9.697 9.596 9.495 9.394 9.293 9.192 9.091 8.990 8.889 8.788 8.687 8.586 8.485 8.384 8.283 8.182 8.081 7.980 7.879 7.778 7.677 7.576 7.475 7.374 7.273 7.172 7.071 6.970 6.869 6.768 6.667 6.566 6.465 6.364 6.263 6.162 6.061 5.960 5.859 5.758 5.657 5.556 5.455 5.354 5.253 5.152 5.051 4.950 4.849 4.748 4.647 4.546 4.445 4.344 4.243 4.142 4.041 3.940 3.839 3.738 3.637 3.536 3.435 3.334 3.233 3.132 3.031 2.930 2.829 2.728 2.627 2.526 2.425 2.324 2.223 2.122 2.021 1.920 1.819 1.718 1.617 1.516 1.415 1.314 1.213 1.112 1.011 0.910 0.809 0.708 0.607 0.506 0.405 0.304 0.203 0.102 0.001
10.000 9.899 9.798 9.697 9.596 9.495 9.394 9.293 9.192 9.091 8.990 8.889 8.788 8.687 8.586 8.485 8.384 8.283 8.182 8.081 7.980 7.879 7.778 7.677 7.576 7.475 7.374 7.273 7.172 7.071 6.970 6.869 6.768 6.667 6.566 6.465 6.364 6.263 6.162 6.061 5.960 5.859 5.758 5.657 5.556 5.455 5.354 5.253 5.152 5.051 4.950 4.849 4.748 4.647 4.546 4.445 4.344 4.243 4.142 4.041 3.940 3.839 3.738 3.637 3.536 3.435 3.334 3.233 3.132 3.031 2.930 2.829 2.728 2.627 2.526 2.425 2.324 2.223 2.122 2.021 1.920 1.819 1.718 1.617 1.516 1.415 1.314 1.213 1.112 1.011 0.910 0.809 0.708 0.607 0.506 0.405 0.304 0.203 0.102 0.001
10.000 9.899 9.798 9.697 9.596 9.495 9.394 9.293 9.192 9.091 8.990 8.889 8.788 8.687 8.586 8.485 8.384 8.283 8.182 8.081 7.980 7.879 7.778 7.677 7.576 7.475 7.374 7.273 7.172 7.071 6.970 6.869 6.768 6.667 6.566 6.465 6.364 6.263 6.162 6.061 5.960 5.859 5.758 5.657 5.556 5.455 5.354 5.253 5.152 5.051 4.950 4.849 4.748 4.647 4.546 4.445 4.344 4.243 4.142 4.041 3.940 3.839 3.738 3.637 3.536 3.435 3.334 3.233 3.132 3.031 2.930 2.829 2.728 2.627 2.526 2.425 2.324 2.223 2.122 2.021 1.920 1.819 1.718 1.617 1.516 1.415 1.314 1.213 1.112 1.011 0.910 0.809 0.708 0.607 0.506 0.405 0.304 0.203 0.102 0.001
10.000 9.899 9.798 9.697 9.596 9.495 9.394 9.293 9.192 9.091 8.990 8.889 8.788 8.687 8.586 8.485 8.384 8.283 8.182 8.081 7.980 7.879 7.778 7.677 7.576 7.475 7.374 7.273 7.172 7.071 6.970 6.869 6.768 6.667 6.566 6.465 6.364 6.263 6.162 6.061 5.960 5.859 5.758 5.657 5.556 5.455 5.354 5.253 5.152 5.051 4.950 4.849 4.748 4.647 4.546 4.445 4.344 4.243 4.142 4.041 3.940 3.839 3.738 3.637 3.536 3.435 3.334 3.233 3.132 3.031 2.930 2.829 2.728 2.627 2.526 2.425 2.324 2.223 2.122 2.021 1.920 1.819 1.718 1.617 1.516 1.415 1.314 1.213 1.112 1.011 0.910 0.809 0.708 0.607 0.506 0.405 0.304 0.203 0.102 0.001
10.000 9.899 9.798 9.697 9.596 9.495 9.394 9.293 9.192 9.091 8.990 8.889 8.788 8.687 8.586 8.485 8.384 8.283 8.182 8.081 7.980 7.879 7.778 7.677 7.576 7.475 7.374 7.273 7.172 7.071 6.970 6.869 6.768 6.667 6.566 6.465 6.364 6.263 6.162 6.061 5.960 5.859 5.758 5.657 5.556 5.455 5.354 5.253 5.152 5.051 4.950 4.849 4.748 4.647 4.546 4.445 4.344 4.243 4.142 4.041 3.940 3.839 3.738 3.637 3.536 3.435 3.334 3.233 3.132 3.031 2.930 2.829 2.728 2.627 2.526 2.425 2.324 2.223 2.122 2.021 1.920 1.819 1.718 1.617 1.516 1.415 1.314 1.213 1.112 1.011 0.910 0.809 0.708 0.607 0.506 0.405 0.304 0.203 0.102 0.001
10.000 9.899 9.798 9.697 9.596 9.495 9.394 9.293 9.192 9.091 8.990 8.889 8.788 8.687 8.586 8.485 8.384 8.283 8.182 8.081 7.980 7.879 7.778 7.677 7.576 7.475 7.374 7.273 7.172 7.071 6.970 6.869 6.768 6.667 6.566 6.465 6.364 6.263 6.162 6.061 5.960 5.859 5.758 5.657 5.556 5.455 5.354 5.253 5.152 5.051 4.950 4.849 4.748 4.647 4.546 4.445 4.344 4.243 4.142 4.041 3.940 3.839 3.738 3.637 3.536 3.435 3.334 3.233 3.132 3.031 2.930 2.829 2.728 2.627 2.526 2.425 2.324 2.223 2.122 2.021 1.920 1.819 1.718 1.617 1.516 1.415 1.314 1.213 1.112 1.011 0.910 0.809 0.708 0.607 0.506 0.405 0.304 0.203 0.102 0.001
10.000 9.899 9.798 9.697 9.596 9.495 9.394 9.293 9.192 9.091 8.990 8.889 8.788 8.687 8.586 8.485 8.384 8.283 8.182 8.081 7.980 7.879 7.778 7.677 7.576 7.475 7.374 7.273 7.172 7.071 6.970 6.869 6.768 6.667 6.566 6.465 6.364 6.263 6.162 6.061 5.960 5.859 5.758 5.657 5.556 5.455 5.354 5.253 5.152 5.051 4.950 4.849 4.748 4.647 4.546 4.445 4.344 4.243 4.142 4.041 3.940 3.839 3.738 3.637 3.536 3.435 3.334 3.233 3.132 3.031 2.930 2.829 2.728 2.627 2.526 2.425 2.324 2.223 2.122 2.021 1.920 1.819 1.718 1.617 1.516 1.415 1.314 1.213 1.112 1.011 0.910 0.809 0.708 0.607 0.506 0.405 0.304 0.203 0.102 0.001
10.000 9.899 9.798 9.697 9.596 9.495 9.394 9.293 9.192 9.091 8.990 8.889 8.788 8.687 8.586 8.485 8.384 8.283 8.182 8.081 7.980 7.879 7.778 7.677 7.576 7.475 7.374 7.273 7.172 7.071 6.970 6.869 6.768 6.667 6.566 6.465 6.364 6.263 6.162 6.061 5.960 5.859 5.758 5.657 5.556 5.455 5.354 5.253 5.152 5.051 4.950 4.849 4.748 4.647 4.546 4.445 4.344 4.243 4.142 4.041 3.940 3.839 3.738 3.637 3.536 3.435 3.334 3.233 3.132 3.031 2.930 2.829 2.728 2.627 2.526 2.425 2.324 2.223 2.122 2.021 1.920 1.819 1.718 1.617 1.516 1.415 1.314 1.213 1.112 1.011 0.910 0.809 0.708 0.607 0.506 0.405 0.304 0.203 0.102 0.001
10.000 9.899 9.798 9.697 9.596 9.495 9.394 9.293 9.192 9.091 8.990 8.889 8.788 8.687 8.586 8.485 8.384 8.283 8.182 8.081 7.980 7.879 7.778 7.677 7.576 7.475 7.374 7.273 7.172 7.071 6.970 6.869 6.768 6.667 6.566 6.465 6.364 6.263 6.162 6.061 5.960 5.859 5.758 5.657 5.556 5.455 5.354 5.253 5.152 5.051 4.950 4.849 4.748 4.647 4.546 4.445 4.344 4.243 4.142 4.041 3.940 3.839 3.738 3.637 3.536 3.435 3.334 3.233 3.132 3.031 2.930 2.829 2.728 2.627 2.526 2.425 2.324 2.223 2.122 2.021 1.920 1.819 1.718 1.617 1.516 1.415 1.314 1.213 1.112 1.011 0.910 0.809 0.708 0.607 0.506 0.405 0.304 0.203 0.102 0.001
10.000 9.899 9.798 9.697 9.596 9.495 9.394 9.293 9.192 9.091 8.990 8.889 8.788 8.687 8.586 8.485 8.384 8.283 8.182 8.081 7.980 7.879 7.778 7.677 7.576 7.475 7.374 7.273 7.172 7.071 6.970 6.869 6.768 6.667 6.566 6.465 6.364 6.263 6.162 6.061 5.960 5.859 5.758 5.657 5.556 5.455 5.354 5.253 5.152 5.051 4.950 4.849 4.748 4.647 4.546 4.445 4.344 4.243 4.142 4.041 3.940 3.839 3.738 3.637 3.536 3.435 3.334 3.233 3.132 3.031 2.930 2.829 2.728 2.627 2.526 2.425 2.324 2.223 2.122 2.021 1.920 1.819 1.718 1.617 1.516 1.415 1.314 1.213 1.112 1.011 0.910 0.809 0.708 0.607 0.506 0.405 0.304 0.203 0.102 0.001
10.000 9.899 9.798 9.697 9.596 9.495 9.394 9.293 9.192 9.091 8.990 8.889 8.788 8.687 8.586 8.485 8.384 8.283 8.182 8.081 7.980 7.879 7.778 7.677 7.576 7.475 7.374 7.273 7.172 7.071 6.970 6.869 6.768 6.667 6.566 6.465 6.364 6.263 6.162 6.061 5.960 5.859 5.758 5.657 5.556 5.455 5.354 5.253 5.152 5.051 4.950 4.849 4.748 4.647 4.546 4.445 4.344 4.243 4.142 4.041 3.940 3.839 3.738 3.637 3.536 3.435 3.334 3.233 3.132 3.031 2.930 2.829 2.728 2.627 2.526 2.425 2.324 2.223 2.122 2.021 1.920 1.819 1.718 1.617 1.516 1.415 1.314 1.213 1.112 1.011 0.910 0.809 0.708 0.607 0.506 0.405 0.304 0.203 0.102 0.001
10.000 9.899 9.798 9.697 9.596 9.495 9.394 9.293 9.192 9.091 8.990 8.889 8.788 8.687 8.586 8.485 8.384 8.283 8.182 8.081 7.980 7.879 7.778 7.677 7.576 7.475 7.374 7.273 7.172 7.071 6.970 6.869 6.768 6.667 6.566 6.465 6.364 6.263 6.162 6.061 5.960 5.859 5.758 5.657 5.556 5.455 5.354 5.253 5.152 5.051 4.950 4.849 4.748 4.647 4.546 4.445 4.344 4.243 4.142 4.041 3.940 3.839 3.738 3.637 3.536 3.435 3.334 3.233 3.132 3.031 2.930 2.829 2.728 2.627 2.526 2.425 2.324 2.223 2.122 2.021 1.920 1.819 1.718 1.617 1.516 1.415 1.314 1.213 1.112 1.011 0.910 0.809 0.708 0.607 0.506 0.405 0.304 0.203 0.102 0.001
10.000 9.899 9.798 9.697 9.596 9.495 9.394 9.293 9.192 9.091 8.990 8.889 8.788 8.687 8.586 8.485 8.384 8.283 8.182 8.081 7.980 7.879 7.778 7.677 7.576 7.475 7.374 7.273 7.172 7.071 6.970 6.869 6.768 6.667 6.566 6.465 6.364 6.263 6.162 6.061 5.960 5.859 5.758 5.657 5.556 5.455 5.354 5.253 5.152 5.051 4.950 4.849 4.748 4.647 4.546 4.445 4.344 4.243 4.142 4.041 3.940 3.839 3.738 3.637 3.536 3.435 3.334 3.233 3.132 3.031 2.930 2.829 2.728 2.627 2.526 2.425 2.324 2.223 2.122 2.021 1.920 1.819 1.718 1.617 1.516 1.415 1.314 1.213 1.112 1.011 0.910 0.809 0.708 0.607 0.506 0.405 0.304 0.203 0.102 0.001
10.000 9.899 9.798 9.697 9.596 9.495 9.394 9.293 9.192 9.091 8.990 8.889 8.788 8.687 8.586 8.485 8.384 8.283 8.182 8.081 7.980 7.879 7.778 7.677 7.576 7.475 7.374 7.273 7.172 7.071 6.970 6.869 6.768 6.667 6.566 6.465 6.364 6.263 6.162 6.061 5.960 5.859 5.758 5.657 5.556 5.455 5.354 5.253 5.152 5.051 4.950 4.849 4.748 4.647 4.546 4.445 4.344 4.243 4.142 4.041 3.940 3.839 3.738 3.637 3.536 3.435 3.334 3.233 3.132 3.031 2.930 2.829 2.728 2.627 2.526 2.425 2.324 2.223 2.122 2.021 1.920 1.819 1.718 1.617 1.516 1.415 1.314 1.213 1.112 1.011 0.910 0.809 0.708 0.607 0.506 0.405 0.304 0.203 0.102 0.001
10.000 9.899 9.798 9.697 9.596 9.495 9.394 9.293 9.192 9.091 8.990 8.889 8.788 8.687 8.586 8.485 8.384 8.283 8.182 8.081 7.980 7.879 7.778 7.677 7.576 7.475 7.374 7.273 7.172 7.071 6.970 6.869 6.768 6.667 6.566 6.465 6.364 6.263 6.162 6.061 5.960 5.859 5.758 5.657 5.556 5.455 5.354 5.253 5.152 5.051 4.950 4.849 4.748 4.647 4.546 4.445 4.344 4.243 4.142 4.041 3.940 3.839 3.738 3.637 3.536 3.435 3.334 3.233 3.132 3.031 2.930 2.829 2.728 2.627 2.526 2.425 2.324 2.223 2.122 2.021 1.920 1.819 1.718 1.617 1.516 1.415 1.314 1.213 1.112 1.011 0.910 0.809 0.708 0.607 0.506 0.405 0.304 0.203 0.102 0.001
10.000 9.899 9.798 9.697 9.596 9.495 9.394 9.293 9.192 9.091 8.990 8.889 8.788 8.687 8.586 8.485 8.384 8.283 8.182 8.081 7.980 7.879 7.778 7.677 7.576 7.475 7.374 7.273 7.172 7.071 6.970 6.869 6.768 6.667 6.566 6.465 6.364 6.263 6.162 6.061 5.960 5.859 5.758 5.657 5.556 5.455 5.354 5.253 5.152 5.051 4.950 4.849 4.748 4.647 4.546 4.445 4.344 4.243 4.142 4.041 3.940 3.839 3.738 3.637 3.536 3.435 3.334 3.233 3.132 3.031 2.930 2.829 2.728 2.627 2.526 2.425 2.324 2.223 2.122 2.021 1.920 1.819 1.718 1.617 1.516 1.415 1.314 1.213 1.112 1.011 0.910 0.809 0.708 0.607 0.506 0.405 0.304 0.203 0.102 0.001
10.000 9.899 9.798 9.697 9.596 9.495 9.394 9.293 9.192 9.091 8.990 8.889 8.788 8.687 8.586 8.485 8.384 8.283 8.182 8.081 7.980 7.879 7.778 7.677 7.576 7.475 7.374 7.273 7.172 7.071 6.970 6.869 6.768 6.667 6.566 6.465 6.364 6.263 6.162 6.061 5.960 5.859 5.758 5.657 5.556 5.455 5.354 5.253 5.152 5.051 4.950 4.849 4.748 4.647 4.546 4.445 4.344 4.243 4.142 4.041 3.940 3.839 3.738 3.637 3.536 3.435 3.334 3.233 3.132 3.031 2.930 2.829 2.728 2.627 2.526 2.425 2.324 2.223 2.122 2.021 1.920 1.819 1.718 1.617 1.516 1.415 1.314 1.213 1.112 1.011 0.910 0.809 0.708 0.607 0.506 0.405 0.304 0.203 0.102 0.001
10.000 9.899 9.798 9.697 9.596 9.495 9.394 9.293 9.192 9.091 8.990 8.889 8.788 8.687 8.586 8.485 8.384 8.283 8.182 8.081 7.980 7.879 7.778 7.677 7.576 7.475 7.374 7.273 7.172 7.071 6.970 6.869 6.768 6.667 6.566 6.465 6.364 6.263 6.162 6.061 5.960 5.859 5.758 5.657 5.556 5.455 5.354 5.253 5.152 5.051 4.950 4.849 4.748 4.647 4.546 4.445 4.344 4.243 4.142 4.041 3.940 3.839 3.738 3.637 3.536 3.435 3.334 3.233 3.132 3.031 2.930 2.829 2.728 2.627 2.526 2.425 2.324 2.223 2.122 2.021 1.920 1.819 1.718 1.617 1.516 1.415 1.314 1.213 1.112 1.011 0.910 0.809 0.708 0.607 0.506 0.405 0.304 0.203 0.102 0.001
10.000 9.899 9.798 9.697 9.596 9.495 9.394 9.293 9.192 9.091 8.990 8.889 8.788 8.687 8.586 8.485 8.384 8.283 8.182 8.081 7.980 7.879 7.778 7.677 7.576 7.475 7.374 7.273 7.172 7.071 6.970 6.869 6.768 6.667 6.566 6.465 6.364 6.263 6.162 6.061 5.960 5.859 5.758 5.657 5.556 5.455 5.354 5.253 5.152 5.051 4.950 4.849 4.748 4.647 4.546 4.445 4.344 4.243 4.142 4.041 3.940 3.839 3.738 3.637 3.536 3.435 3.334 3.233 3.132 3.031 2.930 2.829 2.728 2.627 2.526 2.425 2.324 2.223 2.122 2.021 1.920 1.819 1.718 1.617 1.516 1.415 1.314 1.213 1.112 1.011 0.910 0.809 0.708 0.607 0.506 0.405 0.304 0.203 0.102 0.001
10.000 9.899 9.798 9.697 9.596 9.495 9.394 9.293 9.192 9.091 8.990 8.889 8.788 8.687 8.586 8.485 8.384 8.283 8.182 8.081 7.980 7.879 7.778 7.677 7.576 7.475 7.374 7.273 7.172 7.071 6.970 6.869 6.768 6.667 6.566 6.465 6.364 6.263 6.162 6.061 5.960 5.859 5.758 5.657 5.556 5.455 5.354 5.253 5.152 5.051 4.950 4.849 4.748 4.647 4.546 4.445 4.344 4.243 4.142 4.041 3.940 3.839 3.738 3.637 3.536 3.435 3.334 3.233 3.132 3.031 2.930 2.829 2.728 2.627 2.526 2.425 2.324 2.223 2.122 2.021 1.920 1.819 1.718 1.617 1.516 1.415 1.314 1.213 1.112 1.011 0.910 0.809 0.708 0.607 0.506 0.405 0.304 0.203 0.102 0.001
10.000 9.899 9.798 9.697 9.596 9.495 9.394 9.293 9.192 9.091 8.990 8.889 8.788 8.687 8.586 8.485 8.384 8.283 8.182 8.081 7.980 7.879 7.778 7.677 7.576 7.475 7.374 7.273 7.172 7.071 6.970 6.869 6.768 6.667 6.566 6.465 6.364 6.263 6.162 6.061 5.960 5.859 5.758 5.657 5.556 5.455 5.354 5.253 5.152 5.051 4.950 4.849 4.748 4.647 4.546 4.445 4.344 4.243 4.142 4.041 3.940 3.839 3.738 3.637 3.536 3.435 3.334 3.233 3.132 3.031 2.930 2.829 2.728 2.627 2.526 2.425 2.324 2.223 2.122 2.021 1.920 1.819 1.718 1.617 1.516 1.415 1.314 1.213 1.112 1.011 0.910 0.809 0.708 0.607 0.506 0.405 0.304 0.203 0.102 0.001
10.000 9.899 9.798 9.697 9.596 9.495 9.394 9.293 9.192 9.091 8.990 8.889 8.788 8.687 8.586 8.485 8.384 8.283 8.182 8.081 7.980 7.879 7.778 7.677 7.576 7.475 7.374 7.273 7.172 7.071 6.970 6.869 6.768 6.667 6.566 6.465 6.364 6.263 6.162 6.061 5.960 5.859 5.758 5.657 5.556 5.455 5.354 5.253 5.152 5.051 4.950 4.849 4.748 4.647 4.546 4.445 4.344 4.243 4.142 4.041 3.940 3.839 3.738 3.637 3.536 3.435 3.334 3.233 3.132 3.031 2.930 2.829 2.728 2.627 2.526 2.425 2.324 2.223 2.122 2.021 1.920 1.819 1.718 1.617 1.516 1.415 1.314 1.213 1.112 1.011 0.910 0.809 0.708 0.607 0.506 0.405 0.304 0.203 0.102 0.001
10.000 9.899 9.798 9.697 9.596 9.495 9.394 9.293 9.192 9.091 8.990 8.889 8.788 8.687 8.586 8.485 8.384 8.283 8.182 8.081 7.980 7.879 7.778 7.677 7.576 7.475 7.374 7.273 7.172 7.071 6.970 6.869 6.768 6.667 6.566 6.465 6.364 6.263 6.162 6.061 5.960 5.859 5.758 5.657 5.556 5.455 5.354 5.253 5.152 5.051 4.950 4.849 4.748 4.647 4.546 4.445 4.344 4.243 4.142 4.041 3.940 3.839 3.738 3.637 3.536 3.435 3.334 3.233 3.132 3.031 2.930 2.829 2.728 2.627 2.526 2.425 2.324 2.223 2.122 2.021 1.920 1.819 1.718 1.617 1.516 1.415 1.314 1.213 1.112 1.011 0.910 0.809 0.708 0.607 0.506 0.405 0.304 0.203 0.102 0.001
10.000 9.899 9.798 9.697 9.596 9.495 9.394 9.293 9.192 9.091 8.990 8.889 8.788 8.687 8.586 8.485 8.384 8.283 8.182 8.081 7.980 7.879 7.778 7.677 7.576 7.475 7.374 7.273 7.172 7.071 6.970 6.869 6.768 6.667 6.566 6.465 6.364 6.263 6.162 6.061 5.960 5.859 5.758 5.657 5.556 5.455 5.354 5.253 5.152 5.051 4.950 4.849 4.748 4.647 4.546 4.445 4.344 4.243 4.142 4.041 3.940 3.839 3.738 3.637 3.536 3.435 3.334 3.233 3.132 3.031 2.930 2.829 2.728 2.627 2.526 2.425 2.324 2.223 2.122 2.021 1.920 1.819 1.718 1.617 1.516 1.415 1.314 1.213 1.112 1.011 0.910 0.809 0.708 0.607 0.506 0.405 0.304 0.203 0.102 0.001
10.000 9.899 9.798 9.697 9.596 9.495 9.394 9.293 9.192 9.091 8.990 8.889 8.788 8.687 8.586 8.485 8.384 8.283 8.182 8.081 7.980 7.879 7.778 7.677 7.576 7.475 7.374 7.273 7.172 7.071 6.970 6.869 6.768 6.667 6.566 6.465 6.364 6.263 6.162 6.061 5.960 5.859 5.758 5.657 5.556 5.455 5.354 5.253 5.152 5.051 4.950 4.849 4.748 4.647 4.546 4.445 4.344 4.243 4.142 4.041 3.940 3.839 3.738 3.637 3.536 3.435 3.334 3.233 3.132 3.031 2.930 2.829 2.728 2.627 2.526 2.425 2.324 2.223 2.122 2.021 1.920 1.819 1.718 1.617 1.516 1.415 1.314 1.213 1.112 1.011 0.910 0.809 0.708 0.607 0.506 0.405 0.304 0.203 0.102 0.001
10.000 9.899 9.798 9.697 9.596 9.495 9.394 9.293 9.192 9.091 8.990 8.889 8.788 8.687 8.586 8.485 8.384 8.283 8.182 8.081 7.980 7.879 7.778 7.677 7.576 7.475 7.374 7.273 7.172 7.071 6.970 6.869 6.768 6.667 6.566 6.465 6.364 6.263 6.162 6.061 5.960 5.859 5.758 5.657 5.556 5.455 5.354 5.253 5.152 5.051 4.950 4.849 4.748 4.647 4.546 4.445 4.344 4.243 4.142 4.041 3.940 3.839 3.738 3.637 3.536 3.435 3.334 3.233 3.132 3.031 2.930 2.829 2.728 2.627 2.526 2.425 2.324 2.223 2.122 2.021 1.920 1.819 1.718 1.617 1.516 1.415 1.314 1.213 1.112 1.011 0.910 0.809 0.708 0.607 0.506 0.405 0.304 0.203 0.102 0.001
10.000 9.899 9.798 9.697 9.596 9.495 9.394 9.293 9.192 9.091 8.990 8.889 8.788 8.687 8.586 8.485 8.384 8.283 8.182 8.081 7.980 7.879 7.778 7.677 7.576 7.475 7.374 7.273 7.172 7.071 6.970 6.869 6.768 6.667 6.566 6.465 6.364 6.263 6.162 6.061 5.960 5.859 5.758 5.657 5.556 5.455 5.354 5.253 5.152 5.051 4.950 4.849 4.748 4.647 4.546 4.445 4.344 4.243 4.142 4.041 3.940 3.839 3.738 3.637 3.536 3.435 3.334 3.233 3.132 3.031 2.930 2.829 2.728 2.627 2.526 2.425 2.324 2.223 2.122 2.021 1.920 1.819 1.718 1.617 1.516 1.415 1.314 1.213 1.112 1.011 0.910 0.809 0.708 0.607 0.506 0.405 0.304 0.203 0.102 0.001
