ncols         600
nrows         200
xllcorner     0.0
yllcorner     0.0
cellsize      5.0
NODATA_value  -9999
54.45 54.43 54.41 54.40 54.38 54.36 54.34 54.32 54.31 54.29 54.27 54.25 54.24 54.22 54.20 54.19 54.17 54.15 54.14 54.12 54.11 54.09 54.08 54.06 54.05 54.03 54.02 54.01 53.99 53.98 53.97 53.96 53.95 53.94 53.93 53.92 53.91 53.90 53.89 53.88 53.87 53.87 53.86 53.85 53.85 53.84 53.84 53.83 53.83 53.83 53.83 53.82 53.82 53.82 53.82 53.82 53.82 53.82 53.82 53.82 53.82 53.83 53.83 53.83 53.84 53.84 53.85 53.85 53.86 53.86 53.87 53.88 53.88 53.89 53.90 53.91 53.92 53.93 53.94 53.95 53.96 53.97 53.98 53.99 54.00 54.01 54.02 54.03 54.05 54.06 54.07 54.08 54.10 54.11 54.12 54.13 54.15 54.16 54.17 54.19 54.20 54.21 54.23 54.24 54.25 54.27 54.28 54.29 54.30 54.32 54.33 54.34 54.35 54.37 54.38 54.39 54.40 54.41 54.42 54.43 54.44 54.45 54.46 54.47 54.48 54.49 54.50 54.51 54.52 54.52 54.53 54.54 54.54 54.55 54.55 54.56 54.56 54.57 54.57 54.57 54.58 54.58 54.58 54.58 54.58 54.58 54.58 54.58 54.58 54.58 54.58 54.57 54.57 54.57 54.56 54.56 54.55 54.55 54.54 54.53 54.53 54.52 54.51 54.50 54.49 54.48 54.47 54.46 54.45 54.44 54.43 54.42 54.41 54.39 54.38 54.37 54.35 54.34 54.32 54.31 54.29 54.28 54.26 54.25 54.23 54.21 54.20 54.18 54.16 54.15 54.13 54.11 54.09 54.08 54.06 54.04 54.02 54.00 53.99 53.97 53.95 53.93 53.91 53.90 53.88 53.86 53.84 53.82 53.81 53.79 53.77 53.75 53.74 53.72 53.70 53.69 53.67 53.65 53.64 53.62 53.61 53.59 53.58 53.56 53.55 53.53 53.52 53.51 53.49 53.48 53.47 53.46 53.45 53.44 53.43 53.42 53.41 53.40 53.39 53.38 53.37 53.37 53.36 53.35 53.35 53.34 53.34 53.33 53.33 53.33 53.33 53.32 53.32 53.32 53.32 53.32 53.32 53.32 53.32 53.32 53.32 53.33 53.33 53.33 53.34 53.34 53.35 53.35 53.36 53.36 53.37 53.38 53.38 53.39 53.40 53.41 53.42 53.43 53.44 53.45 53.46 53.47 53.48 53.49 53.50 53.51 53.52 53.53 53.55 53.56 53.57 53.58 53.60 53.61 53.62 53.63 53.65 53.66 53.67 53.69 53.70 53.71 53.73 53.74 53.75 53.77 53.78 53.79 53.80 53.82 53.83 53.84 53.85 53.87 53.88 53.89 53.90 53.91 53.92 53.93 53.94 53.95 53.96 53.97 53.98 53.99 54.00 54.01 54.02 54.02 54.03 54.04 54.04 54.05 54.05 54.06 54.06 54.07 54.07 54.07 54.08 54.08 54.08 54.08 54.08 54.08 54.08 54.08 54.08 54.08 54.08 54.07 54.07 54.07 54.06 54.06 54.05 54.05 54.04 54.03 54.03 54.02 54.01 54.00 53.99 53.98 53.97 53.96 53.95 53.94 53.93 53.92 53.91 53.89 53.88 53.87 53.85 53.84 53.82 53.81 53.79 53.78 53.76 53.75 53.73 53.71 53.70 53.68 53.66 53.65 53.63 53.61 53.59 53.58 53.56 53.54 53.52 53.50 53.49 53.47 53.45 53.43 53.41 53.40 53.38 53.36 53.34 53.32 53.31 53.29 53.27 53.25 53.24 53.22 53.20 53.19 53.17 53.15 53.14 53.12 53.11 53.09 53.08 53.06 53.05 53.03 53.02 53.01 52.99 52.98 52.97 52.96 52.95 52.94 52.93 52.92 52.91 52.90 52.89 52.88 52.87 52.87 52.86 52.85 52.85 52.84 52.84 52.83 52.83 52.83 52.83 52.82 52.82 52.82 52.82 52.82 52.82 52.82 52.82 52.82 52.82 52.83 52.83 52.83 52.84 52.84 52.85 52.85 52.86 52.86 52.87 52.88 52.88 52.89 52.90 52.91 52.92 52.93 52.94 52.95 52.96 52.97 52.98 52.99 53.00 53.01 53.02 53.03 53.05 53.06 53.07 53.08 53.10 53.11 53.12 53.13 53.15 53.16 53.17 53.19 53.20 53.21 53.23 53.24 53.25 53.27 53.28 53.29 53.30 53.32 53.33 53.34 53.35 53.37 53.38 53.39 53.40 53.41 53.42 53.43 53.44 53.45 53.46 53.47 53.48 53.49 53.50 53.51 53.52 53.52 53.53 53.54 53.54 53.55 53.55 53.56 53.56 53.57 53.57 53.57 53.58 53.58 53.58 53.58 53.58 53.58 53.58 53.58 53.58 53.58 53.58 53.57 53.57 53.57 53.56 53.56 53.55 53.55 53.54 53.53 53.53 53.52 53.51 53.50 53.49 53.48 53.47 53.46 53.45 53.44 53.43 53.42 53.41 53.39 53.38 53.37 53.35 53.34 53.32 53.31 53.29 53.28 53.26 53.25 53.23 53.21 53.20 53.18 53.16 53.15 53.13 53.11 53.09 53.08 53.06 53.04 53.02 53.00 52.99 52.97
54.40 54.38 54.36 54.35 54.33 54.31 54.29 54.27 54.26 54.24 54.22 54.20 54.19 54.17 54.15 54.14 54.12 54.10 54.09 54.07 54.06 54.04 54.03 54.01 54.00 53.98 53.97 53.96 53.94 53.93 53.92 53.91 53.90 53.89 53.88 53.87 53.86 53.85 53.84 53.83 53.82 53.82 53.81 53.80 53.80 53.79 53.79 53.78 53.78 53.78 53.77 53.77 53.77 53.77 53.77 53.77 53.77 53.77 53.77 53.77 53.77 53.78 53.78 53.78 53.79 53.79 53.80 53.80 53.81 53.81 53.82 53.83 53.83 53.84 53.85 53.86 53.87 53.88 53.89 53.90 53.91 53.92 53.93 53.94 53.95 53.96 53.97 53.98 54.00 54.01 54.02 54.03 54.05 54.06 54.07 54.08 54.10 54.11 54.12 54.14 54.15 54.16 54.18 54.19 54.20 54.22 54.23 54.24 54.25 54.27 54.28 54.29 54.30 54.32 54.33 54.34 54.35 54.36 54.37 54.38 54.39 54.40 54.41 54.42 54.43 54.44 54.45 54.46 54.47 54.47 54.48 54.49 54.49 54.50 54.50 54.51 54.51 54.52 54.52 54.52 54.53 54.53 54.53 54.53 54.53 54.53 54.53 54.53 54.53 54.53 54.52 54.52 54.52 54.52 54.51 54.51 54.50 54.50 54.49 54.48 54.48 54.47 54.46 54.45 54.44 54.43 54.42 54.41 54.40 54.39 54.38 54.37 54.36 54.34 54.33 54.32 54.30 54.29 54.27 54.26 54.24 54.23 54.21 54.20 54.18 54.16 54.15 54.13 54.11 54.10 54.08 54.06 54.04 54.03 54.01 53.99 53.97 53.95 53.94 53.92 53.90 53.88 53.86 53.85 53.83 53.81 53.79 53.77 53.76 53.74 53.72 53.70 53.69 53.67 53.65 53.64 53.62 53.60 53.59 53.57 53.56 53.54 53.53 53.51 53.50 53.48 53.47 53.46 53.44 53.43 53.42 53.41 53.40 53.39 53.38 53.37 53.36 53.35 53.34 53.33 53.32 53.32 53.31 53.30 53.30 53.29 53.29 53.28 53.28 53.28 53.27 53.27 53.27 53.27 53.27 53.27 53.27 53.27 53.27 53.27 53.27 53.28 53.28 53.28 53.29 53.29 53.30 53.30 53.31 53.31 53.32 53.33 53.33 53.34 53.35 53.36 53.37 53.38 53.39 53.40 53.41 53.42 53.43 53.44 53.45 53.46 53.47 53.48 53.50 53.51 53.52 53.53 53.55 53.56 53.57 53.58 53.60 53.61 53.62 53.64 53.65 53.66 53.68 53.69 53.70 53.72 53.73 53.74 53.75 53.77 53.78 53.79 53.80 53.82 53.83 53.84 53.85 53.86 53.87 53.88 53.89 53.90 53.91 53.92 53.93 53.94 53.95 53.96 53.97 53.97 53.98 53.99 53.99 54.00 54.00 54.01 54.01 54.02 54.02 54.02 54.03 54.03 54.03 54.03 54.03 54.03 54.03 54.03 54.03 54.03 54.02 54.02 54.02 54.02 54.01 54.01 54.00 54.00 53.99 53.98 53.98 53.97 53.96 53.95 53.94 53.93 53.92 53.91 53.90 53.89 53.88 53.87 53.86 53.84 53.83 53.82 53.80 53.79 53.77 53.76 53.74 53.73 53.71 53.70 53.68 53.66 53.65 53.63 53.61 53.60 53.58 53.56 53.54 53.53 53.51 53.49 53.47 53.45 53.44 53.42 53.40 53.38 53.36 53.35 53.33 53.31 53.29 53.27 53.26 53.24 53.22 53.20 53.19 53.17 53.15 53.14 53.12 53.10 53.09 53.07 53.06 53.04 53.03 53.01 53.00 52.98 52.97 52.96 52.94 52.93 52.92 52.91 52.90 52.89 52.88 52.87 52.86 52.85 52.84 52.83 52.82 52.82 52.81 52.80 52.80 52.79 52.79 52.78 52.78 52.78 52.77 52.77 52.77 52.77 52.77 52.77 52.77 52.77 52.77 52.77 52.77 52.78 52.78 52.78 52.79 52.79 52.80 52.80 52.81 52.81 52.82 52.83 52.83 52.84 52.85 52.86 52.87 52.88 52.89 52.90 52.91 52.92 52.93 52.94 52.95 52.96 52.97 52.98 53.00 53.01 53.02 53.03 53.05 53.06 53.07 53.08 53.10 53.11 53.12 53.14 53.15 53.16 53.18 53.19 53.20 53.22 53.23 53.24 53.25 53.27 53.28 53.29 53.30 53.32 53.33 53.34 53.35 53.36 53.37 53.38 53.39 53.40 53.41 53.42 53.43 53.44 53.45 53.46 53.47 53.47 53.48 53.49 53.49 53.50 53.50 53.51 53.51 53.52 53.52 53.52 53.53 53.53 53.53 53.53 53.53 53.53 53.53 53.53 53.53 53.53 53.52 53.52 53.52 53.52 53.51 53.51 53.50 53.50 53.49 53.48 53.48 53.47 53.46 53.45 53.44 53.43 53.42 53.41 53.40 53.39 53.38 53.37 53.36 53.34 53.33 53.32 53.30 53.29 53.27 53.26 53.24 53.23 53.21 53.20 53.18 53.16 53.15 53.13 53.11 53.10 53.08 53.06 53.04 53.03 53.01 52.99 52.97 52.95 52.94 52.92
54.35 54.33 54.31 54.30 54.28 54.26 54.24 54.22 54.21 54.19 54.17 54.15 54.14 54.12 54.10 54.09 54.07 54.05 54.04 54.02 54.01 53.99 53.98 53.96 53.95 53.93 53.92 53.91 53.89 53.88 53.87 53.86 53.85 53.84 53.83 53.82 53.81 53.80 53.79 53.78 53.77 53.77 53.76 53.75 53.75 53.74 53.74 53.73 53.73 53.73 53.73 53.72 53.72 53.72 53.72 53.72 53.72 53.72 53.72 53.72 53.72 53.73 53.73 53.73 53.74 53.74 53.75 53.75 53.76 53.76 53.77 53.78 53.78 53.79 53.80 53.81 53.82 53.83 53.84 53.85 53.86 53.87 53.88 53.89 53.90 53.91 53.92 53.93 53.95 53.96 53.97 53.98 54.00 54.01 54.02 54.03 54.05 54.06 54.07 54.09 54.10 54.11 54.13 54.14 54.15 54.17 54.18 54.19 54.20 54.22 54.23 54.24 54.25 54.27 54.28 54.29 54.30 54.31 54.32 54.33 54.34 54.35 54.36 54.37 54.38 54.39 54.40 54.41 54.42 54.42 54.43 54.44 54.44 54.45 54.45 54.46 54.46 54.47 54.47 54.47 54.48 54.48 54.48 54.48 54.48 54.48 54.48 54.48 54.48 54.48 54.48 54.47 54.47 54.47 54.46 54.46 54.45 54.45 54.44 54.43 54.43 54.42 54.41 54.40 54.39 54.38 54.37 54.36 54.35 54.34 54.33 54.32 54.31 54.29 54.28 54.27 54.25 54.24 54.22 54.21 54.19 54.18 54.16 54.15 54.13 54.11 54.10 54.08 54.06 54.05 54.03 54.01 53.99 53.98 53.96 53.94 53.92 53.90 53.89 53.87 53.85 53.83 53.81 53.80 53.78 53.76 53.74 53.72 53.71 53.69 53.67 53.65 53.64 53.62 53.60 53.59 53.57 53.55 53.54 53.52 53.51 53.49 53.48 53.46 53.45 53.43 53.42 53.41 53.39 53.38 53.37 53.36 53.35 53.34 53.33 53.32 53.31 53.30 53.29 53.28 53.27 53.27 53.26 53.25 53.25 53.24 53.24 53.23 53.23 53.23 53.23 53.22 53.22 53.22 53.22 53.22 53.22 53.22 53.22 53.22 53.22 53.23 53.23 53.23 53.24 53.24 53.25 53.25 53.26 53.26 53.27 53.28 53.28 53.29 53.30 53.31 53.32 53.33 53.34 53.35 53.36 53.37 53.38 53.39 53.40 53.41 53.42 53.43 53.45 53.46 53.47 53.48 53.50 53.51 53.52 53.53 53.55 53.56 53.57 53.59 53.60 53.61 53.63 53.64 53.65 53.67 53.68 53.69 53.70 53.72 53.73 53.74 53.75 53.77 53.78 53.79 53.80 53.81 53.82 53.83 53.84 53.85 53.86 53.87 53.88 53.89 53.90 53.91 53.92 53.92 53.93 53.94 53.94 53.95 53.95 53.96 53.96 53.97 53.97 53.97 53.98 53.98 53.98 53.98 53.98 53.98 53.98 53.98 53.98 53.98 53.98 53.97 53.97 53.97 53.96 53.96 53.95 53.95 53.94 53.93 53.93 53.92 53.91 53.90 53.89 53.88 53.87 53.86 53.85 53.84 53.83 53.82 53.81 53.79 53.78 53.77 53.75 53.74 53.72 53.71 53.69 53.68 53.66 53.65 53.63 53.61 53.60 53.58 53.56 53.55 53.53 53.51 53.49 53.48 53.46 53.44 53.42 53.40 53.39 53.37 53.35 53.33 53.31 53.30 53.28 53.26 53.24 53.22 53.21 53.19 53.17 53.15 53.14 53.12 53.10 53.09 53.07 53.05 53.04 53.02 53.01 52.99 52.98 52.96 52.95 52.93 52.92 52.91 52.89 52.88 52.87 52.86 52.85 52.84 52.83 52.82 52.81 52.80 52.79 52.78 52.77 52.77 52.76 52.75 52.75 52.74 52.74 52.73 52.73 52.73 52.73 52.72 52.72 52.72 52.72 52.72 52.72 52.72 52.72 52.72 52.72 52.73 52.73 52.73 52.74 52.74 52.75 52.75 52.76 52.76 52.77 52.78 52.78 52.79 52.80 52.81 52.82 52.83 52.84 52.85 52.86 52.87 52.88 52.89 52.90 52.91 52.92 52.93 52.95 52.96 52.97 52.98 53.00 53.01 53.02 53.03 53.05 53.06 53.07 53.09 53.10 53.11 53.13 53.14 53.15 53.17 53.18 53.19 53.20 53.22 53.23 53.24 53.25 53.27 53.28 53.29 53.30 53.31 53.32 53.33 53.34 53.35 53.36 53.37 53.38 53.39 53.40 53.41 53.42 53.42 53.43 53.44 53.44 53.45 53.45 53.46 53.46 53.47 53.47 53.47 53.48 53.48 53.48 53.48 53.48 53.48 53.48 53.48 53.48 53.48 53.48 53.47 53.47 53.47 53.46 53.46 53.45 53.45 53.44 53.43 53.43 53.42 53.41 53.40 53.39 53.38 53.37 53.36 53.35 53.34 53.33 53.32 53.31 53.29 53.28 53.27 53.25 53.24 53.22 53.21 53.19 53.18 53.16 53.15 53.13 53.11 53.10 53.08 53.06 53.05 53.03 53.01 52.99 52.98 52.96 52.94 52.92 52.90 52.89 52.87
54.30 54.28 54.26 54.25 54.23 54.21 54.19 54.17 54.16 54.14 54.12 54.10 54.09 54.07 54.05 54.04 54.02 54.00 53.99 53.97 53.96 53.94 53.93 53.91 53.90 53.88 53.87 53.86 53.84 53.83 53.82 53.81 53.80 53.79 53.78 53.77 53.76 53.75 53.74 53.73 53.72 53.72 53.71 53.70 53.70 53.69 53.69 53.68 53.68 53.68 53.67 53.67 53.67 53.67 53.67 53.67 53.67 53.67 53.67 53.67 53.67 53.68 53.68 53.68 53.69 53.69 53.70 53.70 53.71 53.71 53.72 53.73 53.73 53.74 53.75 53.76 53.77 53.78 53.79 53.80 53.81 53.82 53.83 53.84 53.85 53.86 53.87 53.88 53.90 53.91 53.92 53.93 53.95 53.96 53.97 53.98 54.00 54.01 54.02 54.04 54.05 54.06 54.08 54.09 54.10 54.12 54.13 54.14 54.15 54.17 54.18 54.19 54.20 54.22 54.23 54.24 54.25 54.26 54.27 54.28 54.29 54.30 54.31 54.32 54.33 54.34 54.35 54.36 54.37 54.37 54.38 54.39 54.39 54.40 54.40 54.41 54.41 54.42 54.42 54.42 54.43 54.43 54.43 54.43 54.43 54.43 54.43 54.43 54.43 54.43 54.42 54.42 54.42 54.42 54.41 54.41 54.40 54.40 54.39 54.38 54.38 54.37 54.36 54.35 54.34 54.33 54.32 54.31 54.30 54.29 54.28 54.27 54.26 54.24 54.23 54.22 54.20 54.19 54.17 54.16 54.14 54.13 54.11 54.10 54.08 54.06 54.05 54.03 54.01 54.00 53.98 53.96 53.94 53.93 53.91 53.89 53.87 53.85 53.84 53.82 53.80 53.78 53.76 53.75 53.73 53.71 53.69 53.67 53.66 53.64 53.62 53.60 53.59 53.57 53.55 53.54 53.52 53.50 53.49 53.47 53.46 53.44 53.43 53.41 53.40 53.38 53.37 53.36 53.34 53.33 53.32 53.31 53.30 53.29 53.28 53.27 53.26 53.25 53.24 53.23 53.22 53.22 53.21 53.20 53.20 53.19 53.19 53.18 53.18 53.18 53.17 53.17 53.17 53.17 53.17 53.17 53.17 53.17 53.17 53.17 53.17 53.18 53.18 53.18 53.19 53.19 53.20 53.20 53.21 53.21 53.22 53.23 53.23 53.24 53.25 53.26 53.27 53.28 53.29 53.30 53.31 53.32 53.33 53.34 53.35 53.36 53.37 53.38 53.40 53.41 53.42 53.43 53.45 53.46 53.47 53.48 53.50 53.51 53.52 53.54 53.55 53.56 53.58 53.59 53.60 53.62 53.63 53.64 53.65 53.67 53.68 53.69 53.70 53.72 53.73 53.74 53.75 53.76 53.77 53.78 53.79 53.80 53.81 53.82 53.83 53.84 53.85 53.86 53.87 53.87 53.88 53.89 53.89 53.90 53.90 53.91 53.91 53.92 53.92 53.92 53.93 53.93 53.93 53.93 53.93 53.93 53.93 53.93 53.93 53.93 53.92 53.92 53.92 53.92 53.91 53.91 53.90 53.90 53.89 53.88 53.88 53.87 53.86 53.85 53.84 53.83 53.82 53.81 53.80 53.79 53.78 53.77 53.76 53.74 53.73 53.72 53.70 53.69 53.67 53.66 53.64 53.63 53.61 53.60 53.58 53.56 53.55 53.53 53.51 53.50 53.48 53.46 53.44 53.43 53.41 53.39 53.37 53.35 53.34 53.32 53.30 53.28 53.26 53.25 53.23 53.21 53.19 53.17 53.16 53.14 53.12 53.10 53.09 53.07 53.05 53.04 53.02 53.00 52.99 52.97 52.96 52.94 52.93 52.91 52.90 52.88 52.87 52.86 52.84 52.83 52.82 52.81 52.80 52.79 52.78 52.77 52.76 52.75 52.74 52.73 52.72 52.72 52.71 52.70 52.70 52.69 52.69 52.68 52.68 52.68 52.67 52.67 52.67 52.67 52.67 52.67 52.67 52.67 52.67 52.67 52.67 52.68 52.68 52.68 52.69 52.69 52.70 52.70 52.71 52.71 52.72 52.73 52.73 52.74 52.75 52.76 52.77 52.78 52.79 52.80 52.81 52.82 52.83 52.84 52.85 52.86 52.87 52.88 52.90 52.91 52.92 52.93 52.95 52.96 52.97 52.98 53.00 53.01 53.02 53.04 53.05 53.06 53.08 53.09 53.10 53.12 53.13 53.14 53.15 53.17 53.18 53.19 53.20 53.22 53.23 53.24 53.25 53.26 53.27 53.28 53.29 53.30 53.31 53.32 53.33 53.34 53.35 53.36 53.37 53.37 53.38 53.39 53.39 53.40 53.40 53.41 53.41 53.42 53.42 53.42 53.43 53.43 53.43 53.43 53.43 53.43 53.43 53.43 53.43 53.43 53.42 53.42 53.42 53.42 53.41 53.41 53.40 53.40 53.39 53.38 53.38 53.37 53.36 53.35 53.34 53.33 53.32 53.31 53.30 53.29 53.28 53.27 53.26 53.24 53.23 53.22 53.20 53.19 53.17 53.16 53.14 53.13 53.11 53.10 53.08 53.06 53.05 53.03 53.01 53.00 52.98 52.96 52.94 52.93 52.91 52.89 52.87 52.85 52.84 52.82
54.25 54.23 54.21 54.20 54.18 54.16 54.14 54.12 54.11 54.09 54.07 54.05 54.04 54.02 54.00 53.99 53.97 53.95 53.94 53.92 53.91 53.89 53.88 53.86 53.85 53.83 53.82 53.81 53.79 53.78 53.77 53.76 53.75 53.74 53.73 53.72 53.71 53.70 53.69 53.68 53.67 53.67 53.66 53.65 53.65 53.64 53.64 53.63 53.63 53.63 53.62 53.62 53.62 53.62 53.62 53.62 53.62 53.62 53.62 53.62 53.62 53.63 53.63 53.63 53.64 53.64 53.65 53.65 53.66 53.66 53.67 53.68 53.68 53.69 53.70 53.71 53.72 53.73 53.74 53.75 53.76 53.77 53.78 53.79 53.80 53.81 53.82 53.83 53.85 53.86 53.87 53.88 53.90 53.91 53.92 53.93 53.95 53.96 53.97 53.99 54.00 54.01 54.03 54.04 54.05 54.07 54.08 54.09 54.10 54.12 54.13 54.14 54.15 54.17 54.18 54.19 54.20 54.21 54.22 54.23 54.24 54.25 54.26 54.27 54.28 54.29 54.30 54.31 54.32 54.32 54.33 54.34 54.34 54.35 54.35 54.36 54.36 54.37 54.37 54.37 54.38 54.38 54.38 54.38 54.38 54.38 54.38 54.38 54.38 54.38 54.38 54.37 54.37 54.37 54.36 54.36 54.35 54.35 54.34 54.33 54.33 54.32 54.31 54.30 54.29 54.28 54.27 54.26 54.25 54.24 54.23 54.22 54.21 54.19 54.18 54.17 54.15 54.14 54.12 54.11 54.09 54.08 54.06 54.05 54.03 54.01 54.00 53.98 53.96 53.95 53.93 53.91 53.89 53.88 53.86 53.84 53.82 53.80 53.79 53.77 53.75 53.73 53.71 53.70 53.68 53.66 53.64 53.62 53.61 53.59 53.57 53.55 53.54 53.52 53.50 53.49 53.47 53.45 53.44 53.42 53.41 53.39 53.38 53.36 53.35 53.33 53.32 53.31 53.29 53.28 53.27 53.26 53.25 53.24 53.23 53.22 53.21 53.20 53.19 53.18 53.17 53.17 53.16 53.15 53.15 53.14 53.14 53.13 53.13 53.13 53.12 53.12 53.12 53.12 53.12 53.12 53.12 53.12 53.12 53.12 53.12 53.13 53.13 53.13 53.14 53.14 53.15 53.15 53.16 53.16 53.17 53.18 53.18 53.19 53.20 53.21 53.22 53.23 53.24 53.25 53.26 53.27 53.28 53.29 53.30 53.31 53.32 53.33 53.35 53.36 53.37 53.38 53.40 53.41 53.42 53.43 53.45 53.46 53.47 53.49 53.50 53.51 53.53 53.54 53.55 53.57 53.58 53.59 53.60 53.62 53.63 53.64 53.65 53.67 53.68 53.69 53.70 53.71 53.72 53.73 53.74 53.75 53.76 53.77 53.78 53.79 53.80 53.81 53.82 53.82 53.83 53.84 53.84 53.85 53.85 53.86 53.86 53.87 53.87 53.87 53.88 53.88 53.88 53.88 53.88 53.88 53.88 53.88 53.88 53.88 53.88 53.87 53.87 53.87 53.86 53.86 53.85 53.85 53.84 53.83 53.83 53.82 53.81 53.80 53.79 53.78 53.77 53.76 53.75 53.74 53.73 53.72 53.71 53.69 53.68 53.67 53.65 53.64 53.62 53.61 53.59 53.58 53.56 53.55 53.53 53.51 53.50 53.48 53.46 53.45 53.43 53.41 53.39 53.38 53.36 53.34 53.32 53.30 53.29 53.27 53.25 53.23 53.21 53.20 53.18 53.16 53.14 53.12 53.11 53.09 53.07 53.05 53.04 53.02 53.00 52.99 52.97 52.95 52.94 52.92 52.91 52.89 52.88 52.86 52.85 52.83 52.82 52.81 52.79 52.78 52.77 52.76 52.75 52.74 52.73 52.72 52.71 52.70 52.69 52.68 52.67 52.67 52.66 52.65 52.65 52.64 52.64 52.63 52.63 52.63 52.62 52.62 52.62 52.62 52.62 52.62 52.62 52.62 52.62 52.62 52.62 52.63 52.63 52.63 52.64 52.64 52.65 52.65 52.66 52.66 52.67 52.68 52.68 52.69 52.70 52.71 52.72 52.73 52.74 52.75 52.76 52.77 52.78 52.79 52.80 52.81 52.82 52.83 52.85 52.86 52.87 52.88 52.90 52.91 52.92 52.93 52.95 52.96 52.97 52.99 53.00 53.01 53.03 53.04 53.05 53.07 53.08 53.09 53.10 53.12 53.13 53.14 53.15 53.17 53.18 53.19 53.20 53.21 53.22 53.23 53.24 53.25 53.26 53.27 53.28 53.29 53.30 53.31 53.32 53.32 53.33 53.34 53.34 53.35 53.35 53.36 53.36 53.37 53.37 53.37 53.38 53.38 53.38 53.38 53.38 53.38 53.38 53.38 53.38 53.38 53.38 53.37 53.37 53.37 53.36 53.36 53.35 53.35 53.34 53.33 53.33 53.32 53.31 53.30 53.29 53.28 53.27 53.26 53.25 53.24 53.23 53.22 53.21 53.19 53.18 53.17 53.15 53.14 53.12 53.11 53.09 53.08 53.06 53.05 53.03 53.01 53.00 52.98 52.96 52.95 52.93 52.91 52.89 52.88 52.86 52.84 52.82 52.80 52.79 52.77
54.20 54.18 54.16 54.15 54.13 54.11 54.09 54.07 54.06 54.04 54.02 54.00 53.99 53.97 53.95 53.94 53.92 53.90 53.89 53.87 53.86 53.84 53.83 53.81 53.80 53.78 53.77 53.76 53.74 53.73 53.72 53.71 53.70 53.69 53.68 53.67 53.66 53.65 53.64 53.63 53.62 53.62 53.61 53.60 53.60 53.59 53.59 53.58 53.58 53.58 53.58 53.57 53.57 53.57 53.57 53.57 53.57 53.57 53.57 53.57 53.57 53.58 53.58 53.58 53.59 53.59 53.60 53.60 53.61 53.61 53.62 53.63 53.63 53.64 53.65 53.66 53.67 53.68 53.69 53.70 53.71 53.72 53.73 53.74 53.75 53.76 53.77 53.78 53.80 53.81 53.82 53.83 53.85 53.86 53.87 53.88 53.90 53.91 53.92 53.94 53.95 53.96 53.98 53.99 54.00 54.02 54.03 54.04 54.05 54.07 54.08 54.09 54.10 54.12 54.13 54.14 54.15 54.16 54.17 54.18 54.19 54.20 54.21 54.22 54.23 54.24 54.25 54.26 54.27 54.27 54.28 54.29 54.29 54.30 54.30 54.31 54.31 54.32 54.32 54.32 54.33 54.33 54.33 54.33 54.33 54.33 54.33 54.33 54.33 54.33 54.33 54.32 54.32 54.32 54.31 54.31 54.30 54.30 54.29 54.28 54.28 54.27 54.26 54.25 54.24 54.23 54.22 54.21 54.20 54.19 54.18 54.17 54.16 54.14 54.13 54.12 54.10 54.09 54.07 54.06 54.04 54.03 54.01 54.00 53.98 53.96 53.95 53.93 53.91 53.90 53.88 53.86 53.84 53.83 53.81 53.79 53.77 53.75 53.74 53.72 53.70 53.68 53.66 53.65 53.63 53.61 53.59 53.57 53.56 53.54 53.52 53.50 53.49 53.47 53.45 53.44 53.42 53.40 53.39 53.37 53.36 53.34 53.33 53.31 53.30 53.28 53.27 53.26 53.24 53.23 53.22 53.21 53.20 53.19 53.18 53.17 53.16 53.15 53.14 53.13 53.12 53.12 53.11 53.10 53.10 53.09 53.09 53.08 53.08 53.08 53.08 53.07 53.07 53.07 53.07 53.07 53.07 53.07 53.07 53.07 53.07 53.08 53.08 53.08 53.09 53.09 53.10 53.10 53.11 53.11 53.12 53.13 53.13 53.14 53.15 53.16 53.17 53.18 53.19 53.20 53.21 53.22 53.23 53.24 53.25 53.26 53.27 53.28 53.30 53.31 53.32 53.33 53.35 53.36 53.37 53.38 53.40 53.41 53.42 53.44 53.45 53.46 53.48 53.49 53.50 53.52 53.53 53.54 53.55 53.57 53.58 53.59 53.60 53.62 53.63 53.64 53.65 53.66 53.67 53.68 53.69 53.70 53.71 53.72 53.73 53.74 53.75 53.76 53.77 53.77 53.78 53.79 53.79 53.80 53.80 53.81 53.81 53.82 53.82 53.82 53.83 53.83 53.83 53.83 53.83 53.83 53.83 53.83 53.83 53.83 53.83 53.82 53.82 53.82 53.81 53.81 53.80 53.80 53.79 53.78 53.78 53.77 53.76 53.75 53.74 53.73 53.72 53.71 53.70 53.69 53.68 53.67 53.66 53.64 53.63 53.62 53.60 53.59 53.57 53.56 53.54 53.53 53.51 53.50 53.48 53.46 53.45 53.43 53.41 53.40 53.38 53.36 53.34 53.33 53.31 53.29 53.27 53.25 53.24 53.22 53.20 53.18 53.16 53.15 53.13 53.11 53.09 53.07 53.06 53.04 53.02 53.00 52.99 52.97 52.95 52.94 52.92 52.90 52.89 52.87 52.86 52.84 52.83 52.81 52.80 52.78 52.77 52.76 52.74 52.73 52.72 52.71 52.70 52.69 52.68 52.67 52.66 52.65 52.64 52.63 52.62 52.62 52.61 52.60 52.60 52.59 52.59 52.58 52.58 52.58 52.58 52.57 52.57 52.57 52.57 52.57 52.57 52.57 52.57 52.57 52.57 52.58 52.58 52.58 52.59 52.59 52.60 52.60 52.61 52.61 52.62 52.63 52.63 52.64 52.65 52.66 52.67 52.68 52.69 52.70 52.71 52.72 52.73 52.74 52.75 52.76 52.77 52.78 52.80 52.81 52.82 52.83 52.85 52.86 52.87 52.88 52.90 52.91 52.92 52.94 52.95 52.96 52.98 52.99 53.00 53.02 53.03 53.04 53.05 53.07 53.08 53.09 53.10 53.12 53.13 53.14 53.15 53.16 53.17 53.18 53.19 53.20 53.21 53.22 53.23 53.24 53.25 53.26 53.27 53.27 53.28 53.29 53.29 53.30 53.30 53.31 53.31 53.32 53.32 53.32 53.33 53.33 53.33 53.33 53.33 53.33 53.33 53.33 53.33 53.33 53.33 53.32 53.32 53.32 53.31 53.31 53.30 53.30 53.29 53.28 53.28 53.27 53.26 53.25 53.24 53.23 53.22 53.21 53.20 53.19 53.18 53.17 53.16 53.14 53.13 53.12 53.10 53.09 53.07 53.06 53.04 53.03 53.01 53.00 52.98 52.96 52.95 52.93 52.91 52.90 52.88 52.86 52.84 52.83 52.81 52.79 52.77 52.75 52.74 52.72
54.15 54.13 54.11 54.10 54.08 54.06 54.04 54.02 54.01 53.99 53.97 53.95 53.94 53.92 53.90 53.89 53.87 53.85 53.84 53.82 53.81 53.79 53.78 53.76 53.75 53.73 53.72 53.71 53.69 53.68 53.67 53.66 53.65 53.64 53.63 53.62 53.61 53.60 53.59 53.58 53.57 53.57 53.56 53.55 53.55 53.54 53.54 53.53 53.53 53.53 53.52 53.52 53.52 53.52 53.52 53.52 53.52 53.52 53.52 53.52 53.52 53.53 53.53 53.53 53.54 53.54 53.55 53.55 53.56 53.56 53.57 53.58 53.58 53.59 53.60 53.61 53.62 53.63 53.64 53.65 53.66 53.67 53.68 53.69 53.70 53.71 53.72 53.73 53.75 53.76 53.77 53.78 53.80 53.81 53.82 53.83 53.85 53.86 53.87 53.89 53.90 53.91 53.93 53.94 53.95 53.97 53.98 53.99 54.00 54.02 54.03 54.04 54.05 54.07 54.08 54.09 54.10 54.11 54.12 54.13 54.14 54.15 54.16 54.17 54.18 54.19 54.20 54.21 54.22 54.22 54.23 54.24 54.24 54.25 54.25 54.26 54.26 54.27 54.27 54.27 54.28 54.28 54.28 54.28 54.28 54.28 54.28 54.28 54.28 54.28 54.27 54.27 54.27 54.27 54.26 54.26 54.25 54.25 54.24 54.23 54.23 54.22 54.21 54.20 54.19 54.18 54.17 54.16 54.15 54.14 54.13 54.12 54.11 54.09 54.08 54.07 54.05 54.04 54.02 54.01 53.99 53.98 53.96 53.95 53.93 53.91 53.90 53.88 53.86 53.85 53.83 53.81 53.79 53.78 53.76 53.74 53.72 53.70 53.69 53.67 53.65 53.63 53.61 53.60 53.58 53.56 53.54 53.52 53.51 53.49 53.47 53.45 53.44 53.42 53.40 53.39 53.37 53.35 53.34 53.32 53.31 53.29 53.28 53.26 53.25 53.23 53.22 53.21 53.19 53.18 53.17 53.16 53.15 53.14 53.13 53.12 53.11 53.10 53.09 53.08 53.07 53.07 53.06 53.05 53.05 53.04 53.04 53.03 53.03 53.03 53.02 53.02 53.02 53.02 53.02 53.02 53.02 53.02 53.02 53.02 53.02 53.03 53.03 53.03 53.04 53.04 53.05 53.05 53.06 53.06 53.07 53.08 53.08 53.09 53.10 53.11 53.12 53.13 53.14 53.15 53.16 53.17 53.18 53.19 53.20 53.21 53.22 53.23 53.25 53.26 53.27 53.28 53.30 53.31 53.32 53.33 53.35 53.36 53.37 53.39 53.40 53.41 53.43 53.44 53.45 53.47 53.48 53.49 53.50 53.52 53.53 53.54 53.55 53.57 53.58 53.59 53.60 53.61 53.62 53.63 53.64 53.65 53.66 53.67 53.68 53.69 53.70 53.71 53.72 53.72 53.73 53.74 53.74 53.75 53.75 53.76 53.76 53.77 53.77 53.77 53.78 53.78 53.78 53.78 53.78 53.78 53.78 53.78 53.78 53.78 53.77 53.77 53.77 53.77 53.76 53.76 53.75 53.75 53.74 53.73 53.73 53.72 53.71 53.70 53.69 53.68 53.67 53.66 53.65 53.64 53.63 53.62 53.61 53.59 53.58 53.57 53.55 53.54 53.52 53.51 53.49 53.48 53.46 53.45 53.43 53.41 53.40 53.38 53.36 53.35 53.33 53.31 53.29 53.28 53.26 53.24 53.22 53.20 53.19 53.17 53.15 53.13 53.11 53.10 53.08 53.06 53.04 53.02 53.01 52.99 52.97 52.95 52.94 52.92 52.90 52.89 52.87 52.85 52.84 52.82 52.81 52.79 52.78 52.76 52.75 52.73 52.72 52.71 52.69 52.68 52.67 52.66 52.65 52.64 52.63 52.62 52.61 52.60 52.59 52.58 52.57 52.57 52.56 52.55 52.55 52.54 52.54 52.53 52.53 52.53 52.52 52.52 52.52 52.52 52.52 52.52 52.52 52.52 52.52 52.52 52.52 52.53 52.53 52.53 52.54 52.54 52.55 52.55 52.56 52.56 52.57 52.58 52.58 52.59 52.60 52.61 52.62 52.63 52.64 52.65 52.66 52.67 52.68 52.69 52.70 52.71 52.72 52.73 52.75 52.76 52.77 52.78 52.80 52.81 52.82 52.83 52.85 52.86 52.87 52.89 52.90 52.91 52.93 52.94 52.95 52.97 52.98 52.99 53.00 53.02 53.03 53.04 53.05 53.07 53.08 53.09 53.10 53.11 53.12 53.13 53.14 53.15 53.16 53.17 53.18 53.19 53.20 53.21 53.22 53.22 53.23 53.24 53.24 53.25 53.25 53.26 53.26 53.27 53.27 53.27 53.28 53.28 53.28 53.28 53.28 53.28 53.28 53.28 53.28 53.28 53.27 53.27 53.27 53.27 53.26 53.26 53.25 53.25 53.24 53.23 53.23 53.22 53.21 53.20 53.19 53.18 53.17 53.16 53.15 53.14 53.13 53.12 53.11 53.09 53.08 53.07 53.05 53.04 53.02 53.01 52.99 52.98 52.96 52.95 52.93 52.91 52.90 52.88 52.86 52.85 52.83 52.81 52.79 52.78 52.76 52.74 52.72 52.70 52.69 52.67
54.10 54.08 54.06 54.05 54.03 54.01 53.99 53.97 53.96 53.94 53.92 53.90 53.89 53.87 53.85 53.84 53.82 53.80 53.79 53.77 53.76 53.74 53.73 53.71 53.70 53.68 53.67 53.66 53.64 53.63 53.62 53.61 53.60 53.59 53.58 53.57 53.56 53.55 53.54 53.53 53.52 53.52 53.51 53.50 53.50 53.49 53.49 53.48 53.48 53.48 53.48 53.47 53.47 53.47 53.47 53.47 53.47 53.47 53.47 53.47 53.47 53.48 53.48 53.48 53.49 53.49 53.50 53.50 53.51 53.51 53.52 53.53 53.53 53.54 53.55 53.56 53.57 53.58 53.59 53.60 53.61 53.62 53.63 53.64 53.65 53.66 53.67 53.68 53.70 53.71 53.72 53.73 53.75 53.76 53.77 53.78 53.80 53.81 53.82 53.84 53.85 53.86 53.88 53.89 53.90 53.92 53.93 53.94 53.95 53.97 53.98 53.99 54.00 54.02 54.03 54.04 54.05 54.06 54.07 54.08 54.09 54.10 54.11 54.12 54.13 54.14 54.15 54.16 54.17 54.17 54.18 54.19 54.19 54.20 54.20 54.21 54.21 54.22 54.22 54.22 54.23 54.23 54.23 54.23 54.23 54.23 54.23 54.23 54.23 54.23 54.23 54.22 54.22 54.22 54.21 54.21 54.20 54.20 54.19 54.18 54.18 54.17 54.16 54.15 54.14 54.13 54.12 54.11 54.10 54.09 54.08 54.07 54.06 54.04 54.03 54.02 54.00 53.99 53.97 53.96 53.94 53.93 53.91 53.90 53.88 53.86 53.85 53.83 53.81 53.80 53.78 53.76 53.74 53.73 53.71 53.69 53.67 53.65 53.64 53.62 53.60 53.58 53.56 53.55 53.53 53.51 53.49 53.47 53.46 53.44 53.42 53.40 53.39 53.37 53.35 53.34 53.32 53.30 53.29 53.27 53.26 53.24 53.23 53.21 53.20 53.18 53.17 53.16 53.14 53.13 53.12 53.11 53.10 53.09 53.08 53.07 53.06 53.05 53.04 53.03 53.02 53.02 53.01 53.00 53.00 52.99 52.99 52.98 52.98 52.98 52.98 52.97 52.97 52.97 52.97 52.97 52.97 52.97 52.97 52.97 52.97 52.98 52.98 52.98 52.99 52.99 53.00 53.00 53.01 53.01 53.02 53.03 53.03 53.04 53.05 53.06 53.07 53.08 53.09 53.10 53.11 53.12 53.13 53.14 53.15 53.16 53.17 53.18 53.20 53.21 53.22 53.23 53.25 53.26 53.27 53.28 53.30 53.31 53.32 53.34 53.35 53.36 53.38 53.39 53.40 53.42 53.43 53.44 53.45 53.47 53.48 53.49 53.50 53.52 53.53 53.54 53.55 53.56 53.57 53.58 53.59 53.60 53.61 53.62 53.63 53.64 53.65 53.66 53.67 53.67 53.68 53.69 53.69 53.70 53.70 53.71 53.71 53.72 53.72 53.72 53.73 53.73 53.73 53.73 53.73 53.73 53.73 53.73 53.73 53.73 53.73 53.72 53.72 53.72 53.71 53.71 53.70 53.70 53.69 53.68 53.68 53.67 53.66 53.65 53.64 53.63 53.62 53.61 53.60 53.59 53.58 53.57 53.56 53.54 53.53 53.52 53.50 53.49 53.47 53.46 53.44 53.43 53.41 53.40 53.38 53.36 53.35 53.33 53.31 53.30 53.28 53.26 53.24 53.23 53.21 53.19 53.17 53.15 53.14 53.12 53.10 53.08 53.06 53.05 53.03 53.01 52.99 52.97 52.96 52.94 52.92 52.90 52.89 52.87 52.85 52.84 52.82 52.80 52.79 52.77 52.76 52.74 52.73 52.71 52.70 52.68 52.67 52.66 52.64 52.63 52.62 52.61 52.60 52.59 52.58 52.57 52.56 52.55 52.54 52.53 52.52 52.52 52.51 52.50 52.50 52.49 52.49 52.48 52.48 52.48 52.48 52.47 52.47 52.47 52.47 52.47 52.47 52.47 52.47 52.47 52.47 52.48 52.48 52.48 52.49 52.49 52.50 52.50 52.51 52.51 52.52 52.53 52.53 52.54 52.55 52.56 52.57 52.58 52.59 52.60 52.61 52.62 52.63 52.64 52.65 52.66 52.67 52.68 52.70 52.71 52.72 52.73 52.75 52.76 52.77 52.78 52.80 52.81 52.82 52.84 52.85 52.86 52.88 52.89 52.90 52.92 52.93 52.94 52.95 52.97 52.98 52.99 53.00 53.02 53.03 53.04 53.05 53.06 53.07 53.08 53.09 53.10 53.11 53.12 53.13 53.14 53.15 53.16 53.17 53.17 53.18 53.19 53.19 53.20 53.20 53.21 53.21 53.22 53.22 53.22 53.23 53.23 53.23 53.23 53.23 53.23 53.23 53.23 53.23 53.23 53.23 53.22 53.22 53.22 53.21 53.21 53.20 53.20 53.19 53.18 53.18 53.17 53.16 53.15 53.14 53.13 53.12 53.11 53.10 53.09 53.08 53.07 53.06 53.04 53.03 53.02 53.00 52.99 52.97 52.96 52.94 52.93 52.91 52.90 52.88 52.86 52.85 52.83 52.81 52.80 52.78 52.76 52.74 52.73 52.71 52.69 52.67 52.65 52.64 52.62
54.05 54.03 54.01 54.00 53.98 53.96 53.94 53.92 53.91 53.89 53.87 53.85 53.84 53.82 53.80 53.79 53.77 53.75 53.74 53.72 53.71 53.69 53.68 53.66 53.65 53.63 53.62 53.61 53.59 53.58 53.57 53.56 53.55 53.54 53.53 53.52 53.51 53.50 53.49 53.48 53.47 53.47 53.46 53.45 53.45 53.44 53.44 53.43 53.43 53.43 53.42 53.42 53.42 53.42 53.42 53.42 53.42 53.42 53.42 53.42 53.42 53.43 53.43 53.43 53.44 53.44 53.45 53.45 53.46 53.46 53.47 53.48 53.48 53.49 53.50 53.51 53.52 53.53 53.54 53.55 53.56 53.57 53.58 53.59 53.60 53.61 53.62 53.63 53.65 53.66 53.67 53.68 53.70 53.71 53.72 53.73 53.75 53.76 53.77 53.79 53.80 53.81 53.83 53.84 53.85 53.87 53.88 53.89 53.90 53.92 53.93 53.94 53.95 53.97 53.98 53.99 54.00 54.01 54.02 54.03 54.04 54.05 54.06 54.07 54.08 54.09 54.10 54.11 54.12 54.12 54.13 54.14 54.14 54.15 54.15 54.16 54.16 54.17 54.17 54.17 54.18 54.18 54.18 54.18 54.18 54.18 54.18 54.18 54.18 54.18 54.17 54.17 54.17 54.17 54.16 54.16 54.15 54.15 54.14 54.13 54.13 54.12 54.11 54.10 54.09 54.08 54.07 54.06 54.05 54.04 54.03 54.02 54.01 53.99 53.98 53.97 53.95 53.94 53.92 53.91 53.89 53.88 53.86 53.85 53.83 53.81 53.80 53.78 53.76 53.75 53.73 53.71 53.69 53.68 53.66 53.64 53.62 53.60 53.59 53.57 53.55 53.53 53.51 53.50 53.48 53.46 53.44 53.42 53.41 53.39 53.37 53.35 53.34 53.32 53.30 53.29 53.27 53.25 53.24 53.22 53.21 53.19 53.18 53.16 53.15 53.13 53.12 53.11 53.09 53.08 53.07 53.06 53.05 53.04 53.03 53.02 53.01 53.00 52.99 52.98 52.97 52.97 52.96 52.95 52.95 52.94 52.94 52.93 52.93 52.93 52.92 52.92 52.92 52.92 52.92 52.92 52.92 52.92 52.92 52.92 52.92 52.93 52.93 52.93 52.94 52.94 52.95 52.95 52.96 52.96 52.97 52.98 52.98 52.99 53.00 53.01 53.02 53.03 53.04 53.05 53.06 53.07 53.08 53.09 53.10 53.11 53.12 53.13 53.15 53.16 53.17 53.18 53.20 53.21 53.22 53.23 53.25 53.26 53.27 53.29 53.30 53.31 53.33 53.34 53.35 53.37 53.38 53.39 53.40 53.42 53.43 53.44 53.45 53.47 53.48 53.49 53.50 53.51 53.52 53.53 53.54 53.55 53.56 53.57 53.58 53.59 53.60 53.61 53.62 53.62 53.63 53.64 53.64 53.65 53.65 53.66 53.66 53.67 53.67 53.67 53.68 53.68 53.68 53.68 53.68 53.68 53.68 53.68 53.68 53.68 53.67 53.67 53.67 53.67 53.66 53.66 53.65 53.65 53.64 53.63 53.63 53.62 53.61 53.60 53.59 53.58 53.57 53.56 53.55 53.54 53.53 53.52 53.51 53.49 53.48 53.47 53.45 53.44 53.42 53.41 53.39 53.38 53.36 53.35 53.33 53.31 53.30 53.28 53.26 53.25 53.23 53.21 53.19 53.18 53.16 53.14 53.12 53.10 53.09 53.07 53.05 53.03 53.01 53.00 52.98 52.96 52.94 52.92 52.91 52.89 52.87 52.85 52.84 52.82 52.80 52.79 52.77 52.75 52.74 52.72 52.71 52.69 52.68 52.66 52.65 52.63 52.62 52.61 52.59 52.58 52.57 52.56 52.55 52.54 52.53 52.52 52.51 52.50 52.49 52.48 52.47 52.47 52.46 52.45 52.45 52.44 52.44 52.43 52.43 52.43 52.42 52.42 52.42 52.42 52.42 52.42 52.42 52.42 52.42 52.42 52.42 52.43 52.43 52.43 52.44 52.44 52.45 52.45 52.46 52.46 52.47 52.48 52.48 52.49 52.50 52.51 52.52 52.53 52.54 52.55 52.56 52.57 52.58 52.59 52.60 52.61 52.62 52.63 52.65 52.66 52.67 52.68 52.70 52.71 52.72 52.73 52.75 52.76 52.77 52.79 52.80 52.81 52.83 52.84 52.85 52.87 52.88 52.89 52.90 52.92 52.93 52.94 52.95 52.97 52.98 52.99 53.00 53.01 53.02 53.03 53.04 53.05 53.06 53.07 53.08 53.09 53.10 53.11 53.12 53.12 53.13 53.14 53.14 53.15 53.15 53.16 53.16 53.17 53.17 53.17 53.18 53.18 53.18 53.18 53.18 53.18 53.18 53.18 53.18 53.18 53.17 53.17 53.17 53.17 53.16 53.16 53.15 53.15 53.14 53.13 53.13 53.12 53.11 53.10 53.09 53.08 53.07 53.06 53.05 53.04 53.03 53.02 53.01 52.99 52.98 52.97 52.95 52.94 52.92 52.91 52.89 52.88 52.86 52.85 52.83 52.81 52.80 52.78 52.76 52.75 52.73 52.71 52.69 52.68 52.66 52.64 52.62 52.60 52.59 52.57
54.00 53.98 53.96 53.95 53.93 53.91 53.89 53.87 53.86 53.84 53.82 53.80 53.79 53.77 53.75 53.74 53.72 53.70 53.69 53.67 53.66 53.64 53.63 53.61 53.60 53.58 53.57 53.56 53.54 53.53 53.52 53.51 53.50 53.49 53.48 53.47 53.46 53.45 53.44 53.43 53.42 53.42 53.41 53.40 53.40 53.39 53.39 53.38 53.38 53.38 53.38 53.37 53.37 53.37 53.37 53.37 53.37 53.37 53.37 53.37 53.37 53.38 53.38 53.38 53.39 53.39 53.40 53.40 53.41 53.41 53.42 53.43 53.43 53.44 53.45 53.46 53.47 53.48 53.49 53.50 53.51 53.52 53.53 53.54 53.55 53.56 53.57 53.58 53.60 53.61 53.62 53.63 53.65 53.66 53.67 53.68 53.70 53.71 53.72 53.74 53.75 53.76 53.78 53.79 53.80 53.82 53.83 53.84 53.85 53.87 53.88 53.89 53.90 53.92 53.93 53.94 53.95 53.96 53.97 53.98 53.99 54.00 54.01 54.02 54.03 54.04 54.05 54.06 54.07 54.07 54.08 54.09 54.09 54.10 54.10 54.11 54.11 54.12 54.12 54.12 54.13 54.13 54.13 54.13 54.13 54.13 54.13 54.13 54.13 54.13 54.12 54.12 54.12 54.12 54.11 54.11 54.10 54.10 54.09 54.08 54.08 54.07 54.06 54.05 54.04 54.03 54.02 54.01 54.00 53.99 53.98 53.97 53.96 53.94 53.93 53.92 53.90 53.89 53.87 53.86 53.84 53.83 53.81 53.80 53.78 53.76 53.75 53.73 53.71 53.70 53.68 53.66 53.64 53.63 53.61 53.59 53.57 53.55 53.54 53.52 53.50 53.48 53.46 53.45 53.43 53.41 53.39 53.37 53.36 53.34 53.32 53.30 53.29 53.27 53.25 53.24 53.22 53.20 53.19 53.17 53.16 53.14 53.13 53.11 53.10 53.08 53.07 53.06 53.04 53.03 53.02 53.01 53.00 52.99 52.98 52.97 52.96 52.95 52.94 52.93 52.92 52.92 52.91 52.90 52.90 52.89 52.89 52.88 52.88 52.88 52.88 52.87 52.87 52.87 52.87 52.87 52.87 52.87 52.87 52.87 52.87 52.88 52.88 52.88 52.89 52.89 52.90 52.90 52.91 52.91 52.92 52.93 52.93 52.94 52.95 52.96 52.97 52.98 52.99 53.00 53.01 53.02 53.03 53.04 53.05 53.06 53.07 53.08 53.10 53.11 53.12 53.13 53.15 53.16 53.17 53.18 53.20 53.21 53.22 53.24 53.25 53.26 53.28 53.29 53.30 53.32 53.33 53.34 53.35 53.37 53.38 53.39 53.40 53.42 53.43 53.44 53.45 53.46 53.47 53.48 53.49 53.50 53.51 53.52 53.53 53.54 53.55 53.56 53.57 53.57 53.58 53.59 53.59 53.60 53.60 53.61 53.61 53.62 53.62 53.62 53.63 53.63 53.63 53.63 53.63 53.63 53.63 53.63 53.63 53.63 53.62 53.62 53.62 53.62 53.61 53.61 53.60 53.60 53.59 53.58 53.58 53.57 53.56 53.55 53.54 53.53 53.52 53.51 53.50 53.49 53.48 53.47 53.46 53.44 53.43 53.42 53.40 53.39 53.37 53.36 53.34 53.33 53.31 53.30 53.28 53.26 53.25 53.23 53.21 53.20 53.18 53.16 53.14 53.13 53.11 53.09 53.07 53.05 53.04 53.02 53.00 52.98 52.96 52.95 52.93 52.91 52.89 52.87 52.86 52.84 52.82 52.80 52.79 52.77 52.75 52.74 52.72 52.70 52.69 52.67 52.66 52.64 52.63 52.61 52.60 52.58 52.57 52.56 52.54 52.53 52.52 52.51 52.50 52.49 52.48 52.47 52.46 52.45 52.44 52.43 52.42 52.42 52.41 52.40 52.40 52.39 52.39 52.38 52.38 52.38 52.38 52.37 52.37 52.37 52.37 52.37 52.37 52.37 52.37 52.37 52.37 52.38 52.38 52.38 52.39 52.39 52.40 52.40 52.41 52.41 52.42 52.43 52.43 52.44 52.45 52.46 52.47 52.48 52.49 52.50 52.51 52.52 52.53 52.54 52.55 52.56 52.57 52.58 52.60 52.61 52.62 52.63 52.65 52.66 52.67 52.68 52.70 52.71 52.72 52.74 52.75 52.76 52.78 52.79 52.80 52.82 52.83 52.84 52.85 52.87 52.88 52.89 52.90 52.92 52.93 52.94 52.95 52.96 52.97 52.98 52.99 53.00 53.01 53.02 53.03 53.04 53.05 53.06 53.07 53.07 53.08 53.09 53.09 53.10 53.10 53.11 53.11 53.12 53.12 53.12 53.13 53.13 53.13 53.13 53.13 53.13 53.13 53.13 53.13 53.13 53.12 53.12 53.12 53.12 53.11 53.11 53.10 53.10 53.09 53.08 53.08 53.07 53.06 53.05 53.04 53.03 53.02 53.01 53.00 52.99 52.98 52.97 52.96 52.94 52.93 52.92 52.90 52.89 52.87 52.86 52.84 52.83 52.81 52.80 52.78 52.76 52.75 52.73 52.71 52.70 52.68 52.66 52.64 52.63 52.61 52.59 52.57 52.55 52.54 52.52
53.95 53.93 53.91 53.90 53.88 53.86 53.84 53.82 53.81 53.79 53.77 53.75 53.74 53.72 53.70 53.69 53.67 53.65 53.64 53.62 53.61 53.59 53.58 53.56 53.55 53.53 53.52 53.51 53.49 53.48 53.47 53.46 53.45 53.44 53.43 53.42 53.41 53.40 53.39 53.38 53.37 53.37 53.36 53.35 53.35 53.34 53.34 53.33 53.33 53.33 53.33 53.32 53.32 53.32 53.32 53.32 53.32 53.32 53.32 53.32 53.32 53.33 53.33 53.33 53.34 53.34 53.35 53.35 53.36 53.36 53.37 53.38 53.38 53.39 53.40 53.41 53.42 53.43 53.44 53.45 53.46 53.47 53.48 53.49 53.50 53.51 53.52 53.53 53.55 53.56 53.57 53.58 53.60 53.61 53.62 53.63 53.65 53.66 53.67 53.69 53.70 53.71 53.73 53.74 53.75 53.77 53.78 53.79 53.80 53.82 53.83 53.84 53.85 53.87 53.88 53.89 53.90 53.91 53.92 53.93 53.94 53.95 53.96 53.97 53.98 53.99 54.00 54.01 54.02 54.02 54.03 54.04 54.04 54.05 54.05 54.06 54.06 54.07 54.07 54.07 54.08 54.08 54.08 54.08 54.08 54.08 54.08 54.08 54.08 54.08 54.08 54.07 54.07 54.07 54.06 54.06 54.05 54.05 54.04 54.03 54.03 54.02 54.01 54.00 53.99 53.98 53.97 53.96 53.95 53.94 53.93 53.92 53.91 53.89 53.88 53.87 53.85 53.84 53.82 53.81 53.79 53.78 53.76 53.75 53.73 53.71 53.70 53.68 53.66 53.65 53.63 53.61 53.59 53.58 53.56 53.54 53.52 53.50 53.49 53.47 53.45 53.43 53.41 53.40 53.38 53.36 53.34 53.32 53.31 53.29 53.27 53.25 53.24 53.22 53.20 53.19 53.17 53.15 53.14 53.12 53.11 53.09 53.08 53.06 53.05 53.03 53.02 53.01 52.99 52.98 52.97 52.96 52.95 52.94 52.93 52.92 52.91 52.90 52.89 52.88 52.87 52.87 52.86 52.85 52.85 52.84 52.84 52.83 52.83 52.83 52.83 52.82 52.82 52.82 52.82 52.82 52.82 52.82 52.82 52.82 52.82 52.83 52.83 52.83 52.84 52.84 52.85 52.85 52.86 52.86 52.87 52.88 52.88 52.89 52.90 52.91 52.92 52.93 52.94 52.95 52.96 52.97 52.98 52.99 53.00 53.01 53.02 53.03 53.05 53.06 53.07 53.08 53.10 53.11 53.12 53.13 53.15 53.16 53.17 53.19 53.20 53.21 53.23 53.24 53.25 53.27 53.28 53.29 53.30 53.32 53.33 53.34 53.35 53.37 53.38 53.39 53.40 53.41 53.42 53.43 53.44 53.45 53.46 53.47 53.48 53.49 53.50 53.51 53.52 53.52 53.53 53.54 53.54 53.55 53.55 53.56 53.56 53.57 53.57 53.57 53.58 53.58 53.58 53.58 53.58 53.58 53.58 53.58 53.58 53.58 53.58 53.57 53.57 53.57 53.56 53.56 53.55 53.55 53.54 53.53 53.53 53.52 53.51 53.50 53.49 53.48 53.47 53.46 53.45 53.44 53.43 53.42 53.41 53.39 53.38 53.37 53.35 53.34 53.32 53.31 53.29 53.28 53.26 53.25 53.23 53.21 53.20 53.18 53.16 53.15 53.13 53.11 53.09 53.08 53.06 53.04 53.02 53.00 52.99 52.97 52.95 52.93 52.91 52.90 52.88 52.86 52.84 52.82 52.81 52.79 52.77 52.75 52.74 52.72 52.70 52.69 52.67 52.65 52.64 52.62 52.61 52.59 52.58 52.56 52.55 52.53 52.52 52.51 52.49 52.48 52.47 52.46 52.45 52.44 52.43 52.42 52.41 52.40 52.39 52.38 52.37 52.37 52.36 52.35 52.35 52.34 52.34 52.33 52.33 52.33 52.33 52.32 52.32 52.32 52.32 52.32 52.32 52.32 52.32 52.32 52.32 52.33 52.33 52.33 52.34 52.34 52.35 52.35 52.36 52.36 52.37 52.38 52.38 52.39 52.40 52.41 52.42 52.43 52.44 52.45 52.46 52.47 52.48 52.49 52.50 52.51 52.52 52.53 52.55 52.56 52.57 52.58 52.60 52.61 52.62 52.63 52.65 52.66 52.67 52.69 52.70 52.71 52.73 52.74 52.75 52.77 52.78 52.79 52.80 52.82 52.83 52.84 52.85 52.87 52.88 52.89 52.90 52.91 52.92 52.93 52.94 52.95 52.96 52.97 52.98 52.99 53.00 53.01 53.02 53.02 53.03 53.04 53.04 53.05 53.05 53.06 53.06 53.07 53.07 53.07 53.08 53.08 53.08 53.08 53.08 53.08 53.08 53.08 53.08 53.08 53.08 53.07 53.07 53.07 53.06 53.06 53.05 53.05 53.04 53.03 53.03 53.02 53.01 53.00 52.99 52.98 52.97 52.96 52.95 52.94 52.93 52.92 52.91 52.89 52.88 52.87 52.85 52.84 52.82 52.81 52.79 52.78 52.76 52.75 52.73 52.71 52.70 52.68 52.66 52.65 52.63 52.61 52.59 52.58 52.56 52.54 52.52 52.50 52.49 52.47
53.90 53.88 53.86 53.85 53.83 53.81 53.79 53.77 53.76 53.74 53.72 53.70 53.69 53.67 53.65 53.64 53.62 53.60 53.59 53.57 53.56 53.54 53.53 53.51 53.50 53.48 53.47 53.46 53.44 53.43 53.42 53.41 53.40 53.39 53.38 53.37 53.36 53.35 53.34 53.33 53.32 53.32 53.31 53.30 53.30 53.29 53.29 53.28 53.28 53.28 53.27 53.27 53.27 53.27 53.27 53.27 53.27 53.27 53.27 53.27 53.27 53.28 53.28 53.28 53.29 53.29 53.30 53.30 53.31 53.31 53.32 53.33 53.33 53.34 53.35 53.36 53.37 53.38 53.39 53.40 53.41 53.42 53.43 53.44 53.45 53.46 53.47 53.48 53.50 53.51 53.52 53.53 53.55 53.56 53.57 53.58 53.60 53.61 53.62 53.64 53.65 53.66 53.68 53.69 53.70 53.72 53.73 53.74 53.75 53.77 53.78 53.79 53.80 53.82 53.83 53.84 53.85 53.86 53.87 53.88 53.89 53.90 53.91 53.92 53.93 53.94 53.95 53.96 53.97 53.97 53.98 53.99 53.99 54.00 54.00 54.01 54.01 54.02 54.02 54.02 54.03 54.03 54.03 54.03 54.03 54.03 54.03 54.03 54.03 54.03 54.02 54.02 54.02 54.02 54.01 54.01 54.00 54.00 53.99 53.98 53.98 53.97 53.96 53.95 53.94 53.93 53.92 53.91 53.90 53.89 53.88 53.87 53.86 53.84 53.83 53.82 53.80 53.79 53.77 53.76 53.74 53.73 53.71 53.70 53.68 53.66 53.65 53.63 53.61 53.60 53.58 53.56 53.54 53.53 53.51 53.49 53.47 53.45 53.44 53.42 53.40 53.38 53.36 53.35 53.33 53.31 53.29 53.27 53.26 53.24 53.22 53.20 53.19 53.17 53.15 53.14 53.12 53.10 53.09 53.07 53.06 53.04 53.03 53.01 53.00 52.98 52.97 52.96 52.94 52.93 52.92 52.91 52.90 52.89 52.88 52.87 52.86 52.85 52.84 52.83 52.82 52.82 52.81 52.80 52.80 52.79 52.79 52.78 52.78 52.78 52.77 52.77 52.77 52.77 52.77 52.77 52.77 52.77 52.77 52.77 52.77 52.78 52.78 52.78 52.79 52.79 52.80 52.80 52.81 52.81 52.82 52.83 52.83 52.84 52.85 52.86 52.87 52.88 52.89 52.90 52.91 52.92 52.93 52.94 52.95 52.96 52.97 52.98 53.00 53.01 53.02 53.03 53.05 53.06 53.07 53.08 53.10 53.11 53.12 53.14 53.15 53.16 53.18 53.19 53.20 53.22 53.23 53.24 53.25 53.27 53.28 53.29 53.30 53.32 53.33 53.34 53.35 53.36 53.37 53.38 53.39 53.40 53.41 53.42 53.43 53.44 53.45 53.46 53.47 53.47 53.48 53.49 53.49 53.50 53.50 53.51 53.51 53.52 53.52 53.52 53.53 53.53 53.53 53.53 53.53 53.53 53.53 53.53 53.53 53.53 53.52 53.52 53.52 53.52 53.51 53.51 53.50 53.50 53.49 53.48 53.48 53.47 53.46 53.45 53.44 53.43 53.42 53.41 53.40 53.39 53.38 53.37 53.36 53.34 53.33 53.32 53.30 53.29 53.27 53.26 53.24 53.23 53.21 53.20 53.18 53.16 53.15 53.13 53.11 53.10 53.08 53.06 53.04 53.03 53.01 52.99 52.97 52.95 52.94 52.92 52.90 52.88 52.86 52.85 52.83 52.81 52.79 52.77 52.76 52.74 52.72 52.70 52.69 52.67 52.65 52.64 52.62 52.60 52.59 52.57 52.56 52.54 52.53 52.51 52.50 52.48 52.47 52.46 52.44 52.43 52.42 52.41 52.40 52.39 52.38 52.37 52.36 52.35 52.34 52.33 52.32 52.32 52.31 52.30 52.30 52.29 52.29 52.28 52.28 52.28 52.27 52.27 52.27 52.27 52.27 52.27 52.27 52.27 52.27 52.27 52.27 52.28 52.28 52.28 52.29 52.29 52.30 52.30 52.31 52.31 52.32 52.33 52.33 52.34 52.35 52.36 52.37 52.38 52.39 52.40 52.41 52.42 52.43 52.44 52.45 52.46 52.47 52.48 52.50 52.51 52.52 52.53 52.55 52.56 52.57 52.58 52.60 52.61 52.62 52.64 52.65 52.66 52.68 52.69 52.70 52.72 52.73 52.74 52.75 52.77 52.78 52.79 52.80 52.82 52.83 52.84 52.85 52.86 52.87 52.88 52.89 52.90 52.91 52.92 52.93 52.94 52.95 52.96 52.97 52.97 52.98 52.99 52.99 53.00 53.00 53.01 53.01 53.02 53.02 53.02 53.03 53.03 53.03 53.03 53.03 53.03 53.03 53.03 53.03 53.03 53.02 53.02 53.02 53.02 53.01 53.01 53.00 53.00 52.99 52.98 52.98 52.97 52.96 52.95 52.94 52.93 52.92 52.91 52.90 52.89 52.88 52.87 52.86 52.84 52.83 52.82 52.80 52.79 52.77 52.76 52.74 52.73 52.71 52.70 52.68 52.66 52.65 52.63 52.61 52.60 52.58 52.56 52.54 52.53 52.51 52.49 52.47 52.45 52.44 52.42
53.85 53.83 53.81 53.80 53.78 53.76 53.74 53.72 53.71 53.69 53.67 53.65 53.64 53.62 53.60 53.59 53.57 53.55 53.54 53.52 53.51 53.49 53.48 53.46 53.45 53.43 53.42 53.41 53.39 53.38 53.37 53.36 53.35 53.34 53.33 53.32 53.31 53.30 53.29 53.28 53.27 53.27 53.26 53.25 53.25 53.24 53.24 53.23 53.23 53.23 53.23 53.22 53.22 53.22 53.22 53.22 53.22 53.22 53.22 53.22 53.22 53.23 53.23 53.23 53.24 53.24 53.25 53.25 53.26 53.26 53.27 53.28 53.28 53.29 53.30 53.31 53.32 53.33 53.34 53.35 53.36 53.37 53.38 53.39 53.40 53.41 53.42 53.43 53.45 53.46 53.47 53.48 53.50 53.51 53.52 53.53 53.55 53.56 53.57 53.59 53.60 53.61 53.63 53.64 53.65 53.67 53.68 53.69 53.70 53.72 53.73 53.74 53.75 53.77 53.78 53.79 53.80 53.81 53.82 53.83 53.84 53.85 53.86 53.87 53.88 53.89 53.90 53.91 53.92 53.92 53.93 53.94 53.94 53.95 53.95 53.96 53.96 53.97 53.97 53.97 53.98 53.98 53.98 53.98 53.98 53.98 53.98 53.98 53.98 53.98 53.98 53.97 53.97 53.97 53.96 53.96 53.95 53.95 53.94 53.93 53.93 53.92 53.91 53.90 53.89 53.88 53.87 53.86 53.85 53.84 53.83 53.82 53.81 53.79 53.78 53.77 53.75 53.74 53.72 53.71 53.69 53.68 53.66 53.65 53.63 53.61 53.60 53.58 53.56 53.55 53.53 53.51 53.49 53.48 53.46 53.44 53.42 53.40 53.39 53.37 53.35 53.33 53.31 53.30 53.28 53.26 53.24 53.22 53.21 53.19 53.17 53.15 53.14 53.12 53.10 53.09 53.07 53.05 53.04 53.02 53.01 52.99 52.98 52.96 52.95 52.93 52.92 52.91 52.89 52.88 52.87 52.86 52.85 52.84 52.83 52.82 52.81 52.80 52.79 52.78 52.77 52.77 52.76 52.75 52.75 52.74 52.74 52.73 52.73 52.73 52.73 52.72 52.72 52.72 52.72 52.72 52.72 52.72 52.72 52.72 52.72 52.73 52.73 52.73 52.74 52.74 52.75 52.75 52.76 52.76 52.77 52.78 52.78 52.79 52.80 52.81 52.82 52.83 52.84 52.85 52.86 52.87 52.88 52.89 52.90 52.91 52.92 52.93 52.95 52.96 52.97 52.98 53.00 53.01 53.02 53.03 53.05 53.06 53.07 53.09 53.10 53.11 53.13 53.14 53.15 53.17 53.18 53.19 53.20 53.22 53.23 53.24 53.25 53.27 53.28 53.29 53.30 53.31 53.32 53.33 53.34 53.35 53.36 53.37 53.38 53.39 53.40 53.41 53.42 53.42 53.43 53.44 53.44 53.45 53.45 53.46 53.46 53.47 53.47 53.47 53.48 53.48 53.48 53.48 53.48 53.48 53.48 53.48 53.48 53.48 53.48 53.47 53.47 53.47 53.46 53.46 53.45 53.45 53.44 53.43 53.43 53.42 53.41 53.40 53.39 53.38 53.37 53.36 53.35 53.34 53.33 53.32 53.31 53.29 53.28 53.27 53.25 53.24 53.22 53.21 53.19 53.18 53.16 53.15 53.13 53.11 53.10 53.08 53.06 53.05 53.03 53.01 52.99 52.98 52.96 52.94 52.92 52.90 52.89 52.87 52.85 52.83 52.81 52.80 52.78 52.76 52.74 52.72 52.71 52.69 52.67 52.65 52.64 52.62 52.60 52.59 52.57 52.55 52.54 52.52 52.51 52.49 52.48 52.46 52.45 52.43 52.42 52.41 52.39 52.38 52.37 52.36 52.35 52.34 52.33 52.32 52.31 52.30 52.29 52.28 52.27 52.27 52.26 52.25 52.25 52.24 52.24 52.23 52.23 52.23 52.23 52.22 52.22 52.22 52.22 52.22 52.22 52.22 52.22 52.22 52.22 52.23 52.23 52.23 52.24 52.24 52.25 52.25 52.26 52.26 52.27 52.28 52.28 52.29 52.30 52.31 52.32 52.33 52.34 52.35 52.36 52.37 52.38 52.39 52.40 52.41 52.42 52.43 52.45 52.46 52.47 52.48 52.50 52.51 52.52 52.53 52.55 52.56 52.57 52.59 52.60 52.61 52.63 52.64 52.65 52.67 52.68 52.69 52.70 52.72 52.73 52.74 52.75 52.77 52.78 52.79 52.80 52.81 52.82 52.83 52.84 52.85 52.86 52.87 52.88 52.89 52.90 52.91 52.92 52.92 52.93 52.94 52.94 52.95 52.95 52.96 52.96 52.97 52.97 52.97 52.98 52.98 52.98 52.98 52.98 52.98 52.98 52.98 52.98 52.98 52.98 52.97 52.97 52.97 52.96 52.96 52.95 52.95 52.94 52.93 52.93 52.92 52.91 52.90 52.89 52.88 52.87 52.86 52.85 52.84 52.83 52.82 52.81 52.79 52.78 52.77 52.75 52.74 52.72 52.71 52.69 52.68 52.66 52.65 52.63 52.61 52.60 52.58 52.56 52.55 52.53 52.51 52.49 52.48 52.46 52.44 52.42 52.40 52.39 52.37
53.80 53.78 53.76 53.75 53.73 53.71 53.69 53.67 53.66 53.64 53.62 53.60 53.59 53.57 53.55 53.54 53.52 53.50 53.49 53.47 53.46 53.44 53.43 53.41 53.40 53.38 53.37 53.36 53.34 53.33 53.32 53.31 53.30 53.29 53.28 53.27 53.26 53.25 53.24 53.23 53.22 53.22 53.21 53.20 53.20 53.19 53.19 53.18 53.18 53.18 53.17 53.17 53.17 53.17 53.17 53.17 53.17 53.17 53.17 53.17 53.17 53.18 53.18 53.18 53.19 53.19 53.20 53.20 53.21 53.21 53.22 53.23 53.23 53.24 53.25 53.26 53.27 53.28 53.29 53.30 53.31 53.32 53.33 53.34 53.35 53.36 53.37 53.38 53.40 53.41 53.42 53.43 53.45 53.46 53.47 53.48 53.50 53.51 53.52 53.54 53.55 53.56 53.58 53.59 53.60 53.62 53.63 53.64 53.65 53.67 53.68 53.69 53.70 53.72 53.73 53.74 53.75 53.76 53.77 53.78 53.79 53.80 53.81 53.82 53.83 53.84 53.85 53.86 53.87 53.87 53.88 53.89 53.89 53.90 53.90 53.91 53.91 53.92 53.92 53.92 53.93 53.93 53.93 53.93 53.93 53.93 53.93 53.93 53.93 53.93 53.92 53.92 53.92 53.92 53.91 53.91 53.90 53.90 53.89 53.88 53.88 53.87 53.86 53.85 53.84 53.83 53.82 53.81 53.80 53.79 53.78 53.77 53.76 53.74 53.73 53.72 53.70 53.69 53.67 53.66 53.64 53.63 53.61 53.60 53.58 53.56 53.55 53.53 53.51 53.50 53.48 53.46 53.44 53.43 53.41 53.39 53.37 53.35 53.34 53.32 53.30 53.28 53.26 53.25 53.23 53.21 53.19 53.17 53.16 53.14 53.12 53.10 53.09 53.07 53.05 53.04 53.02 53.00 52.99 52.97 52.96 52.94 52.93 52.91 52.90 52.88 52.87 52.86 52.84 52.83 52.82 52.81 52.80 52.79 52.78 52.77 52.76 52.75 52.74 52.73 52.72 52.72 52.71 52.70 52.70 52.69 52.69 52.68 52.68 52.68 52.67 52.67 52.67 52.67 52.67 52.67 52.67 52.67 52.67 52.67 52.67 52.68 52.68 52.68 52.69 52.69 52.70 52.70 52.71 52.71 52.72 52.73 52.73 52.74 52.75 52.76 52.77 52.78 52.79 52.80 52.81 52.82 52.83 52.84 52.85 52.86 52.87 52.88 52.90 52.91 52.92 52.93 52.95 52.96 52.97 52.98 53.00 53.01 53.02 53.04 53.05 53.06 53.08 53.09 53.10 53.12 53.13 53.14 53.15 53.17 53.18 53.19 53.20 53.22 53.23 53.24 53.25 53.26 53.27 53.28 53.29 53.30 53.31 53.32 53.33 53.34 53.35 53.36 53.37 53.37 53.38 53.39 53.39 53.40 53.40 53.41 53.41 53.42 53.42 53.42 53.43 53.43 53.43 53.43 53.43 53.43 53.43 53.43 53.43 53.43 53.42 53.42 53.42 53.42 53.41 53.41 53.40 53.40 53.39 53.38 53.38 53.37 53.36 53.35 53.34 53.33 53.32 53.31 53.30 53.29 53.28 53.27 53.26 53.24 53.23 53.22 53.20 53.19 53.17 53.16 53.14 53.13 53.11 53.10 53.08 53.06 53.05 53.03 53.01 53.00 52.98 52.96 52.94 52.93 52.91 52.89 52.87 52.85 52.84 52.82 52.80 52.78 52.76 52.75 52.73 52.71 52.69 52.67 52.66 52.64 52.62 52.60 52.59 52.57 52.55 52.54 52.52 52.50 52.49 52.47 52.46 52.44 52.43 52.41 52.40 52.38 52.37 52.36 52.34 52.33 52.32 52.31 52.30 52.29 52.28 52.27 52.26 52.25 52.24 52.23 52.22 52.22 52.21 52.20 52.20 52.19 52.19 52.18 52.18 52.18 52.17 52.17 52.17 52.17 52.17 52.17 52.17 52.17 52.17 52.17 52.17 52.18 52.18 52.18 52.19 52.19 52.20 52.20 52.21 52.21 52.22 52.23 52.23 52.24 52.25 52.26 52.27 52.28 52.29 52.30 52.31 52.32 52.33 52.34 52.35 52.36 52.37 52.38 52.40 52.41 52.42 52.43 52.45 52.46 52.47 52.48 52.50 52.51 52.52 52.54 52.55 52.56 52.58 52.59 52.60 52.62 52.63 52.64 52.65 52.67 52.68 52.69 52.70 52.72 52.73 52.74 52.75 52.76 52.77 52.78 52.79 52.80 52.81 52.82 52.83 52.84 52.85 52.86 52.87 52.87 52.88 52.89 52.89 52.90 52.90 52.91 52.91 52.92 52.92 52.92 52.93 52.93 52.93 52.93 52.93 52.93 52.93 52.93 52.93 52.93 52.92 52.92 52.92 52.92 52.91 52.91 52.90 52.90 52.89 52.88 52.88 52.87 52.86 52.85 52.84 52.83 52.82 52.81 52.80 52.79 52.78 52.77 52.76 52.74 52.73 52.72 52.70 52.69 52.67 52.66 52.64 52.63 52.61 52.60 52.58 52.56 52.55 52.53 52.51 52.50 52.48 52.46 52.44 52.43 52.41 52.39 52.37 52.35 52.34 52.32
53.75 53.73 53.71 53.70 53.68 53.66 53.64 53.62 53.61 53.59 53.57 53.55 53.54 53.52 53.50 53.49 53.47 53.45 53.44 53.42 53.41 53.39 53.38 53.36 53.35 53.33 53.32 53.31 53.29 53.28 53.27 53.26 53.25 53.24 53.23 53.22 53.21 53.20 53.19 53.18 53.17 53.17 53.16 53.15 53.15 53.14 53.14 53.13 53.13 53.13 53.12 53.12 53.12 53.12 53.12 53.12 53.12 53.12 53.12 53.12 53.12 53.13 53.13 53.13 53.14 53.14 53.15 53.15 53.16 53.16 53.17 53.18 53.18 53.19 53.20 53.21 53.22 53.23 53.24 53.25 53.26 53.27 53.28 53.29 53.30 53.31 53.32 53.33 53.35 53.36 53.37 53.38 53.40 53.41 53.42 53.43 53.45 53.46 53.47 53.49 53.50 53.51 53.53 53.54 53.55 53.57 53.58 53.59 53.60 53.62 53.63 53.64 53.65 53.67 53.68 53.69 53.70 53.71 53.72 53.73 53.74 53.75 53.76 53.77 53.78 53.79 53.80 53.81 53.82 53.82 53.83 53.84 53.84 53.85 53.85 53.86 53.86 53.87 53.87 53.87 53.88 53.88 53.88 53.88 53.88 53.88 53.88 53.88 53.88 53.88 53.88 53.87 53.87 53.87 53.86 53.86 53.85 53.85 53.84 53.83 53.83 53.82 53.81 53.80 53.79 53.78 53.77 53.76 53.75 53.74 53.73 53.72 53.71 53.69 53.68 53.67 53.65 53.64 53.62 53.61 53.59 53.58 53.56 53.55 53.53 53.51 53.50 53.48 53.46 53.45 53.43 53.41 53.39 53.38 53.36 53.34 53.32 53.30 53.29 53.27 53.25 53.23 53.21 53.20 53.18 53.16 53.14 53.12 53.11 53.09 53.07 53.05 53.04 53.02 53.00 52.99 52.97 52.95 52.94 52.92 52.91 52.89 52.88 52.86 52.85 52.83 52.82 52.81 52.79 52.78 52.77 52.76 52.75 52.74 52.73 52.72 52.71 52.70 52.69 52.68 52.67 52.67 52.66 52.65 52.65 52.64 52.64 52.63 52.63 52.63 52.62 52.62 52.62 52.62 52.62 52.62 52.62 52.62 52.62 52.62 52.62 52.63 52.63 52.63 52.64 52.64 52.65 52.65 52.66 52.66 52.67 52.68 52.68 52.69 52.70 52.71 52.72 52.73 52.74 52.75 52.76 52.77 52.78 52.79 52.80 52.81 52.82 52.83 52.85 52.86 52.87 52.88 52.90 52.91 52.92 52.93 52.95 52.96 52.97 52.99 53.00 53.01 53.03 53.04 53.05 53.07 53.08 53.09 53.10 53.12 53.13 53.14 53.15 53.17 53.18 53.19 53.20 53.21 53.22 53.23 53.24 53.25 53.26 53.27 53.28 53.29 53.30 53.31 53.32 53.32 53.33 53.34 53.34 53.35 53.35 53.36 53.36 53.37 53.37 53.37 53.38 53.38 53.38 53.38 53.38 53.38 53.38 53.38 53.38 53.38 53.38 53.37 53.37 53.37 53.36 53.36 53.35 53.35 53.34 53.33 53.33 53.32 53.31 53.30 53.29 53.28 53.27 53.26 53.25 53.24 53.23 53.22 53.21 53.19 53.18 53.17 53.15 53.14 53.12 53.11 53.09 53.08 53.06 53.05 53.03 53.01 53.00 52.98 52.96 52.95 52.93 52.91 52.89 52.88 52.86 52.84 52.82 52.80 52.79 52.77 52.75 52.73 52.71 52.70 52.68 52.66 52.64 52.62 52.61 52.59 52.57 52.55 52.54 52.52 52.50 52.49 52.47 52.45 52.44 52.42 52.41 52.39 52.38 52.36 52.35 52.33 52.32 52.31 52.29 52.28 52.27 52.26 52.25 52.24 52.23 52.22 52.21 52.20 52.19 52.18 52.17 52.17 52.16 52.15 52.15 52.14 52.14 52.13 52.13 52.13 52.12 52.12 52.12 52.12 52.12 52.12 52.12 52.12 52.12 52.12 52.12 52.13 52.13 52.13 52.14 52.14 52.15 52.15 52.16 52.16 52.17 52.18 52.18 52.19 52.20 52.21 52.22 52.23 52.24 52.25 52.26 52.27 52.28 52.29 52.30 52.31 52.32 52.33 52.35 52.36 52.37 52.38 52.40 52.41 52.42 52.43 52.45 52.46 52.47 52.49 52.50 52.51 52.53 52.54 52.55 52.57 52.58 52.59 52.60 52.62 52.63 52.64 52.65 52.67 52.68 52.69 52.70 52.71 52.72 52.73 52.74 52.75 52.76 52.77 52.78 52.79 52.80 52.81 52.82 52.82 52.83 52.84 52.84 52.85 52.85 52.86 52.86 52.87 52.87 52.87 52.88 52.88 52.88 52.88 52.88 52.88 52.88 52.88 52.88 52.88 52.88 52.87 52.87 52.87 52.86 52.86 52.85 52.85 52.84 52.83 52.83 52.82 52.81 52.80 52.79 52.78 52.77 52.76 52.75 52.74 52.73 52.72 52.71 52.69 52.68 52.67 52.65 52.64 52.62 52.61 52.59 52.58 52.56 52.55 52.53 52.51 52.50 52.48 52.46 52.45 52.43 52.41 52.39 52.38 52.36 52.34 52.32 52.30 52.29 52.27
53.70 53.68 53.66 53.65 53.63 53.61 53.59 53.57 53.56 53.54 53.52 53.50 53.49 53.47 53.45 53.44 53.42 53.40 53.39 53.37 53.36 53.34 53.33 53.31 53.30 53.28 53.27 53.26 53.24 53.23 53.22 53.21 53.20 53.19 53.18 53.17 53.16 53.15 53.14 53.13 53.12 53.12 53.11 53.10 53.10 53.09 53.09 53.08 53.08 53.08 53.08 53.07 53.07 53.07 53.07 53.07 53.07 53.07 53.07 53.07 53.07 53.08 53.08 53.08 53.09 53.09 53.10 53.10 53.11 53.11 53.12 53.13 53.13 53.14 53.15 53.16 53.17 53.18 53.19 53.20 53.21 53.22 53.23 53.24 53.25 53.26 53.27 53.28 53.30 53.31 53.32 53.33 53.35 53.36 53.37 53.38 53.40 53.41 53.42 53.44 53.45 53.46 53.48 53.49 53.50 53.52 53.53 53.54 53.55 53.57 53.58 53.59 53.60 53.62 53.63 53.64 53.65 53.66 53.67 53.68 53.69 53.70 53.71 53.72 53.73 53.74 53.75 53.76 53.77 53.77 53.78 53.79 53.79 53.80 53.80 53.81 53.81 53.82 53.82 53.82 53.83 53.83 53.83 53.83 53.83 53.83 53.83 53.83 53.83 53.83 53.83 53.82 53.82 53.82 53.81 53.81 53.80 53.80 53.79 53.78 53.78 53.77 53.76 53.75 53.74 53.73 53.72 53.71 53.70 53.69 53.68 53.67 53.66 53.64 53.63 53.62 53.60 53.59 53.57 53.56 53.54 53.53 53.51 53.50 53.48 53.46 53.45 53.43 53.41 53.40 53.38 53.36 53.34 53.33 53.31 53.29 53.27 53.25 53.24 53.22 53.20 53.18 53.16 53.15 53.13 53.11 53.09 53.07 53.06 53.04 53.02 53.00 52.99 52.97 52.95 52.94 52.92 52.90 52.89 52.87 52.86 52.84 52.83 52.81 52.80 52.78 52.77 52.76 52.74 52.73 52.72 52.71 52.70 52.69 52.68 52.67 52.66 52.65 52.64 52.63 52.62 52.62 52.61 52.60 52.60 52.59 52.59 52.58 52.58 52.58 52.58 52.57 52.57 52.57 52.57 52.57 52.57 52.57 52.57 52.57 52.57 52.58 52.58 52.58 52.59 52.59 52.60 52.60 52.61 52.61 52.62 52.63 52.63 52.64 52.65 52.66 52.67 52.68 52.69 52.70 52.71 52.72 52.73 52.74 52.75 52.76 52.77 52.78 52.80 52.81 52.82 52.83 52.85 52.86 52.87 52.88 52.90 52.91 52.92 52.94 52.95 52.96 52.98 52.99 53.00 53.02 53.03 53.04 53.05 53.07 53.08 53.09 53.10 53.12 53.13 53.14 53.15 53.16 53.17 53.18 53.19 53.20 53.21 53.22 53.23 53.24 53.25 53.26 53.27 53.27 53.28 53.29 53.29 53.30 53.30 53.31 53.31 53.32 53.32 53.32 53.33 53.33 53.33 53.33 53.33 53.33 53.33 53.33 53.33 53.33 53.33 53.32 53.32 53.32 53.31 53.31 53.30 53.30 53.29 53.28 53.28 53.27 53.26 53.25 53.24 53.23 53.22 53.21 53.20 53.19 53.18 53.17 53.16 53.14 53.13 53.12 53.10 53.09 53.07 53.06 53.04 53.03 53.01 53.00 52.98 52.96 52.95 52.93 52.91 52.90 52.88 52.86 52.84 52.83 52.81 52.79 52.77 52.75 52.74 52.72 52.70 52.68 52.66 52.65 52.63 52.61 52.59 52.57 52.56 52.54 52.52 52.50 52.49 52.47 52.45 52.44 52.42 52.40 52.39 52.37 52.36 52.34 52.33 52.31 52.30 52.28 52.27 52.26 52.24 52.23 52.22 52.21 52.20 52.19 52.18 52.17 52.16 52.15 52.14 52.13 52.12 52.12 52.11 52.10 52.10 52.09 52.09 52.08 52.08 52.08 52.08 52.07 52.07 52.07 52.07 52.07 52.07 52.07 52.07 52.07 52.07 52.08 52.08 52.08 52.09 52.09 52.10 52.10 52.11 52.11 52.12 52.13 52.13 52.14 52.15 52.16 52.17 52.18 52.19 52.20 52.21 52.22 52.23 52.24 52.25 52.26 52.27 52.28 52.30 52.31 52.32 52.33 52.35 52.36 52.37 52.38 52.40 52.41 52.42 52.44 52.45 52.46 52.48 52.49 52.50 52.52 52.53 52.54 52.55 52.57 52.58 52.59 52.60 52.62 52.63 52.64 52.65 52.66 52.67 52.68 52.69 52.70 52.71 52.72 52.73 52.74 52.75 52.76 52.77 52.77 52.78 52.79 52.79 52.80 52.80 52.81 52.81 52.82 52.82 52.82 52.83 52.83 52.83 52.83 52.83 52.83 52.83 52.83 52.83 52.83 52.83 52.82 52.82 52.82 52.81 52.81 52.80 52.80 52.79 52.78 52.78 52.77 52.76 52.75 52.74 52.73 52.72 52.71 52.70 52.69 52.68 52.67 52.66 52.64 52.63 52.62 52.60 52.59 52.57 52.56 52.54 52.53 52.51 52.50 52.48 52.46 52.45 52.43 52.41 52.40 52.38 52.36 52.34 52.33 52.31 52.29 52.27 52.25 52.24 52.22
53.65 53.63 53.61 53.60 53.58 53.56 53.54 53.52 53.51 53.49 53.47 53.45 53.44 53.42 53.40 53.39 53.37 53.35 53.34 53.32 53.31 53.29 53.28 53.26 53.25 53.23 53.22 53.21 53.19 53.18 53.17 53.16 53.15 53.14 53.13 53.12 53.11 53.10 53.09 53.08 53.07 53.07 53.06 53.05 53.05 53.04 53.04 53.03 53.03 53.03 53.02 53.02 53.02 53.02 53.02 53.02 53.02 53.02 53.02 53.02 53.02 53.03 53.03 53.03 53.04 53.04 53.05 53.05 53.06 53.06 53.07 53.08 53.08 53.09 53.10 53.11 53.12 53.13 53.14 53.15 53.16 53.17 53.18 53.19 53.20 53.21 53.22 53.23 53.25 53.26 53.27 53.28 53.30 53.31 53.32 53.33 53.35 53.36 53.37 53.39 53.40 53.41 53.43 53.44 53.45 53.47 53.48 53.49 53.50 53.52 53.53 53.54 53.55 53.57 53.58 53.59 53.60 53.61 53.62 53.63 53.64 53.65 53.66 53.67 53.68 53.69 53.70 53.71 53.72 53.72 53.73 53.74 53.74 53.75 53.75 53.76 53.76 53.77 53.77 53.77 53.78 53.78 53.78 53.78 53.78 53.78 53.78 53.78 53.78 53.78 53.77 53.77 53.77 53.77 53.76 53.76 53.75 53.75 53.74 53.73 53.73 53.72 53.71 53.70 53.69 53.68 53.67 53.66 53.65 53.64 53.63 53.62 53.61 53.59 53.58 53.57 53.55 53.54 53.52 53.51 53.49 53.48 53.46 53.45 53.43 53.41 53.40 53.38 53.36 53.35 53.33 53.31 53.29 53.28 53.26 53.24 53.22 53.20 53.19 53.17 53.15 53.13 53.11 53.10 53.08 53.06 53.04 53.02 53.01 52.99 52.97 52.95 52.94 52.92 52.90 52.89 52.87 52.85 52.84 52.82 52.81 52.79 52.78 52.76 52.75 52.73 52.72 52.71 52.69 52.68 52.67 52.66 52.65 52.64 52.63 52.62 52.61 52.60 52.59 52.58 52.57 52.57 52.56 52.55 52.55 52.54 52.54 52.53 52.53 52.53 52.52 52.52 52.52 52.52 52.52 52.52 52.52 52.52 52.52 52.52 52.52 52.53 52.53 52.53 52.54 52.54 52.55 52.55 52.56 52.56 52.57 52.58 52.58 52.59 52.60 52.61 52.62 52.63 52.64 52.65 52.66 52.67 52.68 52.69 52.70 52.71 52.72 52.73 52.75 52.76 52.77 52.78 52.80 52.81 52.82 52.83 52.85 52.86 52.87 52.89 52.90 52.91 52.93 52.94 52.95 52.97 52.98 52.99 53.00 53.02 53.03 53.04 53.05 53.07 53.08 53.09 53.10 53.11 53.12 53.13 53.14 53.15 53.16 53.17 53.18 53.19 53.20 53.21 53.22 53.22 53.23 53.24 53.24 53.25 53.25 53.26 53.26 53.27 53.27 53.27 53.28 53.28 53.28 53.28 53.28 53.28 53.28 53.28 53.28 53.28 53.27 53.27 53.27 53.27 53.26 53.26 53.25 53.25 53.24 53.23 53.23 53.22 53.21 53.20 53.19 53.18 53.17 53.16 53.15 53.14 53.13 53.12 53.11 53.09 53.08 53.07 53.05 53.04 53.02 53.01 52.99 52.98 52.96 52.95 52.93 52.91 52.90 52.88 52.86 52.85 52.83 52.81 52.79 52.78 52.76 52.74 52.72 52.70 52.69 52.67 52.65 52.63 52.61 52.60 52.58 52.56 52.54 52.52 52.51 52.49 52.47 52.45 52.44 52.42 52.40 52.39 52.37 52.35 52.34 52.32 52.31 52.29 52.28 52.26 52.25 52.23 52.22 52.21 52.19 52.18 52.17 52.16 52.15 52.14 52.13 52.12 52.11 52.10 52.09 52.08 52.07 52.07 52.06 52.05 52.05 52.04 52.04 52.03 52.03 52.03 52.02 52.02 52.02 52.02 52.02 52.02 52.02 52.02 52.02 52.02 52.02 52.03 52.03 52.03 52.04 52.04 52.05 52.05 52.06 52.06 52.07 52.08 52.08 52.09 52.10 52.11 52.12 52.13 52.14 52.15 52.16 52.17 52.18 52.19 52.20 52.21 52.22 52.23 52.25 52.26 52.27 52.28 52.30 52.31 52.32 52.33 52.35 52.36 52.37 52.39 52.40 52.41 52.43 52.44 52.45 52.47 52.48 52.49 52.50 52.52 52.53 52.54 52.55 52.57 52.58 52.59 52.60 52.61 52.62 52.63 52.64 52.65 52.66 52.67 52.68 52.69 52.70 52.71 52.72 52.72 52.73 52.74 52.74 52.75 52.75 52.76 52.76 52.77 52.77 52.77 52.78 52.78 52.78 52.78 52.78 52.78 52.78 52.78 52.78 52.78 52.77 52.77 52.77 52.77 52.76 52.76 52.75 52.75 52.74 52.73 52.73 52.72 52.71 52.70 52.69 52.68 52.67 52.66 52.65 52.64 52.63 52.62 52.61 52.59 52.58 52.57 52.55 52.54 52.52 52.51 52.49 52.48 52.46 52.45 52.43 52.41 52.40 52.38 52.36 52.35 52.33 52.31 52.29 52.28 52.26 52.24 52.22 52.20 52.19 52.17
53.60 53.58 53.56 53.55 53.53 53.51 53.49 53.47 53.46 53.44 53.42 53.40 53.39 53.37 53.35 53.34 53.32 53.30 53.29 53.27 53.26 53.24 53.23 53.21 53.20 53.18 53.17 53.16 53.14 53.13 53.12 53.11 53.10 53.09 53.08 53.07 53.06 53.05 53.04 53.03 53.02 53.02 53.01 53.00 53.00 52.99 52.99 52.98 52.98 52.98 52.98 52.97 52.97 52.97 52.97 52.97 52.97 52.97 52.97 52.97 52.97 52.98 52.98 52.98 52.99 52.99 53.00 53.00 53.01 53.01 53.02 53.03 53.03 53.04 53.05 53.06 53.07 53.08 53.09 53.10 53.11 53.12 53.13 53.14 53.15 53.16 53.17 53.18 53.20 53.21 53.22 53.23 53.25 53.26 53.27 53.28 53.30 53.31 53.32 53.34 53.35 53.36 53.38 53.39 53.40 53.42 53.43 53.44 53.45 53.47 53.48 53.49 53.50 53.52 53.53 53.54 53.55 53.56 53.57 53.58 53.59 53.60 53.61 53.62 53.63 53.64 53.65 53.66 53.67 53.67 53.68 53.69 53.69 53.70 53.70 53.71 53.71 53.72 53.72 53.72 53.73 53.73 53.73 53.73 53.73 53.73 53.73 53.73 53.73 53.73 53.73 53.72 53.72 53.72 53.71 53.71 53.70 53.70 53.69 53.68 53.68 53.67 53.66 53.65 53.64 53.63 53.62 53.61 53.60 53.59 53.58 53.57 53.56 53.54 53.53 53.52 53.50 53.49 53.47 53.46 53.44 53.43 53.41 53.40 53.38 53.36 53.35 53.33 53.31 53.30 53.28 53.26 53.24 53.23 53.21 53.19 53.17 53.15 53.14 53.12 53.10 53.08 53.06 53.05 53.03 53.01 52.99 52.97 52.96 52.94 52.92 52.90 52.89 52.87 52.85 52.84 52.82 52.80 52.79 52.77 52.76 52.74 52.73 52.71 52.70 52.68 52.67 52.66 52.64 52.63 52.62 52.61 52.60 52.59 52.58 52.57 52.56 52.55 52.54 52.53 52.52 52.52 52.51 52.50 52.50 52.49 52.49 52.48 52.48 52.48 52.48 52.47 52.47 52.47 52.47 52.47 52.47 52.47 52.47 52.47 52.47 52.48 52.48 52.48 52.49 52.49 52.50 52.50 52.51 52.51 52.52 52.53 52.53 52.54 52.55 52.56 52.57 52.58 52.59 52.60 52.61 52.62 52.63 52.64 52.65 52.66 52.67 52.68 52.70 52.71 52.72 52.73 52.75 52.76 52.77 52.78 52.80 52.81 52.82 52.84 52.85 52.86 52.88 52.89 52.90 52.92 52.93 52.94 52.95 52.97 52.98 52.99 53.00 53.02 53.03 53.04 53.05 53.06 53.07 53.08 53.09 53.10 53.11 53.12 53.13 53.14 53.15 53.16 53.17 53.17 53.18 53.19 53.19 53.20 53.20 53.21 53.21 53.22 53.22 53.22 53.23 53.23 53.23 53.23 53.23 53.23 53.23 53.23 53.23 53.23 53.23 53.22 53.22 53.22 53.21 53.21 53.20 53.20 53.19 53.18 53.18 53.17 53.16 53.15 53.14 53.13 53.12 53.11 53.10 53.09 53.08 53.07 53.06 53.04 53.03 53.02 53.00 52.99 52.97 52.96 52.94 52.93 52.91 52.90 52.88 52.86 52.85 52.83 52.81 52.80 52.78 52.76 52.74 52.73 52.71 52.69 52.67 52.65 52.64 52.62 52.60 52.58 52.56 52.55 52.53 52.51 52.49 52.47 52.46 52.44 52.42 52.40 52.39 52.37 52.35 52.34 52.32 52.30 52.29 52.27 52.26 52.24 52.23 52.21 52.20 52.18 52.17 52.16 52.14 52.13 52.12 52.11 52.10 52.09 52.08 52.07 52.06 52.05 52.04 52.03 52.02 52.02 52.01 52.00 52.00 51.99 51.99 51.98 51.98 51.98 51.98 51.97 51.97 51.97 51.97 51.97 51.97 51.97 51.97 51.97 51.97 51.98 51.98 51.98 51.99 51.99 52.00 52.00 52.01 52.01 52.02 52.03 52.03 52.04 52.05 52.06 52.07 52.08 52.09 52.10 52.11 52.12 52.13 52.14 52.15 52.16 52.17 52.18 52.20 52.21 52.22 52.23 52.25 52.26 52.27 52.28 52.30 52.31 52.32 52.34 52.35 52.36 52.38 52.39 52.40 52.42 52.43 52.44 52.45 52.47 52.48 52.49 52.50 52.52 52.53 52.54 52.55 52.56 52.57 52.58 52.59 52.60 52.61 52.62 52.63 52.64 52.65 52.66 52.67 52.67 52.68 52.69 52.69 52.70 52.70 52.71 52.71 52.72 52.72 52.72 52.73 52.73 52.73 52.73 52.73 52.73 52.73 52.73 52.73 52.73 52.73 52.72 52.72 52.72 52.71 52.71 52.70 52.70 52.69 52.68 52.68 52.67 52.66 52.65 52.64 52.63 52.62 52.61 52.60 52.59 52.58 52.57 52.56 52.54 52.53 52.52 52.50 52.49 52.47 52.46 52.44 52.43 52.41 52.40 52.38 52.36 52.35 52.33 52.31 52.30 52.28 52.26 52.24 52.23 52.21 52.19 52.17 52.15 52.14 52.12
53.55 53.53 53.51 53.50 53.48 53.46 53.44 53.42 53.41 53.39 53.37 53.35 53.34 53.32 53.30 53.29 53.27 53.25 53.24 53.22 53.21 53.19 53.18 53.16 53.15 53.13 53.12 53.11 53.09 53.08 53.07 53.06 53.05 53.04 53.03 53.02 53.01 53.00 52.99 52.98 52.97 52.97 52.96 52.95 52.95 52.94 52.94 52.93 52.93 52.93 52.92 52.92 52.92 52.92 52.92 52.92 52.92 52.92 52.92 52.92 52.92 52.93 52.93 52.93 52.94 52.94 52.95 52.95 52.96 52.96 52.97 52.98 52.98 52.99 53.00 53.01 53.02 53.03 53.04 53.05 53.06 53.07 53.08 53.09 53.10 53.11 53.12 53.13 53.15 53.16 53.17 53.18 53.20 53.21 53.22 53.23 53.25 53.26 53.27 53.29 53.30 53.31 53.33 53.34 53.35 53.37 53.38 53.39 53.40 53.42 53.43 53.44 53.45 53.47 53.48 53.49 53.50 53.51 53.52 53.53 53.54 53.55 53.56 53.57 53.58 53.59 53.60 53.61 53.62 53.62 53.63 53.64 53.64 53.65 53.65 53.66 53.66 53.67 53.67 53.67 53.68 53.68 53.68 53.68 53.68 53.68 53.68 53.68 53.68 53.68 53.67 53.67 53.67 53.67 53.66 53.66 53.65 53.65 53.64 53.63 53.63 53.62 53.61 53.60 53.59 53.58 53.57 53.56 53.55 53.54 53.53 53.52 53.51 53.49 53.48 53.47 53.45 53.44 53.42 53.41 53.39 53.38 53.36 53.35 53.33 53.31 53.30 53.28 53.26 53.25 53.23 53.21 53.19 53.18 53.16 53.14 53.12 53.10 53.09 53.07 53.05 53.03 53.01 53.00 52.98 52.96 52.94 52.92 52.91 52.89 52.87 52.85 52.84 52.82 52.80 52.79 52.77 52.75 52.74 52.72 52.71 52.69 52.68 52.66 52.65 52.63 52.62 52.61 52.59 52.58 52.57 52.56 52.55 52.54 52.53 52.52 52.51 52.50 52.49 52.48 52.47 52.47 52.46 52.45 52.45 52.44 52.44 52.43 52.43 52.43 52.42 52.42 52.42 52.42 52.42 52.42 52.42 52.42 52.42 52.42 52.42 52.43 52.43 52.43 52.44 52.44 52.45 52.45 52.46 52.46 52.47 52.48 52.48 52.49 52.50 52.51 52.52 52.53 52.54 52.55 52.56 52.57 52.58 52.59 52.60 52.61 52.62 52.63 52.65 52.66 52.67 52.68 52.70 52.71 52.72 52.73 52.75 52.76 52.77 52.79 52.80 52.81 52.83 52.84 52.85 52.87 52.88 52.89 52.90 52.92 52.93 52.94 52.95 52.97 52.98 52.99 53.00 53.01 53.02 53.03 53.04 53.05 53.06 53.07 53.08 53.09 53.10 53.11 53.12 53.12 53.13 53.14 53.14 53.15 53.15 53.16 53.16 53.17 53.17 53.17 53.18 53.18 53.18 53.18 53.18 53.18 53.18 53.18 53.18 53.18 53.17 53.17 53.17 53.17 53.16 53.16 53.15 53.15 53.14 53.13 53.13 53.12 53.11 53.10 53.09 53.08 53.07 53.06 53.05 53.04 53.03 53.02 53.01 52.99 52.98 52.97 52.95 52.94 52.92 52.91 52.89 52.88 52.86 52.85 52.83 52.81 52.80 52.78 52.76 52.75 52.73 52.71 52.69 52.68 52.66 52.64 52.62 52.60 52.59 52.57 52.55 52.53 52.51 52.50 52.48 52.46 52.44 52.42 52.41 52.39 52.37 52.35 52.34 52.32 52.30 52.29 52.27 52.25 52.24 52.22 52.21 52.19 52.18 52.16 52.15 52.13 52.12 52.11 52.09 52.08 52.07 52.06 52.05 52.04 52.03 52.02 52.01 52.00 51.99 51.98 51.97 51.97 51.96 51.95 51.95 51.94 51.94 51.93 51.93 51.93 51.92 51.92 51.92 51.92 51.92 51.92 51.92 51.92 51.92 51.92 51.92 51.93 51.93 51.93 51.94 51.94 51.95 51.95 51.96 51.96 51.97 51.98 51.98 51.99 52.00 52.01 52.02 52.03 52.04 52.05 52.06 52.07 52.08 52.09 52.10 52.11 52.12 52.13 52.15 52.16 52.17 52.18 52.20 52.21 52.22 52.23 52.25 52.26 52.27 52.29 52.30 52.31 52.33 52.34 52.35 52.37 52.38 52.39 52.40 52.42 52.43 52.44 52.45 52.47 52.48 52.49 52.50 52.51 52.52 52.53 52.54 52.55 52.56 52.57 52.58 52.59 52.60 52.61 52.62 52.62 52.63 52.64 52.64 52.65 52.65 52.66 52.66 52.67 52.67 52.67 52.68 52.68 52.68 52.68 52.68 52.68 52.68 52.68 52.68 52.68 52.67 52.67 52.67 52.67 52.66 52.66 52.65 52.65 52.64 52.63 52.63 52.62 52.61 52.60 52.59 52.58 52.57 52.56 52.55 52.54 52.53 52.52 52.51 52.49 52.48 52.47 52.45 52.44 52.42 52.41 52.39 52.38 52.36 52.35 52.33 52.31 52.30 52.28 52.26 52.25 52.23 52.21 52.19 52.18 52.16 52.14 52.12 52.10 52.09 52.07
53.50 53.48 53.46 53.45 53.43 53.41 53.39 53.37 53.36 53.34 53.32 53.30 53.29 53.27 53.25 53.24 53.22 53.20 53.19 53.17 53.16 53.14 53.13 53.11 53.10 53.08 53.07 53.06 53.04 53.03 53.02 53.01 53.00 52.99 52.98 52.97 52.96 52.95 52.94 52.93 52.92 52.92 52.91 52.90 52.90 52.89 52.89 52.88 52.88 52.88 52.88 52.87 52.87 52.87 52.87 52.87 52.87 52.87 52.87 52.87 52.87 52.88 52.88 52.88 52.89 52.89 52.90 52.90 52.91 52.91 52.92 52.93 52.93 52.94 52.95 52.96 52.97 52.98 52.99 53.00 53.01 53.02 53.03 53.04 53.05 53.06 53.07 53.08 53.10 53.11 53.12 53.13 53.15 53.16 53.17 53.18 53.20 53.21 53.22 53.24 53.25 53.26 53.28 53.29 53.30 53.32 53.33 53.34 53.35 53.37 53.38 53.39 53.40 53.42 53.43 53.44 53.45 53.46 53.47 53.48 53.49 53.50 53.51 53.52 53.53 53.54 53.55 53.56 53.57 53.57 53.58 53.59 53.59 53.60 53.60 53.61 53.61 53.62 53.62 53.62 53.63 53.63 53.63 53.63 53.63 53.63 53.63 53.63 53.63 53.63 53.62 53.62 53.62 53.62 53.61 53.61 53.60 53.60 53.59 53.58 53.58 53.57 53.56 53.55 53.54 53.53 53.52 53.51 53.50 53.49 53.48 53.47 53.46 53.44 53.43 53.42 53.40 53.39 53.37 53.36 53.34 53.33 53.31 53.30 53.28 53.26 53.25 53.23 53.21 53.20 53.18 53.16 53.14 53.13 53.11 53.09 53.07 53.05 53.04 53.02 53.00 52.98 52.96 52.95 52.93 52.91 52.89 52.87 52.86 52.84 52.82 52.80 52.79 52.77 52.75 52.74 52.72 52.70 52.69 52.67 52.66 52.64 52.63 52.61 52.60 52.58 52.57 52.56 52.54 52.53 52.52 52.51 52.50 52.49 52.48 52.47 52.46 52.45 52.44 52.43 52.42 52.42 52.41 52.40 52.40 52.39 52.39 52.38 52.38 52.38 52.38 52.37 52.37 52.37 52.37 52.37 52.37 52.37 52.37 52.37 52.37 52.38 52.38 52.38 52.39 52.39 52.40 52.40 52.41 52.41 52.42 52.43 52.43 52.44 52.45 52.46 52.47 52.48 52.49 52.50 52.51 52.52 52.53 52.54 52.55 52.56 52.57 52.58 52.60 52.61 52.62 52.63 52.65 52.66 52.67 52.68 52.70 52.71 52.72 52.74 52.75 52.76 52.78 52.79 52.80 52.82 52.83 52.84 52.85 52.87 52.88 52.89 52.90 52.92 52.93 52.94 52.95 52.96 52.97 52.98 52.99 53.00 53.01 53.02 53.03 53.04 53.05 53.06 53.07 53.07 53.08 53.09 53.09 53.10 53.10 53.11 53.11 53.12 53.12 53.12 53.13 53.13 53.13 53.13 53.13 53.13 53.13 53.13 53.13 53.13 53.12 53.12 53.12 53.12 53.11 53.11 53.10 53.10 53.09 53.08 53.08 53.07 53.06 53.05 53.04 53.03 53.02 53.01 53.00 52.99 52.98 52.97 52.96 52.94 52.93 52.92 52.90 52.89 52.87 52.86 52.84 52.83 52.81 52.80 52.78 52.76 52.75 52.73 52.71 52.70 52.68 52.66 52.64 52.63 52.61 52.59 52.57 52.55 52.54 52.52 52.50 52.48 52.46 52.45 52.43 52.41 52.39 52.37 52.36 52.34 52.32 52.30 52.29 52.27 52.25 52.24 52.22 52.20 52.19 52.17 52.16 52.14 52.13 52.11 52.10 52.08 52.07 52.06 52.04 52.03 52.02 52.01 52.00 51.99 51.98 51.97 51.96 51.95 51.94 51.93 51.92 51.92 51.91 51.90 51.90 51.89 51.89 51.88 51.88 51.88 51.88 51.87 51.87 51.87 51.87 51.87 51.87 51.87 51.87 51.87 51.87 51.88 51.88 51.88 51.89 51.89 51.90 51.90 51.91 51.91 51.92 51.93 51.93 51.94 51.95 51.96 51.97 51.98 51.99 52.00 52.01 52.02 52.03 52.04 52.05 52.06 52.07 52.08 52.10 52.11 52.12 52.13 52.15 52.16 52.17 52.18 52.20 52.21 52.22 52.24 52.25 52.26 52.28 52.29 52.30 52.32 52.33 52.34 52.35 52.37 52.38 52.39 52.40 52.42 52.43 52.44 52.45 52.46 52.47 52.48 52.49 52.50 52.51 52.52 52.53 52.54 52.55 52.56 52.57 52.57 52.58 52.59 52.59 52.60 52.60 52.61 52.61 52.62 52.62 52.62 52.63 52.63 52.63 52.63 52.63 52.63 52.63 52.63 52.63 52.63 52.62 52.62 52.62 52.62 52.61 52.61 52.60 52.60 52.59 52.58 52.58 52.57 52.56 52.55 52.54 52.53 52.52 52.51 52.50 52.49 52.48 52.47 52.46 52.44 52.43 52.42 52.40 52.39 52.37 52.36 52.34 52.33 52.31 52.30 52.28 52.26 52.25 52.23 52.21 52.20 52.18 52.16 52.14 52.13 52.11 52.09 52.07 52.05 52.04 52.02
53.45 53.43 53.41 53.40 53.38 53.36 53.34 53.32 53.31 53.29 53.27 53.25 53.24 53.22 53.20 53.19 53.17 53.15 53.14 53.12 53.11 53.09 53.08 53.06 53.05 53.03 53.02 53.01 52.99 52.98 52.97 52.96 52.95 52.94 52.93 52.92 52.91 52.90 52.89 52.88 52.87 52.87 52.86 52.85 52.85 52.84 52.84 52.83 52.83 52.83 52.83 52.82 52.82 52.82 52.82 52.82 52.82 52.82 52.82 52.82 52.82 52.83 52.83 52.83 52.84 52.84 52.85 52.85 52.86 52.86 52.87 52.88 52.88 52.89 52.90 52.91 52.92 52.93 52.94 52.95 52.96 52.97 52.98 52.99 53.00 53.01 53.02 53.03 53.05 53.06 53.07 53.08 53.10 53.11 53.12 53.13 53.15 53.16 53.17 53.19 53.20 53.21 53.23 53.24 53.25 53.27 53.28 53.29 53.30 53.32 53.33 53.34 53.35 53.37 53.38 53.39 53.40 53.41 53.42 53.43 53.44 53.45 53.46 53.47 53.48 53.49 53.50 53.51 53.52 53.52 53.53 53.54 53.54 53.55 53.55 53.56 53.56 53.57 53.57 53.57 53.58 53.58 53.58 53.58 53.58 53.58 53.58 53.58 53.58 53.58 53.58 53.57 53.57 53.57 53.56 53.56 53.55 53.55 53.54 53.53 53.53 53.52 53.51 53.50 53.49 53.48 53.47 53.46 53.45 53.44 53.43 53.42 53.41 53.39 53.38 53.37 53.35 53.34 53.32 53.31 53.29 53.28 53.26 53.25 53.23 53.21 53.20 53.18 53.16 53.15 53.13 53.11 53.09 53.08 53.06 53.04 53.02 53.00 52.99 52.97 52.95 52.93 52.91 52.90 52.88 52.86 52.84 52.82 52.81 52.79 52.77 52.75 52.74 52.72 52.70 52.69 52.67 52.65 52.64 52.62 52.61 52.59 52.58 52.56 52.55 52.53 52.52 52.51 52.49 52.48 52.47 52.46 52.45 52.44 52.43 52.42 52.41 52.40 52.39 52.38 52.37 52.37 52.36 52.35 52.35 52.34 52.34 52.33 52.33 52.33 52.33 52.32 52.32 52.32 52.32 52.32 52.32 52.32 52.32 52.32 52.32 52.33 52.33 52.33 52.34 52.34 52.35 52.35 52.36 52.36 52.37 52.38 52.38 52.39 52.40 52.41 52.42 52.43 52.44 52.45 52.46 52.47 52.48 52.49 52.50 52.51 52.52 52.53 52.55 52.56 52.57 52.58 52.60 52.61 52.62 52.63 52.65 52.66 52.67 52.69 52.70 52.71 52.73 52.74 52.75 52.77 52.78 52.79 52.80 52.82 52.83 52.84 52.85 52.87 52.88 52.89 52.90 52.91 52.92 52.93 52.94 52.95 52.96 52.97 52.98 52.99 53.00 53.01 53.02 53.02 53.03 53.04 53.04 53.05 53.05 53.06 53.06 53.07 53.07 53.07 53.08 53.08 53.08 53.08 53.08 53.08 53.08 53.08 53.08 53.08 53.08 53.07 53.07 53.07 53.06 53.06 53.05 53.05 53.04 53.03 53.03 53.02 53.01 53.00 52.99 52.98 52.97 52.96 52.95 52.94 52.93 52.92 52.91 52.89 52.88 52.87 52.85 52.84 52.82 52.81 52.79 52.78 52.76 52.75 52.73 52.71 52.70 52.68 52.66 52.65 52.63 52.61 52.59 52.58 52.56 52.54 52.52 52.50 52.49 52.47 52.45 52.43 52.41 52.40 52.38 52.36 52.34 52.32 52.31 52.29 52.27 52.25 52.24 52.22 52.20 52.19 52.17 52.15 52.14 52.12 52.11 52.09 52.08 52.06 52.05 52.03 52.02 52.01 51.99 51.98 51.97 51.96 51.95 51.94 51.93 51.92 51.91 51.90 51.89 51.88 51.87 51.87 51.86 51.85 51.85 51.84 51.84 51.83 51.83 51.83 51.83 51.82 51.82 51.82 51.82 51.82 51.82 51.82 51.82 51.82 51.82 51.83 51.83 51.83 51.84 51.84 51.85 51.85 51.86 51.86 51.87 51.88 51.88 51.89 51.90 51.91 51.92 51.93 51.94 51.95 51.96 51.97 51.98 51.99 52.00 52.01 52.02 52.03 52.05 52.06 52.07 52.08 52.10 52.11 52.12 52.13 52.15 52.16 52.17 52.19 52.20 52.21 52.23 52.24 52.25 52.27 52.28 52.29 52.30 52.32 52.33 52.34 52.35 52.37 52.38 52.39 52.40 52.41 52.42 52.43 52.44 52.45 52.46 52.47 52.48 52.49 52.50 52.51 52.52 52.52 52.53 52.54 52.54 52.55 52.55 52.56 52.56 52.57 52.57 52.57 52.58 52.58 52.58 52.58 52.58 52.58 52.58 52.58 52.58 52.58 52.58 52.57 52.57 52.57 52.56 52.56 52.55 52.55 52.54 52.53 52.53 52.52 52.51 52.50 52.49 52.48 52.47 52.46 52.45 52.44 52.43 52.42 52.41 52.39 52.38 52.37 52.35 52.34 52.32 52.31 52.29 52.28 52.26 52.25 52.23 52.21 52.20 52.18 52.16 52.15 52.13 52.11 52.09 52.08 52.06 52.04 52.02 52.00 51.99 51.97
53.40 53.38 53.36 53.35 53.33 53.31 53.29 53.27 53.26 53.24 53.22 53.20 53.19 53.17 53.15 53.14 53.12 53.10 53.09 53.07 53.06 53.04 53.03 53.01 53.00 52.98 52.97 52.96 52.94 52.93 52.92 52.91 52.90 52.89 52.88 52.87 52.86 52.85 52.84 52.83 52.82 52.82 52.81 52.80 52.80 52.79 52.79 52.78 52.78 52.78 52.77 52.77 52.77 52.77 52.77 52.77 52.77 52.77 52.77 52.77 52.77 52.78 52.78 52.78 52.79 52.79 52.80 52.80 52.81 52.81 52.82 52.83 52.83 52.84 52.85 52.86 52.87 52.88 52.89 52.90 52.91 52.92 52.93 52.94 52.95 52.96 52.97 52.98 53.00 53.01 53.02 53.03 53.05 53.06 53.07 53.08 53.10 53.11 53.12 53.14 53.15 53.16 53.18 53.19 53.20 53.22 53.23 53.24 53.25 53.27 53.28 53.29 53.30 53.32 53.33 53.34 53.35 53.36 53.37 53.38 53.39 53.40 53.41 53.42 53.43 53.44 53.45 53.46 53.47 53.47 53.48 53.49 53.49 53.50 53.50 53.51 53.51 53.52 53.52 53.52 53.53 53.53 53.53 53.53 53.53 53.53 53.53 53.53 53.53 53.53 53.52 53.52 53.52 53.52 53.51 53.51 53.50 53.50 53.49 53.48 53.48 53.47 53.46 53.45 53.44 53.43 53.42 53.41 53.40 53.39 53.38 53.37 53.36 53.34 53.33 53.32 53.30 53.29 53.27 53.26 53.24 53.23 53.21 53.20 53.18 53.16 53.15 53.13 53.11 53.10 53.08 53.06 53.04 53.03 53.01 52.99 52.97 52.95 52.94 52.92 52.90 52.88 52.86 52.85 52.83 52.81 52.79 52.77 52.76 52.74 52.72 52.70 52.69 52.67 52.65 52.64 52.62 52.60 52.59 52.57 52.56 52.54 52.53 52.51 52.50 52.48 52.47 52.46 52.44 52.43 52.42 52.41 52.40 52.39 52.38 52.37 52.36 52.35 52.34 52.33 52.32 52.32 52.31 52.30 52.30 52.29 52.29 52.28 52.28 52.28 52.27 52.27 52.27 52.27 52.27 52.27 52.27 52.27 52.27 52.27 52.27 52.28 52.28 52.28 52.29 52.29 52.30 52.30 52.31 52.31 52.32 52.33 52.33 52.34 52.35 52.36 52.37 52.38 52.39 52.40 52.41 52.42 52.43 52.44 52.45 52.46 52.47 52.48 52.50 52.51 52.52 52.53 52.55 52.56 52.57 52.58 52.60 52.61 52.62 52.64 52.65 52.66 52.68 52.69 52.70 52.72 52.73 52.74 52.75 52.77 52.78 52.79 52.80 52.82 52.83 52.84 52.85 52.86 52.87 52.88 52.89 52.90 52.91 52.92 52.93 52.94 52.95 52.96 52.97 52.97 52.98 52.99 52.99 53.00 53.00 53.01 53.01 53.02 53.02 53.02 53.03 53.03 53.03 53.03 53.03 53.03 53.03 53.03 53.03 53.03 53.02 53.02 53.02 53.02 53.01 53.01 53.00 53.00 52.99 52.98 52.98 52.97 52.96 52.95 52.94 52.93 52.92 52.91 52.90 52.89 52.88 52.87 52.86 52.84 52.83 52.82 52.80 52.79 52.77 52.76 52.74 52.73 52.71 52.70 52.68 52.66 52.65 52.63 52.61 52.60 52.58 52.56 52.54 52.53 52.51 52.49 52.47 52.45 52.44 52.42 52.40 52.38 52.36 52.35 52.33 52.31 52.29 52.27 52.26 52.24 52.22 52.20 52.19 52.17 52.15 52.14 52.12 52.10 52.09 52.07 52.06 52.04 52.03 52.01 52.00 51.98 51.97 51.96 51.94 51.93 51.92 51.91 51.90 51.89 51.88 51.87 51.86 51.85 51.84 51.83 51.82 51.82 51.81 51.80 51.80 51.79 51.79 51.78 51.78 51.78 51.77 51.77 51.77 51.77 51.77 51.77 51.77 51.77 51.77 51.77 51.77 51.78 51.78 51.78 51.79 51.79 51.80 51.80 51.81 51.81 51.82 51.83 51.83 51.84 51.85 51.86 51.87 51.88 51.89 51.90 51.91 51.92 51.93 51.94 51.95 51.96 51.97 51.98 52.00 52.01 52.02 52.03 52.05 52.06 52.07 52.08 52.10 52.11 52.12 52.14 52.15 52.16 52.18 52.19 52.20 52.22 52.23 52.24 52.25 52.27 52.28 52.29 52.30 52.32 52.33 52.34 52.35 52.36 52.37 52.38 52.39 52.40 52.41 52.42 52.43 52.44 52.45 52.46 52.47 52.47 52.48 52.49 52.49 52.50 52.50 52.51 52.51 52.52 52.52 52.52 52.53 52.53 52.53 52.53 52.53 52.53 52.53 52.53 52.53 52.53 52.52 52.52 52.52 52.52 52.51 52.51 52.50 52.50 52.49 52.48 52.48 52.47 52.46 52.45 52.44 52.43 52.42 52.41 52.40 52.39 52.38 52.37 52.36 52.34 52.33 52.32 52.30 52.29 52.27 52.26 52.24 52.23 52.21 52.20 52.18 52.16 52.15 52.13 52.11 52.10 52.08 52.06 52.04 52.03 52.01 51.99 51.97 51.95 51.94 51.92
53.35 53.33 53.31 53.30 53.28 53.26 53.24 53.22 53.21 53.19 53.17 53.15 53.14 53.12 53.10 53.09 53.07 53.05 53.04 53.02 53.01 52.99 52.98 52.96 52.95 52.93 52.92 52.91 52.89 52.88 52.87 52.86 52.85 52.84 52.83 52.82 52.81 52.80 52.79 52.78 52.77 52.77 52.76 52.75 52.75 52.74 52.74 52.73 52.73 52.73 52.73 52.72 52.72 52.72 52.72 52.72 52.72 52.72 52.72 52.72 52.72 52.73 52.73 52.73 52.74 52.74 52.75 52.75 52.76 52.76 52.77 52.78 52.78 52.79 52.80 52.81 52.82 52.83 52.84 52.85 52.86 52.87 52.88 52.89 52.90 52.91 52.92 52.93 52.95 52.96 52.97 52.98 53.00 53.01 53.02 53.03 53.05 53.06 53.07 53.09 53.10 53.11 53.13 53.14 53.15 53.17 53.18 53.19 53.20 53.22 53.23 53.24 53.25 53.27 53.28 53.29 53.30 53.31 53.32 53.33 53.34 53.35 53.36 53.37 53.38 53.39 53.40 53.41 53.42 53.42 53.43 53.44 53.44 53.45 53.45 53.46 53.46 53.47 53.47 53.47 53.48 53.48 53.48 53.48 53.48 53.48 53.48 53.48 53.48 53.48 53.48 53.47 53.47 53.47 53.46 53.46 53.45 53.45 53.44 53.43 53.43 53.42 53.41 53.40 53.39 53.38 53.37 53.36 53.35 53.34 53.33 53.32 53.31 53.29 53.28 53.27 53.25 53.24 53.22 53.21 53.19 53.18 53.16 53.15 53.13 53.11 53.10 53.08 53.06 53.05 53.03 53.01 52.99 52.98 52.96 52.94 52.92 52.90 52.89 52.87 52.85 52.83 52.81 52.80 52.78 52.76 52.74 52.72 52.71 52.69 52.67 52.65 52.64 52.62 52.60 52.59 52.57 52.55 52.54 52.52 52.51 52.49 52.48 52.46 52.45 52.43 52.42 52.41 52.39 52.38 52.37 52.36 52.35 52.34 52.33 52.32 52.31 52.30 52.29 52.28 52.27 52.27 52.26 52.25 52.25 52.24 52.24 52.23 52.23 52.23 52.23 52.22 52.22 52.22 52.22 52.22 52.22 52.22 52.22 52.22 52.22 52.23 52.23 52.23 52.24 52.24 52.25 52.25 52.26 52.26 52.27 52.28 52.28 52.29 52.30 52.31 52.32 52.33 52.34 52.35 52.36 52.37 52.38 52.39 52.40 52.41 52.42 52.43 52.45 52.46 52.47 52.48 52.50 52.51 52.52 52.53 52.55 52.56 52.57 52.59 52.60 52.61 52.63 52.64 52.65 52.67 52.68 52.69 52.70 52.72 52.73 52.74 52.75 52.77 52.78 52.79 52.80 52.81 52.82 52.83 52.84 52.85 52.86 52.87 52.88 52.89 52.90 52.91 52.92 52.92 52.93 52.94 52.94 52.95 52.95 52.96 52.96 52.97 52.97 52.97 52.98 52.98 52.98 52.98 52.98 52.98 52.98 52.98 52.98 52.98 52.98 52.97 52.97 52.97 52.96 52.96 52.95 52.95 52.94 52.93 52.93 52.92 52.91 52.90 52.89 52.88 52.87 52.86 52.85 52.84 52.83 52.82 52.81 52.79 52.78 52.77 52.75 52.74 52.72 52.71 52.69 52.68 52.66 52.65 52.63 52.61 52.60 52.58 52.56 52.55 52.53 52.51 52.49 52.48 52.46 52.44 52.42 52.40 52.39 52.37 52.35 52.33 52.31 52.30 52.28 52.26 52.24 52.22 52.21 52.19 52.17 52.15 52.14 52.12 52.10 52.09 52.07 52.05 52.04 52.02 52.01 51.99 51.98 51.96 51.95 51.93 51.92 51.91 51.89 51.88 51.87 51.86 51.85 51.84 51.83 51.82 51.81 51.80 51.79 51.78 51.77 51.77 51.76 51.75 51.75 51.74 51.74 51.73 51.73 51.73 51.73 51.72 51.72 51.72 51.72 51.72 51.72 51.72 51.72 51.72 51.72 51.73 51.73 51.73 51.74 51.74 51.75 51.75 51.76 51.76 51.77 51.78 51.78 51.79 51.80 51.81 51.82 51.83 51.84 51.85 51.86 51.87 51.88 51.89 51.90 51.91 51.92 51.93 51.95 51.96 51.97 51.98 52.00 52.01 52.02 52.03 52.05 52.06 52.07 52.09 52.10 52.11 52.13 52.14 52.15 52.17 52.18 52.19 52.20 52.22 52.23 52.24 52.25 52.27 52.28 52.29 52.30 52.31 52.32 52.33 52.34 52.35 52.36 52.37 52.38 52.39 52.40 52.41 52.42 52.42 52.43 52.44 52.44 52.45 52.45 52.46 52.46 52.47 52.47 52.47 52.48 52.48 52.48 52.48 52.48 52.48 52.48 52.48 52.48 52.48 52.48 52.47 52.47 52.47 52.46 52.46 52.45 52.45 52.44 52.43 52.43 52.42 52.41 52.40 52.39 52.38 52.37 52.36 52.35 52.34 52.33 52.32 52.31 52.29 52.28 52.27 52.25 52.24 52.22 52.21 52.19 52.18 52.16 52.15 52.13 52.11 52.10 52.08 52.06 52.05 52.03 52.01 51.99 51.98 51.96 51.94 51.92 51.90 51.89 51.87
53.30 53.28 53.26 53.25 53.23 53.21 53.19 53.17 53.16 53.14 53.12 53.10 53.09 53.07 53.05 53.04 53.02 53.00 52.99 52.97 52.96 52.94 52.93 52.91 52.90 52.88 52.87 52.86 52.84 52.83 52.82 52.81 52.80 52.79 52.78 52.77 52.76 52.75 52.74 52.73 52.72 52.72 52.71 52.70 52.70 52.69 52.69 52.68 52.68 52.68 52.67 52.67 52.67 52.67 52.67 52.67 52.67 52.67 52.67 52.67 52.67 52.68 52.68 52.68 52.69 52.69 52.70 52.70 52.71 52.71 52.72 52.73 52.73 52.74 52.75 52.76 52.77 52.78 52.79 52.80 52.81 52.82 52.83 52.84 52.85 52.86 52.87 52.88 52.90 52.91 52.92 52.93 52.95 52.96 52.97 52.98 53.00 53.01 53.02 53.04 53.05 53.06 53.08 53.09 53.10 53.12 53.13 53.14 53.15 53.17 53.18 53.19 53.20 53.22 53.23 53.24 53.25 53.26 53.27 53.28 53.29 53.30 53.31 53.32 53.33 53.34 53.35 53.36 53.37 53.37 53.38 53.39 53.39 53.40 53.40 53.41 53.41 53.42 53.42 53.42 53.43 53.43 53.43 53.43 53.43 53.43 53.43 53.43 53.43 53.43 53.42 53.42 53.42 53.42 53.41 53.41 53.40 53.40 53.39 53.38 53.38 53.37 53.36 53.35 53.34 53.33 53.32 53.31 53.30 53.29 53.28 53.27 53.26 53.24 53.23 53.22 53.20 53.19 53.17 53.16 53.14 53.13 53.11 53.10 53.08 53.06 53.05 53.03 53.01 53.00 52.98 52.96 52.94 52.93 52.91 52.89 52.87 52.85 52.84 52.82 52.80 52.78 52.76 52.75 52.73 52.71 52.69 52.67 52.66 52.64 52.62 52.60 52.59 52.57 52.55 52.54 52.52 52.50 52.49 52.47 52.46 52.44 52.43 52.41 52.40 52.38 52.37 52.36 52.34 52.33 52.32 52.31 52.30 52.29 52.28 52.27 52.26 52.25 52.24 52.23 52.22 52.22 52.21 52.20 52.20 52.19 52.19 52.18 52.18 52.18 52.17 52.17 52.17 52.17 52.17 52.17 52.17 52.17 52.17 52.17 52.17 52.18 52.18 52.18 52.19 52.19 52.20 52.20 52.21 52.21 52.22 52.23 52.23 52.24 52.25 52.26 52.27 52.28 52.29 52.30 52.31 52.32 52.33 52.34 52.35 52.36 52.37 52.38 52.40 52.41 52.42 52.43 52.45 52.46 52.47 52.48 52.50 52.51 52.52 52.54 52.55 52.56 52.58 52.59 52.60 52.62 52.63 52.64 52.65 52.67 52.68 52.69 52.70 52.72 52.73 52.74 52.75 52.76 52.77 52.78 52.79 52.80 52.81 52.82 52.83 52.84 52.85 52.86 52.87 52.87 52.88 52.89 52.89 52.90 52.90 52.91 52.91 52.92 52.92 52.92 52.93 52.93 52.93 52.93 52.93 52.93 52.93 52.93 52.93 52.93 52.92 52.92 52.92 52.92 52.91 52.91 52.90 52.90 52.89 52.88 52.88 52.87 52.86 52.85 52.84 52.83 52.82 52.81 52.80 52.79 52.78 52.77 52.76 52.74 52.73 52.72 52.70 52.69 52.67 52.66 52.64 52.63 52.61 52.60 52.58 52.56 52.55 52.53 52.51 52.50 52.48 52.46 52.44 52.43 52.41 52.39 52.37 52.35 52.34 52.32 52.30 52.28 52.26 52.25 52.23 52.21 52.19 52.17 52.16 52.14 52.12 52.10 52.09 52.07 52.05 52.04 52.02 52.00 51.99 51.97 51.96 51.94 51.93 51.91 51.90 51.88 51.87 51.86 51.84 51.83 51.82 51.81 51.80 51.79 51.78 51.77 51.76 51.75 51.74 51.73 51.72 51.72 51.71 51.70 51.70 51.69 51.69 51.68 51.68 51.68 51.67 51.67 51.67 51.67 51.67 51.67 51.67 51.67 51.67 51.67 51.67 51.68 51.68 51.68 51.69 51.69 51.70 51.70 51.71 51.71 51.72 51.73 51.73 51.74 51.75 51.76 51.77 51.78 51.79 51.80 51.81 51.82 51.83 51.84 51.85 51.86 51.87 51.88 51.90 51.91 51.92 51.93 51.95 51.96 51.97 51.98 52.00 52.01 52.02 52.04 52.05 52.06 52.08 52.09 52.10 52.12 52.13 52.14 52.15 52.17 52.18 52.19 52.20 52.22 52.23 52.24 52.25 52.26 52.27 52.28 52.29 52.30 52.31 52.32 52.33 52.34 52.35 52.36 52.37 52.37 52.38 52.39 52.39 52.40 52.40 52.41 52.41 52.42 52.42 52.42 52.43 52.43 52.43 52.43 52.43 52.43 52.43 52.43 52.43 52.43 52.42 52.42 52.42 52.42 52.41 52.41 52.40 52.40 52.39 52.38 52.38 52.37 52.36 52.35 52.34 52.33 52.32 52.31 52.30 52.29 52.28 52.27 52.26 52.24 52.23 52.22 52.20 52.19 52.17 52.16 52.14 52.13 52.11 52.10 52.08 52.06 52.05 52.03 52.01 52.00 51.98 51.96 51.94 51.93 51.91 51.89 51.87 51.85 51.84 51.82
53.25 53.23 53.21 53.20 53.18 53.16 53.14 53.12 53.11 53.09 53.07 53.05 53.04 53.02 53.00 52.99 52.97 52.95 52.94 52.92 52.91 52.89 52.88 52.86 52.85 52.83 52.82 52.81 52.79 52.78 52.77 52.76 52.75 52.74 52.73 52.72 52.71 52.70 52.69 52.68 52.67 52.67 52.66 52.65 52.65 52.64 52.64 52.63 52.63 52.63 52.62 52.62 52.62 52.62 52.62 52.62 52.62 52.62 52.62 52.62 52.62 52.63 52.63 52.63 52.64 52.64 52.65 52.65 52.66 52.66 52.67 52.68 52.68 52.69 52.70 52.71 52.72 52.73 52.74 52.75 52.76 52.77 52.78 52.79 52.80 52.81 52.82 52.83 52.85 52.86 52.87 52.88 52.90 52.91 52.92 52.93 52.95 52.96 52.97 52.99 53.00 53.01 53.03 53.04 53.05 53.07 53.08 53.09 53.10 53.12 53.13 53.14 53.15 53.17 53.18 53.19 53.20 53.21 53.22 53.23 53.24 53.25 53.26 53.27 53.28 53.29 53.30 53.31 53.32 53.32 53.33 53.34 53.34 53.35 53.35 53.36 53.36 53.37 53.37 53.37 53.38 53.38 53.38 53.38 53.38 53.38 53.38 53.38 53.38 53.38 53.38 53.37 53.37 53.37 53.36 53.36 53.35 53.35 53.34 53.33 53.33 53.32 53.31 53.30 53.29 53.28 53.27 53.26 53.25 53.24 53.23 53.22 53.21 53.19 53.18 53.17 53.15 53.14 53.12 53.11 53.09 53.08 53.06 53.05 53.03 53.01 53.00 52.98 52.96 52.95 52.93 52.91 52.89 52.88 52.86 52.84 52.82 52.80 52.79 52.77 52.75 52.73 52.71 52.70 52.68 52.66 52.64 52.62 52.61 52.59 52.57 52.55 52.54 52.52 52.50 52.49 52.47 52.45 52.44 52.42 52.41 52.39 52.38 52.36 52.35 52.33 52.32 52.31 52.29 52.28 52.27 52.26 52.25 52.24 52.23 52.22 52.21 52.20 52.19 52.18 52.17 52.17 52.16 52.15 52.15 52.14 52.14 52.13 52.13 52.13 52.12 52.12 52.12 52.12 52.12 52.12 52.12 52.12 52.12 52.12 52.12 52.13 52.13 52.13 52.14 52.14 52.15 52.15 52.16 52.16 52.17 52.18 52.18 52.19 52.20 52.21 52.22 52.23 52.24 52.25 52.26 52.27 52.28 52.29 52.30 52.31 52.32 52.33 52.35 52.36 52.37 52.38 52.40 52.41 52.42 52.43 52.45 52.46 52.47 52.49 52.50 52.51 52.53 52.54 52.55 52.57 52.58 52.59 52.60 52.62 52.63 52.64 52.65 52.67 52.68 52.69 52.70 52.71 52.72 52.73 52.74 52.75 52.76 52.77 52.78 52.79 52.80 52.81 52.82 52.82 52.83 52.84 52.84 52.85 52.85 52.86 52.86 52.87 52.87 52.87 52.88 52.88 52.88 52.88 52.88 52.88 52.88 52.88 52.88 52.88 52.88 52.87 52.87 52.87 52.86 52.86 52.85 52.85 52.84 52.83 52.83 52.82 52.81 52.80 52.79 52.78 52.77 52.76 52.75 52.74 52.73 52.72 52.71 52.69 52.68 52.67 52.65 52.64 52.62 52.61 52.59 52.58 52.56 52.55 52.53 52.51 52.50 52.48 52.46 52.45 52.43 52.41 52.39 52.38 52.36 52.34 52.32 52.30 52.29 52.27 52.25 52.23 52.21 52.20 52.18 52.16 52.14 52.12 52.11 52.09 52.07 52.05 52.04 52.02 52.00 51.99 51.97 51.95 51.94 51.92 51.91 51.89 51.88 51.86 51.85 51.83 51.82 51.81 51.79 51.78 51.77 51.76 51.75 51.74 51.73 51.72 51.71 51.70 51.69 51.68 51.67 51.67 51.66 51.65 51.65 51.64 51.64 51.63 51.63 51.63 51.62 51.62 51.62 51.62 51.62 51.62 51.62 51.62 51.62 51.62 51.62 51.63 51.63 51.63 51.64 51.64 51.65 51.65 51.66 51.66 51.67 51.68 51.68 51.69 51.70 51.71 51.72 51.73 51.74 51.75 51.76 51.77 51.78 51.79 51.80 51.81 51.82 51.83 51.85 51.86 51.87 51.88 51.90 51.91 51.92 51.93 51.95 51.96 51.97 51.99 52.00 52.01 52.03 52.04 52.05 52.07 52.08 52.09 52.10 52.12 52.13 52.14 52.15 52.17 52.18 52.19 52.20 52.21 52.22 52.23 52.24 52.25 52.26 52.27 52.28 52.29 52.30 52.31 52.32 52.32 52.33 52.34 52.34 52.35 52.35 52.36 52.36 52.37 52.37 52.37 52.38 52.38 52.38 52.38 52.38 52.38 52.38 52.38 52.38 52.38 52.38 52.37 52.37 52.37 52.36 52.36 52.35 52.35 52.34 52.33 52.33 52.32 52.31 52.30 52.29 52.28 52.27 52.26 52.25 52.24 52.23 52.22 52.21 52.19 52.18 52.17 52.15 52.14 52.12 52.11 52.09 52.08 52.06 52.05 52.03 52.01 52.00 51.98 51.96 51.95 51.93 51.91 51.89 51.88 51.86 51.84 51.82 51.80 51.79 51.77
53.20 53.18 53.16 53.15 53.13 53.11 53.09 53.07 53.06 53.04 53.02 53.00 52.99 52.97 52.95 52.94 52.92 52.90 52.89 52.87 52.86 52.84 52.83 52.81 52.80 52.78 52.77 52.76 52.74 52.73 52.72 52.71 52.70 52.69 52.68 52.67 52.66 52.65 52.64 52.63 52.62 52.62 52.61 52.60 52.60 52.59 52.59 52.58 52.58 52.58 52.58 52.57 52.57 52.57 52.57 52.57 52.57 52.57 52.57 52.57 52.57 52.58 52.58 52.58 52.59 52.59 52.60 52.60 52.61 52.61 52.62 52.63 52.63 52.64 52.65 52.66 52.67 52.68 52.69 52.70 52.71 52.72 52.73 52.74 52.75 52.76 52.77 52.78 52.80 52.81 52.82 52.83 52.85 52.86 52.87 52.88 52.90 52.91 52.92 52.94 52.95 52.96 52.98 52.99 53.00 53.02 53.03 53.04 53.05 53.07 53.08 53.09 53.10 53.12 53.13 53.14 53.15 53.16 53.17 53.18 53.19 53.20 53.21 53.22 53.23 53.24 53.25 53.26 53.27 53.27 53.28 53.29 53.29 53.30 53.30 53.31 53.31 53.32 53.32 53.32 53.33 53.33 53.33 53.33 53.33 53.33 53.33 53.33 53.33 53.33 53.33 53.32 53.32 53.32 53.31 53.31 53.30 53.30 53.29 53.28 53.28 53.27 53.26 53.25 53.24 53.23 53.22 53.21 53.20 53.19 53.18 53.17 53.16 53.14 53.13 53.12 53.10 53.09 53.07 53.06 53.04 53.03 53.01 53.00 52.98 52.96 52.95 52.93 52.91 52.90 52.88 52.86 52.84 52.83 52.81 52.79 52.77 52.75 52.74 52.72 52.70 52.68 52.66 52.65 52.63 52.61 52.59 52.57 52.56 52.54 52.52 52.50 52.49 52.47 52.45 52.44 52.42 52.40 52.39 52.37 52.36 52.34 52.33 52.31 52.30 52.28 52.27 52.26 52.24 52.23 52.22 52.21 52.20 52.19 52.18 52.17 52.16 52.15 52.14 52.13 52.12 52.12 52.11 52.10 52.10 52.09 52.09 52.08 52.08 52.08 52.08 52.07 52.07 52.07 52.07 52.07 52.07 52.07 52.07 52.07 52.07 52.08 52.08 52.08 52.09 52.09 52.10 52.10 52.11 52.11 52.12 52.13 52.13 52.14 52.15 52.16 52.17 52.18 52.19 52.20 52.21 52.22 52.23 52.24 52.25 52.26 52.27 52.28 52.30 52.31 52.32 52.33 52.35 52.36 52.37 52.38 52.40 52.41 52.42 52.44 52.45 52.46 52.48 52.49 52.50 52.52 52.53 52.54 52.55 52.57 52.58 52.59 52.60 52.62 52.63 52.64 52.65 52.66 52.67 52.68 52.69 52.70 52.71 52.72 52.73 52.74 52.75 52.76 52.77 52.77 52.78 52.79 52.79 52.80 52.80 52.81 52.81 52.82 52.82 52.82 52.83 52.83 52.83 52.83 52.83 52.83 52.83 52.83 52.83 52.83 52.83 52.82 52.82 52.82 52.81 52.81 52.80 52.80 52.79 52.78 52.78 52.77 52.76 52.75 52.74 52.73 52.72 52.71 52.70 52.69 52.68 52.67 52.66 52.64 52.63 52.62 52.60 52.59 52.57 52.56 52.54 52.53 52.51 52.50 52.48 52.46 52.45 52.43 52.41 52.40 52.38 52.36 52.34 52.33 52.31 52.29 52.27 52.25 52.24 52.22 52.20 52.18 52.16 52.15 52.13 52.11 52.09 52.07 52.06 52.04 52.02 52.00 51.99 51.97 51.95 51.94 51.92 51.90 51.89 51.87 51.86 51.84 51.83 51.81 51.80 51.78 51.77 51.76 51.74 51.73 51.72 51.71 51.70 51.69 51.68 51.67 51.66 51.65 51.64 51.63 51.62 51.62 51.61 51.60 51.60 51.59 51.59 51.58 51.58 51.58 51.58 51.57 51.57 51.57 51.57 51.57 51.57 51.57 51.57 51.57 51.57 51.58 51.58 51.58 51.59 51.59 51.60 51.60 51.61 51.61 51.62 51.63 51.63 51.64 51.65 51.66 51.67 51.68 51.69 51.70 51.71 51.72 51.73 51.74 51.75 51.76 51.77 51.78 51.80 51.81 51.82 51.83 51.85 51.86 51.87 51.88 51.90 51.91 51.92 51.94 51.95 51.96 51.98 51.99 52.00 52.02 52.03 52.04 52.05 52.07 52.08 52.09 52.10 52.12 52.13 52.14 52.15 52.16 52.17 52.18 52.19 52.20 52.21 52.22 52.23 52.24 52.25 52.26 52.27 52.27 52.28 52.29 52.29 52.30 52.30 52.31 52.31 52.32 52.32 52.32 52.33 52.33 52.33 52.33 52.33 52.33 52.33 52.33 52.33 52.33 52.33 52.32 52.32 52.32 52.31 52.31 52.30 52.30 52.29 52.28 52.28 52.27 52.26 52.25 52.24 52.23 52.22 52.21 52.20 52.19 52.18 52.17 52.16 52.14 52.13 52.12 52.10 52.09 52.07 52.06 52.04 52.03 52.01 52.00 51.98 51.96 51.95 51.93 51.91 51.90 51.88 51.86 51.84 51.83 51.81 51.79 51.77 51.75 51.74 51.72
53.15 53.13 53.11 53.10 53.08 53.06 53.04 53.02 53.01 52.99 52.97 52.95 52.94 52.92 52.90 52.89 52.87 52.85 52.84 52.82 52.81 52.79 52.78 52.76 52.75 52.73 52.72 52.71 52.69 52.68 52.67 52.66 52.65 52.64 52.63 52.62 52.61 52.60 52.59 52.58 52.57 52.57 52.56 52.55 52.55 52.54 52.54 52.53 52.53 52.53 52.52 52.52 52.52 52.52 52.52 52.52 52.52 52.52 52.52 52.52 52.52 52.53 52.53 52.53 52.54 52.54 52.55 52.55 52.56 52.56 52.57 52.58 52.58 52.59 52.60 52.61 52.62 52.63 52.64 52.65 52.66 52.67 52.68 52.69 52.70 52.71 52.72 52.73 52.75 52.76 52.77 52.78 52.80 52.81 52.82 52.83 52.85 52.86 52.87 52.89 52.90 52.91 52.93 52.94 52.95 52.97 52.98 52.99 53.00 53.02 53.03 53.04 53.05 53.07 53.08 53.09 53.10 53.11 53.12 53.13 53.14 53.15 53.16 53.17 53.18 53.19 53.20 53.21 53.22 53.22 53.23 53.24 53.24 53.25 53.25 53.26 53.26 53.27 53.27 53.27 53.28 53.28 53.28 53.28 53.28 53.28 53.28 53.28 53.28 53.28 53.27 53.27 53.27 53.27 53.26 53.26 53.25 53.25 53.24 53.23 53.23 53.22 53.21 53.20 53.19 53.18 53.17 53.16 53.15 53.14 53.13 53.12 53.11 53.09 53.08 53.07 53.05 53.04 53.02 53.01 52.99 52.98 52.96 52.95 52.93 52.91 52.90 52.88 52.86 52.85 52.83 52.81 52.79 52.78 52.76 52.74 52.72 52.70 52.69 52.67 52.65 52.63 52.61 52.60 52.58 52.56 52.54 52.52 52.51 52.49 52.47 52.45 52.44 52.42 52.40 52.39 52.37 52.35 52.34 52.32 52.31 52.29 52.28 52.26 52.25 52.23 52.22 52.21 52.19 52.18 52.17 52.16 52.15 52.14 52.13 52.12 52.11 52.10 52.09 52.08 52.07 52.07 52.06 52.05 52.05 52.04 52.04 52.03 52.03 52.03 52.02 52.02 52.02 52.02 52.02 52.02 52.02 52.02 52.02 52.02 52.02 52.03 52.03 52.03 52.04 52.04 52.05 52.05 52.06 52.06 52.07 52.08 52.08 52.09 52.10 52.11 52.12 52.13 52.14 52.15 52.16 52.17 52.18 52.19 52.20 52.21 52.22 52.23 52.25 52.26 52.27 52.28 52.30 52.31 52.32 52.33 52.35 52.36 52.37 52.39 52.40 52.41 52.43 52.44 52.45 52.47 52.48 52.49 52.50 52.52 52.53 52.54 52.55 52.57 52.58 52.59 52.60 52.61 52.62 52.63 52.64 52.65 52.66 52.67 52.68 52.69 52.70 52.71 52.72 52.72 52.73 52.74 52.74 52.75 52.75 52.76 52.76 52.77 52.77 52.77 52.78 52.78 52.78 52.78 52.78 52.78 52.78 52.78 52.78 52.78 52.77 52.77 52.77 52.77 52.76 52.76 52.75 52.75 52.74 52.73 52.73 52.72 52.71 52.70 52.69 52.68 52.67 52.66 52.65 52.64 52.63 52.62 52.61 52.59 52.58 52.57 52.55 52.54 52.52 52.51 52.49 52.48 52.46 52.45 52.43 52.41 52.40 52.38 52.36 52.35 52.33 52.31 52.29 52.28 52.26 52.24 52.22 52.20 52.19 52.17 52.15 52.13 52.11 52.10 52.08 52.06 52.04 52.02 52.01 51.99 51.97 51.95 51.94 51.92 51.90 51.89 51.87 51.85 51.84 51.82 51.81 51.79 51.78 51.76 51.75 51.73 51.72 51.71 51.69 51.68 51.67 51.66 51.65 51.64 51.63 51.62 51.61 51.60 51.59 51.58 51.57 51.57 51.56 51.55 51.55 51.54 51.54 51.53 51.53 51.53 51.52 51.52 51.52 51.52 51.52 51.52 51.52 51.52 51.52 51.52 51.52 51.53 51.53 51.53 51.54 51.54 51.55 51.55 51.56 51.56 51.57 51.58 51.58 51.59 51.60 51.61 51.62 51.63 51.64 51.65 51.66 51.67 51.68 51.69 51.70 51.71 51.72 51.73 51.75 51.76 51.77 51.78 51.80 51.81 51.82 51.83 51.85 51.86 51.87 51.89 51.90 51.91 51.93 51.94 51.95 51.97 51.98 51.99 52.00 52.02 52.03 52.04 52.05 52.07 52.08 52.09 52.10 52.11 52.12 52.13 52.14 52.15 52.16 52.17 52.18 52.19 52.20 52.21 52.22 52.22 52.23 52.24 52.24 52.25 52.25 52.26 52.26 52.27 52.27 52.27 52.28 52.28 52.28 52.28 52.28 52.28 52.28 52.28 52.28 52.28 52.27 52.27 52.27 52.27 52.26 52.26 52.25 52.25 52.24 52.23 52.23 52.22 52.21 52.20 52.19 52.18 52.17 52.16 52.15 52.14 52.13 52.12 52.11 52.09 52.08 52.07 52.05 52.04 52.02 52.01 51.99 51.98 51.96 51.95 51.93 51.91 51.90 51.88 51.86 51.85 51.83 51.81 51.79 51.78 51.76 51.74 51.72 51.70 51.69 51.67
53.10 53.08 53.06 53.05 53.03 53.01 52.99 52.97 52.96 52.94 52.92 52.90 52.89 52.87 52.85 52.84 52.82 52.80 52.79 52.77 52.76 52.74 52.73 52.71 52.70 52.68 52.67 52.66 52.64 52.63 52.62 52.61 52.60 52.59 52.58 52.57 52.56 52.55 52.54 52.53 52.52 52.52 52.51 52.50 52.50 52.49 52.49 52.48 52.48 52.48 52.48 52.47 52.47 52.47 52.47 52.47 52.47 52.47 52.47 52.47 52.47 52.48 52.48 52.48 52.49 52.49 52.50 52.50 52.51 52.51 52.52 52.53 52.53 52.54 52.55 52.56 52.57 52.58 52.59 52.60 52.61 52.62 52.63 52.64 52.65 52.66 52.67 52.68 52.70 52.71 52.72 52.73 52.75 52.76 52.77 52.78 52.80 52.81 52.82 52.84 52.85 52.86 52.88 52.89 52.90 52.92 52.93 52.94 52.95 52.97 52.98 52.99 53.00 53.02 53.03 53.04 53.05 53.06 53.07 53.08 53.09 53.10 53.11 53.12 53.13 53.14 53.15 53.16 53.17 53.17 53.18 53.19 53.19 53.20 53.20 53.21 53.21 53.22 53.22 53.22 53.23 53.23 53.23 53.23 53.23 53.23 53.23 53.23 53.23 53.23 53.23 53.22 53.22 53.22 53.21 53.21 53.20 53.20 53.19 53.18 53.18 53.17 53.16 53.15 53.14 53.13 53.12 53.11 53.10 53.09 53.08 53.07 53.06 53.04 53.03 53.02 53.00 52.99 52.97 52.96 52.94 52.93 52.91 52.90 52.88 52.86 52.85 52.83 52.81 52.80 52.78 52.76 52.74 52.73 52.71 52.69 52.67 52.65 52.64 52.62 52.60 52.58 52.56 52.55 52.53 52.51 52.49 52.47 52.46 52.44 52.42 52.40 52.39 52.37 52.35 52.34 52.32 52.30 52.29 52.27 52.26 52.24 52.23 52.21 52.20 52.18 52.17 52.16 52.14 52.13 52.12 52.11 52.10 52.09 52.08 52.07 52.06 52.05 52.04 52.03 52.02 52.02 52.01 52.00 52.00 51.99 51.99 51.98 51.98 51.98 51.98 51.97 51.97 51.97 51.97 51.97 51.97 51.97 51.97 51.97 51.97 51.98 51.98 51.98 51.99 51.99 52.00 52.00 52.01 52.01 52.02 52.03 52.03 52.04 52.05 52.06 52.07 52.08 52.09 52.10 52.11 52.12 52.13 52.14 52.15 52.16 52.17 52.18 52.20 52.21 52.22 52.23 52.25 52.26 52.27 52.28 52.30 52.31 52.32 52.34 52.35 52.36 52.38 52.39 52.40 52.42 52.43 52.44 52.45 52.47 52.48 52.49 52.50 52.52 52.53 52.54 52.55 52.56 52.57 52.58 52.59 52.60 52.61 52.62 52.63 52.64 52.65 52.66 52.67 52.67 52.68 52.69 52.69 52.70 52.70 52.71 52.71 52.72 52.72 52.72 52.73 52.73 52.73 52.73 52.73 52.73 52.73 52.73 52.73 52.73 52.73 52.72 52.72 52.72 52.71 52.71 52.70 52.70 52.69 52.68 52.68 52.67 52.66 52.65 52.64 52.63 52.62 52.61 52.60 52.59 52.58 52.57 52.56 52.54 52.53 52.52 52.50 52.49 52.47 52.46 52.44 52.43 52.41 52.40 52.38 52.36 52.35 52.33 52.31 52.30 52.28 52.26 52.24 52.23 52.21 52.19 52.17 52.15 52.14 52.12 52.10 52.08 52.06 52.05 52.03 52.01 51.99 51.97 51.96 51.94 51.92 51.90 51.89 51.87 51.85 51.84 51.82 51.80 51.79 51.77 51.76 51.74 51.73 51.71 51.70 51.68 51.67 51.66 51.64 51.63 51.62 51.61 51.60 51.59 51.58 51.57 51.56 51.55 51.54 51.53 51.52 51.52 51.51 51.50 51.50 51.49 51.49 51.48 51.48 51.48 51.48 51.47 51.47 51.47 51.47 51.47 51.47 51.47 51.47 51.47 51.47 51.48 51.48 51.48 51.49 51.49 51.50 51.50 51.51 51.51 51.52 51.53 51.53 51.54 51.55 51.56 51.57 51.58 51.59 51.60 51.61 51.62 51.63 51.64 51.65 51.66 51.67 51.68 51.70 51.71 51.72 51.73 51.75 51.76 51.77 51.78 51.80 51.81 51.82 51.84 51.85 51.86 51.88 51.89 51.90 51.92 51.93 51.94 51.95 51.97 51.98 51.99 52.00 52.02 52.03 52.04 52.05 52.06 52.07 52.08 52.09 52.10 52.11 52.12 52.13 52.14 52.15 52.16 52.17 52.17 52.18 52.19 52.19 52.20 52.20 52.21 52.21 52.22 52.22 52.22 52.23 52.23 52.23 52.23 52.23 52.23 52.23 52.23 52.23 52.23 52.23 52.22 52.22 52.22 52.21 52.21 52.20 52.20 52.19 52.18 52.18 52.17 52.16 52.15 52.14 52.13 52.12 52.11 52.10 52.09 52.08 52.07 52.06 52.04 52.03 52.02 52.00 51.99 51.97 51.96 51.94 51.93 51.91 51.90 51.88 51.86 51.85 51.83 51.81 51.80 51.78 51.76 51.74 51.73 51.71 51.69 51.67 51.65 51.64 51.62
53.05 53.03 53.01 53.00 52.98 52.96 52.94 52.92 52.91 52.89 52.87 52.85 52.84 52.82 52.80 52.79 52.77 52.75 52.74 52.72 52.71 52.69 52.68 52.66 52.65 52.63 52.62 52.61 52.59 52.58 52.57 52.56 52.55 52.54 52.53 52.52 52.51 52.50 52.49 52.48 52.47 52.47 52.46 52.45 52.45 52.44 52.44 52.43 52.43 52.43 52.42 52.42 52.42 52.42 52.42 52.42 52.42 52.42 52.42 52.42 52.42 52.43 52.43 52.43 52.44 52.44 52.45 52.45 52.46 52.46 52.47 52.48 52.48 52.49 52.50 52.51 52.52 52.53 52.54 52.55 52.56 52.57 52.58 52.59 52.60 52.61 52.62 52.63 52.65 52.66 52.67 52.68 52.70 52.71 52.72 52.73 52.75 52.76 52.77 52.79 52.80 52.81 52.83 52.84 52.85 52.87 52.88 52.89 52.90 52.92 52.93 52.94 52.95 52.97 52.98 52.99 53.00 53.01 53.02 53.03 53.04 53.05 53.06 53.07 53.08 53.09 53.10 53.11 53.12 53.12 53.13 53.14 53.14 53.15 53.15 53.16 53.16 53.17 53.17 53.17 53.18 53.18 53.18 53.18 53.18 53.18 53.18 53.18 53.18 53.18 53.17 53.17 53.17 53.17 53.16 53.16 53.15 53.15 53.14 53.13 53.13 53.12 53.11 53.10 53.09 53.08 53.07 53.06 53.05 53.04 53.03 53.02 53.01 52.99 52.98 52.97 52.95 52.94 52.92 52.91 52.89 52.88 52.86 52.85 52.83 52.81 52.80 52.78 52.76 52.75 52.73 52.71 52.69 52.68 52.66 52.64 52.62 52.60 52.59 52.57 52.55 52.53 52.51 52.50 52.48 52.46 52.44 52.42 52.41 52.39 52.37 52.35 52.34 52.32 52.30 52.29 52.27 52.25 52.24 52.22 52.21 52.19 52.18 52.16 52.15 52.13 52.12 52.11 52.09 52.08 52.07 52.06 52.05 52.04 52.03 52.02 52.01 52.00 51.99 51.98 51.97 51.97 51.96 51.95 51.95 51.94 51.94 51.93 51.93 51.93 51.92 51.92 51.92 51.92 51.92 51.92 51.92 51.92 51.92 51.92 51.92 51.93 51.93 51.93 51.94 51.94 51.95 51.95 51.96 51.96 51.97 51.98 51.98 51.99 52.00 52.01 52.02 52.03 52.04 52.05 52.06 52.07 52.08 52.09 52.10 52.11 52.12 52.13 52.15 52.16 52.17 52.18 52.20 52.21 52.22 52.23 52.25 52.26 52.27 52.29 52.30 52.31 52.33 52.34 52.35 52.37 52.38 52.39 52.40 52.42 52.43 52.44 52.45 52.47 52.48 52.49 52.50 52.51 52.52 52.53 52.54 52.55 52.56 52.57 52.58 52.59 52.60 52.61 52.62 52.62 52.63 52.64 52.64 52.65 52.65 52.66 52.66 52.67 52.67 52.67 52.68 52.68 52.68 52.68 52.68 52.68 52.68 52.68 52.68 52.68 52.67 52.67 52.67 52.67 52.66 52.66 52.65 52.65 52.64 52.63 52.63 52.62 52.61 52.60 52.59 52.58 52.57 52.56 52.55 52.54 52.53 52.52 52.51 52.49 52.48 52.47 52.45 52.44 52.42 52.41 52.39 52.38 52.36 52.35 52.33 52.31 52.30 52.28 52.26 52.25 52.23 52.21 52.19 52.18 52.16 52.14 52.12 52.10 52.09 52.07 52.05 52.03 52.01 52.00 51.98 51.96 51.94 51.92 51.91 51.89 51.87 51.85 51.84 51.82 51.80 51.79 51.77 51.75 51.74 51.72 51.71 51.69 51.68 51.66 51.65 51.63 51.62 51.61 51.59 51.58 51.57 51.56 51.55 51.54 51.53 51.52 51.51 51.50 51.49 51.48 51.47 51.47 51.46 51.45 51.45 51.44 51.44 51.43 51.43 51.43 51.42 51.42 51.42 51.42 51.42 51.42 51.42 51.42 51.42 51.42 51.42 51.43 51.43 51.43 51.44 51.44 51.45 51.45 51.46 51.46 51.47 51.48 51.48 51.49 51.50 51.51 51.52 51.53 51.54 51.55 51.56 51.57 51.58 51.59 51.60 51.61 51.62 51.63 51.65 51.66 51.67 51.68 51.70 51.71 51.72 51.73 51.75 51.76 51.77 51.79 51.80 51.81 51.83 51.84 51.85 51.87 51.88 51.89 51.90 51.92 51.93 51.94 51.95 51.97 51.98 51.99 52.00 52.01 52.02 52.03 52.04 52.05 52.06 52.07 52.08 52.09 52.10 52.11 52.12 52.12 52.13 52.14 52.14 52.15 52.15 52.16 52.16 52.17 52.17 52.17 52.18 52.18 52.18 52.18 52.18 52.18 52.18 52.18 52.18 52.18 52.17 52.17 52.17 52.17 52.16 52.16 52.15 52.15 52.14 52.13 52.13 52.12 52.11 52.10 52.09 52.08 52.07 52.06 52.05 52.04 52.03 52.02 52.01 51.99 51.98 51.97 51.95 51.94 51.92 51.91 51.89 51.88 51.86 51.85 51.83 51.81 51.80 51.78 51.76 51.75 51.73 51.71 51.69 51.68 51.66 51.64 51.62 51.60 51.59 51.57
53.00 52.98 52.96 52.95 52.93 52.91 52.89 52.87 52.86 52.84 52.82 52.80 52.79 52.77 52.75 52.74 52.72 52.70 52.69 52.67 52.66 52.64 52.63 52.61 52.60 52.58 52.57 52.56 52.54 52.53 52.52 52.51 52.50 52.49 52.48 52.47 52.46 52.45 52.44 52.43 52.42 52.42 52.41 52.40 52.40 52.39 52.39 52.38 52.38 52.38 52.38 52.37 52.37 52.37 52.37 52.37 52.37 52.37 52.37 52.37 52.37 52.38 52.38 52.38 52.39 52.39 52.40 52.40 52.41 52.41 52.42 52.43 52.43 52.44 52.45 52.46 52.47 52.48 52.49 52.50 52.51 52.52 52.53 52.54 52.55 52.56 52.57 52.58 52.60 52.61 52.62 52.63 52.65 52.66 52.67 52.68 52.70 52.71 52.72 52.74 52.75 52.76 52.78 52.79 52.80 52.82 52.83 52.84 52.85 52.87 52.88 52.89 52.90 52.92 52.93 52.94 52.95 52.96 52.97 52.98 52.99 53.00 53.01 53.02 53.03 53.04 53.05 53.06 53.07 53.07 53.08 53.09 53.09 53.10 53.10 53.11 53.11 53.12 53.12 53.12 53.13 53.13 53.13 53.13 53.13 53.13 53.13 53.13 53.13 53.13 53.12 53.12 53.12 53.12 53.11 53.11 53.10 53.10 53.09 53.08 53.08 53.07 53.06 53.05 53.04 53.03 53.02 53.01 53.00 52.99 52.98 52.97 52.96 52.94 52.93 52.92 52.90 52.89 52.87 52.86 52.84 52.83 52.81 52.80 52.78 52.76 52.75 52.73 52.71 52.70 52.68 52.66 52.64 52.63 52.61 52.59 52.57 52.55 52.54 52.52 52.50 52.48 52.46 52.45 52.43 52.41 52.39 52.37 52.36 52.34 52.32 52.30 52.29 52.27 52.25 52.24 52.22 52.20 52.19 52.17 52.16 52.14 52.13 52.11 52.10 52.08 52.07 52.06 52.04 52.03 52.02 52.01 52.00 51.99 51.98 51.97 51.96 51.95 51.94 51.93 51.92 51.92 51.91 51.90 51.90 51.89 51.89 51.88 51.88 51.88 51.88 51.87 51.87 51.87 51.87 51.87 51.87 51.87 51.87 51.87 51.87 51.88 51.88 51.88 51.89 51.89 51.90 51.90 51.91 51.91 51.92 51.93 51.93 51.94 51.95 51.96 51.97 51.98 51.99 52.00 52.01 52.02 52.03 52.04 52.05 52.06 52.07 52.08 52.10 52.11 52.12 52.13 52.15 52.16 52.17 52.18 52.20 52.21 52.22 52.24 52.25 52.26 52.28 52.29 52.30 52.32 52.33 52.34 52.35 52.37 52.38 52.39 52.40 52.42 52.43 52.44 52.45 52.46 52.47 52.48 52.49 52.50 52.51 52.52 52.53 52.54 52.55 52.56 52.57 52.57 52.58 52.59 52.59 52.60 52.60 52.61 52.61 52.62 52.62 52.62 52.63 52.63 52.63 52.63 52.63 52.63 52.63 52.63 52.63 52.63 52.62 52.62 52.62 52.62 52.61 52.61 52.60 52.60 52.59 52.58 52.58 52.57 52.56 52.55 52.54 52.53 52.52 52.51 52.50 52.49 52.48 52.47 52.46 52.44 52.43 52.42 52.40 52.39 52.37 52.36 52.34 52.33 52.31 52.30 52.28 52.26 52.25 52.23 52.21 52.20 52.18 52.16 52.14 52.13 52.11 52.09 52.07 52.05 52.04 52.02 52.00 51.98 51.96 51.95 51.93 51.91 51.89 51.87 51.86 51.84 51.82 51.80 51.79 51.77 51.75 51.74 51.72 51.70 51.69 51.67 51.66 51.64 51.63 51.61 51.60 51.58 51.57 51.56 51.54 51.53 51.52 51.51 51.50 51.49 51.48 51.47 51.46 51.45 51.44 51.43 51.42 51.42 51.41 51.40 51.40 51.39 51.39 51.38 51.38 51.38 51.38 51.37 51.37 51.37 51.37 51.37 51.37 51.37 51.37 51.37 51.37 51.38 51.38 51.38 51.39 51.39 51.40 51.40 51.41 51.41 51.42 51.43 51.43 51.44 51.45 51.46 51.47 51.48 51.49 51.50 51.51 51.52 51.53 51.54 51.55 51.56 51.57 51.58 51.60 51.61 51.62 51.63 51.65 51.66 51.67 51.68 51.70 51.71 51.72 51.74 51.75 51.76 51.78 51.79 51.80 51.82 51.83 51.84 51.85 51.87 51.88 51.89 51.90 51.92 51.93 51.94 51.95 51.96 51.97 51.98 51.99 52.00 52.01 52.02 52.03 52.04 52.05 52.06 52.07 52.07 52.08 52.09 52.09 52.10 52.10 52.11 52.11 52.12 52.12 52.12 52.13 52.13 52.13 52.13 52.13 52.13 52.13 52.13 52.13 52.13 52.12 52.12 52.12 52.12 52.11 52.11 52.10 52.10 52.09 52.08 52.08 52.07 52.06 52.05 52.04 52.03 52.02 52.01 52.00 51.99 51.98 51.97 51.96 51.94 51.93 51.92 51.90 51.89 51.87 51.86 51.84 51.83 51.81 51.80 51.78 51.76 51.75 51.73 51.71 51.70 51.68 51.66 51.64 51.63 51.61 51.59 51.57 51.55 51.54 51.52
52.95 52.93 52.91 52.90 52.88 52.86 52.84 52.82 52.81 52.79 52.77 52.75 52.74 52.72 52.70 52.69 52.67 52.65 52.64 52.62 52.61 52.59 52.58 52.56 52.55 52.53 52.52 52.51 52.49 52.48 52.47 52.46 52.45 52.44 52.43 52.42 52.41 52.40 52.39 52.38 52.37 52.37 52.36 52.35 52.35 52.34 52.34 52.33 52.33 52.33 52.33 52.32 52.32 52.32 52.32 52.32 52.32 52.32 52.32 52.32 52.32 52.33 52.33 52.33 52.34 52.34 52.35 52.35 52.36 52.36 52.37 52.38 52.38 52.39 52.40 52.41 52.42 52.43 52.44 52.45 52.46 52.47 52.48 52.49 52.50 52.51 52.52 52.53 52.55 52.56 52.57 52.58 52.60 52.61 52.62 52.63 52.65 52.66 52.67 52.69 52.70 52.71 52.73 52.74 52.75 52.77 52.78 52.79 52.80 52.82 52.83 52.84 52.85 52.87 52.88 52.89 52.90 52.91 52.92 52.93 52.94 52.95 52.96 52.97 52.98 52.99 53.00 53.01 53.02 53.02 53.03 53.04 53.04 53.05 53.05 53.06 53.06 53.07 53.07 53.07 53.08 53.08 53.08 53.08 53.08 53.08 53.08 53.08 53.08 53.08 53.08 53.07 53.07 53.07 53.06 53.06 53.05 53.05 53.04 53.03 53.03 53.02 53.01 53.00 52.99 52.98 52.97 52.96 52.95 52.94 52.93 52.92 52.91 52.89 52.88 52.87 52.85 52.84 52.82 52.81 52.79 52.78 52.76 52.75 52.73 52.71 52.70 52.68 52.66 52.65 52.63 52.61 52.59 52.58 52.56 52.54 52.52 52.50 52.49 52.47 52.45 52.43 52.41 52.40 52.38 52.36 52.34 52.32 52.31 52.29 52.27 52.25 52.24 52.22 52.20 52.19 52.17 52.15 52.14 52.12 52.11 52.09 52.08 52.06 52.05 52.03 52.02 52.01 51.99 51.98 51.97 51.96 51.95 51.94 51.93 51.92 51.91 51.90 51.89 51.88 51.87 51.87 51.86 51.85 51.85 51.84 51.84 51.83 51.83 51.83 51.83 51.82 51.82 51.82 51.82 51.82 51.82 51.82 51.82 51.82 51.82 51.83 51.83 51.83 51.84 51.84 51.85 51.85 51.86 51.86 51.87 51.88 51.88 51.89 51.90 51.91 51.92 51.93 51.94 51.95 51.96 51.97 51.98 51.99 52.00 52.01 52.02 52.03 52.05 52.06 52.07 52.08 52.10 52.11 52.12 52.13 52.15 52.16 52.17 52.19 52.20 52.21 52.23 52.24 52.25 52.27 52.28 52.29 52.30 52.32 52.33 52.34 52.35 52.37 52.38 52.39 52.40 52.41 52.42 52.43 52.44 52.45 52.46 52.47 52.48 52.49 52.50 52.51 52.52 52.52 52.53 52.54 52.54 52.55 52.55 52.56 52.56 52.57 52.57 52.57 52.58 52.58 52.58 52.58 52.58 52.58 52.58 52.58 52.58 52.58 52.58 52.57 52.57 52.57 52.56 52.56 52.55 52.55 52.54 52.53 52.53 52.52 52.51 52.50 52.49 52.48 52.47 52.46 52.45 52.44 52.43 52.42 52.41 52.39 52.38 52.37 52.35 52.34 52.32 52.31 52.29 52.28 52.26 52.25 52.23 52.21 52.20 52.18 52.16 52.15 52.13 52.11 52.09 52.08 52.06 52.04 52.02 52.00 51.99 51.97 51.95 51.93 51.91 51.90 51.88 51.86 51.84 51.82 51.81 51.79 51.77 51.75 51.74 51.72 51.70 51.69 51.67 51.65 51.64 51.62 51.61 51.59 51.58 51.56 51.55 51.53 51.52 51.51 51.49 51.48 51.47 51.46 51.45 51.44 51.43 51.42 51.41 51.40 51.39 51.38 51.37 51.37 51.36 51.35 51.35 51.34 51.34 51.33 51.33 51.33 51.33 51.32 51.32 51.32 51.32 51.32 51.32 51.32 51.32 51.32 51.32 51.33 51.33 51.33 51.34 51.34 51.35 51.35 51.36 51.36 51.37 51.38 51.38 51.39 51.40 51.41 51.42 51.43 51.44 51.45 51.46 51.47 51.48 51.49 51.50 51.51 51.52 51.53 51.55 51.56 51.57 51.58 51.60 51.61 51.62 51.63 51.65 51.66 51.67 51.69 51.70 51.71 51.73 51.74 51.75 51.77 51.78 51.79 51.80 51.82 51.83 51.84 51.85 51.87 51.88 51.89 51.90 51.91 51.92 51.93 51.94 51.95 51.96 51.97 51.98 51.99 52.00 52.01 52.02 52.02 52.03 52.04 52.04 52.05 52.05 52.06 52.06 52.07 52.07 52.07 52.08 52.08 52.08 52.08 52.08 52.08 52.08 52.08 52.08 52.08 52.08 52.07 52.07 52.07 52.06 52.06 52.05 52.05 52.04 52.03 52.03 52.02 52.01 52.00 51.99 51.98 51.97 51.96 51.95 51.94 51.93 51.92 51.91 51.89 51.88 51.87 51.85 51.84 51.82 51.81 51.79 51.78 51.76 51.75 51.73 51.71 51.70 51.68 51.66 51.65 51.63 51.61 51.59 51.58 51.56 51.54 51.52 51.50 51.49 51.47
52.90 52.88 52.86 52.85 52.83 52.81 52.79 52.77 52.76 52.74 52.72 52.70 52.69 52.67 52.65 52.64 52.62 52.60 52.59 52.57 52.56 52.54 52.53 52.51 52.50 52.48 52.47 52.46 52.44 52.43 52.42 52.41 52.40 52.39 52.38 52.37 52.36 52.35 52.34 52.33 52.32 52.32 52.31 52.30 52.30 52.29 52.29 52.28 52.28 52.28 52.27 52.27 52.27 52.27 52.27 52.27 52.27 52.27 52.27 52.27 52.27 52.28 52.28 52.28 52.29 52.29 52.30 52.30 52.31 52.31 52.32 52.33 52.33 52.34 52.35 52.36 52.37 52.38 52.39 52.40 52.41 52.42 52.43 52.44 52.45 52.46 52.47 52.48 52.50 52.51 52.52 52.53 52.55 52.56 52.57 52.58 52.60 52.61 52.62 52.64 52.65 52.66 52.68 52.69 52.70 52.72 52.73 52.74 52.75 52.77 52.78 52.79 52.80 52.82 52.83 52.84 52.85 52.86 52.87 52.88 52.89 52.90 52.91 52.92 52.93 52.94 52.95 52.96 52.97 52.97 52.98 52.99 52.99 53.00 53.00 53.01 53.01 53.02 53.02 53.02 53.03 53.03 53.03 53.03 53.03 53.03 53.03 53.03 53.03 53.03 53.02 53.02 53.02 53.02 53.01 53.01 53.00 53.00 52.99 52.98 52.98 52.97 52.96 52.95 52.94 52.93 52.92 52.91 52.90 52.89 52.88 52.87 52.86 52.84 52.83 52.82 52.80 52.79 52.77 52.76 52.74 52.73 52.71 52.70 52.68 52.66 52.65 52.63 52.61 52.60 52.58 52.56 52.54 52.53 52.51 52.49 52.47 52.45 52.44 52.42 52.40 52.38 52.36 52.35 52.33 52.31 52.29 52.27 52.26 52.24 52.22 52.20 52.19 52.17 52.15 52.14 52.12 52.10 52.09 52.07 52.06 52.04 52.03 52.01 52.00 51.98 51.97 51.96 51.94 51.93 51.92 51.91 51.90 51.89 51.88 51.87 51.86 51.85 51.84 51.83 51.82 51.82 51.81 51.80 51.80 51.79 51.79 51.78 51.78 51.78 51.77 51.77 51.77 51.77 51.77 51.77 51.77 51.77 51.77 51.77 51.77 51.78 51.78 51.78 51.79 51.79 51.80 51.80 51.81 51.81 51.82 51.83 51.83 51.84 51.85 51.86 51.87 51.88 51.89 51.90 51.91 51.92 51.93 51.94 51.95 51.96 51.97 51.98 52.00 52.01 52.02 52.03 52.05 52.06 52.07 52.08 52.10 52.11 52.12 52.14 52.15 52.16 52.18 52.19 52.20 52.22 52.23 52.24 52.25 52.27 52.28 52.29 52.30 52.32 52.33 52.34 52.35 52.36 52.37 52.38 52.39 52.40 52.41 52.42 52.43 52.44 52.45 52.46 52.47 52.47 52.48 52.49 52.49 52.50 52.50 52.51 52.51 52.52 52.52 52.52 52.53 52.53 52.53 52.53 52.53 52.53 52.53 52.53 52.53 52.53 52.52 52.52 52.52 52.52 52.51 52.51 52.50 52.50 52.49 52.48 52.48 52.47 52.46 52.45 52.44 52.43 52.42 52.41 52.40 52.39 52.38 52.37 52.36 52.34 52.33 52.32 52.30 52.29 52.27 52.26 52.24 52.23 52.21 52.20 52.18 52.16 52.15 52.13 52.11 52.10 52.08 52.06 52.04 52.03 52.01 51.99 51.97 51.95 51.94 51.92 51.90 51.88 51.86 51.85 51.83 51.81 51.79 51.77 51.76 51.74 51.72 51.70 51.69 51.67 51.65 51.64 51.62 51.60 51.59 51.57 51.56 51.54 51.53 51.51 51.50 51.48 51.47 51.46 51.44 51.43 51.42 51.41 51.40 51.39 51.38 51.37 51.36 51.35 51.34 51.33 51.32 51.32 51.31 51.30 51.30 51.29 51.29 51.28 51.28 51.28 51.27 51.27 51.27 51.27 51.27 51.27 51.27 51.27 51.27 51.27 51.27 51.28 51.28 51.28 51.29 51.29 51.30 51.30 51.31 51.31 51.32 51.33 51.33 51.34 51.35 51.36 51.37 51.38 51.39 51.40 51.41 51.42 51.43 51.44 51.45 51.46 51.47 51.48 51.50 51.51 51.52 51.53 51.55 51.56 51.57 51.58 51.60 51.61 51.62 51.64 51.65 51.66 51.68 51.69 51.70 51.72 51.73 51.74 51.75 51.77 51.78 51.79 51.80 51.82 51.83 51.84 51.85 51.86 51.87 51.88 51.89 51.90 51.91 51.92 51.93 51.94 51.95 51.96 51.97 51.97 51.98 51.99 51.99 52.00 52.00 52.01 52.01 52.02 52.02 52.02 52.03 52.03 52.03 52.03 52.03 52.03 52.03 52.03 52.03 52.03 52.02 52.02 52.02 52.02 52.01 52.01 52.00 52.00 51.99 51.98 51.98 51.97 51.96 51.95 51.94 51.93 51.92 51.91 51.90 51.89 51.88 51.87 51.86 51.84 51.83 51.82 51.80 51.79 51.77 51.76 51.74 51.73 51.71 51.70 51.68 51.66 51.65 51.63 51.61 51.60 51.58 51.56 51.54 51.53 51.51 51.49 51.47 51.45 51.44 51.42
52.85 52.83 52.81 52.80 52.78 52.76 52.74 52.72 52.71 52.69 52.67 52.65 52.64 52.62 52.60 52.59 52.57 52.55 52.54 52.52 52.51 52.49 52.48 52.46 52.45 52.43 52.42 52.41 52.39 52.38 52.37 52.36 52.35 52.34 52.33 52.32 52.31 52.30 52.29 52.28 52.27 52.27 52.26 52.25 52.25 52.24 52.24 52.23 52.23 52.23 52.23 52.22 52.22 52.22 52.22 52.22 52.22 52.22 52.22 52.22 52.22 52.23 52.23 52.23 52.24 52.24 52.25 52.25 52.26 52.26 52.27 52.28 52.28 52.29 52.30 52.31 52.32 52.33 52.34 52.35 52.36 52.37 52.38 52.39 52.40 52.41 52.42 52.43 52.45 52.46 52.47 52.48 52.50 52.51 52.52 52.53 52.55 52.56 52.57 52.59 52.60 52.61 52.63 52.64 52.65 52.67 52.68 52.69 52.70 52.72 52.73 52.74 52.75 52.77 52.78 52.79 52.80 52.81 52.82 52.83 52.84 52.85 52.86 52.87 52.88 52.89 52.90 52.91 52.92 52.92 52.93 52.94 52.94 52.95 52.95 52.96 52.96 52.97 52.97 52.97 52.98 52.98 52.98 52.98 52.98 52.98 52.98 52.98 52.98 52.98 52.98 52.97 52.97 52.97 52.96 52.96 52.95 52.95 52.94 52.93 52.93 52.92 52.91 52.90 52.89 52.88 52.87 52.86 52.85 52.84 52.83 52.82 52.81 52.79 52.78 52.77 52.75 52.74 52.72 52.71 52.69 52.68 52.66 52.65 52.63 52.61 52.60 52.58 52.56 52.55 52.53 52.51 52.49 52.48 52.46 52.44 52.42 52.40 52.39 52.37 52.35 52.33 52.31 52.30 52.28 52.26 52.24 52.22 52.21 52.19 52.17 52.15 52.14 52.12 52.10 52.09 52.07 52.05 52.04 52.02 52.01 51.99 51.98 51.96 51.95 51.93 51.92 51.91 51.89 51.88 51.87 51.86 51.85 51.84 51.83 51.82 51.81 51.80 51.79 51.78 51.77 51.77 51.76 51.75 51.75 51.74 51.74 51.73 51.73 51.73 51.73 51.72 51.72 51.72 51.72 51.72 51.72 51.72 51.72 51.72 51.72 51.73 51.73 51.73 51.74 51.74 51.75 51.75 51.76 51.76 51.77 51.78 51.78 51.79 51.80 51.81 51.82 51.83 51.84 51.85 51.86 51.87 51.88 51.89 51.90 51.91 51.92 51.93 51.95 51.96 51.97 51.98 52.00 52.01 52.02 52.03 52.05 52.06 52.07 52.09 52.10 52.11 52.13 52.14 52.15 52.17 52.18 52.19 52.20 52.22 52.23 52.24 52.25 52.27 52.28 52.29 52.30 52.31 52.32 52.33 52.34 52.35 52.36 52.37 52.38 52.39 52.40 52.41 52.42 52.42 52.43 52.44 52.44 52.45 52.45 52.46 52.46 52.47 52.47 52.47 52.48 52.48 52.48 52.48 52.48 52.48 52.48 52.48 52.48 52.48 52.48 52.47 52.47 52.47 52.46 52.46 52.45 52.45 52.44 52.43 52.43 52.42 52.41 52.40 52.39 52.38 52.37 52.36 52.35 52.34 52.33 52.32 52.31 52.29 52.28 52.27 52.25 52.24 52.22 52.21 52.19 52.18 52.16 52.15 52.13 52.11 52.10 52.08 52.06 52.05 52.03 52.01 51.99 51.98 51.96 51.94 51.92 51.90 51.89 51.87 51.85 51.83 51.81 51.80 51.78 51.76 51.74 51.72 51.71 51.69 51.67 51.65 51.64 51.62 51.60 51.59 51.57 51.55 51.54 51.52 51.51 51.49 51.48 51.46 51.45 51.43 51.42 51.41 51.39 51.38 51.37 51.36 51.35 51.34 51.33 51.32 51.31 51.30 51.29 51.28 51.27 51.27 51.26 51.25 51.25 51.24 51.24 51.23 51.23 51.23 51.23 51.22 51.22 51.22 51.22 51.22 51.22 51.22 51.22 51.22 51.22 51.23 51.23 51.23 51.24 51.24 51.25 51.25 51.26 51.26 51.27 51.28 51.28 51.29 51.30 51.31 51.32 51.33 51.34 51.35 51.36 51.37 51.38 51.39 51.40 51.41 51.42 51.43 51.45 51.46 51.47 51.48 51.50 51.51 51.52 51.53 51.55 51.56 51.57 51.59 51.60 51.61 51.63 51.64 51.65 51.67 51.68 51.69 51.70 51.72 51.73 51.74 51.75 51.77 51.78 51.79 51.80 51.81 51.82 51.83 51.84 51.85 51.86 51.87 51.88 51.89 51.90 51.91 51.92 51.92 51.93 51.94 51.94 51.95 51.95 51.96 51.96 51.97 51.97 51.97 51.98 51.98 51.98 51.98 51.98 51.98 51.98 51.98 51.98 51.98 51.98 51.97 51.97 51.97 51.96 51.96 51.95 51.95 51.94 51.93 51.93 51.92 51.91 51.90 51.89 51.88 51.87 51.86 51.85 51.84 51.83 51.82 51.81 51.79 51.78 51.77 51.75 51.74 51.72 51.71 51.69 51.68 51.66 51.65 51.63 51.61 51.60 51.58 51.56 51.55 51.53 51.51 51.49 51.48 51.46 51.44 51.42 51.40 51.39 51.37
52.80 52.78 52.76 52.75 52.73 52.71 52.69 52.67 52.66 52.64 52.62 52.60 52.59 52.57 52.55 52.54 52.52 52.50 52.49 52.47 52.46 52.44 52.43 52.41 52.40 52.38 52.37 52.36 52.34 52.33 52.32 52.31 52.30 52.29 52.28 52.27 52.26 52.25 52.24 52.23 52.22 52.22 52.21 52.20 52.20 52.19 52.19 52.18 52.18 52.18 52.17 52.17 52.17 52.17 52.17 52.17 52.17 52.17 52.17 52.17 52.17 52.18 52.18 52.18 52.19 52.19 52.20 52.20 52.21 52.21 52.22 52.23 52.23 52.24 52.25 52.26 52.27 52.28 52.29 52.30 52.31 52.32 52.33 52.34 52.35 52.36 52.37 52.38 52.40 52.41 52.42 52.43 52.45 52.46 52.47 52.48 52.50 52.51 52.52 52.54 52.55 52.56 52.58 52.59 52.60 52.62 52.63 52.64 52.65 52.67 52.68 52.69 52.70 52.72 52.73 52.74 52.75 52.76 52.77 52.78 52.79 52.80 52.81 52.82 52.83 52.84 52.85 52.86 52.87 52.87 52.88 52.89 52.89 52.90 52.90 52.91 52.91 52.92 52.92 52.92 52.93 52.93 52.93 52.93 52.93 52.93 52.93 52.93 52.93 52.93 52.92 52.92 52.92 52.92 52.91 52.91 52.90 52.90 52.89 52.88 52.88 52.87 52.86 52.85 52.84 52.83 52.82 52.81 52.80 52.79 52.78 52.77 52.76 52.74 52.73 52.72 52.70 52.69 52.67 52.66 52.64 52.63 52.61 52.60 52.58 52.56 52.55 52.53 52.51 52.50 52.48 52.46 52.44 52.43 52.41 52.39 52.37 52.35 52.34 52.32 52.30 52.28 52.26 52.25 52.23 52.21 52.19 52.17 52.16 52.14 52.12 52.10 52.09 52.07 52.05 52.04 52.02 52.00 51.99 51.97 51.96 51.94 51.93 51.91 51.90 51.88 51.87 51.86 51.84 51.83 51.82 51.81 51.80 51.79 51.78 51.77 51.76 51.75 51.74 51.73 51.72 51.72 51.71 51.70 51.70 51.69 51.69 51.68 51.68 51.68 51.67 51.67 51.67 51.67 51.67 51.67 51.67 51.67 51.67 51.67 51.67 51.68 51.68 51.68 51.69 51.69 51.70 51.70 51.71 51.71 51.72 51.73 51.73 51.74 51.75 51.76 51.77 51.78 51.79 51.80 51.81 51.82 51.83 51.84 51.85 51.86 51.87 51.88 51.90 51.91 51.92 51.93 51.95 51.96 51.97 51.98 52.00 52.01 52.02 52.04 52.05 52.06 52.08 52.09 52.10 52.12 52.13 52.14 52.15 52.17 52.18 52.19 52.20 52.22 52.23 52.24 52.25 52.26 52.27 52.28 52.29 52.30 52.31 52.32 52.33 52.34 52.35 52.36 52.37 52.37 52.38 52.39 52.39 52.40 52.40 52.41 52.41 52.42 52.42 52.42 52.43 52.43 52.43 52.43 52.43 52.43 52.43 52.43 52.43 52.43 52.42 52.42 52.42 52.42 52.41 52.41 52.40 52.40 52.39 52.38 52.38 52.37 52.36 52.35 52.34 52.33 52.32 52.31 52.30 52.29 52.28 52.27 52.26 52.24 52.23 52.22 52.20 52.19 52.17 52.16 52.14 52.13 52.11 52.10 52.08 52.06 52.05 52.03 52.01 52.00 51.98 51.96 51.94 51.93 51.91 51.89 51.87 51.85 51.84 51.82 51.80 51.78 51.76 51.75 51.73 51.71 51.69 51.67 51.66 51.64 51.62 51.60 51.59 51.57 51.55 51.54 51.52 51.50 51.49 51.47 51.46 51.44 51.43 51.41 51.40 51.38 51.37 51.36 51.34 51.33 51.32 51.31 51.30 51.29 51.28 51.27 51.26 51.25 51.24 51.23 51.22 51.22 51.21 51.20 51.20 51.19 51.19 51.18 51.18 51.18 51.17 51.17 51.17 51.17 51.17 51.17 51.17 51.17 51.17 51.17 51.17 51.18 51.18 51.18 51.19 51.19 51.20 51.20 51.21 51.21 51.22 51.23 51.23 51.24 51.25 51.26 51.27 51.28 51.29 51.30 51.31 51.32 51.33 51.34 51.35 51.36 51.37 51.38 51.40 51.41 51.42 51.43 51.45 51.46 51.47 51.48 51.50 51.51 51.52 51.54 51.55 51.56 51.58 51.59 51.60 51.62 51.63 51.64 51.65 51.67 51.68 51.69 51.70 51.72 51.73 51.74 51.75 51.76 51.77 51.78 51.79 51.80 51.81 51.82 51.83 51.84 51.85 51.86 51.87 51.87 51.88 51.89 51.89 51.90 51.90 51.91 51.91 51.92 51.92 51.92 51.93 51.93 51.93 51.93 51.93 51.93 51.93 51.93 51.93 51.93 51.92 51.92 51.92 51.92 51.91 51.91 51.90 51.90 51.89 51.88 51.88 51.87 51.86 51.85 51.84 51.83 51.82 51.81 51.80 51.79 51.78 51.77 51.76 51.74 51.73 51.72 51.70 51.69 51.67 51.66 51.64 51.63 51.61 51.60 51.58 51.56 51.55 51.53 51.51 51.50 51.48 51.46 51.44 51.43 51.41 51.39 51.37 51.35 51.34 51.32
52.75 52.73 52.71 52.70 52.68 52.66 52.64 52.62 52.61 52.59 52.57 52.55 52.54 52.52 52.50 52.49 52.47 52.45 52.44 52.42 52.41 52.39 52.38 52.36 52.35 52.33 52.32 52.31 52.29 52.28 52.27 52.26 52.25 52.24 52.23 52.22 52.21 52.20 52.19 52.18 52.17 52.17 52.16 52.15 52.15 52.14 52.14 52.13 52.13 52.13 52.12 52.12 52.12 52.12 52.12 52.12 52.12 52.12 52.12 52.12 52.12 52.13 52.13 52.13 52.14 52.14 52.15 52.15 52.16 52.16 52.17 52.18 52.18 52.19 52.20 52.21 52.22 52.23 52.24 52.25 52.26 52.27 52.28 52.29 52.30 52.31 52.32 52.33 52.35 52.36 52.37 52.38 52.40 52.41 52.42 52.43 52.45 52.46 52.47 52.49 52.50 52.51 52.53 52.54 52.55 52.57 52.58 52.59 52.60 52.62 52.63 52.64 52.65 52.67 52.68 52.69 52.70 52.71 52.72 52.73 52.74 52.75 52.76 52.77 52.78 52.79 52.80 52.81 52.82 52.82 52.83 52.84 52.84 52.85 52.85 52.86 52.86 52.87 52.87 52.87 52.88 52.88 52.88 52.88 52.88 52.88 52.88 52.88 52.88 52.88 52.88 52.87 52.87 52.87 52.86 52.86 52.85 52.85 52.84 52.83 52.83 52.82 52.81 52.80 52.79 52.78 52.77 52.76 52.75 52.74 52.73 52.72 52.71 52.69 52.68 52.67 52.65 52.64 52.62 52.61 52.59 52.58 52.56 52.55 52.53 52.51 52.50 52.48 52.46 52.45 52.43 52.41 52.39 52.38 52.36 52.34 52.32 52.30 52.29 52.27 52.25 52.23 52.21 52.20 52.18 52.16 52.14 52.12 52.11 52.09 52.07 52.05 52.04 52.02 52.00 51.99 51.97 51.95 51.94 51.92 51.91 51.89 51.88 51.86 51.85 51.83 51.82 51.81 51.79 51.78 51.77 51.76 51.75 51.74 51.73 51.72 51.71 51.70 51.69 51.68 51.67 51.67 51.66 51.65 51.65 51.64 51.64 51.63 51.63 51.63 51.62 51.62 51.62 51.62 51.62 51.62 51.62 51.62 51.62 51.62 51.62 51.63 51.63 51.63 51.64 51.64 51.65 51.65 51.66 51.66 51.67 51.68 51.68 51.69 51.70 51.71 51.72 51.73 51.74 51.75 51.76 51.77 51.78 51.79 51.80 51.81 51.82 51.83 51.85 51.86 51.87 51.88 51.90 51.91 51.92 51.93 51.95 51.96 51.97 51.99 52.00 52.01 52.03 52.04 52.05 52.07 52.08 52.09 52.10 52.12 52.13 52.14 52.15 52.17 52.18 52.19 52.20 52.21 52.22 52.23 52.24 52.25 52.26 52.27 52.28 52.29 52.30 52.31 52.32 52.32 52.33 52.34 52.34 52.35 52.35 52.36 52.36 52.37 52.37 52.37 52.38 52.38 52.38 52.38 52.38 52.38 52.38 52.38 52.38 52.38 52.38 52.37 52.37 52.37 52.36 52.36 52.35 52.35 52.34 52.33 52.33 52.32 52.31 52.30 52.29 52.28 52.27 52.26 52.25 52.24 52.23 52.22 52.21 52.19 52.18 52.17 52.15 52.14 52.12 52.11 52.09 52.08 52.06 52.05 52.03 52.01 52.00 51.98 51.96 51.95 51.93 51.91 51.89 51.88 51.86 51.84 51.82 51.80 51.79 51.77 51.75 51.73 51.71 51.70 51.68 51.66 51.64 51.62 51.61 51.59 51.57 51.55 51.54 51.52 51.50 51.49 51.47 51.45 51.44 51.42 51.41 51.39 51.38 51.36 51.35 51.33 51.32 51.31 51.29 51.28 51.27 51.26 51.25 51.24 51.23 51.22 51.21 51.20 51.19 51.18 51.17 51.17 51.16 51.15 51.15 51.14 51.14 51.13 51.13 51.13 51.12 51.12 51.12 51.12 51.12 51.12 51.12 51.12 51.12 51.12 51.12 51.13 51.13 51.13 51.14 51.14 51.15 51.15 51.16 51.16 51.17 51.18 51.18 51.19 51.20 51.21 51.22 51.23 51.24 51.25 51.26 51.27 51.28 51.29 51.30 51.31 51.32 51.33 51.35 51.36 51.37 51.38 51.40 51.41 51.42 51.43 51.45 51.46 51.47 51.49 51.50 51.51 51.53 51.54 51.55 51.57 51.58 51.59 51.60 51.62 51.63 51.64 51.65 51.67 51.68 51.69 51.70 51.71 51.72 51.73 51.74 51.75 51.76 51.77 51.78 51.79 51.80 51.81 51.82 51.82 51.83 51.84 51.84 51.85 51.85 51.86 51.86 51.87 51.87 51.87 51.88 51.88 51.88 51.88 51.88 51.88 51.88 51.88 51.88 51.88 51.88 51.87 51.87 51.87 51.86 51.86 51.85 51.85 51.84 51.83 51.83 51.82 51.81 51.80 51.79 51.78 51.77 51.76 51.75 51.74 51.73 51.72 51.71 51.69 51.68 51.67 51.65 51.64 51.62 51.61 51.59 51.58 51.56 51.55 51.53 51.51 51.50 51.48 51.46 51.45 51.43 51.41 51.39 51.38 51.36 51.34 51.32 51.30 51.29 51.27
52.70 52.68 52.66 52.65 52.63 52.61 52.59 52.57 52.56 52.54 52.52 52.50 52.49 52.47 52.45 52.44 52.42 52.40 52.39 52.37 52.36 52.34 52.33 52.31 52.30 52.28 52.27 52.26 52.24 52.23 52.22 52.21 52.20 52.19 52.18 52.17 52.16 52.15 52.14 52.13 52.12 52.12 52.11 52.10 52.10 52.09 52.09 52.08 52.08 52.08 52.08 52.07 52.07 52.07 52.07 52.07 52.07 52.07 52.07 52.07 52.07 52.08 52.08 52.08 52.09 52.09 52.10 52.10 52.11 52.11 52.12 52.13 52.13 52.14 52.15 52.16 52.17 52.18 52.19 52.20 52.21 52.22 52.23 52.24 52.25 52.26 52.27 52.28 52.30 52.31 52.32 52.33 52.35 52.36 52.37 52.38 52.40 52.41 52.42 52.44 52.45 52.46 52.48 52.49 52.50 52.52 52.53 52.54 52.55 52.57 52.58 52.59 52.60 52.62 52.63 52.64 52.65 52.66 52.67 52.68 52.69 52.70 52.71 52.72 52.73 52.74 52.75 52.76 52.77 52.77 52.78 52.79 52.79 52.80 52.80 52.81 52.81 52.82 52.82 52.82 52.83 52.83 52.83 52.83 52.83 52.83 52.83 52.83 52.83 52.83 52.83 52.82 52.82 52.82 52.81 52.81 52.80 52.80 52.79 52.78 52.78 52.77 52.76 52.75 52.74 52.73 52.72 52.71 52.70 52.69 52.68 52.67 52.66 52.64 52.63 52.62 52.60 52.59 52.57 52.56 52.54 52.53 52.51 52.50 52.48 52.46 52.45 52.43 52.41 52.40 52.38 52.36 52.34 52.33 52.31 52.29 52.27 52.25 52.24 52.22 52.20 52.18 52.16 52.15 52.13 52.11 52.09 52.07 52.06 52.04 52.02 52.00 51.99 51.97 51.95 51.94 51.92 51.90 51.89 51.87 51.86 51.84 51.83 51.81 51.80 51.78 51.77 51.76 51.74 51.73 51.72 51.71 51.70 51.69 51.68 51.67 51.66 51.65 51.64 51.63 51.62 51.62 51.61 51.60 51.60 51.59 51.59 51.58 51.58 51.58 51.58 51.57 51.57 51.57 51.57 51.57 51.57 51.57 51.57 51.57 51.57 51.58 51.58 51.58 51.59 51.59 51.60 51.60 51.61 51.61 51.62 51.63 51.63 51.64 51.65 51.66 51.67 51.68 51.69 51.70 51.71 51.72 51.73 51.74 51.75 51.76 51.77 51.78 51.80 51.81 51.82 51.83 51.85 51.86 51.87 51.88 51.90 51.91 51.92 51.94 51.95 51.96 51.98 51.99 52.00 52.02 52.03 52.04 52.05 52.07 52.08 52.09 52.10 52.12 52.13 52.14 52.15 52.16 52.17 52.18 52.19 52.20 52.21 52.22 52.23 52.24 52.25 52.26 52.27 52.27 52.28 52.29 52.29 52.30 52.30 52.31 52.31 52.32 52.32 52.32 52.33 52.33 52.33 52.33 52.33 52.33 52.33 52.33 52.33 52.33 52.33 52.32 52.32 52.32 52.31 52.31 52.30 52.30 52.29 52.28 52.28 52.27 52.26 52.25 52.24 52.23 52.22 52.21 52.20 52.19 52.18 52.17 52.16 52.14 52.13 52.12 52.10 52.09 52.07 52.06 52.04 52.03 52.01 52.00 51.98 51.96 51.95 51.93 51.91 51.90 51.88 51.86 51.84 51.83 51.81 51.79 51.77 51.75 51.74 51.72 51.70 51.68 51.66 51.65 51.63 51.61 51.59 51.57 51.56 51.54 51.52 51.50 51.49 51.47 51.45 51.44 51.42 51.40 51.39 51.37 51.36 51.34 51.33 51.31 51.30 51.28 51.27 51.26 51.24 51.23 51.22 51.21 51.20 51.19 51.18 51.17 51.16 51.15 51.14 51.13 51.12 51.12 51.11 51.10 51.10 51.09 51.09 51.08 51.08 51.08 51.08 51.07 51.07 51.07 51.07 51.07 51.07 51.07 51.07 51.07 51.07 51.08 51.08 51.08 51.09 51.09 51.10 51.10 51.11 51.11 51.12 51.13 51.13 51.14 51.15 51.16 51.17 51.18 51.19 51.20 51.21 51.22 51.23 51.24 51.25 51.26 51.27 51.28 51.30 51.31 51.32 51.33 51.35 51.36 51.37 51.38 51.40 51.41 51.42 51.44 51.45 51.46 51.48 51.49 51.50 51.52 51.53 51.54 51.55 51.57 51.58 51.59 51.60 51.62 51.63 51.64 51.65 51.66 51.67 51.68 51.69 51.70 51.71 51.72 51.73 51.74 51.75 51.76 51.77 51.77 51.78 51.79 51.79 51.80 51.80 51.81 51.81 51.82 51.82 51.82 51.83 51.83 51.83 51.83 51.83 51.83 51.83 51.83 51.83 51.83 51.83 51.82 51.82 51.82 51.81 51.81 51.80 51.80 51.79 51.78 51.78 51.77 51.76 51.75 51.74 51.73 51.72 51.71 51.70 51.69 51.68 51.67 51.66 51.64 51.63 51.62 51.60 51.59 51.57 51.56 51.54 51.53 51.51 51.50 51.48 51.46 51.45 51.43 51.41 51.40 51.38 51.36 51.34 51.33 51.31 51.29 51.27 51.25 51.24 51.22
52.65 52.63 52.61 52.60 52.58 52.56 52.54 52.52 52.51 52.49 52.47 52.45 52.44 52.42 52.40 52.39 52.37 52.35 52.34 52.32 52.31 52.29 52.28 52.26 52.25 52.23 52.22 52.21 52.19 52.18 52.17 52.16 52.15 52.14 52.13 52.12 52.11 52.10 52.09 52.08 52.07 52.07 52.06 52.05 52.05 52.04 52.04 52.03 52.03 52.03 52.02 52.02 52.02 52.02 52.02 52.02 52.02 52.02 52.02 52.02 52.02 52.03 52.03 52.03 52.04 52.04 52.05 52.05 52.06 52.06 52.07 52.08 52.08 52.09 52.10 52.11 52.12 52.13 52.14 52.15 52.16 52.17 52.18 52.19 52.20 52.21 52.22 52.23 52.25 52.26 52.27 52.28 52.30 52.31 52.32 52.33 52.35 52.36 52.37 52.39 52.40 52.41 52.43 52.44 52.45 52.47 52.48 52.49 52.50 52.52 52.53 52.54 52.55 52.57 52.58 52.59 52.60 52.61 52.62 52.63 52.64 52.65 52.66 52.67 52.68 52.69 52.70 52.71 52.72 52.72 52.73 52.74 52.74 52.75 52.75 52.76 52.76 52.77 52.77 52.77 52.78 52.78 52.78 52.78 52.78 52.78 52.78 52.78 52.78 52.78 52.77 52.77 52.77 52.77 52.76 52.76 52.75 52.75 52.74 52.73 52.73 52.72 52.71 52.70 52.69 52.68 52.67 52.66 52.65 52.64 52.63 52.62 52.61 52.59 52.58 52.57 52.55 52.54 52.52 52.51 52.49 52.48 52.46 52.45 52.43 52.41 52.40 52.38 52.36 52.35 52.33 52.31 52.29 52.28 52.26 52.24 52.22 52.20 52.19 52.17 52.15 52.13 52.11 52.10 52.08 52.06 52.04 52.02 52.01 51.99 51.97 51.95 51.94 51.92 51.90 51.89 51.87 51.85 51.84 51.82 51.81 51.79 51.78 51.76 51.75 51.73 51.72 51.71 51.69 51.68 51.67 51.66 51.65 51.64 51.63 51.62 51.61 51.60 51.59 51.58 51.57 51.57 51.56 51.55 51.55 51.54 51.54 51.53 51.53 51.53 51.52 51.52 51.52 51.52 51.52 51.52 51.52 51.52 51.52 51.52 51.52 51.53 51.53 51.53 51.54 51.54 51.55 51.55 51.56 51.56 51.57 51.58 51.58 51.59 51.60 51.61 51.62 51.63 51.64 51.65 51.66 51.67 51.68 51.69 51.70 51.71 51.72 51.73 51.75 51.76 51.77 51.78 51.80 51.81 51.82 51.83 51.85 51.86 51.87 51.89 51.90 51.91 51.93 51.94 51.95 51.97 51.98 51.99 52.00 52.02 52.03 52.04 52.05 52.07 52.08 52.09 52.10 52.11 52.12 52.13 52.14 52.15 52.16 52.17 52.18 52.19 52.20 52.21 52.22 52.22 52.23 52.24 52.24 52.25 52.25 52.26 52.26 52.27 52.27 52.27 52.28 52.28 52.28 52.28 52.28 52.28 52.28 52.28 52.28 52.28 52.27 52.27 52.27 52.27 52.26 52.26 52.25 52.25 52.24 52.23 52.23 52.22 52.21 52.20 52.19 52.18 52.17 52.16 52.15 52.14 52.13 52.12 52.11 52.09 52.08 52.07 52.05 52.04 52.02 52.01 51.99 51.98 51.96 51.95 51.93 51.91 51.90 51.88 51.86 51.85 51.83 51.81 51.79 51.78 51.76 51.74 51.72 51.70 51.69 51.67 51.65 51.63 51.61 51.60 51.58 51.56 51.54 51.52 51.51 51.49 51.47 51.45 51.44 51.42 51.40 51.39 51.37 51.35 51.34 51.32 51.31 51.29 51.28 51.26 51.25 51.23 51.22 51.21 51.19 51.18 51.17 51.16 51.15 51.14 51.13 51.12 51.11 51.10 51.09 51.08 51.07 51.07 51.06 51.05 51.05 51.04 51.04 51.03 51.03 51.03 51.02 51.02 51.02 51.02 51.02 51.02 51.02 51.02 51.02 51.02 51.02 51.03 51.03 51.03 51.04 51.04 51.05 51.05 51.06 51.06 51.07 51.08 51.08 51.09 51.10 51.11 51.12 51.13 51.14 51.15 51.16 51.17 51.18 51.19 51.20 51.21 51.22 51.23 51.25 51.26 51.27 51.28 51.30 51.31 51.32 51.33 51.35 51.36 51.37 51.39 51.40 51.41 51.43 51.44 51.45 51.47 51.48 51.49 51.50 51.52 51.53 51.54 51.55 51.57 51.58 51.59 51.60 51.61 51.62 51.63 51.64 51.65 51.66 51.67 51.68 51.69 51.70 51.71 51.72 51.72 51.73 51.74 51.74 51.75 51.75 51.76 51.76 51.77 51.77 51.77 51.78 51.78 51.78 51.78 51.78 51.78 51.78 51.78 51.78 51.78 51.77 51.77 51.77 51.77 51.76 51.76 51.75 51.75 51.74 51.73 51.73 51.72 51.71 51.70 51.69 51.68 51.67 51.66 51.65 51.64 51.63 51.62 51.61 51.59 51.58 51.57 51.55 51.54 51.52 51.51 51.49 51.48 51.46 51.45 51.43 51.41 51.40 51.38 51.36 51.35 51.33 51.31 51.29 51.28 51.26 51.24 51.22 51.20 51.19 51.17
52.60 52.58 52.56 52.55 52.53 52.51 52.49 52.47 52.46 52.44 52.42 52.40 52.39 52.37 52.35 52.34 52.32 52.30 52.29 52.27 52.26 52.24 52.23 52.21 52.20 52.18 52.17 52.16 52.14 52.13 52.12 52.11 52.10 52.09 52.08 52.07 52.06 52.05 52.04 52.03 52.02 52.02 52.01 52.00 52.00 51.99 51.99 51.98 51.98 51.98 51.98 51.97 51.97 51.97 51.97 51.97 51.97 51.97 51.97 51.97 51.97 51.98 51.98 51.98 51.99 51.99 52.00 52.00 52.01 52.01 52.02 52.03 52.03 52.04 52.05 52.06 52.07 52.08 52.09 52.10 52.11 52.12 52.13 52.14 52.15 52.16 52.17 52.18 52.20 52.21 52.22 52.23 52.25 52.26 52.27 52.28 52.30 52.31 52.32 52.34 52.35 52.36 52.38 52.39 52.40 52.42 52.43 52.44 52.45 52.47 52.48 52.49 52.50 52.52 52.53 52.54 52.55 52.56 52.57 52.58 52.59 52.60 52.61 52.62 52.63 52.64 52.65 52.66 52.67 52.67 52.68 52.69 52.69 52.70 52.70 52.71 52.71 52.72 52.72 52.72 52.73 52.73 52.73 52.73 52.73 52.73 52.73 52.73 52.73 52.73 52.73 52.72 52.72 52.72 52.71 52.71 52.70 52.70 52.69 52.68 52.68 52.67 52.66 52.65 52.64 52.63 52.62 52.61 52.60 52.59 52.58 52.57 52.56 52.54 52.53 52.52 52.50 52.49 52.47 52.46 52.44 52.43 52.41 52.40 52.38 52.36 52.35 52.33 52.31 52.30 52.28 52.26 52.24 52.23 52.21 52.19 52.17 52.15 52.14 52.12 52.10 52.08 52.06 52.05 52.03 52.01 51.99 51.97 51.96 51.94 51.92 51.90 51.89 51.87 51.85 51.84 51.82 51.80 51.79 51.77 51.76 51.74 51.73 51.71 51.70 51.68 51.67 51.66 51.64 51.63 51.62 51.61 51.60 51.59 51.58 51.57 51.56 51.55 51.54 51.53 51.52 51.52 51.51 51.50 51.50 51.49 51.49 51.48 51.48 51.48 51.48 51.47 51.47 51.47 51.47 51.47 51.47 51.47 51.47 51.47 51.47 51.48 51.48 51.48 51.49 51.49 51.50 51.50 51.51 51.51 51.52 51.53 51.53 51.54 51.55 51.56 51.57 51.58 51.59 51.60 51.61 51.62 51.63 51.64 51.65 51.66 51.67 51.68 51.70 51.71 51.72 51.73 51.75 51.76 51.77 51.78 51.80 51.81 51.82 51.84 51.85 51.86 51.88 51.89 51.90 51.92 51.93 51.94 51.95 51.97 51.98 51.99 52.00 52.02 52.03 52.04 52.05 52.06 52.07 52.08 52.09 52.10 52.11 52.12 52.13 52.14 52.15 52.16 52.17 52.17 52.18 52.19 52.19 52.20 52.20 52.21 52.21 52.22 52.22 52.22 52.23 52.23 52.23 52.23 52.23 52.23 52.23 52.23 52.23 52.23 52.23 52.22 52.22 52.22 52.21 52.21 52.20 52.20 52.19 52.18 52.18 52.17 52.16 52.15 52.14 52.13 52.12 52.11 52.10 52.09 52.08 52.07 52.06 52.04 52.03 52.02 52.00 51.99 51.97 51.96 51.94 51.93 51.91 51.90 51.88 51.86 51.85 51.83 51.81 51.80 51.78 51.76 51.74 51.73 51.71 51.69 51.67 51.65 51.64 51.62 51.60 51.58 51.56 51.55 51.53 51.51 51.49 51.47 51.46 51.44 51.42 51.40 51.39 51.37 51.35 51.34 51.32 51.30 51.29 51.27 51.26 51.24 51.23 51.21 51.20 51.18 51.17 51.16 51.14 51.13 51.12 51.11 51.10 51.09 51.08 51.07 51.06 51.05 51.04 51.03 51.02 51.02 51.01 51.00 51.00 50.99 50.99 50.98 50.98 50.98 50.98 50.97 50.97 50.97 50.97 50.97 50.97 50.97 50.97 50.97 50.97 50.98 50.98 50.98 50.99 50.99 51.00 51.00 51.01 51.01 51.02 51.03 51.03 51.04 51.05 51.06 51.07 51.08 51.09 51.10 51.11 51.12 51.13 51.14 51.15 51.16 51.17 51.18 51.20 51.21 51.22 51.23 51.25 51.26 51.27 51.28 51.30 51.31 51.32 51.34 51.35 51.36 51.38 51.39 51.40 51.42 51.43 51.44 51.45 51.47 51.48 51.49 51.50 51.52 51.53 51.54 51.55 51.56 51.57 51.58 51.59 51.60 51.61 51.62 51.63 51.64 51.65 51.66 51.67 51.67 51.68 51.69 51.69 51.70 51.70 51.71 51.71 51.72 51.72 51.72 51.73 51.73 51.73 51.73 51.73 51.73 51.73 51.73 51.73 51.73 51.73 51.72 51.72 51.72 51.71 51.71 51.70 51.70 51.69 51.68 51.68 51.67 51.66 51.65 51.64 51.63 51.62 51.61 51.60 51.59 51.58 51.57 51.56 51.54 51.53 51.52 51.50 51.49 51.47 51.46 51.44 51.43 51.41 51.40 51.38 51.36 51.35 51.33 51.31 51.30 51.28 51.26 51.24 51.23 51.21 51.19 51.17 51.15 51.14 51.12
52.55 52.53 52.51 52.50 52.48 52.46 52.44 52.42 52.41 52.39 52.37 52.35 52.34 52.32 52.30 52.29 52.27 52.25 52.24 52.22 52.21 52.19 52.18 52.16 52.15 52.13 52.12 52.11 52.09 52.08 52.07 52.06 52.05 52.04 52.03 52.02 52.01 52.00 51.99 51.98 51.97 51.97 51.96 51.95 51.95 51.94 51.94 51.93 51.93 51.93 51.92 51.92 51.92 51.92 51.92 51.92 51.92 51.92 51.92 51.92 51.92 51.93 51.93 51.93 51.94 51.94 51.95 51.95 51.96 51.96 51.97 51.98 51.98 51.99 52.00 52.01 52.02 52.03 52.04 52.05 52.06 52.07 52.08 52.09 52.10 52.11 52.12 52.13 52.15 52.16 52.17 52.18 52.20 52.21 52.22 52.23 52.25 52.26 52.27 52.29 52.30 52.31 52.33 52.34 52.35 52.37 52.38 52.39 52.40 52.42 52.43 52.44 52.45 52.47 52.48 52.49 52.50 52.51 52.52 52.53 52.54 52.55 52.56 52.57 52.58 52.59 52.60 52.61 52.62 52.62 52.63 52.64 52.64 52.65 52.65 52.66 52.66 52.67 52.67 52.67 52.68 52.68 52.68 52.68 52.68 52.68 52.68 52.68 52.68 52.68 52.67 52.67 52.67 52.67 52.66 52.66 52.65 52.65 52.64 52.63 52.63 52.62 52.61 52.60 52.59 52.58 52.57 52.56 52.55 52.54 52.53 52.52 52.51 52.49 52.48 52.47 52.45 52.44 52.42 52.41 52.39 52.38 52.36 52.35 52.33 52.31 52.30 52.28 52.26 52.25 52.23 52.21 52.19 52.18 52.16 52.14 52.12 52.10 52.09 52.07 52.05 52.03 52.01 52.00 51.98 51.96 51.94 51.92 51.91 51.89 51.87 51.85 51.84 51.82 51.80 51.79 51.77 51.75 51.74 51.72 51.71 51.69 51.68 51.66 51.65 51.63 51.62 51.61 51.59 51.58 51.57 51.56 51.55 51.54 51.53 51.52 51.51 51.50 51.49 51.48 51.47 51.47 51.46 51.45 51.45 51.44 51.44 51.43 51.43 51.43 51.42 51.42 51.42 51.42 51.42 51.42 51.42 51.42 51.42 51.42 51.42 51.43 51.43 51.43 51.44 51.44 51.45 51.45 51.46 51.46 51.47 51.48 51.48 51.49 51.50 51.51 51.52 51.53 51.54 51.55 51.56 51.57 51.58 51.59 51.60 51.61 51.62 51.63 51.65 51.66 51.67 51.68 51.70 51.71 51.72 51.73 51.75 51.76 51.77 51.79 51.80 51.81 51.83 51.84 51.85 51.87 51.88 51.89 51.90 51.92 51.93 51.94 51.95 51.97 51.98 51.99 52.00 52.01 52.02 52.03 52.04 52.05 52.06 52.07 52.08 52.09 52.10 52.11 52.12 52.12 52.13 52.14 52.14 52.15 52.15 52.16 52.16 52.17 52.17 52.17 52.18 52.18 52.18 52.18 52.18 52.18 52.18 52.18 52.18 52.18 52.17 52.17 52.17 52.17 52.16 52.16 52.15 52.15 52.14 52.13 52.13 52.12 52.11 52.10 52.09 52.08 52.07 52.06 52.05 52.04 52.03 52.02 52.01 51.99 51.98 51.97 51.95 51.94 51.92 51.91 51.89 51.88 51.86 51.85 51.83 51.81 51.80 51.78 51.76 51.75 51.73 51.71 51.69 51.68 51.66 51.64 51.62 51.60 51.59 51.57 51.55 51.53 51.51 51.50 51.48 51.46 51.44 51.42 51.41 51.39 51.37 51.35 51.34 51.32 51.30 51.29 51.27 51.25 51.24 51.22 51.21 51.19 51.18 51.16 51.15 51.13 51.12 51.11 51.09 51.08 51.07 51.06 51.05 51.04 51.03 51.02 51.01 51.00 50.99 50.98 50.97 50.97 50.96 50.95 50.95 50.94 50.94 50.93 50.93 50.93 50.92 50.92 50.92 50.92 50.92 50.92 50.92 50.92 50.92 50.92 50.92 50.93 50.93 50.93 50.94 50.94 50.95 50.95 50.96 50.96 50.97 50.98 50.98 50.99 51.00 51.01 51.02 51.03 51.04 51.05 51.06 51.07 51.08 51.09 51.10 51.11 51.12 51.13 51.15 51.16 51.17 51.18 51.20 51.21 51.22 51.23 51.25 51.26 51.27 51.29 51.30 51.31 51.33 51.34 51.35 51.37 51.38 51.39 51.40 51.42 51.43 51.44 51.45 51.47 51.48 51.49 51.50 51.51 51.52 51.53 51.54 51.55 51.56 51.57 51.58 51.59 51.60 51.61 51.62 51.62 51.63 51.64 51.64 51.65 51.65 51.66 51.66 51.67 51.67 51.67 51.68 51.68 51.68 51.68 51.68 51.68 51.68 51.68 51.68 51.68 51.67 51.67 51.67 51.67 51.66 51.66 51.65 51.65 51.64 51.63 51.63 51.62 51.61 51.60 51.59 51.58 51.57 51.56 51.55 51.54 51.53 51.52 51.51 51.49 51.48 51.47 51.45 51.44 51.42 51.41 51.39 51.38 51.36 51.35 51.33 51.31 51.30 51.28 51.26 51.25 51.23 51.21 51.19 51.18 51.16 51.14 51.12 51.10 51.09 51.07
52.50 52.48 52.46 52.45 52.43 52.41 52.39 52.37 52.36 52.34 52.32 52.30 52.29 52.27 52.25 52.24 52.22 52.20 52.19 52.17 52.16 52.14 52.13 52.11 52.10 52.08 52.07 52.06 52.04 52.03 52.02 52.01 52.00 51.99 51.98 51.97 51.96 51.95 51.94 51.93 51.92 51.92 51.91 51.90 51.90 51.89 51.89 51.88 51.88 51.88 51.88 51.87 51.87 51.87 51.87 51.87 51.87 51.87 51.87 51.87 51.87 51.88 51.88 51.88 51.89 51.89 51.90 51.90 51.91 51.91 51.92 51.93 51.93 51.94 51.95 51.96 51.97 51.98 51.99 52.00 52.01 52.02 52.03 52.04 52.05 52.06 52.07 52.08 52.10 52.11 52.12 52.13 52.15 52.16 52.17 52.18 52.20 52.21 52.22 52.24 52.25 52.26 52.28 52.29 52.30 52.32 52.33 52.34 52.35 52.37 52.38 52.39 52.40 52.42 52.43 52.44 52.45 52.46 52.47 52.48 52.49 52.50 52.51 52.52 52.53 52.54 52.55 52.56 52.57 52.57 52.58 52.59 52.59 52.60 52.60 52.61 52.61 52.62 52.62 52.62 52.63 52.63 52.63 52.63 52.63 52.63 52.63 52.63 52.63 52.63 52.62 52.62 52.62 52.62 52.61 52.61 52.60 52.60 52.59 52.58 52.58 52.57 52.56 52.55 52.54 52.53 52.52 52.51 52.50 52.49 52.48 52.47 52.46 52.44 52.43 52.42 52.40 52.39 52.37 52.36 52.34 52.33 52.31 52.30 52.28 52.26 52.25 52.23 52.21 52.20 52.18 52.16 52.14 52.13 52.11 52.09 52.07 52.05 52.04 52.02 52.00 51.98 51.96 51.95 51.93 51.91 51.89 51.87 51.86 51.84 51.82 51.80 51.79 51.77 51.75 51.74 51.72 51.70 51.69 51.67 51.66 51.64 51.63 51.61 51.60 51.58 51.57 51.56 51.54 51.53 51.52 51.51 51.50 51.49 51.48 51.47 51.46 51.45 51.44 51.43 51.42 51.42 51.41 51.40 51.40 51.39 51.39 51.38 51.38 51.38 51.38 51.37 51.37 51.37 51.37 51.37 51.37 51.37 51.37 51.37 51.37 51.38 51.38 51.38 51.39 51.39 51.40 51.40 51.41 51.41 51.42 51.43 51.43 51.44 51.45 51.46 51.47 51.48 51.49 51.50 51.51 51.52 51.53 51.54 51.55 51.56 51.57 51.58 51.60 51.61 51.62 51.63 51.65 51.66 51.67 51.68 51.70 51.71 51.72 51.74 51.75 51.76 51.78 51.79 51.80 51.82 51.83 51.84 51.85 51.87 51.88 51.89 51.90 51.92 51.93 51.94 51.95 51.96 51.97 51.98 51.99 52.00 52.01 52.02 52.03 52.04 52.05 52.06 52.07 52.07 52.08 52.09 52.09 52.10 52.10 52.11 52.11 52.12 52.12 52.12 52.13 52.13 52.13 52.13 52.13 52.13 52.13 52.13 52.13 52.13 52.12 52.12 52.12 52.12 52.11 52.11 52.10 52.10 52.09 52.08 52.08 52.07 52.06 52.05 52.04 52.03 52.02 52.01 52.00 51.99 51.98 51.97 51.96 51.94 51.93 51.92 51.90 51.89 51.87 51.86 51.84 51.83 51.81 51.80 51.78 51.76 51.75 51.73 51.71 51.70 51.68 51.66 51.64 51.63 51.61 51.59 51.57 51.55 51.54 51.52 51.50 51.48 51.46 51.45 51.43 51.41 51.39 51.37 51.36 51.34 51.32 51.30 51.29 51.27 51.25 51.24 51.22 51.20 51.19 51.17 51.16 51.14 51.13 51.11 51.10 51.08 51.07 51.06 51.04 51.03 51.02 51.01 51.00 50.99 50.98 50.97 50.96 50.95 50.94 50.93 50.92 50.92 50.91 50.90 50.90 50.89 50.89 50.88 50.88 50.88 50.88 50.87 50.87 50.87 50.87 50.87 50.87 50.87 50.87 50.87 50.87 50.88 50.88 50.88 50.89 50.89 50.90 50.90 50.91 50.91 50.92 50.93 50.93 50.94 50.95 50.96 50.97 50.98 50.99 51.00 51.01 51.02 51.03 51.04 51.05 51.06 51.07 51.08 51.10 51.11 51.12 51.13 51.15 51.16 51.17 51.18 51.20 51.21 51.22 51.24 51.25 51.26 51.28 51.29 51.30 51.32 51.33 51.34 51.35 51.37 51.38 51.39 51.40 51.42 51.43 51.44 51.45 51.46 51.47 51.48 51.49 51.50 51.51 51.52 51.53 51.54 51.55 51.56 51.57 51.57 51.58 51.59 51.59 51.60 51.60 51.61 51.61 51.62 51.62 51.62 51.63 51.63 51.63 51.63 51.63 51.63 51.63 51.63 51.63 51.63 51.62 51.62 51.62 51.62 51.61 51.61 51.60 51.60 51.59 51.58 51.58 51.57 51.56 51.55 51.54 51.53 51.52 51.51 51.50 51.49 51.48 51.47 51.46 51.44 51.43 51.42 51.40 51.39 51.37 51.36 51.34 51.33 51.31 51.30 51.28 51.26 51.25 51.23 51.21 51.20 51.18 51.16 51.14 51.13 51.11 51.09 51.07 51.05 51.04 51.02
52.45 52.43 52.41 52.40 52.38 52.36 52.34 52.32 52.31 52.29 52.27 52.25 52.24 52.22 52.20 52.19 52.17 52.15 52.14 52.12 52.11 52.09 52.08 52.06 52.05 52.03 52.02 52.01 51.99 51.98 51.97 51.96 51.95 51.94 51.93 51.92 51.91 51.90 51.89 51.88 51.87 51.87 51.86 51.85 51.85 51.84 51.84 51.83 51.83 51.83 51.83 51.82 51.82 51.82 51.82 51.82 51.82 51.82 51.82 51.82 51.82 51.83 51.83 51.83 51.84 51.84 51.85 51.85 51.86 51.86 51.87 51.88 51.88 51.89 51.90 51.91 51.92 51.93 51.94 51.95 51.96 51.97 51.98 51.99 52.00 52.01 52.02 52.03 52.05 52.06 52.07 52.08 52.10 52.11 52.12 52.13 52.15 52.16 52.17 52.19 52.20 52.21 52.23 52.24 52.25 52.27 52.28 52.29 52.30 52.32 52.33 52.34 52.35 52.37 52.38 52.39 52.40 52.41 52.42 52.43 52.44 52.45 52.46 52.47 52.48 52.49 52.50 52.51 52.52 52.52 52.53 52.54 52.54 52.55 52.55 52.56 52.56 52.57 52.57 52.57 52.58 52.58 52.58 52.58 52.58 52.58 52.58 52.58 52.58 52.58 52.58 52.57 52.57 52.57 52.56 52.56 52.55 52.55 52.54 52.53 52.53 52.52 52.51 52.50 52.49 52.48 52.47 52.46 52.45 52.44 52.43 52.42 52.41 52.39 52.38 52.37 52.35 52.34 52.32 52.31 52.29 52.28 52.26 52.25 52.23 52.21 52.20 52.18 52.16 52.15 52.13 52.11 52.09 52.08 52.06 52.04 52.02 52.00 51.99 51.97 51.95 51.93 51.91 51.90 51.88 51.86 51.84 51.82 51.81 51.79 51.77 51.75 51.74 51.72 51.70 51.69 51.67 51.65 51.64 51.62 51.61 51.59 51.58 51.56 51.55 51.53 51.52 51.51 51.49 51.48 51.47 51.46 51.45 51.44 51.43 51.42 51.41 51.40 51.39 51.38 51.37 51.37 51.36 51.35 51.35 51.34 51.34 51.33 51.33 51.33 51.33 51.32 51.32 51.32 51.32 51.32 51.32 51.32 51.32 51.32 51.32 51.33 51.33 51.33 51.34 51.34 51.35 51.35 51.36 51.36 51.37 51.38 51.38 51.39 51.40 51.41 51.42 51.43 51.44 51.45 51.46 51.47 51.48 51.49 51.50 51.51 51.52 51.53 51.55 51.56 51.57 51.58 51.60 51.61 51.62 51.63 51.65 51.66 51.67 51.69 51.70 51.71 51.73 51.74 51.75 51.77 51.78 51.79 51.80 51.82 51.83 51.84 51.85 51.87 51.88 51.89 51.90 51.91 51.92 51.93 51.94 51.95 51.96 51.97 51.98 51.99 52.00 52.01 52.02 52.02 52.03 52.04 52.04 52.05 52.05 52.06 52.06 52.07 52.07 52.07 52.08 52.08 52.08 52.08 52.08 52.08 52.08 52.08 52.08 52.08 52.08 52.07 52.07 52.07 52.06 52.06 52.05 52.05 52.04 52.03 52.03 52.02 52.01 52.00 51.99 51.98 51.97 51.96 51.95 51.94 51.93 51.92 51.91 51.89 51.88 51.87 51.85 51.84 51.82 51.81 51.79 51.78 51.76 51.75 51.73 51.71 51.70 51.68 51.66 51.65 51.63 51.61 51.59 51.58 51.56 51.54 51.52 51.50 51.49 51.47 51.45 51.43 51.41 51.40 51.38 51.36 51.34 51.32 51.31 51.29 51.27 51.25 51.24 51.22 51.20 51.19 51.17 51.15 51.14 51.12 51.11 51.09 51.08 51.06 51.05 51.03 51.02 51.01 50.99 50.98 50.97 50.96 50.95 50.94 50.93 50.92 50.91 50.90 50.89 50.88 50.87 50.87 50.86 50.85 50.85 50.84 50.84 50.83 50.83 50.83 50.83 50.82 50.82 50.82 50.82 50.82 50.82 50.82 50.82 50.82 50.82 50.83 50.83 50.83 50.84 50.84 50.85 50.85 50.86 50.86 50.87 50.88 50.88 50.89 50.90 50.91 50.92 50.93 50.94 50.95 50.96 50.97 50.98 50.99 51.00 51.01 51.02 51.03 51.05 51.06 51.07 51.08 51.10 51.11 51.12 51.13 51.15 51.16 51.17 51.19 51.20 51.21 51.23 51.24 51.25 51.27 51.28 51.29 51.30 51.32 51.33 51.34 51.35 51.37 51.38 51.39 51.40 51.41 51.42 51.43 51.44 51.45 51.46 51.47 51.48 51.49 51.50 51.51 51.52 51.52 51.53 51.54 51.54 51.55 51.55 51.56 51.56 51.57 51.57 51.57 51.58 51.58 51.58 51.58 51.58 51.58 51.58 51.58 51.58 51.58 51.58 51.57 51.57 51.57 51.56 51.56 51.55 51.55 51.54 51.53 51.53 51.52 51.51 51.50 51.49 51.48 51.47 51.46 51.45 51.44 51.43 51.42 51.41 51.39 51.38 51.37 51.35 51.34 51.32 51.31 51.29 51.28 51.26 51.25 51.23 51.21 51.20 51.18 51.16 51.15 51.13 51.11 51.09 51.08 51.06 51.04 51.02 51.00 50.99 50.97
52.40 52.38 52.36 52.35 52.33 52.31 52.29 52.27 52.26 52.24 52.22 52.20 52.19 52.17 52.15 52.14 52.12 52.10 52.09 52.07 52.06 52.04 52.03 52.01 52.00 51.98 51.97 51.96 51.94 51.93 51.92 51.91 51.90 51.89 51.88 51.87 51.86 51.85 51.84 51.83 51.82 51.82 51.81 51.80 51.80 51.79 51.79 51.78 51.78 51.78 51.77 51.77 51.77 51.77 51.77 51.77 51.77 51.77 51.77 51.77 51.77 51.78 51.78 51.78 51.79 51.79 51.80 51.80 51.81 51.81 51.82 51.83 51.83 51.84 51.85 51.86 51.87 51.88 51.89 51.90 51.91 51.92 51.93 51.94 51.95 51.96 51.97 51.98 52.00 52.01 52.02 52.03 52.05 52.06 52.07 52.08 52.10 52.11 52.12 52.14 52.15 52.16 52.18 52.19 52.20 52.22 52.23 52.24 52.25 52.27 52.28 52.29 52.30 52.32 52.33 52.34 52.35 52.36 52.37 52.38 52.39 52.40 52.41 52.42 52.43 52.44 52.45 52.46 52.47 52.47 52.48 52.49 52.49 52.50 52.50 52.51 52.51 52.52 52.52 52.52 52.53 52.53 52.53 52.53 52.53 52.53 52.53 52.53 52.53 52.53 52.52 52.52 52.52 52.52 52.51 52.51 52.50 52.50 52.49 52.48 52.48 52.47 52.46 52.45 52.44 52.43 52.42 52.41 52.40 52.39 52.38 52.37 52.36 52.34 52.33 52.32 52.30 52.29 52.27 52.26 52.24 52.23 52.21 52.20 52.18 52.16 52.15 52.13 52.11 52.10 52.08 52.06 52.04 52.03 52.01 51.99 51.97 51.95 51.94 51.92 51.90 51.88 51.86 51.85 51.83 51.81 51.79 51.77 51.76 51.74 51.72 51.70 51.69 51.67 51.65 51.64 51.62 51.60 51.59 51.57 51.56 51.54 51.53 51.51 51.50 51.48 51.47 51.46 51.44 51.43 51.42 51.41 51.40 51.39 51.38 51.37 51.36 51.35 51.34 51.33 51.32 51.32 51.31 51.30 51.30 51.29 51.29 51.28 51.28 51.28 51.27 51.27 51.27 51.27 51.27 51.27 51.27 51.27 51.27 51.27 51.27 51.28 51.28 51.28 51.29 51.29 51.30 51.30 51.31 51.31 51.32 51.33 51.33 51.34 51.35 51.36 51.37 51.38 51.39 51.40 51.41 51.42 51.43 51.44 51.45 51.46 51.47 51.48 51.50 51.51 51.52 51.53 51.55 51.56 51.57 51.58 51.60 51.61 51.62 51.64 51.65 51.66 51.68 51.69 51.70 51.72 51.73 51.74 51.75 51.77 51.78 51.79 51.80 51.82 51.83 51.84 51.85 51.86 51.87 51.88 51.89 51.90 51.91 51.92 51.93 51.94 51.95 51.96 51.97 51.97 51.98 51.99 51.99 52.00 52.00 52.01 52.01 52.02 52.02 52.02 52.03 52.03 52.03 52.03 52.03 52.03 52.03 52.03 52.03 52.03 52.02 52.02 52.02 52.02 52.01 52.01 52.00 52.00 51.99 51.98 51.98 51.97 51.96 51.95 51.94 51.93 51.92 51.91 51.90 51.89 51.88 51.87 51.86 51.84 51.83 51.82 51.80 51.79 51.77 51.76 51.74 51.73 51.71 51.70 51.68 51.66 51.65 51.63 51.61 51.60 51.58 51.56 51.54 51.53 51.51 51.49 51.47 51.45 51.44 51.42 51.40 51.38 51.36 51.35 51.33 51.31 51.29 51.27 51.26 51.24 51.22 51.20 51.19 51.17 51.15 51.14 51.12 51.10 51.09 51.07 51.06 51.04 51.03 51.01 51.00 50.98 50.97 50.96 50.94 50.93 50.92 50.91 50.90 50.89 50.88 50.87 50.86 50.85 50.84 50.83 50.82 50.82 50.81 50.80 50.80 50.79 50.79 50.78 50.78 50.78 50.77 50.77 50.77 50.77 50.77 50.77 50.77 50.77 50.77 50.77 50.77 50.78 50.78 50.78 50.79 50.79 50.80 50.80 50.81 50.81 50.82 50.83 50.83 50.84 50.85 50.86 50.87 50.88 50.89 50.90 50.91 50.92 50.93 50.94 50.95 50.96 50.97 50.98 51.00 51.01 51.02 51.03 51.05 51.06 51.07 51.08 51.10 51.11 51.12 51.14 51.15 51.16 51.18 51.19 51.20 51.22 51.23 51.24 51.25 51.27 51.28 51.29 51.30 51.32 51.33 51.34 51.35 51.36 51.37 51.38 51.39 51.40 51.41 51.42 51.43 51.44 51.45 51.46 51.47 51.47 51.48 51.49 51.49 51.50 51.50 51.51 51.51 51.52 51.52 51.52 51.53 51.53 51.53 51.53 51.53 51.53 51.53 51.53 51.53 51.53 51.52 51.52 51.52 51.52 51.51 51.51 51.50 51.50 51.49 51.48 51.48 51.47 51.46 51.45 51.44 51.43 51.42 51.41 51.40 51.39 51.38 51.37 51.36 51.34 51.33 51.32 51.30 51.29 51.27 51.26 51.24 51.23 51.21 51.20 51.18 51.16 51.15 51.13 51.11 51.10 51.08 51.06 51.04 51.03 51.01 50.99 50.97 50.95 50.94 50.92
52.35 52.33 52.31 52.30 52.28 52.26 52.24 52.22 52.21 52.19 52.17 52.15 52.14 52.12 52.10 52.09 52.07 52.05 52.04 52.02 52.01 51.99 51.98 51.96 51.95 51.93 51.92 51.91 51.89 51.88 51.87 51.86 51.85 51.84 51.83 51.82 51.81 51.80 51.79 51.78 51.77 51.77 51.76 51.75 51.75 51.74 51.74 51.73 51.73 51.73 51.73 51.72 51.72 51.72 51.72 51.72 51.72 51.72 51.72 51.72 51.72 51.73 51.73 51.73 51.74 51.74 51.75 51.75 51.76 51.76 51.77 51.78 51.78 51.79 51.80 51.81 51.82 51.83 51.84 51.85 51.86 51.87 51.88 51.89 51.90 51.91 51.92 51.93 51.95 51.96 51.97 51.98 52.00 52.01 52.02 52.03 52.05 52.06 52.07 52.09 52.10 52.11 52.13 52.14 52.15 52.17 52.18 52.19 52.20 52.22 52.23 52.24 52.25 52.27 52.28 52.29 52.30 52.31 52.32 52.33 52.34 52.35 52.36 52.37 52.38 52.39 52.40 52.41 52.42 52.42 52.43 52.44 52.44 52.45 52.45 52.46 52.46 52.47 52.47 52.47 52.48 52.48 52.48 52.48 52.48 52.48 52.48 52.48 52.48 52.48 52.48 52.47 52.47 52.47 52.46 52.46 52.45 52.45 52.44 52.43 52.43 52.42 52.41 52.40 52.39 52.38 52.37 52.36 52.35 52.34 52.33 52.32 52.31 52.29 52.28 52.27 52.25 52.24 52.22 52.21 52.19 52.18 52.16 52.15 52.13 52.11 52.10 52.08 52.06 52.05 52.03 52.01 51.99 51.98 51.96 51.94 51.92 51.90 51.89 51.87 51.85 51.83 51.81 51.80 51.78 51.76 51.74 51.72 51.71 51.69 51.67 51.65 51.64 51.62 51.60 51.59 51.57 51.55 51.54 51.52 51.51 51.49 51.48 51.46 51.45 51.43 51.42 51.41 51.39 51.38 51.37 51.36 51.35 51.34 51.33 51.32 51.31 51.30 51.29 51.28 51.27 51.27 51.26 51.25 51.25 51.24 51.24 51.23 51.23 51.23 51.23 51.22 51.22 51.22 51.22 51.22 51.22 51.22 51.22 51.22 51.22 51.23 51.23 51.23 51.24 51.24 51.25 51.25 51.26 51.26 51.27 51.28 51.28 51.29 51.30 51.31 51.32 51.33 51.34 51.35 51.36 51.37 51.38 51.39 51.40 51.41 51.42 51.43 51.45 51.46 51.47 51.48 51.50 51.51 51.52 51.53 51.55 51.56 51.57 51.59 51.60 51.61 51.63 51.64 51.65 51.67 51.68 51.69 51.70 51.72 51.73 51.74 51.75 51.77 51.78 51.79 51.80 51.81 51.82 51.83 51.84 51.85 51.86 51.87 51.88 51.89 51.90 51.91 51.92 51.92 51.93 51.94 51.94 51.95 51.95 51.96 51.96 51.97 51.97 51.97 51.98 51.98 51.98 51.98 51.98 51.98 51.98 51.98 51.98 51.98 51.98 51.97 51.97 51.97 51.96 51.96 51.95 51.95 51.94 51.93 51.93 51.92 51.91 51.90 51.89 51.88 51.87 51.86 51.85 51.84 51.83 51.82 51.81 51.79 51.78 51.77 51.75 51.74 51.72 51.71 51.69 51.68 51.66 51.65 51.63 51.61 51.60 51.58 51.56 51.55 51.53 51.51 51.49 51.48 51.46 51.44 51.42 51.40 51.39 51.37 51.35 51.33 51.31 51.30 51.28 51.26 51.24 51.22 51.21 51.19 51.17 51.15 51.14 51.12 51.10 51.09 51.07 51.05 51.04 51.02 51.01 50.99 50.98 50.96 50.95 50.93 50.92 50.91 50.89 50.88 50.87 50.86 50.85 50.84 50.83 50.82 50.81 50.80 50.79 50.78 50.77 50.77 50.76 50.75 50.75 50.74 50.74 50.73 50.73 50.73 50.73 50.72 50.72 50.72 50.72 50.72 50.72 50.72 50.72 50.72 50.72 50.73 50.73 50.73 50.74 50.74 50.75 50.75 50.76 50.76 50.77 50.78 50.78 50.79 50.80 50.81 50.82 50.83 50.84 50.85 50.86 50.87 50.88 50.89 50.90 50.91 50.92 50.93 50.95 50.96 50.97 50.98 51.00 51.01 51.02 51.03 51.05 51.06 51.07 51.09 51.10 51.11 51.13 51.14 51.15 51.17 51.18 51.19 51.20 51.22 51.23 51.24 51.25 51.27 51.28 51.29 51.30 51.31 51.32 51.33 51.34 51.35 51.36 51.37 51.38 51.39 51.40 51.41 51.42 51.42 51.43 51.44 51.44 51.45 51.45 51.46 51.46 51.47 51.47 51.47 51.48 51.48 51.48 51.48 51.48 51.48 51.48 51.48 51.48 51.48 51.48 51.47 51.47 51.47 51.46 51.46 51.45 51.45 51.44 51.43 51.43 51.42 51.41 51.40 51.39 51.38 51.37 51.36 51.35 51.34 51.33 51.32 51.31 51.29 51.28 51.27 51.25 51.24 51.22 51.21 51.19 51.18 51.16 51.15 51.13 51.11 51.10 51.08 51.06 51.05 51.03 51.01 50.99 50.98 50.96 50.94 50.92 50.90 50.89 50.87
52.30 52.28 52.26 52.25 52.23 52.21 52.19 52.17 52.16 52.14 52.12 52.10 52.09 52.07 52.05 52.04 52.02 52.00 51.99 51.97 51.96 51.94 51.93 51.91 51.90 51.88 51.87 51.86 51.84 51.83 51.82 51.81 51.80 51.79 51.78 51.77 51.76 51.75 51.74 51.73 51.72 51.72 51.71 51.70 51.70 51.69 51.69 51.68 51.68 51.68 51.67 51.67 51.67 51.67 51.67 51.67 51.67 51.67 51.67 51.67 51.67 51.68 51.68 51.68 51.69 51.69 51.70 51.70 51.71 51.71 51.72 51.73 51.73 51.74 51.75 51.76 51.77 51.78 51.79 51.80 51.81 51.82 51.83 51.84 51.85 51.86 51.87 51.88 51.90 51.91 51.92 51.93 51.95 51.96 51.97 51.98 52.00 52.01 52.02 52.04 52.05 52.06 52.08 52.09 52.10 52.12 52.13 52.14 52.15 52.17 52.18 52.19 52.20 52.22 52.23 52.24 52.25 52.26 52.27 52.28 52.29 52.30 52.31 52.32 52.33 52.34 52.35 52.36 52.37 52.37 52.38 52.39 52.39 52.40 52.40 52.41 52.41 52.42 52.42 52.42 52.43 52.43 52.43 52.43 52.43 52.43 52.43 52.43 52.43 52.43 52.42 52.42 52.42 52.42 52.41 52.41 52.40 52.40 52.39 52.38 52.38 52.37 52.36 52.35 52.34 52.33 52.32 52.31 52.30 52.29 52.28 52.27 52.26 52.24 52.23 52.22 52.20 52.19 52.17 52.16 52.14 52.13 52.11 52.10 52.08 52.06 52.05 52.03 52.01 52.00 51.98 51.96 51.94 51.93 51.91 51.89 51.87 51.85 51.84 51.82 51.80 51.78 51.76 51.75 51.73 51.71 51.69 51.67 51.66 51.64 51.62 51.60 51.59 51.57 51.55 51.54 51.52 51.50 51.49 51.47 51.46 51.44 51.43 51.41 51.40 51.38 51.37 51.36 51.34 51.33 51.32 51.31 51.30 51.29 51.28 51.27 51.26 51.25 51.24 51.23 51.22 51.22 51.21 51.20 51.20 51.19 51.19 51.18 51.18 51.18 51.17 51.17 51.17 51.17 51.17 51.17 51.17 51.17 51.17 51.17 51.17 51.18 51.18 51.18 51.19 51.19 51.20 51.20 51.21 51.21 51.22 51.23 51.23 51.24 51.25 51.26 51.27 51.28 51.29 51.30 51.31 51.32 51.33 51.34 51.35 51.36 51.37 51.38 51.40 51.41 51.42 51.43 51.45 51.46 51.47 51.48 51.50 51.51 51.52 51.54 51.55 51.56 51.58 51.59 51.60 51.62 51.63 51.64 51.65 51.67 51.68 51.69 51.70 51.72 51.73 51.74 51.75 51.76 51.77 51.78 51.79 51.80 51.81 51.82 51.83 51.84 51.85 51.86 51.87 51.87 51.88 51.89 51.89 51.90 51.90 51.91 51.91 51.92 51.92 51.92 51.93 51.93 51.93 51.93 51.93 51.93 51.93 51.93 51.93 51.93 51.92 51.92 51.92 51.92 51.91 51.91 51.90 51.90 51.89 51.88 51.88 51.87 51.86 51.85 51.84 51.83 51.82 51.81 51.80 51.79 51.78 51.77 51.76 51.74 51.73 51.72 51.70 51.69 51.67 51.66 51.64 51.63 51.61 51.60 51.58 51.56 51.55 51.53 51.51 51.50 51.48 51.46 51.44 51.43 51.41 51.39 51.37 51.35 51.34 51.32 51.30 51.28 51.26 51.25 51.23 51.21 51.19 51.17 51.16 51.14 51.12 51.10 51.09 51.07 51.05 51.04 51.02 51.00 50.99 50.97 50.96 50.94 50.93 50.91 50.90 50.88 50.87 50.86 50.84 50.83 50.82 50.81 50.80 50.79 50.78 50.77 50.76 50.75 50.74 50.73 50.72 50.72 50.71 50.70 50.70 50.69 50.69 50.68 50.68 50.68 50.67 50.67 50.67 50.67 50.67 50.67 50.67 50.67 50.67 50.67 50.67 50.68 50.68 50.68 50.69 50.69 50.70 50.70 50.71 50.71 50.72 50.73 50.73 50.74 50.75 50.76 50.77 50.78 50.79 50.80 50.81 50.82 50.83 50.84 50.85 50.86 50.87 50.88 50.90 50.91 50.92 50.93 50.95 50.96 50.97 50.98 51.00 51.01 51.02 51.04 51.05 51.06 51.08 51.09 51.10 51.12 51.13 51.14 51.15 51.17 51.18 51.19 51.20 51.22 51.23 51.24 51.25 51.26 51.27 51.28 51.29 51.30 51.31 51.32 51.33 51.34 51.35 51.36 51.37 51.37 51.38 51.39 51.39 51.40 51.40 51.41 51.41 51.42 51.42 51.42 51.43 51.43 51.43 51.43 51.43 51.43 51.43 51.43 51.43 51.43 51.42 51.42 51.42 51.42 51.41 51.41 51.40 51.40 51.39 51.38 51.38 51.37 51.36 51.35 51.34 51.33 51.32 51.31 51.30 51.29 51.28 51.27 51.26 51.24 51.23 51.22 51.20 51.19 51.17 51.16 51.14 51.13 51.11 51.10 51.08 51.06 51.05 51.03 51.01 51.00 50.98 50.96 50.94 50.93 50.91 50.89 50.87 50.85 50.84 50.82
52.25 52.23 52.21 52.20 52.18 52.16 52.14 52.12 52.11 52.09 52.07 52.05 52.04 52.02 52.00 51.99 51.97 51.95 51.94 51.92 51.91 51.89 51.88 51.86 51.85 51.83 51.82 51.81 51.79 51.78 51.77 51.76 51.75 51.74 51.73 51.72 51.71 51.70 51.69 51.68 51.67 51.67 51.66 51.65 51.65 51.64 51.64 51.63 51.63 51.63 51.62 51.62 51.62 51.62 51.62 51.62 51.62 51.62 51.62 51.62 51.62 51.63 51.63 51.63 51.64 51.64 51.65 51.65 51.66 51.66 51.67 51.68 51.68 51.69 51.70 51.71 51.72 51.73 51.74 51.75 51.76 51.77 51.78 51.79 51.80 51.81 51.82 51.83 51.85 51.86 51.87 51.88 51.90 51.91 51.92 51.93 51.95 51.96 51.97 51.99 52.00 52.01 52.03 52.04 52.05 52.07 52.08 52.09 52.10 52.12 52.13 52.14 52.15 52.17 52.18 52.19 52.20 52.21 52.22 52.23 52.24 52.25 52.26 52.27 52.28 52.29 52.30 52.31 52.32 52.32 52.33 52.34 52.34 52.35 52.35 52.36 52.36 52.37 52.37 52.37 52.38 52.38 52.38 52.38 52.38 52.38 52.38 52.38 52.38 52.38 52.38 52.37 52.37 52.37 52.36 52.36 52.35 52.35 52.34 52.33 52.33 52.32 52.31 52.30 52.29 52.28 52.27 52.26 52.25 52.24 52.23 52.22 52.21 52.19 52.18 52.17 52.15 52.14 52.12 52.11 52.09 52.08 52.06 52.05 52.03 52.01 52.00 51.98 51.96 51.95 51.93 51.91 51.89 51.88 51.86 51.84 51.82 51.80 51.79 51.77 51.75 51.73 51.71 51.70 51.68 51.66 51.64 51.62 51.61 51.59 51.57 51.55 51.54 51.52 51.50 51.49 51.47 51.45 51.44 51.42 51.41 51.39 51.38 51.36 51.35 51.33 51.32 51.31 51.29 51.28 51.27 51.26 51.25 51.24 51.23 51.22 51.21 51.20 51.19 51.18 51.17 51.17 51.16 51.15 51.15 51.14 51.14 51.13 51.13 51.13 51.12 51.12 51.12 51.12 51.12 51.12 51.12 51.12 51.12 51.12 51.12 51.13 51.13 51.13 51.14 51.14 51.15 51.15 51.16 51.16 51.17 51.18 51.18 51.19 51.20 51.21 51.22 51.23 51.24 51.25 51.26 51.27 51.28 51.29 51.30 51.31 51.32 51.33 51.35 51.36 51.37 51.38 51.40 51.41 51.42 51.43 51.45 51.46 51.47 51.49 51.50 51.51 51.53 51.54 51.55 51.57 51.58 51.59 51.60 51.62 51.63 51.64 51.65 51.67 51.68 51.69 51.70 51.71 51.72 51.73 51.74 51.75 51.76 51.77 51.78 51.79 51.80 51.81 51.82 51.82 51.83 51.84 51.84 51.85 51.85 51.86 51.86 51.87 51.87 51.87 51.88 51.88 51.88 51.88 51.88 51.88 51.88 51.88 51.88 51.88 51.88 51.87 51.87 51.87 51.86 51.86 51.85 51.85 51.84 51.83 51.83 51.82 51.81 51.80 51.79 51.78 51.77 51.76 51.75 51.74 51.73 51.72 51.71 51.69 51.68 51.67 51.65 51.64 51.62 51.61 51.59 51.58 51.56 51.55 51.53 51.51 51.50 51.48 51.46 51.45 51.43 51.41 51.39 51.38 51.36 51.34 51.32 51.30 51.29 51.27 51.25 51.23 51.21 51.20 51.18 51.16 51.14 51.12 51.11 51.09 51.07 51.05 51.04 51.02 51.00 50.99 50.97 50.95 50.94 50.92 50.91 50.89 50.88 50.86 50.85 50.83 50.82 50.81 50.79 50.78 50.77 50.76 50.75 50.74 50.73 50.72 50.71 50.70 50.69 50.68 50.67 50.67 50.66 50.65 50.65 50.64 50.64 50.63 50.63 50.63 50.62 50.62 50.62 50.62 50.62 50.62 50.62 50.62 50.62 50.62 50.62 50.63 50.63 50.63 50.64 50.64 50.65 50.65 50.66 50.66 50.67 50.68 50.68 50.69 50.70 50.71 50.72 50.73 50.74 50.75 50.76 50.77 50.78 50.79 50.80 50.81 50.82 50.83 50.85 50.86 50.87 50.88 50.90 50.91 50.92 50.93 50.95 50.96 50.97 50.99 51.00 51.01 51.03 51.04 51.05 51.07 51.08 51.09 51.10 51.12 51.13 51.14 51.15 51.17 51.18 51.19 51.20 51.21 51.22 51.23 51.24 51.25 51.26 51.27 51.28 51.29 51.30 51.31 51.32 51.32 51.33 51.34 51.34 51.35 51.35 51.36 51.36 51.37 51.37 51.37 51.38 51.38 51.38 51.38 51.38 51.38 51.38 51.38 51.38 51.38 51.38 51.37 51.37 51.37 51.36 51.36 51.35 51.35 51.34 51.33 51.33 51.32 51.31 51.30 51.29 51.28 51.27 51.26 51.25 51.24 51.23 51.22 51.21 51.19 51.18 51.17 51.15 51.14 51.12 51.11 51.09 51.08 51.06 51.05 51.03 51.01 51.00 50.98 50.96 50.95 50.93 50.91 50.89 50.88 50.86 50.84 50.82 50.80 50.79 50.77
52.20 52.18 52.16 52.15 52.13 52.11 52.09 52.07 52.06 52.04 52.02 52.00 51.99 51.97 51.95 51.94 51.92 51.90 51.89 51.87 51.86 51.84 51.83 51.81 51.80 51.78 51.77 51.76 51.74 51.73 51.72 51.71 51.70 51.69 51.68 51.67 51.66 51.65 51.64 51.63 51.62 51.62 51.61 51.60 51.60 51.59 51.59 51.58 51.58 51.58 51.58 51.57 51.57 51.57 51.57 51.57 51.57 51.57 51.57 51.57 51.57 51.58 51.58 51.58 51.59 51.59 51.60 51.60 51.61 51.61 51.62 51.63 51.63 51.64 51.65 51.66 51.67 51.68 51.69 51.70 51.71 51.72 51.73 51.74 51.75 51.76 51.77 51.78 51.80 51.81 51.82 51.83 51.85 51.86 51.87 51.88 51.90 51.91 51.92 51.94 51.95 51.96 51.98 51.99 52.00 52.02 52.03 52.04 52.05 52.07 52.08 52.09 52.10 52.12 52.13 52.14 52.15 52.16 52.17 52.18 52.19 52.20 52.21 52.22 52.23 52.24 52.25 52.26 52.27 52.27 52.28 52.29 52.29 52.30 52.30 52.31 52.31 52.32 52.32 52.32 52.33 52.33 52.33 52.33 52.33 52.33 52.33 52.33 52.33 52.33 52.33 52.32 52.32 52.32 52.31 52.31 52.30 52.30 52.29 52.28 52.28 52.27 52.26 52.25 52.24 52.23 52.22 52.21 52.20 52.19 52.18 52.17 52.16 52.14 52.13 52.12 52.10 52.09 52.07 52.06 52.04 52.03 52.01 52.00 51.98 51.96 51.95 51.93 51.91 51.90 51.88 51.86 51.84 51.83 51.81 51.79 51.77 51.75 51.74 51.72 51.70 51.68 51.66 51.65 51.63 51.61 51.59 51.57 51.56 51.54 51.52 51.50 51.49 51.47 51.45 51.44 51.42 51.40 51.39 51.37 51.36 51.34 51.33 51.31 51.30 51.28 51.27 51.26 51.24 51.23 51.22 51.21 51.20 51.19 51.18 51.17 51.16 51.15 51.14 51.13 51.12 51.12 51.11 51.10 51.10 51.09 51.09 51.08 51.08 51.08 51.08 51.07 51.07 51.07 51.07 51.07 51.07 51.07 51.07 51.07 51.07 51.08 51.08 51.08 51.09 51.09 51.10 51.10 51.11 51.11 51.12 51.13 51.13 51.14 51.15 51.16 51.17 51.18 51.19 51.20 51.21 51.22 51.23 51.24 51.25 51.26 51.27 51.28 51.30 51.31 51.32 51.33 51.35 51.36 51.37 51.38 51.40 51.41 51.42 51.44 51.45 51.46 51.48 51.49 51.50 51.52 51.53 51.54 51.55 51.57 51.58 51.59 51.60 51.62 51.63 51.64 51.65 51.66 51.67 51.68 51.69 51.70 51.71 51.72 51.73 51.74 51.75 51.76 51.77 51.77 51.78 51.79 51.79 51.80 51.80 51.81 51.81 51.82 51.82 51.82 51.83 51.83 51.83 51.83 51.83 51.83 51.83 51.83 51.83 51.83 51.83 51.82 51.82 51.82 51.81 51.81 51.80 51.80 51.79 51.78 51.78 51.77 51.76 51.75 51.74 51.73 51.72 51.71 51.70 51.69 51.68 51.67 51.66 51.64 51.63 51.62 51.60 51.59 51.57 51.56 51.54 51.53 51.51 51.50 51.48 51.46 51.45 51.43 51.41 51.40 51.38 51.36 51.34 51.33 51.31 51.29 51.27 51.25 51.24 51.22 51.20 51.18 51.16 51.15 51.13 51.11 51.09 51.07 51.06 51.04 51.02 51.00 50.99 50.97 50.95 50.94 50.92 50.90 50.89 50.87 50.86 50.84 50.83 50.81 50.80 50.78 50.77 50.76 50.74 50.73 50.72 50.71 50.70 50.69 50.68 50.67 50.66 50.65 50.64 50.63 50.62 50.62 50.61 50.60 50.60 50.59 50.59 50.58 50.58 50.58 50.58 50.57 50.57 50.57 50.57 50.57 50.57 50.57 50.57 50.57 50.57 50.58 50.58 50.58 50.59 50.59 50.60 50.60 50.61 50.61 50.62 50.63 50.63 50.64 50.65 50.66 50.67 50.68 50.69 50.70 50.71 50.72 50.73 50.74 50.75 50.76 50.77 50.78 50.80 50.81 50.82 50.83 50.85 50.86 50.87 50.88 50.90 50.91 50.92 50.94 50.95 50.96 50.98 50.99 51.00 51.02 51.03 51.04 51.05 51.07 51.08 51.09 51.10 51.12 51.13 51.14 51.15 51.16 51.17 51.18 51.19 51.20 51.21 51.22 51.23 51.24 51.25 51.26 51.27 51.27 51.28 51.29 51.29 51.30 51.30 51.31 51.31 51.32 51.32 51.32 51.33 51.33 51.33 51.33 51.33 51.33 51.33 51.33 51.33 51.33 51.33 51.32 51.32 51.32 51.31 51.31 51.30 51.30 51.29 51.28 51.28 51.27 51.26 51.25 51.24 51.23 51.22 51.21 51.20 51.19 51.18 51.17 51.16 51.14 51.13 51.12 51.10 51.09 51.07 51.06 51.04 51.03 51.01 51.00 50.98 50.96 50.95 50.93 50.91 50.90 50.88 50.86 50.84 50.83 50.81 50.79 50.77 50.75 50.74 50.72
52.15 52.13 52.11 52.10 52.08 52.06 52.04 52.02 52.01 51.99 51.97 51.95 51.94 51.92 51.90 51.89 51.87 51.85 51.84 51.82 51.81 51.79 51.78 51.76 51.75 51.73 51.72 51.71 51.69 51.68 51.67 51.66 51.65 51.64 51.63 51.62 51.61 51.60 51.59 51.58 51.57 51.57 51.56 51.55 51.55 51.54 51.54 51.53 51.53 51.53 51.52 51.52 51.52 51.52 51.52 51.52 51.52 51.52 51.52 51.52 51.52 51.53 51.53 51.53 51.54 51.54 51.55 51.55 51.56 51.56 51.57 51.58 51.58 51.59 51.60 51.61 51.62 51.63 51.64 51.65 51.66 51.67 51.68 51.69 51.70 51.71 51.72 51.73 51.75 51.76 51.77 51.78 51.80 51.81 51.82 51.83 51.85 51.86 51.87 51.89 51.90 51.91 51.93 51.94 51.95 51.97 51.98 51.99 52.00 52.02 52.03 52.04 52.05 52.07 52.08 52.09 52.10 52.11 52.12 52.13 52.14 52.15 52.16 52.17 52.18 52.19 52.20 52.21 52.22 52.22 52.23 52.24 52.24 52.25 52.25 52.26 52.26 52.27 52.27 52.27 52.28 52.28 52.28 52.28 52.28 52.28 52.28 52.28 52.28 52.28 52.27 52.27 52.27 52.27 52.26 52.26 52.25 52.25 52.24 52.23 52.23 52.22 52.21 52.20 52.19 52.18 52.17 52.16 52.15 52.14 52.13 52.12 52.11 52.09 52.08 52.07 52.05 52.04 52.02 52.01 51.99 51.98 51.96 51.95 51.93 51.91 51.90 51.88 51.86 51.85 51.83 51.81 51.79 51.78 51.76 51.74 51.72 51.70 51.69 51.67 51.65 51.63 51.61 51.60 51.58 51.56 51.54 51.52 51.51 51.49 51.47 51.45 51.44 51.42 51.40 51.39 51.37 51.35 51.34 51.32 51.31 51.29 51.28 51.26 51.25 51.23 51.22 51.21 51.19 51.18 51.17 51.16 51.15 51.14 51.13 51.12 51.11 51.10 51.09 51.08 51.07 51.07 51.06 51.05 51.05 51.04 51.04 51.03 51.03 51.03 51.02 51.02 51.02 51.02 51.02 51.02 51.02 51.02 51.02 51.02 51.02 51.03 51.03 51.03 51.04 51.04 51.05 51.05 51.06 51.06 51.07 51.08 51.08 51.09 51.10 51.11 51.12 51.13 51.14 51.15 51.16 51.17 51.18 51.19 51.20 51.21 51.22 51.23 51.25 51.26 51.27 51.28 51.30 51.31 51.32 51.33 51.35 51.36 51.37 51.39 51.40 51.41 51.43 51.44 51.45 51.47 51.48 51.49 51.50 51.52 51.53 51.54 51.55 51.57 51.58 51.59 51.60 51.61 51.62 51.63 51.64 51.65 51.66 51.67 51.68 51.69 51.70 51.71 51.72 51.72 51.73 51.74 51.74 51.75 51.75 51.76 51.76 51.77 51.77 51.77 51.78 51.78 51.78 51.78 51.78 51.78 51.78 51.78 51.78 51.78 51.77 51.77 51.77 51.77 51.76 51.76 51.75 51.75 51.74 51.73 51.73 51.72 51.71 51.70 51.69 51.68 51.67 51.66 51.65 51.64 51.63 51.62 51.61 51.59 51.58 51.57 51.55 51.54 51.52 51.51 51.49 51.48 51.46 51.45 51.43 51.41 51.40 51.38 51.36 51.35 51.33 51.31 51.29 51.28 51.26 51.24 51.22 51.20 51.19 51.17 51.15 51.13 51.11 51.10 51.08 51.06 51.04 51.02 51.01 50.99 50.97 50.95 50.94 50.92 50.90 50.89 50.87 50.85 50.84 50.82 50.81 50.79 50.78 50.76 50.75 50.73 50.72 50.71 50.69 50.68 50.67 50.66 50.65 50.64 50.63 50.62 50.61 50.60 50.59 50.58 50.57 50.57 50.56 50.55 50.55 50.54 50.54 50.53 50.53 50.53 50.52 50.52 50.52 50.52 50.52 50.52 50.52 50.52 50.52 50.52 50.52 50.53 50.53 50.53 50.54 50.54 50.55 50.55 50.56 50.56 50.57 50.58 50.58 50.59 50.60 50.61 50.62 50.63 50.64 50.65 50.66 50.67 50.68 50.69 50.70 50.71 50.72 50.73 50.75 50.76 50.77 50.78 50.80 50.81 50.82 50.83 50.85 50.86 50.87 50.89 50.90 50.91 50.93 50.94 50.95 50.97 50.98 50.99 51.00 51.02 51.03 51.04 51.05 51.07 51.08 51.09 51.10 51.11 51.12 51.13 51.14 51.15 51.16 51.17 51.18 51.19 51.20 51.21 51.22 51.22 51.23 51.24 51.24 51.25 51.25 51.26 51.26 51.27 51.27 51.27 51.28 51.28 51.28 51.28 51.28 51.28 51.28 51.28 51.28 51.28 51.27 51.27 51.27 51.27 51.26 51.26 51.25 51.25 51.24 51.23 51.23 51.22 51.21 51.20 51.19 51.18 51.17 51.16 51.15 51.14 51.13 51.12 51.11 51.09 51.08 51.07 51.05 51.04 51.02 51.01 50.99 50.98 50.96 50.95 50.93 50.91 50.90 50.88 50.86 50.85 50.83 50.81 50.79 50.78 50.76 50.74 50.72 50.70 50.69 50.67
52.10 52.08 52.06 52.05 52.03 52.01 51.99 51.97 51.96 51.94 51.92 51.90 51.89 51.87 51.85 51.84 51.82 51.80 51.79 51.77 51.76 51.74 51.73 51.71 51.70 51.68 51.67 51.66 51.64 51.63 51.62 51.61 51.60 51.59 51.58 51.57 51.56 51.55 51.54 51.53 51.52 51.52 51.51 51.50 51.50 51.49 51.49 51.48 51.48 51.48 51.48 51.47 51.47 51.47 51.47 51.47 51.47 51.47 51.47 51.47 51.47 51.48 51.48 51.48 51.49 51.49 51.50 51.50 51.51 51.51 51.52 51.53 51.53 51.54 51.55 51.56 51.57 51.58 51.59 51.60 51.61 51.62 51.63 51.64 51.65 51.66 51.67 51.68 51.70 51.71 51.72 51.73 51.75 51.76 51.77 51.78 51.80 51.81 51.82 51.84 51.85 51.86 51.88 51.89 51.90 51.92 51.93 51.94 51.95 51.97 51.98 51.99 52.00 52.02 52.03 52.04 52.05 52.06 52.07 52.08 52.09 52.10 52.11 52.12 52.13 52.14 52.15 52.16 52.17 52.17 52.18 52.19 52.19 52.20 52.20 52.21 52.21 52.22 52.22 52.22 52.23 52.23 52.23 52.23 52.23 52.23 52.23 52.23 52.23 52.23 52.23 52.22 52.22 52.22 52.21 52.21 52.20 52.20 52.19 52.18 52.18 52.17 52.16 52.15 52.14 52.13 52.12 52.11 52.10 52.09 52.08 52.07 52.06 52.04 52.03 52.02 52.00 51.99 51.97 51.96 51.94 51.93 51.91 51.90 51.88 51.86 51.85 51.83 51.81 51.80 51.78 51.76 51.74 51.73 51.71 51.69 51.67 51.65 51.64 51.62 51.60 51.58 51.56 51.55 51.53 51.51 51.49 51.47 51.46 51.44 51.42 51.40 51.39 51.37 51.35 51.34 51.32 51.30 51.29 51.27 51.26 51.24 51.23 51.21 51.20 51.18 51.17 51.16 51.14 51.13 51.12 51.11 51.10 51.09 51.08 51.07 51.06 51.05 51.04 51.03 51.02 51.02 51.01 51.00 51.00 50.99 50.99 50.98 50.98 50.98 50.98 50.97 50.97 50.97 50.97 50.97 50.97 50.97 50.97 50.97 50.97 50.98 50.98 50.98 50.99 50.99 51.00 51.00 51.01 51.01 51.02 51.03 51.03 51.04 51.05 51.06 51.07 51.08 51.09 51.10 51.11 51.12 51.13 51.14 51.15 51.16 51.17 51.18 51.20 51.21 51.22 51.23 51.25 51.26 51.27 51.28 51.30 51.31 51.32 51.34 51.35 51.36 51.38 51.39 51.40 51.42 51.43 51.44 51.45 51.47 51.48 51.49 51.50 51.52 51.53 51.54 51.55 51.56 51.57 51.58 51.59 51.60 51.61 51.62 51.63 51.64 51.65 51.66 51.67 51.67 51.68 51.69 51.69 51.70 51.70 51.71 51.71 51.72 51.72 51.72 51.73 51.73 51.73 51.73 51.73 51.73 51.73 51.73 51.73 51.73 51.73 51.72 51.72 51.72 51.71 51.71 51.70 51.70 51.69 51.68 51.68 51.67 51.66 51.65 51.64 51.63 51.62 51.61 51.60 51.59 51.58 51.57 51.56 51.54 51.53 51.52 51.50 51.49 51.47 51.46 51.44 51.43 51.41 51.40 51.38 51.36 51.35 51.33 51.31 51.30 51.28 51.26 51.24 51.23 51.21 51.19 51.17 51.15 51.14 51.12 51.10 51.08 51.06 51.05 51.03 51.01 50.99 50.97 50.96 50.94 50.92 50.90 50.89 50.87 50.85 50.84 50.82 50.80 50.79 50.77 50.76 50.74 50.73 50.71 50.70 50.68 50.67 50.66 50.64 50.63 50.62 50.61 50.60 50.59 50.58 50.57 50.56 50.55 50.54 50.53 50.52 50.52 50.51 50.50 50.50 50.49 50.49 50.48 50.48 50.48 50.48 50.47 50.47 50.47 50.47 50.47 50.47 50.47 50.47 50.47 50.47 50.48 50.48 50.48 50.49 50.49 50.50 50.50 50.51 50.51 50.52 50.53 50.53 50.54 50.55 50.56 50.57 50.58 50.59 50.60 50.61 50.62 50.63 50.64 50.65 50.66 50.67 50.68 50.70 50.71 50.72 50.73 50.75 50.76 50.77 50.78 50.80 50.81 50.82 50.84 50.85 50.86 50.88 50.89 50.90 50.92 50.93 50.94 50.95 50.97 50.98 50.99 51.00 51.02 51.03 51.04 51.05 51.06 51.07 51.08 51.09 51.10 51.11 51.12 51.13 51.14 51.15 51.16 51.17 51.17 51.18 51.19 51.19 51.20 51.20 51.21 51.21 51.22 51.22 51.22 51.23 51.23 51.23 51.23 51.23 51.23 51.23 51.23 51.23 51.23 51.23 51.22 51.22 51.22 51.21 51.21 51.20 51.20 51.19 51.18 51.18 51.17 51.16 51.15 51.14 51.13 51.12 51.11 51.10 51.09 51.08 51.07 51.06 51.04 51.03 51.02 51.00 50.99 50.97 50.96 50.94 50.93 50.91 50.90 50.88 50.86 50.85 50.83 50.81 50.80 50.78 50.76 50.74 50.73 50.71 50.69 50.67 50.65 50.64 50.62
52.05 52.03 52.01 52.00 51.98 51.96 51.94 51.92 51.91 51.89 51.87 51.85 51.84 51.82 51.80 51.79 51.77 51.75 51.74 51.72 51.71 51.69 51.68 51.66 51.65 51.63 51.62 51.61 51.59 51.58 51.57 51.56 51.55 51.54 51.53 51.52 51.51 51.50 51.49 51.48 51.47 51.47 51.46 51.45 51.45 51.44 51.44 51.43 51.43 51.43 51.42 51.42 51.42 51.42 51.42 51.42 51.42 51.42 51.42 51.42 51.42 51.43 51.43 51.43 51.44 51.44 51.45 51.45 51.46 51.46 51.47 51.48 51.48 51.49 51.50 51.51 51.52 51.53 51.54 51.55 51.56 51.57 51.58 51.59 51.60 51.61 51.62 51.63 51.65 51.66 51.67 51.68 51.70 51.71 51.72 51.73 51.75 51.76 51.77 51.79 51.80 51.81 51.83 51.84 51.85 51.87 51.88 51.89 51.90 51.92 51.93 51.94 51.95 51.97 51.98 51.99 52.00 52.01 52.02 52.03 52.04 52.05 52.06 52.07 52.08 52.09 52.10 52.11 52.12 52.12 52.13 52.14 52.14 52.15 52.15 52.16 52.16 52.17 52.17 52.17 52.18 52.18 52.18 52.18 52.18 52.18 52.18 52.18 52.18 52.18 52.17 52.17 52.17 52.17 52.16 52.16 52.15 52.15 52.14 52.13 52.13 52.12 52.11 52.10 52.09 52.08 52.07 52.06 52.05 52.04 52.03 52.02 52.01 51.99 51.98 51.97 51.95 51.94 51.92 51.91 51.89 51.88 51.86 51.85 51.83 51.81 51.80 51.78 51.76 51.75 51.73 51.71 51.69 51.68 51.66 51.64 51.62 51.60 51.59 51.57 51.55 51.53 51.51 51.50 51.48 51.46 51.44 51.42 51.41 51.39 51.37 51.35 51.34 51.32 51.30 51.29 51.27 51.25 51.24 51.22 51.21 51.19 51.18 51.16 51.15 51.13 51.12 51.11 51.09 51.08 51.07 51.06 51.05 51.04 51.03 51.02 51.01 51.00 50.99 50.98 50.97 50.97 50.96 50.95 50.95 50.94 50.94 50.93 50.93 50.93 50.92 50.92 50.92 50.92 50.92 50.92 50.92 50.92 50.92 50.92 50.92 50.93 50.93 50.93 50.94 50.94 50.95 50.95 50.96 50.96 50.97 50.98 50.98 50.99 51.00 51.01 51.02 51.03 51.04 51.05 51.06 51.07 51.08 51.09 51.10 51.11 51.12 51.13 51.15 51.16 51.17 51.18 51.20 51.21 51.22 51.23 51.25 51.26 51.27 51.29 51.30 51.31 51.33 51.34 51.35 51.37 51.38 51.39 51.40 51.42 51.43 51.44 51.45 51.47 51.48 51.49 51.50 51.51 51.52 51.53 51.54 51.55 51.56 51.57 51.58 51.59 51.60 51.61 51.62 51.62 51.63 51.64 51.64 51.65 51.65 51.66 51.66 51.67 51.67 51.67 51.68 51.68 51.68 51.68 51.68 51.68 51.68 51.68 51.68 51.68 51.67 51.67 51.67 51.67 51.66 51.66 51.65 51.65 51.64 51.63 51.63 51.62 51.61 51.60 51.59 51.58 51.57 51.56 51.55 51.54 51.53 51.52 51.51 51.49 51.48 51.47 51.45 51.44 51.42 51.41 51.39 51.38 51.36 51.35 51.33 51.31 51.30 51.28 51.26 51.25 51.23 51.21 51.19 51.18 51.16 51.14 51.12 51.10 51.09 51.07 51.05 51.03 51.01 51.00 50.98 50.96 50.94 50.92 50.91 50.89 50.87 50.85 50.84 50.82 50.80 50.79 50.77 50.75 50.74 50.72 50.71 50.69 50.68 50.66 50.65 50.63 50.62 50.61 50.59 50.58 50.57 50.56 50.55 50.54 50.53 50.52 50.51 50.50 50.49 50.48 50.47 50.47 50.46 50.45 50.45 50.44 50.44 50.43 50.43 50.43 50.42 50.42 50.42 50.42 50.42 50.42 50.42 50.42 50.42 50.42 50.42 50.43 50.43 50.43 50.44 50.44 50.45 50.45 50.46 50.46 50.47 50.48 50.48 50.49 50.50 50.51 50.52 50.53 50.54 50.55 50.56 50.57 50.58 50.59 50.60 50.61 50.62 50.63 50.65 50.66 50.67 50.68 50.70 50.71 50.72 50.73 50.75 50.76 50.77 50.79 50.80 50.81 50.83 50.84 50.85 50.87 50.88 50.89 50.90 50.92 50.93 50.94 50.95 50.97 50.98 50.99 51.00 51.01 51.02 51.03 51.04 51.05 51.06 51.07 51.08 51.09 51.10 51.11 51.12 51.12 51.13 51.14 51.14 51.15 51.15 51.16 51.16 51.17 51.17 51.17 51.18 51.18 51.18 51.18 51.18 51.18 51.18 51.18 51.18 51.18 51.17 51.17 51.17 51.17 51.16 51.16 51.15 51.15 51.14 51.13 51.13 51.12 51.11 51.10 51.09 51.08 51.07 51.06 51.05 51.04 51.03 51.02 51.01 50.99 50.98 50.97 50.95 50.94 50.92 50.91 50.89 50.88 50.86 50.85 50.83 50.81 50.80 50.78 50.76 50.75 50.73 50.71 50.69 50.68 50.66 50.64 50.62 50.60 50.59 50.57
52.00 51.98 51.96 51.95 51.93 51.91 51.89 51.87 51.86 51.84 51.82 51.80 51.79 51.77 51.75 51.74 51.72 51.70 51.69 51.67 51.66 51.64 51.63 51.61 51.60 51.58 51.57 51.56 51.54 51.53 51.52 51.51 51.50 51.49 51.48 51.47 51.46 51.45 51.44 51.43 51.42 51.42 51.41 51.40 51.40 51.39 51.39 51.38 51.38 51.38 51.38 51.37 51.37 51.37 51.37 51.37 51.37 51.37 51.37 51.37 51.37 51.38 51.38 51.38 51.39 51.39 51.40 51.40 51.41 51.41 51.42 51.43 51.43 51.44 51.45 51.46 51.47 51.48 51.49 51.50 51.51 51.52 51.53 51.54 51.55 51.56 51.57 51.58 51.60 51.61 51.62 51.63 51.65 51.66 51.67 51.68 51.70 51.71 51.72 51.74 51.75 51.76 51.78 51.79 51.80 51.82 51.83 51.84 51.85 51.87 51.88 51.89 51.90 51.92 51.93 51.94 51.95 51.96 51.97 51.98 51.99 52.00 52.01 52.02 52.03 52.04 52.05 52.06 52.07 52.07 52.08 52.09 52.09 52.10 52.10 52.11 52.11 52.12 52.12 52.12 52.13 52.13 52.13 52.13 52.13 52.13 52.13 52.13 52.13 52.13 52.12 52.12 52.12 52.12 52.11 52.11 52.10 52.10 52.09 52.08 52.08 52.07 52.06 52.05 52.04 52.03 52.02 52.01 52.00 51.99 51.98 51.97 51.96 51.94 51.93 51.92 51.90 51.89 51.87 51.86 51.84 51.83 51.81 51.80 51.78 51.76 51.75 51.73 51.71 51.70 51.68 51.66 51.64 51.63 51.61 51.59 51.57 51.55 51.54 51.52 51.50 51.48 51.46 51.45 51.43 51.41 51.39 51.37 51.36 51.34 51.32 51.30 51.29 51.27 51.25 51.24 51.22 51.20 51.19 51.17 51.16 51.14 51.13 51.11 51.10 51.08 51.07 51.06 51.04 51.03 51.02 51.01 51.00 50.99 50.98 50.97 50.96 50.95 50.94 50.93 50.92 50.92 50.91 50.90 50.90 50.89 50.89 50.88 50.88 50.88 50.88 50.87 50.87 50.87 50.87 50.87 50.87 50.87 50.87 50.87 50.87 50.88 50.88 50.88 50.89 50.89 50.90 50.90 50.91 50.91 50.92 50.93 50.93 50.94 50.95 50.96 50.97 50.98 50.99 51.00 51.01 51.02 51.03 51.04 51.05 51.06 51.07 51.08 51.10 51.11 51.12 51.13 51.15 51.16 51.17 51.18 51.20 51.21 51.22 51.24 51.25 51.26 51.28 51.29 51.30 51.32 51.33 51.34 51.35 51.37 51.38 51.39 51.40 51.42 51.43 51.44 51.45 51.46 51.47 51.48 51.49 51.50 51.51 51.52 51.53 51.54 51.55 51.56 51.57 51.57 51.58 51.59 51.59 51.60 51.60 51.61 51.61 51.62 51.62 51.62 51.63 51.63 51.63 51.63 51.63 51.63 51.63 51.63 51.63 51.63 51.62 51.62 51.62 51.62 51.61 51.61 51.60 51.60 51.59 51.58 51.58 51.57 51.56 51.55 51.54 51.53 51.52 51.51 51.50 51.49 51.48 51.47 51.46 51.44 51.43 51.42 51.40 51.39 51.37 51.36 51.34 51.33 51.31 51.30 51.28 51.26 51.25 51.23 51.21 51.20 51.18 51.16 51.14 51.13 51.11 51.09 51.07 51.05 51.04 51.02 51.00 50.98 50.96 50.95 50.93 50.91 50.89 50.87 50.86 50.84 50.82 50.80 50.79 50.77 50.75 50.74 50.72 50.70 50.69 50.67 50.66 50.64 50.63 50.61 50.60 50.58 50.57 50.56 50.54 50.53 50.52 50.51 50.50 50.49 50.48 50.47 50.46 50.45 50.44 50.43 50.42 50.42 50.41 50.40 50.40 50.39 50.39 50.38 50.38 50.38 50.38 50.37 50.37 50.37 50.37 50.37 50.37 50.37 50.37 50.37 50.37 50.38 50.38 50.38 50.39 50.39 50.40 50.40 50.41 50.41 50.42 50.43 50.43 50.44 50.45 50.46 50.47 50.48 50.49 50.50 50.51 50.52 50.53 50.54 50.55 50.56 50.57 50.58 50.60 50.61 50.62 50.63 50.65 50.66 50.67 50.68 50.70 50.71 50.72 50.74 50.75 50.76 50.78 50.79 50.80 50.82 50.83 50.84 50.85 50.87 50.88 50.89 50.90 50.92 50.93 50.94 50.95 50.96 50.97 50.98 50.99 51.00 51.01 51.02 51.03 51.04 51.05 51.06 51.07 51.07 51.08 51.09 51.09 51.10 51.10 51.11 51.11 51.12 51.12 51.12 51.13 51.13 51.13 51.13 51.13 51.13 51.13 51.13 51.13 51.13 51.12 51.12 51.12 51.12 51.11 51.11 51.10 51.10 51.09 51.08 51.08 51.07 51.06 51.05 51.04 51.03 51.02 51.01 51.00 50.99 50.98 50.97 50.96 50.94 50.93 50.92 50.90 50.89 50.87 50.86 50.84 50.83 50.81 50.80 50.78 50.76 50.75 50.73 50.71 50.70 50.68 50.66 50.64 50.63 50.61 50.59 50.57 50.55 50.54 50.52
51.95 51.93 51.91 51.90 51.88 51.86 51.84 51.82 51.81 51.79 51.77 51.75 51.74 51.72 51.70 51.69 51.67 51.65 51.64 51.62 51.61 51.59 51.58 51.56 51.55 51.53 51.52 51.51 51.49 51.48 51.47 51.46 51.45 51.44 51.43 51.42 51.41 51.40 51.39 51.38 51.37 51.37 51.36 51.35 51.35 51.34 51.34 51.33 51.33 51.33 51.33 51.32 51.32 51.32 51.32 51.32 51.32 51.32 51.32 51.32 51.32 51.33 51.33 51.33 51.34 51.34 51.35 51.35 51.36 51.36 51.37 51.38 51.38 51.39 51.40 51.41 51.42 51.43 51.44 51.45 51.46 51.47 51.48 51.49 51.50 51.51 51.52 51.53 51.55 51.56 51.57 51.58 51.60 51.61 51.62 51.63 51.65 51.66 51.67 51.69 51.70 51.71 51.73 51.74 51.75 51.77 51.78 51.79 51.80 51.82 51.83 51.84 51.85 51.87 51.88 51.89 51.90 51.91 51.92 51.93 51.94 51.95 51.96 51.97 51.98 51.99 52.00 52.01 52.02 52.02 52.03 52.04 52.04 52.05 52.05 52.06 52.06 52.07 52.07 52.07 52.08 52.08 52.08 52.08 52.08 52.08 52.08 52.08 52.08 52.08 52.08 52.07 52.07 52.07 52.06 52.06 52.05 52.05 52.04 52.03 52.03 52.02 52.01 52.00 51.99 51.98 51.97 51.96 51.95 51.94 51.93 51.92 51.91 51.89 51.88 51.87 51.85 51.84 51.82 51.81 51.79 51.78 51.76 51.75 51.73 51.71 51.70 51.68 51.66 51.65 51.63 51.61 51.59 51.58 51.56 51.54 51.52 51.50 51.49 51.47 51.45 51.43 51.41 51.40 51.38 51.36 51.34 51.32 51.31 51.29 51.27 51.25 51.24 51.22 51.20 51.19 51.17 51.15 51.14 51.12 51.11 51.09 51.08 51.06 51.05 51.03 51.02 51.01 50.99 50.98 50.97 50.96 50.95 50.94 50.93 50.92 50.91 50.90 50.89 50.88 50.87 50.87 50.86 50.85 50.85 50.84 50.84 50.83 50.83 50.83 50.83 50.82 50.82 50.82 50.82 50.82 50.82 50.82 50.82 50.82 50.82 50.83 50.83 50.83 50.84 50.84 50.85 50.85 50.86 50.86 50.87 50.88 50.88 50.89 50.90 50.91 50.92 50.93 50.94 50.95 50.96 50.97 50.98 50.99 51.00 51.01 51.02 51.03 51.05 51.06 51.07 51.08 51.10 51.11 51.12 51.13 51.15 51.16 51.17 51.19 51.20 51.21 51.23 51.24 51.25 51.27 51.28 51.29 51.30 51.32 51.33 51.34 51.35 51.37 51.38 51.39 51.40 51.41 51.42 51.43 51.44 51.45 51.46 51.47 51.48 51.49 51.50 51.51 51.52 51.52 51.53 51.54 51.54 51.55 51.55 51.56 51.56 51.57 51.57 51.57 51.58 51.58 51.58 51.58 51.58 51.58 51.58 51.58 51.58 51.58 51.58 51.57 51.57 51.57 51.56 51.56 51.55 51.55 51.54 51.53 51.53 51.52 51.51 51.50 51.49 51.48 51.47 51.46 51.45 51.44 51.43 51.42 51.41 51.39 51.38 51.37 51.35 51.34 51.32 51.31 51.29 51.28 51.26 51.25 51.23 51.21 51.20 51.18 51.16 51.15 51.13 51.11 51.09 51.08 51.06 51.04 51.02 51.00 50.99 50.97 50.95 50.93 50.91 50.90 50.88 50.86 50.84 50.82 50.81 50.79 50.77 50.75 50.74 50.72 50.70 50.69 50.67 50.65 50.64 50.62 50.61 50.59 50.58 50.56 50.55 50.53 50.52 50.51 50.49 50.48 50.47 50.46 50.45 50.44 50.43 50.42 50.41 50.40 50.39 50.38 50.37 50.37 50.36 50.35 50.35 50.34 50.34 50.33 50.33 50.33 50.33 50.32 50.32 50.32 50.32 50.32 50.32 50.32 50.32 50.32 50.32 50.33 50.33 50.33 50.34 50.34 50.35 50.35 50.36 50.36 50.37 50.38 50.38 50.39 50.40 50.41 50.42 50.43 50.44 50.45 50.46 50.47 50.48 50.49 50.50 50.51 50.52 50.53 50.55 50.56 50.57 50.58 50.60 50.61 50.62 50.63 50.65 50.66 50.67 50.69 50.70 50.71 50.73 50.74 50.75 50.77 50.78 50.79 50.80 50.82 50.83 50.84 50.85 50.87 50.88 50.89 50.90 50.91 50.92 50.93 50.94 50.95 50.96 50.97 50.98 50.99 51.00 51.01 51.02 51.02 51.03 51.04 51.04 51.05 51.05 51.06 51.06 51.07 51.07 51.07 51.08 51.08 51.08 51.08 51.08 51.08 51.08 51.08 51.08 51.08 51.08 51.07 51.07 51.07 51.06 51.06 51.05 51.05 51.04 51.03 51.03 51.02 51.01 51.00 50.99 50.98 50.97 50.96 50.95 50.94 50.93 50.92 50.91 50.89 50.88 50.87 50.85 50.84 50.82 50.81 50.79 50.78 50.76 50.75 50.73 50.71 50.70 50.68 50.66 50.65 50.63 50.61 50.59 50.58 50.56 50.54 50.52 50.50 50.49 50.47
51.90 51.88 51.86 51.85 51.83 51.81 51.79 51.77 51.76 51.74 51.72 51.70 51.69 51.67 51.65 51.64 51.62 51.60 51.59 51.57 51.56 51.54 51.53 51.51 51.50 51.48 51.47 51.46 51.44 51.43 51.42 51.41 51.40 51.39 51.38 51.37 51.36 51.35 51.34 51.33 51.32 51.32 51.31 51.30 51.30 51.29 51.29 51.28 51.28 51.28 51.27 51.27 51.27 51.27 51.27 51.27 51.27 51.27 51.27 51.27 51.27 51.28 51.28 51.28 51.29 51.29 51.30 51.30 51.31 51.31 51.32 51.33 51.33 51.34 51.35 51.36 51.37 51.38 51.39 51.40 51.41 51.42 51.43 51.44 51.45 51.46 51.47 51.48 51.50 51.51 51.52 51.53 51.55 51.56 51.57 51.58 51.60 51.61 51.62 51.64 51.65 51.66 51.68 51.69 51.70 51.72 51.73 51.74 51.75 51.77 51.78 51.79 51.80 51.82 51.83 51.84 51.85 51.86 51.87 51.88 51.89 51.90 51.91 51.92 51.93 51.94 51.95 51.96 51.97 51.97 51.98 51.99 51.99 52.00 52.00 52.01 52.01 52.02 52.02 52.02 52.03 52.03 52.03 52.03 52.03 52.03 52.03 52.03 52.03 52.03 52.02 52.02 52.02 52.02 52.01 52.01 52.00 52.00 51.99 51.98 51.98 51.97 51.96 51.95 51.94 51.93 51.92 51.91 51.90 51.89 51.88 51.87 51.86 51.84 51.83 51.82 51.80 51.79 51.77 51.76 51.74 51.73 51.71 51.70 51.68 51.66 51.65 51.63 51.61 51.60 51.58 51.56 51.54 51.53 51.51 51.49 51.47 51.45 51.44 51.42 51.40 51.38 51.36 51.35 51.33 51.31 51.29 51.27 51.26 51.24 51.22 51.20 51.19 51.17 51.15 51.14 51.12 51.10 51.09 51.07 51.06 51.04 51.03 51.01 51.00 50.98 50.97 50.96 50.94 50.93 50.92 50.91 50.90 50.89 50.88 50.87 50.86 50.85 50.84 50.83 50.82 50.82 50.81 50.80 50.80 50.79 50.79 50.78 50.78 50.78 50.77 50.77 50.77 50.77 50.77 50.77 50.77 50.77 50.77 50.77 50.77 50.78 50.78 50.78 50.79 50.79 50.80 50.80 50.81 50.81 50.82 50.83 50.83 50.84 50.85 50.86 50.87 50.88 50.89 50.90 50.91 50.92 50.93 50.94 50.95 50.96 50.97 50.98 51.00 51.01 51.02 51.03 51.05 51.06 51.07 51.08 51.10 51.11 51.12 51.14 51.15 51.16 51.18 51.19 51.20 51.22 51.23 51.24 51.25 51.27 51.28 51.29 51.30 51.32 51.33 51.34 51.35 51.36 51.37 51.38 51.39 51.40 51.41 51.42 51.43 51.44 51.45 51.46 51.47 51.47 51.48 51.49 51.49 51.50 51.50 51.51 51.51 51.52 51.52 51.52 51.53 51.53 51.53 51.53 51.53 51.53 51.53 51.53 51.53 51.53 51.52 51.52 51.52 51.52 51.51 51.51 51.50 51.50 51.49 51.48 51.48 51.47 51.46 51.45 51.44 51.43 51.42 51.41 51.40 51.39 51.38 51.37 51.36 51.34 51.33 51.32 51.30 51.29 51.27 51.26 51.24 51.23 51.21 51.20 51.18 51.16 51.15 51.13 51.11 51.10 51.08 51.06 51.04 51.03 51.01 50.99 50.97 50.95 50.94 50.92 50.90 50.88 50.86 50.85 50.83 50.81 50.79 50.77 50.76 50.74 50.72 50.70 50.69 50.67 50.65 50.64 50.62 50.60 50.59 50.57 50.56 50.54 50.53 50.51 50.50 50.48 50.47 50.46 50.44 50.43 50.42 50.41 50.40 50.39 50.38 50.37 50.36 50.35 50.34 50.33 50.32 50.32 50.31 50.30 50.30 50.29 50.29 50.28 50.28 50.28 50.27 50.27 50.27 50.27 50.27 50.27 50.27 50.27 50.27 50.27 50.27 50.28 50.28 50.28 50.29 50.29 50.30 50.30 50.31 50.31 50.32 50.33 50.33 50.34 50.35 50.36 50.37 50.38 50.39 50.40 50.41 50.42 50.43 50.44 50.45 50.46 50.47 50.48 50.50 50.51 50.52 50.53 50.55 50.56 50.57 50.58 50.60 50.61 50.62 50.64 50.65 50.66 50.68 50.69 50.70 50.72 50.73 50.74 50.75 50.77 50.78 50.79 50.80 50.82 50.83 50.84 50.85 50.86 50.87 50.88 50.89 50.90 50.91 50.92 50.93 50.94 50.95 50.96 50.97 50.97 50.98 50.99 50.99 51.00 51.00 51.01 51.01 51.02 51.02 51.02 51.03 51.03 51.03 51.03 51.03 51.03 51.03 51.03 51.03 51.03 51.02 51.02 51.02 51.02 51.01 51.01 51.00 51.00 50.99 50.98 50.98 50.97 50.96 50.95 50.94 50.93 50.92 50.91 50.90 50.89 50.88 50.87 50.86 50.84 50.83 50.82 50.80 50.79 50.77 50.76 50.74 50.73 50.71 50.70 50.68 50.66 50.65 50.63 50.61 50.60 50.58 50.56 50.54 50.53 50.51 50.49 50.47 50.45 50.44 50.42
51.85 51.83 51.81 51.80 51.78 51.76 51.74 51.72 51.71 51.69 51.67 51.65 51.64 51.62 51.60 51.59 51.57 51.55 51.54 51.52 51.51 51.49 51.48 51.46 51.45 51.43 51.42 51.41 51.39 51.38 51.37 51.36 51.35 51.34 51.33 51.32 51.31 51.30 51.29 51.28 51.27 51.27 51.26 51.25 51.25 51.24 51.24 51.23 51.23 51.23 51.23 51.22 51.22 51.22 51.22 51.22 51.22 51.22 51.22 51.22 51.22 51.23 51.23 51.23 51.24 51.24 51.25 51.25 51.26 51.26 51.27 51.28 51.28 51.29 51.30 51.31 51.32 51.33 51.34 51.35 51.36 51.37 51.38 51.39 51.40 51.41 51.42 51.43 51.45 51.46 51.47 51.48 51.50 51.51 51.52 51.53 51.55 51.56 51.57 51.59 51.60 51.61 51.63 51.64 51.65 51.67 51.68 51.69 51.70 51.72 51.73 51.74 51.75 51.77 51.78 51.79 51.80 51.81 51.82 51.83 51.84 51.85 51.86 51.87 51.88 51.89 51.90 51.91 51.92 51.92 51.93 51.94 51.94 51.95 51.95 51.96 51.96 51.97 51.97 51.97 51.98 51.98 51.98 51.98 51.98 51.98 51.98 51.98 51.98 51.98 51.98 51.97 51.97 51.97 51.96 51.96 51.95 51.95 51.94 51.93 51.93 51.92 51.91 51.90 51.89 51.88 51.87 51.86 51.85 51.84 51.83 51.82 51.81 51.79 51.78 51.77 51.75 51.74 51.72 51.71 51.69 51.68 51.66 51.65 51.63 51.61 51.60 51.58 51.56 51.55 51.53 51.51 51.49 51.48 51.46 51.44 51.42 51.40 51.39 51.37 51.35 51.33 51.31 51.30 51.28 51.26 51.24 51.22 51.21 51.19 51.17 51.15 51.14 51.12 51.10 51.09 51.07 51.05 51.04 51.02 51.01 50.99 50.98 50.96 50.95 50.93 50.92 50.91 50.89 50.88 50.87 50.86 50.85 50.84 50.83 50.82 50.81 50.80 50.79 50.78 50.77 50.77 50.76 50.75 50.75 50.74 50.74 50.73 50.73 50.73 50.73 50.72 50.72 50.72 50.72 50.72 50.72 50.72 50.72 50.72 50.72 50.73 50.73 50.73 50.74 50.74 50.75 50.75 50.76 50.76 50.77 50.78 50.78 50.79 50.80 50.81 50.82 50.83 50.84 50.85 50.86 50.87 50.88 50.89 50.90 50.91 50.92 50.93 50.95 50.96 50.97 50.98 51.00 51.01 51.02 51.03 51.05 51.06 51.07 51.09 51.10 51.11 51.13 51.14 51.15 51.17 51.18 51.19 51.20 51.22 51.23 51.24 51.25 51.27 51.28 51.29 51.30 51.31 51.32 51.33 51.34 51.35 51.36 51.37 51.38 51.39 51.40 51.41 51.42 51.42 51.43 51.44 51.44 51.45 51.45 51.46 51.46 51.47 51.47 51.47 51.48 51.48 51.48 51.48 51.48 51.48 51.48 51.48 51.48 51.48 51.48 51.47 51.47 51.47 51.46 51.46 51.45 51.45 51.44 51.43 51.43 51.42 51.41 51.40 51.39 51.38 51.37 51.36 51.35 51.34 51.33 51.32 51.31 51.29 51.28 51.27 51.25 51.24 51.22 51.21 51.19 51.18 51.16 51.15 51.13 51.11 51.10 51.08 51.06 51.05 51.03 51.01 50.99 50.98 50.96 50.94 50.92 50.90 50.89 50.87 50.85 50.83 50.81 50.80 50.78 50.76 50.74 50.72 50.71 50.69 50.67 50.65 50.64 50.62 50.60 50.59 50.57 50.55 50.54 50.52 50.51 50.49 50.48 50.46 50.45 50.43 50.42 50.41 50.39 50.38 50.37 50.36 50.35 50.34 50.33 50.32 50.31 50.30 50.29 50.28 50.27 50.27 50.26 50.25 50.25 50.24 50.24 50.23 50.23 50.23 50.23 50.22 50.22 50.22 50.22 50.22 50.22 50.22 50.22 50.22 50.22 50.23 50.23 50.23 50.24 50.24 50.25 50.25 50.26 50.26 50.27 50.28 50.28 50.29 50.30 50.31 50.32 50.33 50.34 50.35 50.36 50.37 50.38 50.39 50.40 50.41 50.42 50.43 50.45 50.46 50.47 50.48 50.50 50.51 50.52 50.53 50.55 50.56 50.57 50.59 50.60 50.61 50.63 50.64 50.65 50.67 50.68 50.69 50.70 50.72 50.73 50.74 50.75 50.77 50.78 50.79 50.80 50.81 50.82 50.83 50.84 50.85 50.86 50.87 50.88 50.89 50.90 50.91 50.92 50.92 50.93 50.94 50.94 50.95 50.95 50.96 50.96 50.97 50.97 50.97 50.98 50.98 50.98 50.98 50.98 50.98 50.98 50.98 50.98 50.98 50.98 50.97 50.97 50.97 50.96 50.96 50.95 50.95 50.94 50.93 50.93 50.92 50.91 50.90 50.89 50.88 50.87 50.86 50.85 50.84 50.83 50.82 50.81 50.79 50.78 50.77 50.75 50.74 50.72 50.71 50.69 50.68 50.66 50.65 50.63 50.61 50.60 50.58 50.56 50.55 50.53 50.51 50.49 50.48 50.46 50.44 50.42 50.40 50.39 50.37
51.80 51.78 51.76 51.75 51.73 51.71 51.69 51.67 51.66 51.64 51.62 51.60 51.59 51.57 51.55 51.54 51.52 51.50 51.49 51.47 51.46 51.44 51.43 51.41 51.40 51.38 51.37 51.36 51.34 51.33 51.32 51.31 51.30 51.29 51.28 51.27 51.26 51.25 51.24 51.23 51.22 51.22 51.21 51.20 51.20 51.19 51.19 51.18 51.18 51.18 51.17 51.17 51.17 51.17 51.17 51.17 51.17 51.17 51.17 51.17 51.17 51.18 51.18 51.18 51.19 51.19 51.20 51.20 51.21 51.21 51.22 51.23 51.23 51.24 51.25 51.26 51.27 51.28 51.29 51.30 51.31 51.32 51.33 51.34 51.35 51.36 51.37 51.38 51.40 51.41 51.42 51.43 51.45 51.46 51.47 51.48 51.50 51.51 51.52 51.54 51.55 51.56 51.58 51.59 51.60 51.62 51.63 51.64 51.65 51.67 51.68 51.69 51.70 51.72 51.73 51.74 51.75 51.76 51.77 51.78 51.79 51.80 51.81 51.82 51.83 51.84 51.85 51.86 51.87 51.87 51.88 51.89 51.89 51.90 51.90 51.91 51.91 51.92 51.92 51.92 51.93 51.93 51.93 51.93 51.93 51.93 51.93 51.93 51.93 51.93 51.92 51.92 51.92 51.92 51.91 51.91 51.90 51.90 51.89 51.88 51.88 51.87 51.86 51.85 51.84 51.83 51.82 51.81 51.80 51.79 51.78 51.77 51.76 51.74 51.73 51.72 51.70 51.69 51.67 51.66 51.64 51.63 51.61 51.60 51.58 51.56 51.55 51.53 51.51 51.50 51.48 51.46 51.44 51.43 51.41 51.39 51.37 51.35 51.34 51.32 51.30 51.28 51.26 51.25 51.23 51.21 51.19 51.17 51.16 51.14 51.12 51.10 51.09 51.07 51.05 51.04 51.02 51.00 50.99 50.97 50.96 50.94 50.93 50.91 50.90 50.88 50.87 50.86 50.84 50.83 50.82 50.81 50.80 50.79 50.78 50.77 50.76 50.75 50.74 50.73 50.72 50.72 50.71 50.70 50.70 50.69 50.69 50.68 50.68 50.68 50.67 50.67 50.67 50.67 50.67 50.67 50.67 50.67 50.67 50.67 50.67 50.68 50.68 50.68 50.69 50.69 50.70 50.70 50.71 50.71 50.72 50.73 50.73 50.74 50.75 50.76 50.77 50.78 50.79 50.80 50.81 50.82 50.83 50.84 50.85 50.86 50.87 50.88 50.90 50.91 50.92 50.93 50.95 50.96 50.97 50.98 51.00 51.01 51.02 51.04 51.05 51.06 51.08 51.09 51.10 51.12 51.13 51.14 51.15 51.17 51.18 51.19 51.20 51.22 51.23 51.24 51.25 51.26 51.27 51.28 51.29 51.30 51.31 51.32 51.33 51.34 51.35 51.36 51.37 51.37 51.38 51.39 51.39 51.40 51.40 51.41 51.41 51.42 51.42 51.42 51.43 51.43 51.43 51.43 51.43 51.43 51.43 51.43 51.43 51.43 51.42 51.42 51.42 51.42 51.41 51.41 51.40 51.40 51.39 51.38 51.38 51.37 51.36 51.35 51.34 51.33 51.32 51.31 51.30 51.29 51.28 51.27 51.26 51.24 51.23 51.22 51.20 51.19 51.17 51.16 51.14 51.13 51.11 51.10 51.08 51.06 51.05 51.03 51.01 51.00 50.98 50.96 50.94 50.93 50.91 50.89 50.87 50.85 50.84 50.82 50.80 50.78 50.76 50.75 50.73 50.71 50.69 50.67 50.66 50.64 50.62 50.60 50.59 50.57 50.55 50.54 50.52 50.50 50.49 50.47 50.46 50.44 50.43 50.41 50.40 50.38 50.37 50.36 50.34 50.33 50.32 50.31 50.30 50.29 50.28 50.27 50.26 50.25 50.24 50.23 50.22 50.22 50.21 50.20 50.20 50.19 50.19 50.18 50.18 50.18 50.17 50.17 50.17 50.17 50.17 50.17 50.17 50.17 50.17 50.17 50.17 50.18 50.18 50.18 50.19 50.19 50.20 50.20 50.21 50.21 50.22 50.23 50.23 50.24 50.25 50.26 50.27 50.28 50.29 50.30 50.31 50.32 50.33 50.34 50.35 50.36 50.37 50.38 50.40 50.41 50.42 50.43 50.45 50.46 50.47 50.48 50.50 50.51 50.52 50.54 50.55 50.56 50.58 50.59 50.60 50.62 50.63 50.64 50.65 50.67 50.68 50.69 50.70 50.72 50.73 50.74 50.75 50.76 50.77 50.78 50.79 50.80 50.81 50.82 50.83 50.84 50.85 50.86 50.87 50.87 50.88 50.89 50.89 50.90 50.90 50.91 50.91 50.92 50.92 50.92 50.93 50.93 50.93 50.93 50.93 50.93 50.93 50.93 50.93 50.93 50.92 50.92 50.92 50.92 50.91 50.91 50.90 50.90 50.89 50.88 50.88 50.87 50.86 50.85 50.84 50.83 50.82 50.81 50.80 50.79 50.78 50.77 50.76 50.74 50.73 50.72 50.70 50.69 50.67 50.66 50.64 50.63 50.61 50.60 50.58 50.56 50.55 50.53 50.51 50.50 50.48 50.46 50.44 50.43 50.41 50.39 50.37 50.35 50.34 50.32
51.75 51.73 51.71 51.70 51.68 51.66 51.64 51.62 51.61 51.59 51.57 51.55 51.54 51.52 51.50 51.49 51.47 51.45 51.44 51.42 51.41 51.39 51.38 51.36 51.35 51.33 51.32 51.31 51.29 51.28 51.27 51.26 51.25 51.24 51.23 51.22 51.21 51.20 51.19 51.18 51.17 51.17 51.16 51.15 51.15 51.14 51.14 51.13 51.13 51.13 51.12 51.12 51.12 51.12 51.12 51.12 51.12 51.12 51.12 51.12 51.12 51.13 51.13 51.13 51.14 51.14 51.15 51.15 51.16 51.16 51.17 51.18 51.18 51.19 51.20 51.21 51.22 51.23 51.24 51.25 51.26 51.27 51.28 51.29 51.30 51.31 51.32 51.33 51.35 51.36 51.37 51.38 51.40 51.41 51.42 51.43 51.45 51.46 51.47 51.49 51.50 51.51 51.53 51.54 51.55 51.57 51.58 51.59 51.60 51.62 51.63 51.64 51.65 51.67 51.68 51.69 51.70 51.71 51.72 51.73 51.74 51.75 51.76 51.77 51.78 51.79 51.80 51.81 51.82 51.82 51.83 51.84 51.84 51.85 51.85 51.86 51.86 51.87 51.87 51.87 51.88 51.88 51.88 51.88 51.88 51.88 51.88 51.88 51.88 51.88 51.88 51.87 51.87 51.87 51.86 51.86 51.85 51.85 51.84 51.83 51.83 51.82 51.81 51.80 51.79 51.78 51.77 51.76 51.75 51.74 51.73 51.72 51.71 51.69 51.68 51.67 51.65 51.64 51.62 51.61 51.59 51.58 51.56 51.55 51.53 51.51 51.50 51.48 51.46 51.45 51.43 51.41 51.39 51.38 51.36 51.34 51.32 51.30 51.29 51.27 51.25 51.23 51.21 51.20 51.18 51.16 51.14 51.12 51.11 51.09 51.07 51.05 51.04 51.02 51.00 50.99 50.97 50.95 50.94 50.92 50.91 50.89 50.88 50.86 50.85 50.83 50.82 50.81 50.79 50.78 50.77 50.76 50.75 50.74 50.73 50.72 50.71 50.70 50.69 50.68 50.67 50.67 50.66 50.65 50.65 50.64 50.64 50.63 50.63 50.63 50.62 50.62 50.62 50.62 50.62 50.62 50.62 50.62 50.62 50.62 50.62 50.63 50.63 50.63 50.64 50.64 50.65 50.65 50.66 50.66 50.67 50.68 50.68 50.69 50.70 50.71 50.72 50.73 50.74 50.75 50.76 50.77 50.78 50.79 50.80 50.81 50.82 50.83 50.85 50.86 50.87 50.88 50.90 50.91 50.92 50.93 50.95 50.96 50.97 50.99 51.00 51.01 51.03 51.04 51.05 51.07 51.08 51.09 51.10 51.12 51.13 51.14 51.15 51.17 51.18 51.19 51.20 51.21 51.22 51.23 51.24 51.25 51.26 51.27 51.28 51.29 51.30 51.31 51.32 51.32 51.33 51.34 51.34 51.35 51.35 51.36 51.36 51.37 51.37 51.37 51.38 51.38 51.38 51.38 51.38 51.38 51.38 51.38 51.38 51.38 51.38 51.37 51.37 51.37 51.36 51.36 51.35 51.35 51.34 51.33 51.33 51.32 51.31 51.30 51.29 51.28 51.27 51.26 51.25 51.24 51.23 51.22 51.21 51.19 51.18 51.17 51.15 51.14 51.12 51.11 51.09 51.08 51.06 51.05 51.03 51.01 51.00 50.98 50.96 50.95 50.93 50.91 50.89 50.88 50.86 50.84 50.82 50.80 50.79 50.77 50.75 50.73 50.71 50.70 50.68 50.66 50.64 50.62 50.61 50.59 50.57 50.55 50.54 50.52 50.50 50.49 50.47 50.45 50.44 50.42 50.41 50.39 50.38 50.36 50.35 50.33 50.32 50.31 50.29 50.28 50.27 50.26 50.25 50.24 50.23 50.22 50.21 50.20 50.19 50.18 50.17 50.17 50.16 50.15 50.15 50.14 50.14 50.13 50.13 50.13 50.12 50.12 50.12 50.12 50.12 50.12 50.12 50.12 50.12 50.12 50.12 50.13 50.13 50.13 50.14 50.14 50.15 50.15 50.16 50.16 50.17 50.18 50.18 50.19 50.20 50.21 50.22 50.23 50.24 50.25 50.26 50.27 50.28 50.29 50.30 50.31 50.32 50.33 50.35 50.36 50.37 50.38 50.40 50.41 50.42 50.43 50.45 50.46 50.47 50.49 50.50 50.51 50.53 50.54 50.55 50.57 50.58 50.59 50.60 50.62 50.63 50.64 50.65 50.67 50.68 50.69 50.70 50.71 50.72 50.73 50.74 50.75 50.76 50.77 50.78 50.79 50.80 50.81 50.82 50.82 50.83 50.84 50.84 50.85 50.85 50.86 50.86 50.87 50.87 50.87 50.88 50.88 50.88 50.88 50.88 50.88 50.88 50.88 50.88 50.88 50.88 50.87 50.87 50.87 50.86 50.86 50.85 50.85 50.84 50.83 50.83 50.82 50.81 50.80 50.79 50.78 50.77 50.76 50.75 50.74 50.73 50.72 50.71 50.69 50.68 50.67 50.65 50.64 50.62 50.61 50.59 50.58 50.56 50.55 50.53 50.51 50.50 50.48 50.46 50.45 50.43 50.41 50.39 50.38 50.36 50.34 50.32 50.30 50.29 50.27
51.70 51.68 51.66 51.65 51.63 51.61 51.59 51.57 51.56 51.54 51.52 51.50 51.49 51.47 51.45 51.44 51.42 51.40 51.39 51.37 51.36 51.34 51.33 51.31 51.30 51.28 51.27 51.26 51.24 51.23 51.22 51.21 51.20 51.19 51.18 51.17 51.16 51.15 51.14 51.13 51.12 51.12 51.11 51.10 51.10 51.09 51.09 51.08 51.08 51.08 51.08 51.07 51.07 51.07 51.07 51.07 51.07 51.07 51.07 51.07 51.07 51.08 51.08 51.08 51.09 51.09 51.10 51.10 51.11 51.11 51.12 51.13 51.13 51.14 51.15 51.16 51.17 51.18 51.19 51.20 51.21 51.22 51.23 51.24 51.25 51.26 51.27 51.28 51.30 51.31 51.32 51.33 51.35 51.36 51.37 51.38 51.40 51.41 51.42 51.44 51.45 51.46 51.48 51.49 51.50 51.52 51.53 51.54 51.55 51.57 51.58 51.59 51.60 51.62 51.63 51.64 51.65 51.66 51.67 51.68 51.69 51.70 51.71 51.72 51.73 51.74 51.75 51.76 51.77 51.77 51.78 51.79 51.79 51.80 51.80 51.81 51.81 51.82 51.82 51.82 51.83 51.83 51.83 51.83 51.83 51.83 51.83 51.83 51.83 51.83 51.83 51.82 51.82 51.82 51.81 51.81 51.80 51.80 51.79 51.78 51.78 51.77 51.76 51.75 51.74 51.73 51.72 51.71 51.70 51.69 51.68 51.67 51.66 51.64 51.63 51.62 51.60 51.59 51.57 51.56 51.54 51.53 51.51 51.50 51.48 51.46 51.45 51.43 51.41 51.40 51.38 51.36 51.34 51.33 51.31 51.29 51.27 51.25 51.24 51.22 51.20 51.18 51.16 51.15 51.13 51.11 51.09 51.07 51.06 51.04 51.02 51.00 50.99 50.97 50.95 50.94 50.92 50.90 50.89 50.87 50.86 50.84 50.83 50.81 50.80 50.78 50.77 50.76 50.74 50.73 50.72 50.71 50.70 50.69 50.68 50.67 50.66 50.65 50.64 50.63 50.62 50.62 50.61 50.60 50.60 50.59 50.59 50.58 50.58 50.58 50.58 50.57 50.57 50.57 50.57 50.57 50.57 50.57 50.57 50.57 50.57 50.58 50.58 50.58 50.59 50.59 50.60 50.60 50.61 50.61 50.62 50.63 50.63 50.64 50.65 50.66 50.67 50.68 50.69 50.70 50.71 50.72 50.73 50.74 50.75 50.76 50.77 50.78 50.80 50.81 50.82 50.83 50.85 50.86 50.87 50.88 50.90 50.91 50.92 50.94 50.95 50.96 50.98 50.99 51.00 51.02 51.03 51.04 51.05 51.07 51.08 51.09 51.10 51.12 51.13 51.14 51.15 51.16 51.17 51.18 51.19 51.20 51.21 51.22 51.23 51.24 51.25 51.26 51.27 51.27 51.28 51.29 51.29 51.30 51.30 51.31 51.31 51.32 51.32 51.32 51.33 51.33 51.33 51.33 51.33 51.33 51.33 51.33 51.33 51.33 51.33 51.32 51.32 51.32 51.31 51.31 51.30 51.30 51.29 51.28 51.28 51.27 51.26 51.25 51.24 51.23 51.22 51.21 51.20 51.19 51.18 51.17 51.16 51.14 51.13 51.12 51.10 51.09 51.07 51.06 51.04 51.03 51.01 51.00 50.98 50.96 50.95 50.93 50.91 50.90 50.88 50.86 50.84 50.83 50.81 50.79 50.77 50.75 50.74 50.72 50.70 50.68 50.66 50.65 50.63 50.61 50.59 50.57 50.56 50.54 50.52 50.50 50.49 50.47 50.45 50.44 50.42 50.40 50.39 50.37 50.36 50.34 50.33 50.31 50.30 50.28 50.27 50.26 50.24 50.23 50.22 50.21 50.20 50.19 50.18 50.17 50.16 50.15 50.14 50.13 50.12 50.12 50.11 50.10 50.10 50.09 50.09 50.08 50.08 50.08 50.08 50.07 50.07 50.07 50.07 50.07 50.07 50.07 50.07 50.07 50.07 50.08 50.08 50.08 50.09 50.09 50.10 50.10 50.11 50.11 50.12 50.13 50.13 50.14 50.15 50.16 50.17 50.18 50.19 50.20 50.21 50.22 50.23 50.24 50.25 50.26 50.27 50.28 50.30 50.31 50.32 50.33 50.35 50.36 50.37 50.38 50.40 50.41 50.42 50.44 50.45 50.46 50.48 50.49 50.50 50.52 50.53 50.54 50.55 50.57 50.58 50.59 50.60 50.62 50.63 50.64 50.65 50.66 50.67 50.68 50.69 50.70 50.71 50.72 50.73 50.74 50.75 50.76 50.77 50.77 50.78 50.79 50.79 50.80 50.80 50.81 50.81 50.82 50.82 50.82 50.83 50.83 50.83 50.83 50.83 50.83 50.83 50.83 50.83 50.83 50.83 50.82 50.82 50.82 50.81 50.81 50.80 50.80 50.79 50.78 50.78 50.77 50.76 50.75 50.74 50.73 50.72 50.71 50.70 50.69 50.68 50.67 50.66 50.64 50.63 50.62 50.60 50.59 50.57 50.56 50.54 50.53 50.51 50.50 50.48 50.46 50.45 50.43 50.41 50.40 50.38 50.36 50.34 50.33 50.31 50.29 50.27 50.25 50.24 50.22
51.65 51.63 51.61 51.60 51.58 51.56 51.54 51.52 51.51 51.49 51.47 51.45 51.44 51.42 51.40 51.39 51.37 51.35 51.34 51.32 51.31 51.29 51.28 51.26 51.25 51.23 51.22 51.21 51.19 51.18 51.17 51.16 51.15 51.14 51.13 51.12 51.11 51.10 51.09 51.08 51.07 51.07 51.06 51.05 51.05 51.04 51.04 51.03 51.03 51.03 51.02 51.02 51.02 51.02 51.02 51.02 51.02 51.02 51.02 51.02 51.02 51.03 51.03 51.03 51.04 51.04 51.05 51.05 51.06 51.06 51.07 51.08 51.08 51.09 51.10 51.11 51.12 51.13 51.14 51.15 51.16 51.17 51.18 51.19 51.20 51.21 51.22 51.23 51.25 51.26 51.27 51.28 51.30 51.31 51.32 51.33 51.35 51.36 51.37 51.39 51.40 51.41 51.43 51.44 51.45 51.47 51.48 51.49 51.50 51.52 51.53 51.54 51.55 51.57 51.58 51.59 51.60 51.61 51.62 51.63 51.64 51.65 51.66 51.67 51.68 51.69 51.70 51.71 51.72 51.72 51.73 51.74 51.74 51.75 51.75 51.76 51.76 51.77 51.77 51.77 51.78 51.78 51.78 51.78 51.78 51.78 51.78 51.78 51.78 51.78 51.77 51.77 51.77 51.77 51.76 51.76 51.75 51.75 51.74 51.73 51.73 51.72 51.71 51.70 51.69 51.68 51.67 51.66 51.65 51.64 51.63 51.62 51.61 51.59 51.58 51.57 51.55 51.54 51.52 51.51 51.49 51.48 51.46 51.45 51.43 51.41 51.40 51.38 51.36 51.35 51.33 51.31 51.29 51.28 51.26 51.24 51.22 51.20 51.19 51.17 51.15 51.13 51.11 51.10 51.08 51.06 51.04 51.02 51.01 50.99 50.97 50.95 50.94 50.92 50.90 50.89 50.87 50.85 50.84 50.82 50.81 50.79 50.78 50.76 50.75 50.73 50.72 50.71 50.69 50.68 50.67 50.66 50.65 50.64 50.63 50.62 50.61 50.60 50.59 50.58 50.57 50.57 50.56 50.55 50.55 50.54 50.54 50.53 50.53 50.53 50.52 50.52 50.52 50.52 50.52 50.52 50.52 50.52 50.52 50.52 50.52 50.53 50.53 50.53 50.54 50.54 50.55 50.55 50.56 50.56 50.57 50.58 50.58 50.59 50.60 50.61 50.62 50.63 50.64 50.65 50.66 50.67 50.68 50.69 50.70 50.71 50.72 50.73 50.75 50.76 50.77 50.78 50.80 50.81 50.82 50.83 50.85 50.86 50.87 50.89 50.90 50.91 50.93 50.94 50.95 50.97 50.98 50.99 51.00 51.02 51.03 51.04 51.05 51.07 51.08 51.09 51.10 51.11 51.12 51.13 51.14 51.15 51.16 51.17 51.18 51.19 51.20 51.21 51.22 51.22 51.23 51.24 51.24 51.25 51.25 51.26 51.26 51.27 51.27 51.27 51.28 51.28 51.28 51.28 51.28 51.28 51.28 51.28 51.28 51.28 51.27 51.27 51.27 51.27 51.26 51.26 51.25 51.25 51.24 51.23 51.23 51.22 51.21 51.20 51.19 51.18 51.17 51.16 51.15 51.14 51.13 51.12 51.11 51.09 51.08 51.07 51.05 51.04 51.02 51.01 50.99 50.98 50.96 50.95 50.93 50.91 50.90 50.88 50.86 50.85 50.83 50.81 50.79 50.78 50.76 50.74 50.72 50.70 50.69 50.67 50.65 50.63 50.61 50.60 50.58 50.56 50.54 50.52 50.51 50.49 50.47 50.45 50.44 50.42 50.40 50.39 50.37 50.35 50.34 50.32 50.31 50.29 50.28 50.26 50.25 50.23 50.22 50.21 50.19 50.18 50.17 50.16 50.15 50.14 50.13 50.12 50.11 50.10 50.09 50.08 50.07 50.07 50.06 50.05 50.05 50.04 50.04 50.03 50.03 50.03 50.02 50.02 50.02 50.02 50.02 50.02 50.02 50.02 50.02 50.02 50.02 50.03 50.03 50.03 50.04 50.04 50.05 50.05 50.06 50.06 50.07 50.08 50.08 50.09 50.10 50.11 50.12 50.13 50.14 50.15 50.16 50.17 50.18 50.19 50.20 50.21 50.22 50.23 50.25 50.26 50.27 50.28 50.30 50.31 50.32 50.33 50.35 50.36 50.37 50.39 50.40 50.41 50.43 50.44 50.45 50.47 50.48 50.49 50.50 50.52 50.53 50.54 50.55 50.57 50.58 50.59 50.60 50.61 50.62 50.63 50.64 50.65 50.66 50.67 50.68 50.69 50.70 50.71 50.72 50.72 50.73 50.74 50.74 50.75 50.75 50.76 50.76 50.77 50.77 50.77 50.78 50.78 50.78 50.78 50.78 50.78 50.78 50.78 50.78 50.78 50.77 50.77 50.77 50.77 50.76 50.76 50.75 50.75 50.74 50.73 50.73 50.72 50.71 50.70 50.69 50.68 50.67 50.66 50.65 50.64 50.63 50.62 50.61 50.59 50.58 50.57 50.55 50.54 50.52 50.51 50.49 50.48 50.46 50.45 50.43 50.41 50.40 50.38 50.36 50.35 50.33 50.31 50.29 50.28 50.26 50.24 50.22 50.20 50.19 50.17
51.60 51.58 51.56 51.55 51.53 51.51 51.49 51.47 51.46 51.44 51.42 51.40 51.39 51.37 51.35 51.34 51.32 51.30 51.29 51.27 51.26 51.24 51.23 51.21 51.20 51.18 51.17 51.16 51.14 51.13 51.12 51.11 51.10 51.09 51.08 51.07 51.06 51.05 51.04 51.03 51.02 51.02 51.01 51.00 51.00 50.99 50.99 50.98 50.98 50.98 50.98 50.97 50.97 50.97 50.97 50.97 50.97 50.97 50.97 50.97 50.97 50.98 50.98 50.98 50.99 50.99 51.00 51.00 51.01 51.01 51.02 51.03 51.03 51.04 51.05 51.06 51.07 51.08 51.09 51.10 51.11 51.12 51.13 51.14 51.15 51.16 51.17 51.18 51.20 51.21 51.22 51.23 51.25 51.26 51.27 51.28 51.30 51.31 51.32 51.34 51.35 51.36 51.38 51.39 51.40 51.42 51.43 51.44 51.45 51.47 51.48 51.49 51.50 51.52 51.53 51.54 51.55 51.56 51.57 51.58 51.59 51.60 51.61 51.62 51.63 51.64 51.65 51.66 51.67 51.67 51.68 51.69 51.69 51.70 51.70 51.71 51.71 51.72 51.72 51.72 51.73 51.73 51.73 51.73 51.73 51.73 51.73 51.73 51.73 51.73 51.73 51.72 51.72 51.72 51.71 51.71 51.70 51.70 51.69 51.68 51.68 51.67 51.66 51.65 51.64 51.63 51.62 51.61 51.60 51.59 51.58 51.57 51.56 51.54 51.53 51.52 51.50 51.49 51.47 51.46 51.44 51.43 51.41 51.40 51.38 51.36 51.35 51.33 51.31 51.30 51.28 51.26 51.24 51.23 51.21 51.19 51.17 51.15 51.14 51.12 51.10 51.08 51.06 51.05 51.03 51.01 50.99 50.97 50.96 50.94 50.92 50.90 50.89 50.87 50.85 50.84 50.82 50.80 50.79 50.77 50.76 50.74 50.73 50.71 50.70 50.68 50.67 50.66 50.64 50.63 50.62 50.61 50.60 50.59 50.58 50.57 50.56 50.55 50.54 50.53 50.52 50.52 50.51 50.50 50.50 50.49 50.49 50.48 50.48 50.48 50.48 50.47 50.47 50.47 50.47 50.47 50.47 50.47 50.47 50.47 50.47 50.48 50.48 50.48 50.49 50.49 50.50 50.50 50.51 50.51 50.52 50.53 50.53 50.54 50.55 50.56 50.57 50.58 50.59 50.60 50.61 50.62 50.63 50.64 50.65 50.66 50.67 50.68 50.70 50.71 50.72 50.73 50.75 50.76 50.77 50.78 50.80 50.81 50.82 50.84 50.85 50.86 50.88 50.89 50.90 50.92 50.93 50.94 50.95 50.97 50.98 50.99 51.00 51.02 51.03 51.04 51.05 51.06 51.07 51.08 51.09 51.10 51.11 51.12 51.13 51.14 51.15 51.16 51.17 51.17 51.18 51.19 51.19 51.20 51.20 51.21 51.21 51.22 51.22 51.22 51.23 51.23 51.23 51.23 51.23 51.23 51.23 51.23 51.23 51.23 51.23 51.22 51.22 51.22 51.21 51.21 51.20 51.20 51.19 51.18 51.18 51.17 51.16 51.15 51.14 51.13 51.12 51.11 51.10 51.09 51.08 51.07 51.06 51.04 51.03 51.02 51.00 50.99 50.97 50.96 50.94 50.93 50.91 50.90 50.88 50.86 50.85 50.83 50.81 50.80 50.78 50.76 50.74 50.73 50.71 50.69 50.67 50.65 50.64 50.62 50.60 50.58 50.56 50.55 50.53 50.51 50.49 50.47 50.46 50.44 50.42 50.40 50.39 50.37 50.35 50.34 50.32 50.30 50.29 50.27 50.26 50.24 50.23 50.21 50.20 50.18 50.17 50.16 50.14 50.13 50.12 50.11 50.10 50.09 50.08 50.07 50.06 50.05 50.04 50.03 50.02 50.02 50.01 50.00 50.00 49.99 49.99 49.98 49.98 49.98 49.98 49.97 49.97 49.97 49.97 49.97 49.97 49.97 49.97 49.97 49.97 49.98 49.98 49.98 49.99 49.99 50.00 50.00 50.01 50.01 50.02 50.03 50.03 50.04 50.05 50.06 50.07 50.08 50.09 50.10 50.11 50.12 50.13 50.14 50.15 50.16 50.17 50.18 50.20 50.21 50.22 50.23 50.25 50.26 50.27 50.28 50.30 50.31 50.32 50.34 50.35 50.36 50.38 50.39 50.40 50.42 50.43 50.44 50.45 50.47 50.48 50.49 50.50 50.52 50.53 50.54 50.55 50.56 50.57 50.58 50.59 50.60 50.61 50.62 50.63 50.64 50.65 50.66 50.67 50.67 50.68 50.69 50.69 50.70 50.70 50.71 50.71 50.72 50.72 50.72 50.73 50.73 50.73 50.73 50.73 50.73 50.73 50.73 50.73 50.73 50.73 50.72 50.72 50.72 50.71 50.71 50.70 50.70 50.69 50.68 50.68 50.67 50.66 50.65 50.64 50.63 50.62 50.61 50.60 50.59 50.58 50.57 50.56 50.54 50.53 50.52 50.50 50.49 50.47 50.46 50.44 50.43 50.41 50.40 50.38 50.36 50.35 50.33 50.31 50.30 50.28 50.26 50.24 50.23 50.21 50.19 50.17 50.15 50.14 50.12
51.55 51.53 51.51 51.50 51.48 51.46 51.44 51.42 51.41 51.39 51.37 51.35 51.34 51.32 51.30 51.29 51.27 51.25 51.24 51.22 51.21 51.19 51.18 51.16 51.15 51.13 51.12 51.11 51.09 51.08 51.07 51.06 51.05 51.04 51.03 51.02 51.01 51.00 50.99 50.98 50.97 50.97 50.96 50.95 50.95 50.94 50.94 50.93 50.93 50.93 50.92 50.92 50.92 50.92 50.92 50.92 50.92 50.92 50.92 50.92 50.92 50.93 50.93 50.93 50.94 50.94 50.95 50.95 50.96 50.96 50.97 50.98 50.98 50.99 51.00 51.01 51.02 51.03 51.04 51.05 51.06 51.07 51.08 51.09 51.10 51.11 51.12 51.13 51.15 51.16 51.17 51.18 51.20 51.21 51.22 51.23 51.25 51.26 51.27 51.29 51.30 51.31 51.33 51.34 51.35 51.37 51.38 51.39 51.40 51.42 51.43 51.44 51.45 51.47 51.48 51.49 51.50 51.51 51.52 51.53 51.54 51.55 51.56 51.57 51.58 51.59 51.60 51.61 51.62 51.62 51.63 51.64 51.64 51.65 51.65 51.66 51.66 51.67 51.67 51.67 51.68 51.68 51.68 51.68 51.68 51.68 51.68 51.68 51.68 51.68 51.67 51.67 51.67 51.67 51.66 51.66 51.65 51.65 51.64 51.63 51.63 51.62 51.61 51.60 51.59 51.58 51.57 51.56 51.55 51.54 51.53 51.52 51.51 51.49 51.48 51.47 51.45 51.44 51.42 51.41 51.39 51.38 51.36 51.35 51.33 51.31 51.30 51.28 51.26 51.25 51.23 51.21 51.19 51.18 51.16 51.14 51.12 51.10 51.09 51.07 51.05 51.03 51.01 51.00 50.98 50.96 50.94 50.92 50.91 50.89 50.87 50.85 50.84 50.82 50.80 50.79 50.77 50.75 50.74 50.72 50.71 50.69 50.68 50.66 50.65 50.63 50.62 50.61 50.59 50.58 50.57 50.56 50.55 50.54 50.53 50.52 50.51 50.50 50.49 50.48 50.47 50.47 50.46 50.45 50.45 50.44 50.44 50.43 50.43 50.43 50.42 50.42 50.42 50.42 50.42 50.42 50.42 50.42 50.42 50.42 50.42 50.43 50.43 50.43 50.44 50.44 50.45 50.45 50.46 50.46 50.47 50.48 50.48 50.49 50.50 50.51 50.52 50.53 50.54 50.55 50.56 50.57 50.58 50.59 50.60 50.61 50.62 50.63 50.65 50.66 50.67 50.68 50.70 50.71 50.72 50.73 50.75 50.76 50.77 50.79 50.80 50.81 50.83 50.84 50.85 50.87 50.88 50.89 50.90 50.92 50.93 50.94 50.95 50.97 50.98 50.99 51.00 51.01 51.02 51.03 51.04 51.05 51.06 51.07 51.08 51.09 51.10 51.11 51.12 51.12 51.13 51.14 51.14 51.15 51.15 51.16 51.16 51.17 51.17 51.17 51.18 51.18 51.18 51.18 51.18 51.18 51.18 51.18 51.18 51.18 51.17 51.17 51.17 51.17 51.16 51.16 51.15 51.15 51.14 51.13 51.13 51.12 51.11 51.10 51.09 51.08 51.07 51.06 51.05 51.04 51.03 51.02 51.01 50.99 50.98 50.97 50.95 50.94 50.92 50.91 50.89 50.88 50.86 50.85 50.83 50.81 50.80 50.78 50.76 50.75 50.73 50.71 50.69 50.68 50.66 50.64 50.62 50.60 50.59 50.57 50.55 50.53 50.51 50.50 50.48 50.46 50.44 50.42 50.41 50.39 50.37 50.35 50.34 50.32 50.30 50.29 50.27 50.25 50.24 50.22 50.21 50.19 50.18 50.16 50.15 50.13 50.12 50.11 50.09 50.08 50.07 50.06 50.05 50.04 50.03 50.02 50.01 50.00 49.99 49.98 49.97 49.97 49.96 49.95 49.95 49.94 49.94 49.93 49.93 49.93 49.92 49.92 49.92 49.92 49.92 49.92 49.92 49.92 49.92 49.92 49.92 49.93 49.93 49.93 49.94 49.94 49.95 49.95 49.96 49.96 49.97 49.98 49.98 49.99 50.00 50.01 50.02 50.03 50.04 50.05 50.06 50.07 50.08 50.09 50.10 50.11 50.12 50.13 50.15 50.16 50.17 50.18 50.20 50.21 50.22 50.23 50.25 50.26 50.27 50.29 50.30 50.31 50.33 50.34 50.35 50.37 50.38 50.39 50.40 50.42 50.43 50.44 50.45 50.47 50.48 50.49 50.50 50.51 50.52 50.53 50.54 50.55 50.56 50.57 50.58 50.59 50.60 50.61 50.62 50.62 50.63 50.64 50.64 50.65 50.65 50.66 50.66 50.67 50.67 50.67 50.68 50.68 50.68 50.68 50.68 50.68 50.68 50.68 50.68 50.68 50.67 50.67 50.67 50.67 50.66 50.66 50.65 50.65 50.64 50.63 50.63 50.62 50.61 50.60 50.59 50.58 50.57 50.56 50.55 50.54 50.53 50.52 50.51 50.49 50.48 50.47 50.45 50.44 50.42 50.41 50.39 50.38 50.36 50.35 50.33 50.31 50.30 50.28 50.26 50.25 50.23 50.21 50.19 50.18 50.16 50.14 50.12 50.10 50.09 50.07
51.50 51.48 51.46 51.45 51.43 51.41 51.39 51.37 51.36 51.34 51.32 51.30 51.29 51.27 51.25 51.24 51.22 51.20 51.19 51.17 51.16 51.14 51.13 51.11 51.10 51.08 51.07 51.06 51.04 51.03 51.02 51.01 51.00 50.99 50.98 50.97 50.96 50.95 50.94 50.93 50.92 50.92 50.91 50.90 50.90 50.89 50.89 50.88 50.88 50.88 50.88 50.87 50.87 50.87 50.87 50.87 50.87 50.87 50.87 50.87 50.87 50.88 50.88 50.88 50.89 50.89 50.90 50.90 50.91 50.91 50.92 50.93 50.93 50.94 50.95 50.96 50.97 50.98 50.99 51.00 51.01 51.02 51.03 51.04 51.05 51.06 51.07 51.08 51.10 51.11 51.12 51.13 51.15 51.16 51.17 51.18 51.20 51.21 51.22 51.24 51.25 51.26 51.28 51.29 51.30 51.32 51.33 51.34 51.35 51.37 51.38 51.39 51.40 51.42 51.43 51.44 51.45 51.46 51.47 51.48 51.49 51.50 51.51 51.52 51.53 51.54 51.55 51.56 51.57 51.57 51.58 51.59 51.59 51.60 51.60 51.61 51.61 51.62 51.62 51.62 51.63 51.63 51.63 51.63 51.63 51.63 51.63 51.63 51.63 51.63 51.62 51.62 51.62 51.62 51.61 51.61 51.60 51.60 51.59 51.58 51.58 51.57 51.56 51.55 51.54 51.53 51.52 51.51 51.50 51.49 51.48 51.47 51.46 51.44 51.43 51.42 51.40 51.39 51.37 51.36 51.34 51.33 51.31 51.30 51.28 51.26 51.25 51.23 51.21 51.20 51.18 51.16 51.14 51.13 51.11 51.09 51.07 51.05 51.04 51.02 51.00 50.98 50.96 50.95 50.93 50.91 50.89 50.87 50.86 50.84 50.82 50.80 50.79 50.77 50.75 50.74 50.72 50.70 50.69 50.67 50.66 50.64 50.63 50.61 50.60 50.58 50.57 50.56 50.54 50.53 50.52 50.51 50.50 50.49 50.48 50.47 50.46 50.45 50.44 50.43 50.42 50.42 50.41 50.40 50.40 50.39 50.39 50.38 50.38 50.38 50.38 50.37 50.37 50.37 50.37 50.37 50.37 50.37 50.37 50.37 50.37 50.38 50.38 50.38 50.39 50.39 50.40 50.40 50.41 50.41 50.42 50.43 50.43 50.44 50.45 50.46 50.47 50.48 50.49 50.50 50.51 50.52 50.53 50.54 50.55 50.56 50.57 50.58 50.60 50.61 50.62 50.63 50.65 50.66 50.67 50.68 50.70 50.71 50.72 50.74 50.75 50.76 50.78 50.79 50.80 50.82 50.83 50.84 50.85 50.87 50.88 50.89 50.90 50.92 50.93 50.94 50.95 50.96 50.97 50.98 50.99 51.00 51.01 51.02 51.03 51.04 51.05 51.06 51.07 51.07 51.08 51.09 51.09 51.10 51.10 51.11 51.11 51.12 51.12 51.12 51.13 51.13 51.13 51.13 51.13 51.13 51.13 51.13 51.13 51.13 51.12 51.12 51.12 51.12 51.11 51.11 51.10 51.10 51.09 51.08 51.08 51.07 51.06 51.05 51.04 51.03 51.02 51.01 51.00 50.99 50.98 50.97 50.96 50.94 50.93 50.92 50.90 50.89 50.87 50.86 50.84 50.83 50.81 50.80 50.78 50.76 50.75 50.73 50.71 50.70 50.68 50.66 50.64 50.63 50.61 50.59 50.57 50.55 50.54 50.52 50.50 50.48 50.46 50.45 50.43 50.41 50.39 50.37 50.36 50.34 50.32 50.30 50.29 50.27 50.25 50.24 50.22 50.20 50.19 50.17 50.16 50.14 50.13 50.11 50.10 50.08 50.07 50.06 50.04 50.03 50.02 50.01 50.00 49.99 49.98 49.97 49.96 49.95 49.94 49.93 49.92 49.92 49.91 49.90 49.90 49.89 49.89 49.88 49.88 49.88 49.88 49.87 49.87 49.87 49.87 49.87 49.87 49.87 49.87 49.87 49.87 49.88 49.88 49.88 49.89 49.89 49.90 49.90 49.91 49.91 49.92 49.93 49.93 49.94 49.95 49.96 49.97 49.98 49.99 50.00 50.01 50.02 50.03 50.04 50.05 50.06 50.07 50.08 50.10 50.11 50.12 50.13 50.15 50.16 50.17 50.18 50.20 50.21 50.22 50.24 50.25 50.26 50.28 50.29 50.30 50.32 50.33 50.34 50.35 50.37 50.38 50.39 50.40 50.42 50.43 50.44 50.45 50.46 50.47 50.48 50.49 50.50 50.51 50.52 50.53 50.54 50.55 50.56 50.57 50.57 50.58 50.59 50.59 50.60 50.60 50.61 50.61 50.62 50.62 50.62 50.63 50.63 50.63 50.63 50.63 50.63 50.63 50.63 50.63 50.63 50.62 50.62 50.62 50.62 50.61 50.61 50.60 50.60 50.59 50.58 50.58 50.57 50.56 50.55 50.54 50.53 50.52 50.51 50.50 50.49 50.48 50.47 50.46 50.44 50.43 50.42 50.40 50.39 50.37 50.36 50.34 50.33 50.31 50.30 50.28 50.26 50.25 50.23 50.21 50.20 50.18 50.16 50.14 50.13 50.11 50.09 50.07 50.05 50.04 50.02
51.45 51.43 51.41 51.40 51.38 51.36 51.34 51.32 51.31 51.29 51.27 51.25 51.24 51.22 51.20 51.19 51.17 51.15 51.14 51.12 51.11 51.09 51.08 51.06 51.05 51.03 51.02 51.01 50.99 50.98 50.97 50.96 50.95 50.94 50.93 50.92 50.91 50.90 50.89 50.88 50.87 50.87 50.86 50.85 50.85 50.84 50.84 50.83 50.83 50.83 50.83 50.82 50.82 50.82 50.82 50.82 50.82 50.82 50.82 50.82 50.82 50.83 50.83 50.83 50.84 50.84 50.85 50.85 50.86 50.86 50.87 50.88 50.88 50.89 50.90 50.91 50.92 50.93 50.94 50.95 50.96 50.97 50.98 50.99 51.00 51.01 51.02 51.03 51.05 51.06 51.07 51.08 51.10 51.11 51.12 51.13 51.15 51.16 51.17 51.19 51.20 51.21 51.23 51.24 51.25 51.27 51.28 51.29 51.30 51.32 51.33 51.34 51.35 51.37 51.38 51.39 51.40 51.41 51.42 51.43 51.44 51.45 51.46 51.47 51.48 51.49 51.50 51.51 51.52 51.52 51.53 51.54 51.54 51.55 51.55 51.56 51.56 51.57 51.57 51.57 51.58 51.58 51.58 51.58 51.58 51.58 51.58 51.58 51.58 51.58 51.58 51.57 51.57 51.57 51.56 51.56 51.55 51.55 51.54 51.53 51.53 51.52 51.51 51.50 51.49 51.48 51.47 51.46 51.45 51.44 51.43 51.42 51.41 51.39 51.38 51.37 51.35 51.34 51.32 51.31 51.29 51.28 51.26 51.25 51.23 51.21 51.20 51.18 51.16 51.15 51.13 51.11 51.09 51.08 51.06 51.04 51.02 51.00 50.99 50.97 50.95 50.93 50.91 50.90 50.88 50.86 50.84 50.82 50.81 50.79 50.77 50.75 50.74 50.72 50.70 50.69 50.67 50.65 50.64 50.62 50.61 50.59 50.58 50.56 50.55 50.53 50.52 50.51 50.49 50.48 50.47 50.46 50.45 50.44 50.43 50.42 50.41 50.40 50.39 50.38 50.37 50.37 50.36 50.35 50.35 50.34 50.34 50.33 50.33 50.33 50.33 50.32 50.32 50.32 50.32 50.32 50.32 50.32 50.32 50.32 50.32 50.33 50.33 50.33 50.34 50.34 50.35 50.35 50.36 50.36 50.37 50.38 50.38 50.39 50.40 50.41 50.42 50.43 50.44 50.45 50.46 50.47 50.48 50.49 50.50 50.51 50.52 50.53 50.55 50.56 50.57 50.58 50.60 50.61 50.62 50.63 50.65 50.66 50.67 50.69 50.70 50.71 50.73 50.74 50.75 50.77 50.78 50.79 50.80 50.82 50.83 50.84 50.85 50.87 50.88 50.89 50.90 50.91 50.92 50.93 50.94 50.95 50.96 50.97 50.98 50.99 51.00 51.01 51.02 51.02 51.03 51.04 51.04 51.05 51.05 51.06 51.06 51.07 51.07 51.07 51.08 51.08 51.08 51.08 51.08 51.08 51.08 51.08 51.08 51.08 51.08 51.07 51.07 51.07 51.06 51.06 51.05 51.05 51.04 51.03 51.03 51.02 51.01 51.00 50.99 50.98 50.97 50.96 50.95 50.94 50.93 50.92 50.91 50.89 50.88 50.87 50.85 50.84 50.82 50.81 50.79 50.78 50.76 50.75 50.73 50.71 50.70 50.68 50.66 50.65 50.63 50.61 50.59 50.58 50.56 50.54 50.52 50.50 50.49 50.47 50.45 50.43 50.41 50.40 50.38 50.36 50.34 50.32 50.31 50.29 50.27 50.25 50.24 50.22 50.20 50.19 50.17 50.15 50.14 50.12 50.11 50.09 50.08 50.06 50.05 50.03 50.02 50.01 49.99 49.98 49.97 49.96 49.95 49.94 49.93 49.92 49.91 49.90 49.89 49.88 49.87 49.87 49.86 49.85 49.85 49.84 49.84 49.83 49.83 49.83 49.83 49.82 49.82 49.82 49.82 49.82 49.82 49.82 49.82 49.82 49.82 49.83 49.83 49.83 49.84 49.84 49.85 49.85 49.86 49.86 49.87 49.88 49.88 49.89 49.90 49.91 49.92 49.93 49.94 49.95 49.96 49.97 49.98 49.99 50.00 50.01 50.02 50.03 50.05 50.06 50.07 50.08 50.10 50.11 50.12 50.13 50.15 50.16 50.17 50.19 50.20 50.21 50.23 50.24 50.25 50.27 50.28 50.29 50.30 50.32 50.33 50.34 50.35 50.37 50.38 50.39 50.40 50.41 50.42 50.43 50.44 50.45 50.46 50.47 50.48 50.49 50.50 50.51 50.52 50.52 50.53 50.54 50.54 50.55 50.55 50.56 50.56 50.57 50.57 50.57 50.58 50.58 50.58 50.58 50.58 50.58 50.58 50.58 50.58 50.58 50.58 50.57 50.57 50.57 50.56 50.56 50.55 50.55 50.54 50.53 50.53 50.52 50.51 50.50 50.49 50.48 50.47 50.46 50.45 50.44 50.43 50.42 50.41 50.39 50.38 50.37 50.35 50.34 50.32 50.31 50.29 50.28 50.26 50.25 50.23 50.21 50.20 50.18 50.16 50.15 50.13 50.11 50.09 50.08 50.06 50.04 50.02 50.00 49.99 49.97
51.40 51.38 51.36 51.35 51.33 51.31 51.29 51.27 51.26 51.24 51.22 51.20 51.19 51.17 51.15 51.14 51.12 51.10 51.09 51.07 51.06 51.04 51.03 51.01 51.00 50.98 50.97 50.96 50.94 50.93 50.92 50.91 50.90 50.89 50.88 50.87 50.86 50.85 50.84 50.83 50.82 50.82 50.81 50.80 50.80 50.79 50.79 50.78 50.78 50.78 50.77 50.77 50.77 50.77 50.77 50.77 50.77 50.77 50.77 50.77 50.77 50.78 50.78 50.78 50.79 50.79 50.80 50.80 50.81 50.81 50.82 50.83 50.83 50.84 50.85 50.86 50.87 50.88 50.89 50.90 50.91 50.92 50.93 50.94 50.95 50.96 50.97 50.98 51.00 51.01 51.02 51.03 51.05 51.06 51.07 51.08 51.10 51.11 51.12 51.14 51.15 51.16 51.18 51.19 51.20 51.22 51.23 51.24 51.25 51.27 51.28 51.29 51.30 51.32 51.33 51.34 51.35 51.36 51.37 51.38 51.39 51.40 51.41 51.42 51.43 51.44 51.45 51.46 51.47 51.47 51.48 51.49 51.49 51.50 51.50 51.51 51.51 51.52 51.52 51.52 51.53 51.53 51.53 51.53 51.53 51.53 51.53 51.53 51.53 51.53 51.52 51.52 51.52 51.52 51.51 51.51 51.50 51.50 51.49 51.48 51.48 51.47 51.46 51.45 51.44 51.43 51.42 51.41 51.40 51.39 51.38 51.37 51.36 51.34 51.33 51.32 51.30 51.29 51.27 51.26 51.24 51.23 51.21 51.20 51.18 51.16 51.15 51.13 51.11 51.10 51.08 51.06 51.04 51.03 51.01 50.99 50.97 50.95 50.94 50.92 50.90 50.88 50.86 50.85 50.83 50.81 50.79 50.77 50.76 50.74 50.72 50.70 50.69 50.67 50.65 50.64 50.62 50.60 50.59 50.57 50.56 50.54 50.53 50.51 50.50 50.48 50.47 50.46 50.44 50.43 50.42 50.41 50.40 50.39 50.38 50.37 50.36 50.35 50.34 50.33 50.32 50.32 50.31 50.30 50.30 50.29 50.29 50.28 50.28 50.28 50.27 50.27 50.27 50.27 50.27 50.27 50.27 50.27 50.27 50.27 50.27 50.28 50.28 50.28 50.29 50.29 50.30 50.30 50.31 50.31 50.32 50.33 50.33 50.34 50.35 50.36 50.37 50.38 50.39 50.40 50.41 50.42 50.43 50.44 50.45 50.46 50.47 50.48 50.50 50.51 50.52 50.53 50.55 50.56 50.57 50.58 50.60 50.61 50.62 50.64 50.65 50.66 50.68 50.69 50.70 50.72 50.73 50.74 50.75 50.77 50.78 50.79 50.80 50.82 50.83 50.84 50.85 50.86 50.87 50.88 50.89 50.90 50.91 50.92 50.93 50.94 50.95 50.96 50.97 50.97 50.98 50.99 50.99 51.00 51.00 51.01 51.01 51.02 51.02 51.02 51.03 51.03 51.03 51.03 51.03 51.03 51.03 51.03 51.03 51.03 51.02 51.02 51.02 51.02 51.01 51.01 51.00 51.00 50.99 50.98 50.98 50.97 50.96 50.95 50.94 50.93 50.92 50.91 50.90 50.89 50.88 50.87 50.86 50.84 50.83 50.82 50.80 50.79 50.77 50.76 50.74 50.73 50.71 50.70 50.68 50.66 50.65 50.63 50.61 50.60 50.58 50.56 50.54 50.53 50.51 50.49 50.47 50.45 50.44 50.42 50.40 50.38 50.36 50.35 50.33 50.31 50.29 50.27 50.26 50.24 50.22 50.20 50.19 50.17 50.15 50.14 50.12 50.10 50.09 50.07 50.06 50.04 50.03 50.01 50.00 49.98 49.97 49.96 49.94 49.93 49.92 49.91 49.90 49.89 49.88 49.87 49.86 49.85 49.84 49.83 49.82 49.82 49.81 49.80 49.80 49.79 49.79 49.78 49.78 49.78 49.77 49.77 49.77 49.77 49.77 49.77 49.77 49.77 49.77 49.77 49.77 49.78 49.78 49.78 49.79 49.79 49.80 49.80 49.81 49.81 49.82 49.83 49.83 49.84 49.85 49.86 49.87 49.88 49.89 49.90 49.91 49.92 49.93 49.94 49.95 49.96 49.97 49.98 50.00 50.01 50.02 50.03 50.05 50.06 50.07 50.08 50.10 50.11 50.12 50.14 50.15 50.16 50.18 50.19 50.20 50.22 50.23 50.24 50.25 50.27 50.28 50.29 50.30 50.32 50.33 50.34 50.35 50.36 50.37 50.38 50.39 50.40 50.41 50.42 50.43 50.44 50.45 50.46 50.47 50.47 50.48 50.49 50.49 50.50 50.50 50.51 50.51 50.52 50.52 50.52 50.53 50.53 50.53 50.53 50.53 50.53 50.53 50.53 50.53 50.53 50.52 50.52 50.52 50.52 50.51 50.51 50.50 50.50 50.49 50.48 50.48 50.47 50.46 50.45 50.44 50.43 50.42 50.41 50.40 50.39 50.38 50.37 50.36 50.34 50.33 50.32 50.30 50.29 50.27 50.26 50.24 50.23 50.21 50.20 50.18 50.16 50.15 50.13 50.11 50.10 50.08 50.06 50.04 50.03 50.01 49.99 49.97 49.95 49.94 49.92
51.35 51.33 51.31 51.30 51.28 51.26 51.24 51.22 51.21 51.19 51.17 51.15 51.14 51.12 51.10 51.09 51.07 51.05 51.04 51.02 51.01 50.99 50.98 50.96 50.95 50.93 50.92 50.91 50.89 50.88 50.87 50.86 50.85 50.84 50.83 50.82 50.81 50.80 50.79 50.78 50.77 50.77 50.76 50.75 50.75 50.74 50.74 50.73 50.73 50.73 50.73 50.72 50.72 50.72 50.72 50.72 50.72 50.72 50.72 50.72 50.72 50.73 50.73 50.73 50.74 50.74 50.75 50.75 50.76 50.76 50.77 50.78 50.78 50.79 50.80 50.81 50.82 50.83 50.84 50.85 50.86 50.87 50.88 50.89 50.90 50.91 50.92 50.93 50.95 50.96 50.97 50.98 51.00 51.01 51.02 51.03 51.05 51.06 51.07 51.09 51.10 51.11 51.13 51.14 51.15 51.17 51.18 51.19 51.20 51.22 51.23 51.24 51.25 51.27 51.28 51.29 51.30 51.31 51.32 51.33 51.34 51.35 51.36 51.37 51.38 51.39 51.40 51.41 51.42 51.42 51.43 51.44 51.44 51.45 51.45 51.46 51.46 51.47 51.47 51.47 51.48 51.48 51.48 51.48 51.48 51.48 51.48 51.48 51.48 51.48 51.48 51.47 51.47 51.47 51.46 51.46 51.45 51.45 51.44 51.43 51.43 51.42 51.41 51.40 51.39 51.38 51.37 51.36 51.35 51.34 51.33 51.32 51.31 51.29 51.28 51.27 51.25 51.24 51.22 51.21 51.19 51.18 51.16 51.15 51.13 51.11 51.10 51.08 51.06 51.05 51.03 51.01 50.99 50.98 50.96 50.94 50.92 50.90 50.89 50.87 50.85 50.83 50.81 50.80 50.78 50.76 50.74 50.72 50.71 50.69 50.67 50.65 50.64 50.62 50.60 50.59 50.57 50.55 50.54 50.52 50.51 50.49 50.48 50.46 50.45 50.43 50.42 50.41 50.39 50.38 50.37 50.36 50.35 50.34 50.33 50.32 50.31 50.30 50.29 50.28 50.27 50.27 50.26 50.25 50.25 50.24 50.24 50.23 50.23 50.23 50.23 50.22 50.22 50.22 50.22 50.22 50.22 50.22 50.22 50.22 50.22 50.23 50.23 50.23 50.24 50.24 50.25 50.25 50.26 50.26 50.27 50.28 50.28 50.29 50.30 50.31 50.32 50.33 50.34 50.35 50.36 50.37 50.38 50.39 50.40 50.41 50.42 50.43 50.45 50.46 50.47 50.48 50.50 50.51 50.52 50.53 50.55 50.56 50.57 50.59 50.60 50.61 50.63 50.64 50.65 50.67 50.68 50.69 50.70 50.72 50.73 50.74 50.75 50.77 50.78 50.79 50.80 50.81 50.82 50.83 50.84 50.85 50.86 50.87 50.88 50.89 50.90 50.91 50.92 50.92 50.93 50.94 50.94 50.95 50.95 50.96 50.96 50.97 50.97 50.97 50.98 50.98 50.98 50.98 50.98 50.98 50.98 50.98 50.98 50.98 50.98 50.97 50.97 50.97 50.96 50.96 50.95 50.95 50.94 50.93 50.93 50.92 50.91 50.90 50.89 50.88 50.87 50.86 50.85 50.84 50.83 50.82 50.81 50.79 50.78 50.77 50.75 50.74 50.72 50.71 50.69 50.68 50.66 50.65 50.63 50.61 50.60 50.58 50.56 50.55 50.53 50.51 50.49 50.48 50.46 50.44 50.42 50.40 50.39 50.37 50.35 50.33 50.31 50.30 50.28 50.26 50.24 50.22 50.21 50.19 50.17 50.15 50.14 50.12 50.10 50.09 50.07 50.05 50.04 50.02 50.01 49.99 49.98 49.96 49.95 49.93 49.92 49.91 49.89 49.88 49.87 49.86 49.85 49.84 49.83 49.82 49.81 49.80 49.79 49.78 49.77 49.77 49.76 49.75 49.75 49.74 49.74 49.73 49.73 49.73 49.73 49.72 49.72 49.72 49.72 49.72 49.72 49.72 49.72 49.72 49.72 49.73 49.73 49.73 49.74 49.74 49.75 49.75 49.76 49.76 49.77 49.78 49.78 49.79 49.80 49.81 49.82 49.83 49.84 49.85 49.86 49.87 49.88 49.89 49.90 49.91 49.92 49.93 49.95 49.96 49.97 49.98 50.00 50.01 50.02 50.03 50.05 50.06 50.07 50.09 50.10 50.11 50.13 50.14 50.15 50.17 50.18 50.19 50.20 50.22 50.23 50.24 50.25 50.27 50.28 50.29 50.30 50.31 50.32 50.33 50.34 50.35 50.36 50.37 50.38 50.39 50.40 50.41 50.42 50.42 50.43 50.44 50.44 50.45 50.45 50.46 50.46 50.47 50.47 50.47 50.48 50.48 50.48 50.48 50.48 50.48 50.48 50.48 50.48 50.48 50.48 50.47 50.47 50.47 50.46 50.46 50.45 50.45 50.44 50.43 50.43 50.42 50.41 50.40 50.39 50.38 50.37 50.36 50.35 50.34 50.33 50.32 50.31 50.29 50.28 50.27 50.25 50.24 50.22 50.21 50.19 50.18 50.16 50.15 50.13 50.11 50.10 50.08 50.06 50.05 50.03 50.01 49.99 49.98 49.96 49.94 49.92 49.90 49.89 49.87
51.30 51.28 51.26 51.25 51.23 51.21 51.19 51.17 51.16 51.14 51.12 51.10 51.09 51.07 51.05 51.04 51.02 51.00 50.99 50.97 50.96 50.94 50.93 50.91 50.90 50.88 50.87 50.86 50.84 50.83 50.82 50.81 50.80 50.79 50.78 50.77 50.76 50.75 50.74 50.73 50.72 50.72 50.71 50.70 50.70 50.69 50.69 50.68 50.68 50.68 50.67 50.67 50.67 50.67 50.67 50.67 50.67 50.67 50.67 50.67 50.67 50.68 50.68 50.68 50.69 50.69 50.70 50.70 50.71 50.71 50.72 50.73 50.73 50.74 50.75 50.76 50.77 50.78 50.79 50.80 50.81 50.82 50.83 50.84 50.85 50.86 50.87 50.88 50.90 50.91 50.92 50.93 50.95 50.96 50.97 50.98 51.00 51.01 51.02 51.04 51.05 51.06 51.08 51.09 51.10 51.12 51.13 51.14 51.15 51.17 51.18 51.19 51.20 51.22 51.23 51.24 51.25 51.26 51.27 51.28 51.29 51.30 51.31 51.32 51.33 51.34 51.35 51.36 51.37 51.37 51.38 51.39 51.39 51.40 51.40 51.41 51.41 51.42 51.42 51.42 51.43 51.43 51.43 51.43 51.43 51.43 51.43 51.43 51.43 51.43 51.42 51.42 51.42 51.42 51.41 51.41 51.40 51.40 51.39 51.38 51.38 51.37 51.36 51.35 51.34 51.33 51.32 51.31 51.30 51.29 51.28 51.27 51.26 51.24 51.23 51.22 51.20 51.19 51.17 51.16 51.14 51.13 51.11 51.10 51.08 51.06 51.05 51.03 51.01 51.00 50.98 50.96 50.94 50.93 50.91 50.89 50.87 50.85 50.84 50.82 50.80 50.78 50.76 50.75 50.73 50.71 50.69 50.67 50.66 50.64 50.62 50.60 50.59 50.57 50.55 50.54 50.52 50.50 50.49 50.47 50.46 50.44 50.43 50.41 50.40 50.38 50.37 50.36 50.34 50.33 50.32 50.31 50.30 50.29 50.28 50.27 50.26 50.25 50.24 50.23 50.22 50.22 50.21 50.20 50.20 50.19 50.19 50.18 50.18 50.18 50.17 50.17 50.17 50.17 50.17 50.17 50.17 50.17 50.17 50.17 50.17 50.18 50.18 50.18 50.19 50.19 50.20 50.20 50.21 50.21 50.22 50.23 50.23 50.24 50.25 50.26 50.27 50.28 50.29 50.30 50.31 50.32 50.33 50.34 50.35 50.36 50.37 50.38 50.40 50.41 50.42 50.43 50.45 50.46 50.47 50.48 50.50 50.51 50.52 50.54 50.55 50.56 50.58 50.59 50.60 50.62 50.63 50.64 50.65 50.67 50.68 50.69 50.70 50.72 50.73 50.74 50.75 50.76 50.77 50.78 50.79 50.80 50.81 50.82 50.83 50.84 50.85 50.86 50.87 50.87 50.88 50.89 50.89 50.90 50.90 50.91 50.91 50.92 50.92 50.92 50.93 50.93 50.93 50.93 50.93 50.93 50.93 50.93 50.93 50.93 50.92 50.92 50.92 50.92 50.91 50.91 50.90 50.90 50.89 50.88 50.88 50.87 50.86 50.85 50.84 50.83 50.82 50.81 50.80 50.79 50.78 50.77 50.76 50.74 50.73 50.72 50.70 50.69 50.67 50.66 50.64 50.63 50.61 50.60 50.58 50.56 50.55 50.53 50.51 50.50 50.48 50.46 50.44 50.43 50.41 50.39 50.37 50.35 50.34 50.32 50.30 50.28 50.26 50.25 50.23 50.21 50.19 50.17 50.16 50.14 50.12 50.10 50.09 50.07 50.05 50.04 50.02 50.00 49.99 49.97 49.96 49.94 49.93 49.91 49.90 49.88 49.87 49.86 49.84 49.83 49.82 49.81 49.80 49.79 49.78 49.77 49.76 49.75 49.74 49.73 49.72 49.72 49.71 49.70 49.70 49.69 49.69 49.68 49.68 49.68 49.67 49.67 49.67 49.67 49.67 49.67 49.67 49.67 49.67 49.67 49.67 49.68 49.68 49.68 49.69 49.69 49.70 49.70 49.71 49.71 49.72 49.73 49.73 49.74 49.75 49.76 49.77 49.78 49.79 49.80 49.81 49.82 49.83 49.84 49.85 49.86 49.87 49.88 49.90 49.91 49.92 49.93 49.95 49.96 49.97 49.98 50.00 50.01 50.02 50.04 50.05 50.06 50.08 50.09 50.10 50.12 50.13 50.14 50.15 50.17 50.18 50.19 50.20 50.22 50.23 50.24 50.25 50.26 50.27 50.28 50.29 50.30 50.31 50.32 50.33 50.34 50.35 50.36 50.37 50.37 50.38 50.39 50.39 50.40 50.40 50.41 50.41 50.42 50.42 50.42 50.43 50.43 50.43 50.43 50.43 50.43 50.43 50.43 50.43 50.43 50.42 50.42 50.42 50.42 50.41 50.41 50.40 50.40 50.39 50.38 50.38 50.37 50.36 50.35 50.34 50.33 50.32 50.31 50.30 50.29 50.28 50.27 50.26 50.24 50.23 50.22 50.20 50.19 50.17 50.16 50.14 50.13 50.11 50.10 50.08 50.06 50.05 50.03 50.01 50.00 49.98 49.96 49.94 49.93 49.91 49.89 49.87 49.85 49.84 49.82
51.25 51.23 51.21 51.20 51.18 51.16 51.14 51.12 51.11 51.09 51.07 51.05 51.04 51.02 51.00 50.99 50.97 50.95 50.94 50.92 50.91 50.89 50.88 50.86 50.85 50.83 50.82 50.81 50.79 50.78 50.77 50.76 50.75 50.74 50.73 50.72 50.71 50.70 50.69 50.68 50.67 50.67 50.66 50.65 50.65 50.64 50.64 50.63 50.63 50.63 50.62 50.62 50.62 50.62 50.62 50.62 50.62 50.62 50.62 50.62 50.62 50.63 50.63 50.63 50.64 50.64 50.65 50.65 50.66 50.66 50.67 50.68 50.68 50.69 50.70 50.71 50.72 50.73 50.74 50.75 50.76 50.77 50.78 50.79 50.80 50.81 50.82 50.83 50.85 50.86 50.87 50.88 50.90 50.91 50.92 50.93 50.95 50.96 50.97 50.99 51.00 51.01 51.03 51.04 51.05 51.07 51.08 51.09 51.10 51.12 51.13 51.14 51.15 51.17 51.18 51.19 51.20 51.21 51.22 51.23 51.24 51.25 51.26 51.27 51.28 51.29 51.30 51.31 51.32 51.32 51.33 51.34 51.34 51.35 51.35 51.36 51.36 51.37 51.37 51.37 51.38 51.38 51.38 51.38 51.38 51.38 51.38 51.38 51.38 51.38 51.38 51.37 51.37 51.37 51.36 51.36 51.35 51.35 51.34 51.33 51.33 51.32 51.31 51.30 51.29 51.28 51.27 51.26 51.25 51.24 51.23 51.22 51.21 51.19 51.18 51.17 51.15 51.14 51.12 51.11 51.09 51.08 51.06 51.05 51.03 51.01 51.00 50.98 50.96 50.95 50.93 50.91 50.89 50.88 50.86 50.84 50.82 50.80 50.79 50.77 50.75 50.73 50.71 50.70 50.68 50.66 50.64 50.62 50.61 50.59 50.57 50.55 50.54 50.52 50.50 50.49 50.47 50.45 50.44 50.42 50.41 50.39 50.38 50.36 50.35 50.33 50.32 50.31 50.29 50.28 50.27 50.26 50.25 50.24 50.23 50.22 50.21 50.20 50.19 50.18 50.17 50.17 50.16 50.15 50.15 50.14 50.14 50.13 50.13 50.13 50.12 50.12 50.12 50.12 50.12 50.12 50.12 50.12 50.12 50.12 50.12 50.13 50.13 50.13 50.14 50.14 50.15 50.15 50.16 50.16 50.17 50.18 50.18 50.19 50.20 50.21 50.22 50.23 50.24 50.25 50.26 50.27 50.28 50.29 50.30 50.31 50.32 50.33 50.35 50.36 50.37 50.38 50.40 50.41 50.42 50.43 50.45 50.46 50.47 50.49 50.50 50.51 50.53 50.54 50.55 50.57 50.58 50.59 50.60 50.62 50.63 50.64 50.65 50.67 50.68 50.69 50.70 50.71 50.72 50.73 50.74 50.75 50.76 50.77 50.78 50.79 50.80 50.81 50.82 50.82 50.83 50.84 50.84 50.85 50.85 50.86 50.86 50.87 50.87 50.87 50.88 50.88 50.88 50.88 50.88 50.88 50.88 50.88 50.88 50.88 50.88 50.87 50.87 50.87 50.86 50.86 50.85 50.85 50.84 50.83 50.83 50.82 50.81 50.80 50.79 50.78 50.77 50.76 50.75 50.74 50.73 50.72 50.71 50.69 50.68 50.67 50.65 50.64 50.62 50.61 50.59 50.58 50.56 50.55 50.53 50.51 50.50 50.48 50.46 50.45 50.43 50.41 50.39 50.38 50.36 50.34 50.32 50.30 50.29 50.27 50.25 50.23 50.21 50.20 50.18 50.16 50.14 50.12 50.11 50.09 50.07 50.05 50.04 50.02 50.00 49.99 49.97 49.95 49.94 49.92 49.91 49.89 49.88 49.86 49.85 49.83 49.82 49.81 49.79 49.78 49.77 49.76 49.75 49.74 49.73 49.72 49.71 49.70 49.69 49.68 49.67 49.67 49.66 49.65 49.65 49.64 49.64 49.63 49.63 49.63 49.62 49.62 49.62 49.62 49.62 49.62 49.62 49.62 49.62 49.62 49.62 49.63 49.63 49.63 49.64 49.64 49.65 49.65 49.66 49.66 49.67 49.68 49.68 49.69 49.70 49.71 49.72 49.73 49.74 49.75 49.76 49.77 49.78 49.79 49.80 49.81 49.82 49.83 49.85 49.86 49.87 49.88 49.90 49.91 49.92 49.93 49.95 49.96 49.97 49.99 50.00 50.01 50.03 50.04 50.05 50.07 50.08 50.09 50.10 50.12 50.13 50.14 50.15 50.17 50.18 50.19 50.20 50.21 50.22 50.23 50.24 50.25 50.26 50.27 50.28 50.29 50.30 50.31 50.32 50.32 50.33 50.34 50.34 50.35 50.35 50.36 50.36 50.37 50.37 50.37 50.38 50.38 50.38 50.38 50.38 50.38 50.38 50.38 50.38 50.38 50.38 50.37 50.37 50.37 50.36 50.36 50.35 50.35 50.34 50.33 50.33 50.32 50.31 50.30 50.29 50.28 50.27 50.26 50.25 50.24 50.23 50.22 50.21 50.19 50.18 50.17 50.15 50.14 50.12 50.11 50.09 50.08 50.06 50.05 50.03 50.01 50.00 49.98 49.96 49.95 49.93 49.91 49.89 49.88 49.86 49.84 49.82 49.80 49.79 49.77
51.20 51.18 51.16 51.15 51.13 51.11 51.09 51.07 51.06 51.04 51.02 51.00 50.99 50.97 50.95 50.94 50.92 50.90 50.89 50.87 50.86 50.84 50.83 50.81 50.80 50.78 50.77 50.76 50.74 50.73 50.72 50.71 50.70 50.69 50.68 50.67 50.66 50.65 50.64 50.63 50.62 50.62 50.61 50.60 50.60 50.59 50.59 50.58 50.58 50.58 50.58 50.57 50.57 50.57 50.57 50.57 50.57 50.57 50.57 50.57 50.57 50.58 50.58 50.58 50.59 50.59 50.60 50.60 50.61 50.61 50.62 50.63 50.63 50.64 50.65 50.66 50.67 50.68 50.69 50.70 50.71 50.72 50.73 50.74 50.75 50.76 50.77 50.78 50.80 50.81 50.82 50.83 50.85 50.86 50.87 50.88 50.90 50.91 50.92 50.94 50.95 50.96 50.98 50.99 51.00 51.02 51.03 51.04 51.05 51.07 51.08 51.09 51.10 51.12 51.13 51.14 51.15 51.16 51.17 51.18 51.19 51.20 51.21 51.22 51.23 51.24 51.25 51.26 51.27 51.27 51.28 51.29 51.29 51.30 51.30 51.31 51.31 51.32 51.32 51.32 51.33 51.33 51.33 51.33 51.33 51.33 51.33 51.33 51.33 51.33 51.33 51.32 51.32 51.32 51.31 51.31 51.30 51.30 51.29 51.28 51.28 51.27 51.26 51.25 51.24 51.23 51.22 51.21 51.20 51.19 51.18 51.17 51.16 51.14 51.13 51.12 51.10 51.09 51.07 51.06 51.04 51.03 51.01 51.00 50.98 50.96 50.95 50.93 50.91 50.90 50.88 50.86 50.84 50.83 50.81 50.79 50.77 50.75 50.74 50.72 50.70 50.68 50.66 50.65 50.63 50.61 50.59 50.57 50.56 50.54 50.52 50.50 50.49 50.47 50.45 50.44 50.42 50.40 50.39 50.37 50.36 50.34 50.33 50.31 50.30 50.28 50.27 50.26 50.24 50.23 50.22 50.21 50.20 50.19 50.18 50.17 50.16 50.15 50.14 50.13 50.12 50.12 50.11 50.10 50.10 50.09 50.09 50.08 50.08 50.08 50.08 50.07 50.07 50.07 50.07 50.07 50.07 50.07 50.07 50.07 50.07 50.08 50.08 50.08 50.09 50.09 50.10 50.10 50.11 50.11 50.12 50.13 50.13 50.14 50.15 50.16 50.17 50.18 50.19 50.20 50.21 50.22 50.23 50.24 50.25 50.26 50.27 50.28 50.30 50.31 50.32 50.33 50.35 50.36 50.37 50.38 50.40 50.41 50.42 50.44 50.45 50.46 50.48 50.49 50.50 50.52 50.53 50.54 50.55 50.57 50.58 50.59 50.60 50.62 50.63 50.64 50.65 50.66 50.67 50.68 50.69 50.70 50.71 50.72 50.73 50.74 50.75 50.76 50.77 50.77 50.78 50.79 50.79 50.80 50.80 50.81 50.81 50.82 50.82 50.82 50.83 50.83 50.83 50.83 50.83 50.83 50.83 50.83 50.83 50.83 50.83 50.82 50.82 50.82 50.81 50.81 50.80 50.80 50.79 50.78 50.78 50.77 50.76 50.75 50.74 50.73 50.72 50.71 50.70 50.69 50.68 50.67 50.66 50.64 50.63 50.62 50.60 50.59 50.57 50.56 50.54 50.53 50.51 50.50 50.48 50.46 50.45 50.43 50.41 50.40 50.38 50.36 50.34 50.33 50.31 50.29 50.27 50.25 50.24 50.22 50.20 50.18 50.16 50.15 50.13 50.11 50.09 50.07 50.06 50.04 50.02 50.00 49.99 49.97 49.95 49.94 49.92 49.90 49.89 49.87 49.86 49.84 49.83 49.81 49.80 49.78 49.77 49.76 49.74 49.73 49.72 49.71 49.70 49.69 49.68 49.67 49.66 49.65 49.64 49.63 49.62 49.62 49.61 49.60 49.60 49.59 49.59 49.58 49.58 49.58 49.58 49.57 49.57 49.57 49.57 49.57 49.57 49.57 49.57 49.57 49.57 49.58 49.58 49.58 49.59 49.59 49.60 49.60 49.61 49.61 49.62 49.63 49.63 49.64 49.65 49.66 49.67 49.68 49.69 49.70 49.71 49.72 49.73 49.74 49.75 49.76 49.77 49.78 49.80 49.81 49.82 49.83 49.85 49.86 49.87 49.88 49.90 49.91 49.92 49.94 49.95 49.96 49.98 49.99 50.00 50.02 50.03 50.04 50.05 50.07 50.08 50.09 50.10 50.12 50.13 50.14 50.15 50.16 50.17 50.18 50.19 50.20 50.21 50.22 50.23 50.24 50.25 50.26 50.27 50.27 50.28 50.29 50.29 50.30 50.30 50.31 50.31 50.32 50.32 50.32 50.33 50.33 50.33 50.33 50.33 50.33 50.33 50.33 50.33 50.33 50.33 50.32 50.32 50.32 50.31 50.31 50.30 50.30 50.29 50.28 50.28 50.27 50.26 50.25 50.24 50.23 50.22 50.21 50.20 50.19 50.18 50.17 50.16 50.14 50.13 50.12 50.10 50.09 50.07 50.06 50.04 50.03 50.01 50.00 49.98 49.96 49.95 49.93 49.91 49.90 49.88 49.86 49.84 49.83 49.81 49.79 49.77 49.75 49.74 49.72
51.15 51.13 51.11 51.10 51.08 51.06 51.04 51.02 51.01 50.99 50.97 50.95 50.94 50.92 50.90 50.89 50.87 50.85 50.84 50.82 50.81 50.79 50.78 50.76 50.75 50.73 50.72 50.71 50.69 50.68 50.67 50.66 50.65 50.64 50.63 50.62 50.61 50.60 50.59 50.58 50.57 50.57 50.56 50.55 50.55 50.54 50.54 50.53 50.53 50.53 50.52 50.52 50.52 50.52 50.52 50.52 50.52 50.52 50.52 50.52 50.52 50.53 50.53 50.53 50.54 50.54 50.55 50.55 50.56 50.56 50.57 50.58 50.58 50.59 50.60 50.61 50.62 50.63 50.64 50.65 50.66 50.67 50.68 50.69 50.70 50.71 50.72 50.73 50.75 50.76 50.77 50.78 50.80 50.81 50.82 50.83 50.85 50.86 50.87 50.89 50.90 50.91 50.93 50.94 50.95 50.97 50.98 50.99 51.00 51.02 51.03 51.04 51.05 51.07 51.08 51.09 51.10 51.11 51.12 51.13 51.14 51.15 51.16 51.17 51.18 51.19 51.20 51.21 51.22 51.22 51.23 51.24 51.24 51.25 51.25 51.26 51.26 51.27 51.27 51.27 51.28 51.28 51.28 51.28 51.28 51.28 51.28 51.28 51.28 51.28 51.27 51.27 51.27 51.27 51.26 51.26 51.25 51.25 51.24 51.23 51.23 51.22 51.21 51.20 51.19 51.18 51.17 51.16 51.15 51.14 51.13 51.12 51.11 51.09 51.08 51.07 51.05 51.04 51.02 51.01 50.99 50.98 50.96 50.95 50.93 50.91 50.90 50.88 50.86 50.85 50.83 50.81 50.79 50.78 50.76 50.74 50.72 50.70 50.69 50.67 50.65 50.63 50.61 50.60 50.58 50.56 50.54 50.52 50.51 50.49 50.47 50.45 50.44 50.42 50.40 50.39 50.37 50.35 50.34 50.32 50.31 50.29 50.28 50.26 50.25 50.23 50.22 50.21 50.19 50.18 50.17 50.16 50.15 50.14 50.13 50.12 50.11 50.10 50.09 50.08 50.07 50.07 50.06 50.05 50.05 50.04 50.04 50.03 50.03 50.03 50.02 50.02 50.02 50.02 50.02 50.02 50.02 50.02 50.02 50.02 50.02 50.03 50.03 50.03 50.04 50.04 50.05 50.05 50.06 50.06 50.07 50.08 50.08 50.09 50.10 50.11 50.12 50.13 50.14 50.15 50.16 50.17 50.18 50.19 50.20 50.21 50.22 50.23 50.25 50.26 50.27 50.28 50.30 50.31 50.32 50.33 50.35 50.36 50.37 50.39 50.40 50.41 50.43 50.44 50.45 50.47 50.48 50.49 50.50 50.52 50.53 50.54 50.55 50.57 50.58 50.59 50.60 50.61 50.62 50.63 50.64 50.65 50.66 50.67 50.68 50.69 50.70 50.71 50.72 50.72 50.73 50.74 50.74 50.75 50.75 50.76 50.76 50.77 50.77 50.77 50.78 50.78 50.78 50.78 50.78 50.78 50.78 50.78 50.78 50.78 50.77 50.77 50.77 50.77 50.76 50.76 50.75 50.75 50.74 50.73 50.73 50.72 50.71 50.70 50.69 50.68 50.67 50.66 50.65 50.64 50.63 50.62 50.61 50.59 50.58 50.57 50.55 50.54 50.52 50.51 50.49 50.48 50.46 50.45 50.43 50.41 50.40 50.38 50.36 50.35 50.33 50.31 50.29 50.28 50.26 50.24 50.22 50.20 50.19 50.17 50.15 50.13 50.11 50.10 50.08 50.06 50.04 50.02 50.01 49.99 49.97 49.95 49.94 49.92 49.90 49.89 49.87 49.85 49.84 49.82 49.81 49.79 49.78 49.76 49.75 49.73 49.72 49.71 49.69 49.68 49.67 49.66 49.65 49.64 49.63 49.62 49.61 49.60 49.59 49.58 49.57 49.57 49.56 49.55 49.55 49.54 49.54 49.53 49.53 49.53 49.52 49.52 49.52 49.52 49.52 49.52 49.52 49.52 49.52 49.52 49.52 49.53 49.53 49.53 49.54 49.54 49.55 49.55 49.56 49.56 49.57 49.58 49.58 49.59 49.60 49.61 49.62 49.63 49.64 49.65 49.66 49.67 49.68 49.69 49.70 49.71 49.72 49.73 49.75 49.76 49.77 49.78 49.80 49.81 49.82 49.83 49.85 49.86 49.87 49.89 49.90 49.91 49.93 49.94 49.95 49.97 49.98 49.99 50.00 50.02 50.03 50.04 50.05 50.07 50.08 50.09 50.10 50.11 50.12 50.13 50.14 50.15 50.16 50.17 50.18 50.19 50.20 50.21 50.22 50.22 50.23 50.24 50.24 50.25 50.25 50.26 50.26 50.27 50.27 50.27 50.28 50.28 50.28 50.28 50.28 50.28 50.28 50.28 50.28 50.28 50.27 50.27 50.27 50.27 50.26 50.26 50.25 50.25 50.24 50.23 50.23 50.22 50.21 50.20 50.19 50.18 50.17 50.16 50.15 50.14 50.13 50.12 50.11 50.09 50.08 50.07 50.05 50.04 50.02 50.01 49.99 49.98 49.96 49.95 49.93 49.91 49.90 49.88 49.86 49.85 49.83 49.81 49.79 49.78 49.76 49.74 49.72 49.70 49.69 49.67
51.10 51.08 51.06 51.05 51.03 51.01 50.99 50.97 50.96 50.94 50.92 50.90 50.89 50.87 50.85 50.84 50.82 50.80 50.79 50.77 50.76 50.74 50.73 50.71 50.70 50.68 50.67 50.66 50.64 50.63 50.62 50.61 50.60 50.59 50.58 50.57 50.56 50.55 50.54 50.53 50.52 50.52 50.51 50.50 50.50 50.49 50.49 50.48 50.48 50.48 50.48 50.47 50.47 50.47 50.47 50.47 50.47 50.47 50.47 50.47 50.47 50.48 50.48 50.48 50.49 50.49 50.50 50.50 50.51 50.51 50.52 50.53 50.53 50.54 50.55 50.56 50.57 50.58 50.59 50.60 50.61 50.62 50.63 50.64 50.65 50.66 50.67 50.68 50.70 50.71 50.72 50.73 50.75 50.76 50.77 50.78 50.80 50.81 50.82 50.84 50.85 50.86 50.88 50.89 50.90 50.92 50.93 50.94 50.95 50.97 50.98 50.99 51.00 51.02 51.03 51.04 51.05 51.06 51.07 51.08 51.09 51.10 51.11 51.12 51.13 51.14 51.15 51.16 51.17 51.17 51.18 51.19 51.19 51.20 51.20 51.21 51.21 51.22 51.22 51.22 51.23 51.23 51.23 51.23 51.23 51.23 51.23 51.23 51.23 51.23 51.23 51.22 51.22 51.22 51.21 51.21 51.20 51.20 51.19 51.18 51.18 51.17 51.16 51.15 51.14 51.13 51.12 51.11 51.10 51.09 51.08 51.07 51.06 51.04 51.03 51.02 51.00 50.99 50.97 50.96 50.94 50.93 50.91 50.90 50.88 50.86 50.85 50.83 50.81 50.80 50.78 50.76 50.74 50.73 50.71 50.69 50.67 50.65 50.64 50.62 50.60 50.58 50.56 50.55 50.53 50.51 50.49 50.47 50.46 50.44 50.42 50.40 50.39 50.37 50.35 50.34 50.32 50.30 50.29 50.27 50.26 50.24 50.23 50.21 50.20 50.18 50.17 50.16 50.14 50.13 50.12 50.11 50.10 50.09 50.08 50.07 50.06 50.05 50.04 50.03 50.02 50.02 50.01 50.00 50.00 49.99 49.99 49.98 49.98 49.98 49.98 49.97 49.97 49.97 49.97 49.97 49.97 49.97 49.97 49.97 49.97 49.98 49.98 49.98 49.99 49.99 50.00 50.00 50.01 50.01 50.02 50.03 50.03 50.04 50.05 50.06 50.07 50.08 50.09 50.10 50.11 50.12 50.13 50.14 50.15 50.16 50.17 50.18 50.20 50.21 50.22 50.23 50.25 50.26 50.27 50.28 50.30 50.31 50.32 50.34 50.35 50.36 50.38 50.39 50.40 50.42 50.43 50.44 50.45 50.47 50.48 50.49 50.50 50.52 50.53 50.54 50.55 50.56 50.57 50.58 50.59 50.60 50.61 50.62 50.63 50.64 50.65 50.66 50.67 50.67 50.68 50.69 50.69 50.70 50.70 50.71 50.71 50.72 50.72 50.72 50.73 50.73 50.73 50.73 50.73 50.73 50.73 50.73 50.73 50.73 50.73 50.72 50.72 50.72 50.71 50.71 50.70 50.70 50.69 50.68 50.68 50.67 50.66 50.65 50.64 50.63 50.62 50.61 50.60 50.59 50.58 50.57 50.56 50.54 50.53 50.52 50.50 50.49 50.47 50.46 50.44 50.43 50.41 50.40 50.38 50.36 50.35 50.33 50.31 50.30 50.28 50.26 50.24 50.23 50.21 50.19 50.17 50.15 50.14 50.12 50.10 50.08 50.06 50.05 50.03 50.01 49.99 49.97 49.96 49.94 49.92 49.90 49.89 49.87 49.85 49.84 49.82 49.80 49.79 49.77 49.76 49.74 49.73 49.71 49.70 49.68 49.67 49.66 49.64 49.63 49.62 49.61 49.60 49.59 49.58 49.57 49.56 49.55 49.54 49.53 49.52 49.52 49.51 49.50 49.50 49.49 49.49 49.48 49.48 49.48 49.48 49.47 49.47 49.47 49.47 49.47 49.47 49.47 49.47 49.47 49.47 49.48 49.48 49.48 49.49 49.49 49.50 49.50 49.51 49.51 49.52 49.53 49.53 49.54 49.55 49.56 49.57 49.58 49.59 49.60 49.61 49.62 49.63 49.64 49.65 49.66 49.67 49.68 49.70 49.71 49.72 49.73 49.75 49.76 49.77 49.78 49.80 49.81 49.82 49.84 49.85 49.86 49.88 49.89 49.90 49.92 49.93 49.94 49.95 49.97 49.98 49.99 50.00 50.02 50.03 50.04 50.05 50.06 50.07 50.08 50.09 50.10 50.11 50.12 50.13 50.14 50.15 50.16 50.17 50.17 50.18 50.19 50.19 50.20 50.20 50.21 50.21 50.22 50.22 50.22 50.23 50.23 50.23 50.23 50.23 50.23 50.23 50.23 50.23 50.23 50.23 50.22 50.22 50.22 50.21 50.21 50.20 50.20 50.19 50.18 50.18 50.17 50.16 50.15 50.14 50.13 50.12 50.11 50.10 50.09 50.08 50.07 50.06 50.04 50.03 50.02 50.00 49.99 49.97 49.96 49.94 49.93 49.91 49.90 49.88 49.86 49.85 49.83 49.81 49.80 49.78 49.76 49.74 49.73 49.71 49.69 49.67 49.65 49.64 49.62
51.05 51.03 51.01 51.00 50.98 50.96 50.94 50.92 50.91 50.89 50.87 50.85 50.84 50.82 50.80 50.79 50.77 50.75 50.74 50.72 50.71 50.69 50.68 50.66 50.65 50.63 50.62 50.61 50.59 50.58 50.57 50.56 50.55 50.54 50.53 50.52 50.51 50.50 50.49 50.48 50.47 50.47 50.46 50.45 50.45 50.44 50.44 50.43 50.43 50.43 50.42 50.42 50.42 50.42 50.42 50.42 50.42 50.42 50.42 50.42 50.42 50.43 50.43 50.43 50.44 50.44 50.45 50.45 50.46 50.46 50.47 50.48 50.48 50.49 50.50 50.51 50.52 50.53 50.54 50.55 50.56 50.57 50.58 50.59 50.60 50.61 50.62 50.63 50.65 50.66 50.67 50.68 50.70 50.71 50.72 50.73 50.75 50.76 50.77 50.79 50.80 50.81 50.83 50.84 50.85 50.87 50.88 50.89 50.90 50.92 50.93 50.94 50.95 50.97 50.98 50.99 51.00 51.01 51.02 51.03 51.04 51.05 51.06 51.07 51.08 51.09 51.10 51.11 51.12 51.12 51.13 51.14 51.14 51.15 51.15 51.16 51.16 51.17 51.17 51.17 51.18 51.18 51.18 51.18 51.18 51.18 51.18 51.18 51.18 51.18 51.17 51.17 51.17 51.17 51.16 51.16 51.15 51.15 51.14 51.13 51.13 51.12 51.11 51.10 51.09 51.08 51.07 51.06 51.05 51.04 51.03 51.02 51.01 50.99 50.98 50.97 50.95 50.94 50.92 50.91 50.89 50.88 50.86 50.85 50.83 50.81 50.80 50.78 50.76 50.75 50.73 50.71 50.69 50.68 50.66 50.64 50.62 50.60 50.59 50.57 50.55 50.53 50.51 50.50 50.48 50.46 50.44 50.42 50.41 50.39 50.37 50.35 50.34 50.32 50.30 50.29 50.27 50.25 50.24 50.22 50.21 50.19 50.18 50.16 50.15 50.13 50.12 50.11 50.09 50.08 50.07 50.06 50.05 50.04 50.03 50.02 50.01 50.00 49.99 49.98 49.97 49.97 49.96 49.95 49.95 49.94 49.94 49.93 49.93 49.93 49.92 49.92 49.92 49.92 49.92 49.92 49.92 49.92 49.92 49.92 49.92 49.93 49.93 49.93 49.94 49.94 49.95 49.95 49.96 49.96 49.97 49.98 49.98 49.99 50.00 50.01 50.02 50.03 50.04 50.05 50.06 50.07 50.08 50.09 50.10 50.11 50.12 50.13 50.15 50.16 50.17 50.18 50.20 50.21 50.22 50.23 50.25 50.26 50.27 50.29 50.30 50.31 50.33 50.34 50.35 50.37 50.38 50.39 50.40 50.42 50.43 50.44 50.45 50.47 50.48 50.49 50.50 50.51 50.52 50.53 50.54 50.55 50.56 50.57 50.58 50.59 50.60 50.61 50.62 50.62 50.63 50.64 50.64 50.65 50.65 50.66 50.66 50.67 50.67 50.67 50.68 50.68 50.68 50.68 50.68 50.68 50.68 50.68 50.68 50.68 50.67 50.67 50.67 50.67 50.66 50.66 50.65 50.65 50.64 50.63 50.63 50.62 50.61 50.60 50.59 50.58 50.57 50.56 50.55 50.54 50.53 50.52 50.51 50.49 50.48 50.47 50.45 50.44 50.42 50.41 50.39 50.38 50.36 50.35 50.33 50.31 50.30 50.28 50.26 50.25 50.23 50.21 50.19 50.18 50.16 50.14 50.12 50.10 50.09 50.07 50.05 50.03 50.01 50.00 49.98 49.96 49.94 49.92 49.91 49.89 49.87 49.85 49.84 49.82 49.80 49.79 49.77 49.75 49.74 49.72 49.71 49.69 49.68 49.66 49.65 49.63 49.62 49.61 49.59 49.58 49.57 49.56 49.55 49.54 49.53 49.52 49.51 49.50 49.49 49.48 49.47 49.47 49.46 49.45 49.45 49.44 49.44 49.43 49.43 49.43 49.42 49.42 49.42 49.42 49.42 49.42 49.42 49.42 49.42 49.42 49.42 49.43 49.43 49.43 49.44 49.44 49.45 49.45 49.46 49.46 49.47 49.48 49.48 49.49 49.50 49.51 49.52 49.53 49.54 49.55 49.56 49.57 49.58 49.59 49.60 49.61 49.62 49.63 49.65 49.66 49.67 49.68 49.70 49.71 49.72 49.73 49.75 49.76 49.77 49.79 49.80 49.81 49.83 49.84 49.85 49.87 49.88 49.89 49.90 49.92 49.93 49.94 49.95 49.97 49.98 49.99 50.00 50.01 50.02 50.03 50.04 50.05 50.06 50.07 50.08 50.09 50.10 50.11 50.12 50.12 50.13 50.14 50.14 50.15 50.15 50.16 50.16 50.17 50.17 50.17 50.18 50.18 50.18 50.18 50.18 50.18 50.18 50.18 50.18 50.18 50.17 50.17 50.17 50.17 50.16 50.16 50.15 50.15 50.14 50.13 50.13 50.12 50.11 50.10 50.09 50.08 50.07 50.06 50.05 50.04 50.03 50.02 50.01 49.99 49.98 49.97 49.95 49.94 49.92 49.91 49.89 49.88 49.86 49.85 49.83 49.81 49.80 49.78 49.76 49.75 49.73 49.71 49.69 49.68 49.66 49.64 49.62 49.60 49.59 49.57
51.00 50.98 50.96 50.95 50.93 50.91 50.89 50.87 50.86 50.84 50.82 50.80 50.79 50.77 50.75 50.74 50.72 50.70 50.69 50.67 50.66 50.64 50.63 50.61 50.60 50.58 50.57 50.56 50.54 50.53 50.52 50.51 50.50 50.49 50.48 50.47 50.46 50.45 50.44 50.43 50.42 50.42 50.41 50.40 50.40 50.39 50.39 50.38 50.38 50.38 50.38 50.37 50.37 50.37 50.37 50.37 50.37 50.37 50.37 50.37 50.37 50.38 50.38 50.38 50.39 50.39 50.40 50.40 50.41 50.41 50.42 50.43 50.43 50.44 50.45 50.46 50.47 50.48 50.49 50.50 50.51 50.52 50.53 50.54 50.55 50.56 50.57 50.58 50.60 50.61 50.62 50.63 50.65 50.66 50.67 50.68 50.70 50.71 50.72 50.74 50.75 50.76 50.78 50.79 50.80 50.82 50.83 50.84 50.85 50.87 50.88 50.89 50.90 50.92 50.93 50.94 50.95 50.96 50.97 50.98 50.99 51.00 51.01 51.02 51.03 51.04 51.05 51.06 51.07 51.07 51.08 51.09 51.09 51.10 51.10 51.11 51.11 51.12 51.12 51.12 51.13 51.13 51.13 51.13 51.13 51.13 51.13 51.13 51.13 51.13 51.12 51.12 51.12 51.12 51.11 51.11 51.10 51.10 51.09 51.08 51.08 51.07 51.06 51.05 51.04 51.03 51.02 51.01 51.00 50.99 50.98 50.97 50.96 50.94 50.93 50.92 50.90 50.89 50.87 50.86 50.84 50.83 50.81 50.80 50.78 50.76 50.75 50.73 50.71 50.70 50.68 50.66 50.64 50.63 50.61 50.59 50.57 50.55 50.54 50.52 50.50 50.48 50.46 50.45 50.43 50.41 50.39 50.37 50.36 50.34 50.32 50.30 50.29 50.27 50.25 50.24 50.22 50.20 50.19 50.17 50.16 50.14 50.13 50.11 50.10 50.08 50.07 50.06 50.04 50.03 50.02 50.01 50.00 49.99 49.98 49.97 49.96 49.95 49.94 49.93 49.92 49.92 49.91 49.90 49.90 49.89 49.89 49.88 49.88 49.88 49.88 49.87 49.87 49.87 49.87 49.87 49.87 49.87 49.87 49.87 49.87 49.88 49.88 49.88 49.89 49.89 49.90 49.90 49.91 49.91 49.92 49.93 49.93 49.94 49.95 49.96 49.97 49.98 49.99 50.00 50.01 50.02 50.03 50.04 50.05 50.06 50.07 50.08 50.10 50.11 50.12 50.13 50.15 50.16 50.17 50.18 50.20 50.21 50.22 50.24 50.25 50.26 50.28 50.29 50.30 50.32 50.33 50.34 50.35 50.37 50.38 50.39 50.40 50.42 50.43 50.44 50.45 50.46 50.47 50.48 50.49 50.50 50.51 50.52 50.53 50.54 50.55 50.56 50.57 50.57 50.58 50.59 50.59 50.60 50.60 50.61 50.61 50.62 50.62 50.62 50.63 50.63 50.63 50.63 50.63 50.63 50.63 50.63 50.63 50.63 50.62 50.62 50.62 50.62 50.61 50.61 50.60 50.60 50.59 50.58 50.58 50.57 50.56 50.55 50.54 50.53 50.52 50.51 50.50 50.49 50.48 50.47 50.46 50.44 50.43 50.42 50.40 50.39 50.37 50.36 50.34 50.33 50.31 50.30 50.28 50.26 50.25 50.23 50.21 50.20 50.18 50.16 50.14 50.13 50.11 50.09 50.07 50.05 50.04 50.02 50.00 49.98 49.96 49.95 49.93 49.91 49.89 49.87 49.86 49.84 49.82 49.80 49.79 49.77 49.75 49.74 49.72 49.70 49.69 49.67 49.66 49.64 49.63 49.61 49.60 49.58 49.57 49.56 49.54 49.53 49.52 49.51 49.50 49.49 49.48 49.47 49.46 49.45 49.44 49.43 49.42 49.42 49.41 49.40 49.40 49.39 49.39 49.38 49.38 49.38 49.38 49.37 49.37 49.37 49.37 49.37 49.37 49.37 49.37 49.37 49.37 49.38 49.38 49.38 49.39 49.39 49.40 49.40 49.41 49.41 49.42 49.43 49.43 49.44 49.45 49.46 49.47 49.48 49.49 49.50 49.51 49.52 49.53 49.54 49.55 49.56 49.57 49.58 49.60 49.61 49.62 49.63 49.65 49.66 49.67 49.68 49.70 49.71 49.72 49.74 49.75 49.76 49.78 49.79 49.80 49.82 49.83 49.84 49.85 49.87 49.88 49.89 49.90 49.92 49.93 49.94 49.95 49.96 49.97 49.98 49.99 50.00 50.01 50.02 50.03 50.04 50.05 50.06 50.07 50.07 50.08 50.09 50.09 50.10 50.10 50.11 50.11 50.12 50.12 50.12 50.13 50.13 50.13 50.13 50.13 50.13 50.13 50.13 50.13 50.13 50.12 50.12 50.12 50.12 50.11 50.11 50.10 50.10 50.09 50.08 50.08 50.07 50.06 50.05 50.04 50.03 50.02 50.01 50.00 49.99 49.98 49.97 49.96 49.94 49.93 49.92 49.90 49.89 49.87 49.86 49.84 49.83 49.81 49.80 49.78 49.76 49.75 49.73 49.71 49.70 49.68 49.66 49.64 49.63 49.61 49.59 49.57 49.55 49.54 49.52
50.95 50.93 50.91 50.90 50.88 50.86 50.84 50.82 50.81 50.79 50.77 50.75 50.74 50.72 50.70 50.69 50.67 50.65 50.64 50.62 50.61 50.59 50.58 50.56 50.55 50.53 50.52 50.51 50.49 50.48 50.47 50.46 50.45 50.44 50.43 50.42 50.41 50.40 50.39 50.38 50.37 50.37 50.36 50.35 50.35 50.34 50.34 50.33 50.33 50.33 50.33 50.32 50.32 50.32 50.32 50.32 50.32 50.32 50.32 50.32 50.32 50.33 50.33 50.33 50.34 50.34 50.35 50.35 50.36 50.36 50.37 50.38 50.38 50.39 50.40 50.41 50.42 50.43 50.44 50.45 50.46 50.47 50.48 50.49 50.50 50.51 50.52 50.53 50.55 50.56 50.57 50.58 50.60 50.61 50.62 50.63 50.65 50.66 50.67 50.69 50.70 50.71 50.73 50.74 50.75 50.77 50.78 50.79 50.80 50.82 50.83 50.84 50.85 50.87 50.88 50.89 50.90 50.91 50.92 50.93 50.94 50.95 50.96 50.97 50.98 50.99 51.00 51.01 51.02 51.02 51.03 51.04 51.04 51.05 51.05 51.06 51.06 51.07 51.07 51.07 51.08 51.08 51.08 51.08 51.08 51.08 51.08 51.08 51.08 51.08 51.08 51.07 51.07 51.07 51.06 51.06 51.05 51.05 51.04 51.03 51.03 51.02 51.01 51.00 50.99 50.98 50.97 50.96 50.95 50.94 50.93 50.92 50.91 50.89 50.88 50.87 50.85 50.84 50.82 50.81 50.79 50.78 50.76 50.75 50.73 50.71 50.70 50.68 50.66 50.65 50.63 50.61 50.59 50.58 50.56 50.54 50.52 50.50 50.49 50.47 50.45 50.43 50.41 50.40 50.38 50.36 50.34 50.32 50.31 50.29 50.27 50.25 50.24 50.22 50.20 50.19 50.17 50.15 50.14 50.12 50.11 50.09 50.08 50.06 50.05 50.03 50.02 50.01 49.99 49.98 49.97 49.96 49.95 49.94 49.93 49.92 49.91 49.90 49.89 49.88 49.87 49.87 49.86 49.85 49.85 49.84 49.84 49.83 49.83 49.83 49.83 49.82 49.82 49.82 49.82 49.82 49.82 49.82 49.82 49.82 49.82 49.83 49.83 49.83 49.84 49.84 49.85 49.85 49.86 49.86 49.87 49.88 49.88 49.89 49.90 49.91 49.92 49.93 49.94 49.95 49.96 49.97 49.98 49.99 50.00 50.01 50.02 50.03 50.05 50.06 50.07 50.08 50.10 50.11 50.12 50.13 50.15 50.16 50.17 50.19 50.20 50.21 50.23 50.24 50.25 50.27 50.28 50.29 50.30 50.32 50.33 50.34 50.35 50.37 50.38 50.39 50.40 50.41 50.42 50.43 50.44 50.45 50.46 50.47 50.48 50.49 50.50 50.51 50.52 50.52 50.53 50.54 50.54 50.55 50.55 50.56 50.56 50.57 50.57 50.57 50.58 50.58 50.58 50.58 50.58 50.58 50.58 50.58 50.58 50.58 50.58 50.57 50.57 50.57 50.56 50.56 50.55 50.55 50.54 50.53 50.53 50.52 50.51 50.50 50.49 50.48 50.47 50.46 50.45 50.44 50.43 50.42 50.41 50.39 50.38 50.37 50.35 50.34 50.32 50.31 50.29 50.28 50.26 50.25 50.23 50.21 50.20 50.18 50.16 50.15 50.13 50.11 50.09 50.08 50.06 50.04 50.02 50.00 49.99 49.97 49.95 49.93 49.91 49.90 49.88 49.86 49.84 49.82 49.81 49.79 49.77 49.75 49.74 49.72 49.70 49.69 49.67 49.65 49.64 49.62 49.61 49.59 49.58 49.56 49.55 49.53 49.52 49.51 49.49 49.48 49.47 49.46 49.45 49.44 49.43 49.42 49.41 49.40 49.39 49.38 49.37 49.37 49.36 49.35 49.35 49.34 49.34 49.33 49.33 49.33 49.33 49.32 49.32 49.32 49.32 49.32 49.32 49.32 49.32 49.32 49.32 49.33 49.33 49.33 49.34 49.34 49.35 49.35 49.36 49.36 49.37 49.38 49.38 49.39 49.40 49.41 49.42 49.43 49.44 49.45 49.46 49.47 49.48 49.49 49.50 49.51 49.52 49.53 49.55 49.56 49.57 49.58 49.60 49.61 49.62 49.63 49.65 49.66 49.67 49.69 49.70 49.71 49.73 49.74 49.75 49.77 49.78 49.79 49.80 49.82 49.83 49.84 49.85 49.87 49.88 49.89 49.90 49.91 49.92 49.93 49.94 49.95 49.96 49.97 49.98 49.99 50.00 50.01 50.02 50.02 50.03 50.04 50.04 50.05 50.05 50.06 50.06 50.07 50.07 50.07 50.08 50.08 50.08 50.08 50.08 50.08 50.08 50.08 50.08 50.08 50.08 50.07 50.07 50.07 50.06 50.06 50.05 50.05 50.04 50.03 50.03 50.02 50.01 50.00 49.99 49.98 49.97 49.96 49.95 49.94 49.93 49.92 49.91 49.89 49.88 49.87 49.85 49.84 49.82 49.81 49.79 49.78 49.76 49.75 49.73 49.71 49.70 49.68 49.66 49.65 49.63 49.61 49.59 49.58 49.56 49.54 49.52 49.50 49.49 49.47
50.90 50.88 50.86 50.85 50.83 50.81 50.79 50.77 50.76 50.74 50.72 50.70 50.69 50.67 50.65 50.64 50.62 50.60 50.59 50.57 50.56 50.54 50.53 50.51 50.50 50.48 50.47 50.46 50.44 50.43 50.42 50.41 50.40 50.39 50.38 50.37 50.36 50.35 50.34 50.33 50.32 50.32 50.31 50.30 50.30 50.29 50.29 50.28 50.28 50.28 50.27 50.27 50.27 50.27 50.27 50.27 50.27 50.27 50.27 50.27 50.27 50.28 50.28 50.28 50.29 50.29 50.30 50.30 50.31 50.31 50.32 50.33 50.33 50.34 50.35 50.36 50.37 50.38 50.39 50.40 50.41 50.42 50.43 50.44 50.45 50.46 50.47 50.48 50.50 50.51 50.52 50.53 50.55 50.56 50.57 50.58 50.60 50.61 50.62 50.64 50.65 50.66 50.68 50.69 50.70 50.72 50.73 50.74 50.75 50.77 50.78 50.79 50.80 50.82 50.83 50.84 50.85 50.86 50.87 50.88 50.89 50.90 50.91 50.92 50.93 50.94 50.95 50.96 50.97 50.97 50.98 50.99 50.99 51.00 51.00 51.01 51.01 51.02 51.02 51.02 51.03 51.03 51.03 51.03 51.03 51.03 51.03 51.03 51.03 51.03 51.02 51.02 51.02 51.02 51.01 51.01 51.00 51.00 50.99 50.98 50.98 50.97 50.96 50.95 50.94 50.93 50.92 50.91 50.90 50.89 50.88 50.87 50.86 50.84 50.83 50.82 50.80 50.79 50.77 50.76 50.74 50.73 50.71 50.70 50.68 50.66 50.65 50.63 50.61 50.60 50.58 50.56 50.54 50.53 50.51 50.49 50.47 50.45 50.44 50.42 50.40 50.38 50.36 50.35 50.33 50.31 50.29 50.27 50.26 50.24 50.22 50.20 50.19 50.17 50.15 50.14 50.12 50.10 50.09 50.07 50.06 50.04 50.03 50.01 50.00 49.98 49.97 49.96 49.94 49.93 49.92 49.91 49.90 49.89 49.88 49.87 49.86 49.85 49.84 49.83 49.82 49.82 49.81 49.80 49.80 49.79 49.79 49.78 49.78 49.78 49.77 49.77 49.77 49.77 49.77 49.77 49.77 49.77 49.77 49.77 49.77 49.78 49.78 49.78 49.79 49.79 49.80 49.80 49.81 49.81 49.82 49.83 49.83 49.84 49.85 49.86 49.87 49.88 49.89 49.90 49.91 49.92 49.93 49.94 49.95 49.96 49.97 49.98 50.00 50.01 50.02 50.03 50.05 50.06 50.07 50.08 50.10 50.11 50.12 50.14 50.15 50.16 50.18 50.19 50.20 50.22 50.23 50.24 50.25 50.27 50.28 50.29 50.30 50.32 50.33 50.34 50.35 50.36 50.37 50.38 50.39 50.40 50.41 50.42 50.43 50.44 50.45 50.46 50.47 50.47 50.48 50.49 50.49 50.50 50.50 50.51 50.51 50.52 50.52 50.52 50.53 50.53 50.53 50.53 50.53 50.53 50.53 50.53 50.53 50.53 50.52 50.52 50.52 50.52 50.51 50.51 50.50 50.50 50.49 50.48 50.48 50.47 50.46 50.45 50.44 50.43 50.42 50.41 50.40 50.39 50.38 50.37 50.36 50.34 50.33 50.32 50.30 50.29 50.27 50.26 50.24 50.23 50.21 50.20 50.18 50.16 50.15 50.13 50.11 50.10 50.08 50.06 50.04 50.03 50.01 49.99 49.97 49.95 49.94 49.92 49.90 49.88 49.86 49.85 49.83 49.81 49.79 49.77 49.76 49.74 49.72 49.70 49.69 49.67 49.65 49.64 49.62 49.60 49.59 49.57 49.56 49.54 49.53 49.51 49.50 49.48 49.47 49.46 49.44 49.43 49.42 49.41 49.40 49.39 49.38 49.37 49.36 49.35 49.34 49.33 49.32 49.32 49.31 49.30 49.30 49.29 49.29 49.28 49.28 49.28 49.27 49.27 49.27 49.27 49.27 49.27 49.27 49.27 49.27 49.27 49.27 49.28 49.28 49.28 49.29 49.29 49.30 49.30 49.31 49.31 49.32 49.33 49.33 49.34 49.35 49.36 49.37 49.38 49.39 49.40 49.41 49.42 49.43 49.44 49.45 49.46 49.47 49.48 49.50 49.51 49.52 49.53 49.55 49.56 49.57 49.58 49.60 49.61 49.62 49.64 49.65 49.66 49.68 49.69 49.70 49.72 49.73 49.74 49.75 49.77 49.78 49.79 49.80 49.82 49.83 49.84 49.85 49.86 49.87 49.88 49.89 49.90 49.91 49.92 49.93 49.94 49.95 49.96 49.97 49.97 49.98 49.99 49.99 50.00 50.00 50.01 50.01 50.02 50.02 50.02 50.03 50.03 50.03 50.03 50.03 50.03 50.03 50.03 50.03 50.03 50.02 50.02 50.02 50.02 50.01 50.01 50.00 50.00 49.99 49.98 49.98 49.97 49.96 49.95 49.94 49.93 49.92 49.91 49.90 49.89 49.88 49.87 49.86 49.84 49.83 49.82 49.80 49.79 49.77 49.76 49.74 49.73 49.71 49.70 49.68 49.66 49.65 49.63 49.61 49.60 49.58 49.56 49.54 49.53 49.51 49.49 49.47 49.45 49.44 49.42
50.85 50.83 50.81 50.80 50.78 50.76 50.74 50.72 50.71 50.69 50.67 50.65 50.64 50.62 50.60 50.59 50.57 50.55 50.54 50.52 50.51 50.49 50.48 50.46 50.45 50.43 50.42 50.41 50.39 50.38 50.37 50.36 50.35 50.34 50.33 50.32 50.31 50.30 50.29 50.28 50.27 50.27 50.26 50.25 50.25 50.24 50.24 50.23 50.23 50.23 50.23 50.22 50.22 50.22 50.22 50.22 50.22 50.22 50.22 50.22 50.22 50.23 50.23 50.23 50.24 50.24 50.25 50.25 50.26 50.26 50.27 50.28 50.28 50.29 50.30 50.31 50.32 50.33 50.34 50.35 50.36 50.37 50.38 50.39 50.40 50.41 50.42 50.43 50.45 50.46 50.47 50.48 50.50 50.51 50.52 50.53 50.55 50.56 50.57 50.59 50.60 50.61 50.63 50.64 50.65 50.67 50.68 50.69 50.70 50.72 50.73 50.74 50.75 50.77 50.78 50.79 50.80 50.81 50.82 50.83 50.84 50.85 50.86 50.87 50.88 50.89 50.90 50.91 50.92 50.92 50.93 50.94 50.94 50.95 50.95 50.96 50.96 50.97 50.97 50.97 50.98 50.98 50.98 50.98 50.98 50.98 50.98 50.98 50.98 50.98 50.98 50.97 50.97 50.97 50.96 50.96 50.95 50.95 50.94 50.93 50.93 50.92 50.91 50.90 50.89 50.88 50.87 50.86 50.85 50.84 50.83 50.82 50.81 50.79 50.78 50.77 50.75 50.74 50.72 50.71 50.69 50.68 50.66 50.65 50.63 50.61 50.60 50.58 50.56 50.55 50.53 50.51 50.49 50.48 50.46 50.44 50.42 50.40 50.39 50.37 50.35 50.33 50.31 50.30 50.28 50.26 50.24 50.22 50.21 50.19 50.17 50.15 50.14 50.12 50.10 50.09 50.07 50.05 50.04 50.02 50.01 49.99 49.98 49.96 49.95 49.93 49.92 49.91 49.89 49.88 49.87 49.86 49.85 49.84 49.83 49.82 49.81 49.80 49.79 49.78 49.77 49.77 49.76 49.75 49.75 49.74 49.74 49.73 49.73 49.73 49.73 49.72 49.72 49.72 49.72 49.72 49.72 49.72 49.72 49.72 49.72 49.73 49.73 49.73 49.74 49.74 49.75 49.75 49.76 49.76 49.77 49.78 49.78 49.79 49.80 49.81 49.82 49.83 49.84 49.85 49.86 49.87 49.88 49.89 49.90 49.91 49.92 49.93 49.95 49.96 49.97 49.98 50.00 50.01 50.02 50.03 50.05 50.06 50.07 50.09 50.10 50.11 50.13 50.14 50.15 50.17 50.18 50.19 50.20 50.22 50.23 50.24 50.25 50.27 50.28 50.29 50.30 50.31 50.32 50.33 50.34 50.35 50.36 50.37 50.38 50.39 50.40 50.41 50.42 50.42 50.43 50.44 50.44 50.45 50.45 50.46 50.46 50.47 50.47 50.47 50.48 50.48 50.48 50.48 50.48 50.48 50.48 50.48 50.48 50.48 50.48 50.47 50.47 50.47 50.46 50.46 50.45 50.45 50.44 50.43 50.43 50.42 50.41 50.40 50.39 50.38 50.37 50.36 50.35 50.34 50.33 50.32 50.31 50.29 50.28 50.27 50.25 50.24 50.22 50.21 50.19 50.18 50.16 50.15 50.13 50.11 50.10 50.08 50.06 50.05 50.03 50.01 49.99 49.98 49.96 49.94 49.92 49.90 49.89 49.87 49.85 49.83 49.81 49.80 49.78 49.76 49.74 49.72 49.71 49.69 49.67 49.65 49.64 49.62 49.60 49.59 49.57 49.55 49.54 49.52 49.51 49.49 49.48 49.46 49.45 49.43 49.42 49.41 49.39 49.38 49.37 49.36 49.35 49.34 49.33 49.32 49.31 49.30 49.29 49.28 49.27 49.27 49.26 49.25 49.25 49.24 49.24 49.23 49.23 49.23 49.23 49.22 49.22 49.22 49.22 49.22 49.22 49.22 49.22 49.22 49.22 49.23 49.23 49.23 49.24 49.24 49.25 49.25 49.26 49.26 49.27 49.28 49.28 49.29 49.30 49.31 49.32 49.33 49.34 49.35 49.36 49.37 49.38 49.39 49.40 49.41 49.42 49.43 49.45 49.46 49.47 49.48 49.50 49.51 49.52 49.53 49.55 49.56 49.57 49.59 49.60 49.61 49.63 49.64 49.65 49.67 49.68 49.69 49.70 49.72 49.73 49.74 49.75 49.77 49.78 49.79 49.80 49.81 49.82 49.83 49.84 49.85 49.86 49.87 49.88 49.89 49.90 49.91 49.92 49.92 49.93 49.94 49.94 49.95 49.95 49.96 49.96 49.97 49.97 49.97 49.98 49.98 49.98 49.98 49.98 49.98 49.98 49.98 49.98 49.98 49.98 49.97 49.97 49.97 49.96 49.96 49.95 49.95 49.94 49.93 49.93 49.92 49.91 49.90 49.89 49.88 49.87 49.86 49.85 49.84 49.83 49.82 49.81 49.79 49.78 49.77 49.75 49.74 49.72 49.71 49.69 49.68 49.66 49.65 49.63 49.61 49.60 49.58 49.56 49.55 49.53 49.51 49.49 49.48 49.46 49.44 49.42 49.40 49.39 49.37
50.80 50.78 50.76 50.75 50.73 50.71 50.69 50.67 50.66 50.64 50.62 50.60 50.59 50.57 50.55 50.54 50.52 50.50 50.49 50.47 50.46 50.44 50.43 50.41 50.40 50.38 50.37 50.36 50.34 50.33 50.32 50.31 50.30 50.29 50.28 50.27 50.26 50.25 50.24 50.23 50.22 50.22 50.21 50.20 50.20 50.19 50.19 50.18 50.18 50.18 50.17 50.17 50.17 50.17 50.17 50.17 50.17 50.17 50.17 50.17 50.17 50.18 50.18 50.18 50.19 50.19 50.20 50.20 50.21 50.21 50.22 50.23 50.23 50.24 50.25 50.26 50.27 50.28 50.29 50.30 50.31 50.32 50.33 50.34 50.35 50.36 50.37 50.38 50.40 50.41 50.42 50.43 50.45 50.46 50.47 50.48 50.50 50.51 50.52 50.54 50.55 50.56 50.58 50.59 50.60 50.62 50.63 50.64 50.65 50.67 50.68 50.69 50.70 50.72 50.73 50.74 50.75 50.76 50.77 50.78 50.79 50.80 50.81 50.82 50.83 50.84 50.85 50.86 50.87 50.87 50.88 50.89 50.89 50.90 50.90 50.91 50.91 50.92 50.92 50.92 50.93 50.93 50.93 50.93 50.93 50.93 50.93 50.93 50.93 50.93 50.92 50.92 50.92 50.92 50.91 50.91 50.90 50.90 50.89 50.88 50.88 50.87 50.86 50.85 50.84 50.83 50.82 50.81 50.80 50.79 50.78 50.77 50.76 50.74 50.73 50.72 50.70 50.69 50.67 50.66 50.64 50.63 50.61 50.60 50.58 50.56 50.55 50.53 50.51 50.50 50.48 50.46 50.44 50.43 50.41 50.39 50.37 50.35 50.34 50.32 50.30 50.28 50.26 50.25 50.23 50.21 50.19 50.17 50.16 50.14 50.12 50.10 50.09 50.07 50.05 50.04 50.02 50.00 49.99 49.97 49.96 49.94 49.93 49.91 49.90 49.88 49.87 49.86 49.84 49.83 49.82 49.81 49.80 49.79 49.78 49.77 49.76 49.75 49.74 49.73 49.72 49.72 49.71 49.70 49.70 49.69 49.69 49.68 49.68 49.68 49.67 49.67 49.67 49.67 49.67 49.67 49.67 49.67 49.67 49.67 49.67 49.68 49.68 49.68 49.69 49.69 49.70 49.70 49.71 49.71 49.72 49.73 49.73 49.74 49.75 49.76 49.77 49.78 49.79 49.80 49.81 49.82 49.83 49.84 49.85 49.86 49.87 49.88 49.90 49.91 49.92 49.93 49.95 49.96 49.97 49.98 50.00 50.01 50.02 50.04 50.05 50.06 50.08 50.09 50.10 50.12 50.13 50.14 50.15 50.17 50.18 50.19 50.20 50.22 50.23 50.24 50.25 50.26 50.27 50.28 50.29 50.30 50.31 50.32 50.33 50.34 50.35 50.36 50.37 50.37 50.38 50.39 50.39 50.40 50.40 50.41 50.41 50.42 50.42 50.42 50.43 50.43 50.43 50.43 50.43 50.43 50.43 50.43 50.43 50.43 50.42 50.42 50.42 50.42 50.41 50.41 50.40 50.40 50.39 50.38 50.38 50.37 50.36 50.35 50.34 50.33 50.32 50.31 50.30 50.29 50.28 50.27 50.26 50.24 50.23 50.22 50.20 50.19 50.17 50.16 50.14 50.13 50.11 50.10 50.08 50.06 50.05 50.03 50.01 50.00 49.98 49.96 49.94 49.93 49.91 49.89 49.87 49.85 49.84 49.82 49.80 49.78 49.76 49.75 49.73 49.71 49.69 49.67 49.66 49.64 49.62 49.60 49.59 49.57 49.55 49.54 49.52 49.50 49.49 49.47 49.46 49.44 49.43 49.41 49.40 49.38 49.37 49.36 49.34 49.33 49.32 49.31 49.30 49.29 49.28 49.27 49.26 49.25 49.24 49.23 49.22 49.22 49.21 49.20 49.20 49.19 49.19 49.18 49.18 49.18 49.17 49.17 49.17 49.17 49.17 49.17 49.17 49.17 49.17 49.17 49.17 49.18 49.18 49.18 49.19 49.19 49.20 49.20 49.21 49.21 49.22 49.23 49.23 49.24 49.25 49.26 49.27 49.28 49.29 49.30 49.31 49.32 49.33 49.34 49.35 49.36 49.37 49.38 49.40 49.41 49.42 49.43 49.45 49.46 49.47 49.48 49.50 49.51 49.52 49.54 49.55 49.56 49.58 49.59 49.60 49.62 49.63 49.64 49.65 49.67 49.68 49.69 49.70 49.72 49.73 49.74 49.75 49.76 49.77 49.78 49.79 49.80 49.81 49.82 49.83 49.84 49.85 49.86 49.87 49.87 49.88 49.89 49.89 49.90 49.90 49.91 49.91 49.92 49.92 49.92 49.93 49.93 49.93 49.93 49.93 49.93 49.93 49.93 49.93 49.93 49.92 49.92 49.92 49.92 49.91 49.91 49.90 49.90 49.89 49.88 49.88 49.87 49.86 49.85 49.84 49.83 49.82 49.81 49.80 49.79 49.78 49.77 49.76 49.74 49.73 49.72 49.70 49.69 49.67 49.66 49.64 49.63 49.61 49.60 49.58 49.56 49.55 49.53 49.51 49.50 49.48 49.46 49.44 49.43 49.41 49.39 49.37 49.35 49.34 49.32
50.75 50.73 50.71 50.70 50.68 50.66 50.64 50.62 50.61 50.59 50.57 50.55 50.54 50.52 50.50 50.49 50.47 50.45 50.44 50.42 50.41 50.39 50.38 50.36 50.35 50.33 50.32 50.31 50.29 50.28 50.27 50.26 50.25 50.24 50.23 50.22 50.21 50.20 50.19 50.18 50.17 50.17 50.16 50.15 50.15 50.14 50.14 50.13 50.13 50.13 50.12 50.12 50.12 50.12 50.12 50.12 50.12 50.12 50.12 50.12 50.12 50.13 50.13 50.13 50.14 50.14 50.15 50.15 50.16 50.16 50.17 50.18 50.18 50.19 50.20 50.21 50.22 50.23 50.24 50.25 50.26 50.27 50.28 50.29 50.30 50.31 50.32 50.33 50.35 50.36 50.37 50.38 50.40 50.41 50.42 50.43 50.45 50.46 50.47 50.49 50.50 50.51 50.53 50.54 50.55 50.57 50.58 50.59 50.60 50.62 50.63 50.64 50.65 50.67 50.68 50.69 50.70 50.71 50.72 50.73 50.74 50.75 50.76 50.77 50.78 50.79 50.80 50.81 50.82 50.82 50.83 50.84 50.84 50.85 50.85 50.86 50.86 50.87 50.87 50.87 50.88 50.88 50.88 50.88 50.88 50.88 50.88 50.88 50.88 50.88 50.88 50.87 50.87 50.87 50.86 50.86 50.85 50.85 50.84 50.83 50.83 50.82 50.81 50.80 50.79 50.78 50.77 50.76 50.75 50.74 50.73 50.72 50.71 50.69 50.68 50.67 50.65 50.64 50.62 50.61 50.59 50.58 50.56 50.55 50.53 50.51 50.50 50.48 50.46 50.45 50.43 50.41 50.39 50.38 50.36 50.34 50.32 50.30 50.29 50.27 50.25 50.23 50.21 50.20 50.18 50.16 50.14 50.12 50.11 50.09 50.07 50.05 50.04 50.02 50.00 49.99 49.97 49.95 49.94 49.92 49.91 49.89 49.88 49.86 49.85 49.83 49.82 49.81 49.79 49.78 49.77 49.76 49.75 49.74 49.73 49.72 49.71 49.70 49.69 49.68 49.67 49.67 49.66 49.65 49.65 49.64 49.64 49.63 49.63 49.63 49.62 49.62 49.62 49.62 49.62 49.62 49.62 49.62 49.62 49.62 49.62 49.63 49.63 49.63 49.64 49.64 49.65 49.65 49.66 49.66 49.67 49.68 49.68 49.69 49.70 49.71 49.72 49.73 49.74 49.75 49.76 49.77 49.78 49.79 49.80 49.81 49.82 49.83 49.85 49.86 49.87 49.88 49.90 49.91 49.92 49.93 49.95 49.96 49.97 49.99 50.00 50.01 50.03 50.04 50.05 50.07 50.08 50.09 50.10 50.12 50.13 50.14 50.15 50.17 50.18 50.19 50.20 50.21 50.22 50.23 50.24 50.25 50.26 50.27 50.28 50.29 50.30 50.31 50.32 50.32 50.33 50.34 50.34 50.35 50.35 50.36 50.36 50.37 50.37 50.37 50.38 50.38 50.38 50.38 50.38 50.38 50.38 50.38 50.38 50.38 50.38 50.37 50.37 50.37 50.36 50.36 50.35 50.35 50.34 50.33 50.33 50.32 50.31 50.30 50.29 50.28 50.27 50.26 50.25 50.24 50.23 50.22 50.21 50.19 50.18 50.17 50.15 50.14 50.12 50.11 50.09 50.08 50.06 50.05 50.03 50.01 50.00 49.98 49.96 49.95 49.93 49.91 49.89 49.88 49.86 49.84 49.82 49.80 49.79 49.77 49.75 49.73 49.71 49.70 49.68 49.66 49.64 49.62 49.61 49.59 49.57 49.55 49.54 49.52 49.50 49.49 49.47 49.45 49.44 49.42 49.41 49.39 49.38 49.36 49.35 49.33 49.32 49.31 49.29 49.28 49.27 49.26 49.25 49.24 49.23 49.22 49.21 49.20 49.19 49.18 49.17 49.17 49.16 49.15 49.15 49.14 49.14 49.13 49.13 49.13 49.12 49.12 49.12 49.12 49.12 49.12 49.12 49.12 49.12 49.12 49.12 49.13 49.13 49.13 49.14 49.14 49.15 49.15 49.16 49.16 49.17 49.18 49.18 49.19 49.20 49.21 49.22 49.23 49.24 49.25 49.26 49.27 49.28 49.29 49.30 49.31 49.32 49.33 49.35 49.36 49.37 49.38 49.40 49.41 49.42 49.43 49.45 49.46 49.47 49.49 49.50 49.51 49.53 49.54 49.55 49.57 49.58 49.59 49.60 49.62 49.63 49.64 49.65 49.67 49.68 49.69 49.70 49.71 49.72 49.73 49.74 49.75 49.76 49.77 49.78 49.79 49.80 49.81 49.82 49.82 49.83 49.84 49.84 49.85 49.85 49.86 49.86 49.87 49.87 49.87 49.88 49.88 49.88 49.88 49.88 49.88 49.88 49.88 49.88 49.88 49.88 49.87 49.87 49.87 49.86 49.86 49.85 49.85 49.84 49.83 49.83 49.82 49.81 49.80 49.79 49.78 49.77 49.76 49.75 49.74 49.73 49.72 49.71 49.69 49.68 49.67 49.65 49.64 49.62 49.61 49.59 49.58 49.56 49.55 49.53 49.51 49.50 49.48 49.46 49.45 49.43 49.41 49.39 49.38 49.36 49.34 49.32 49.30 49.29 49.27
50.70 50.68 50.66 50.65 50.63 50.61 50.59 50.57 50.56 50.54 50.52 50.50 50.49 50.47 50.45 50.44 50.42 50.40 50.39 50.37 50.36 50.34 50.33 50.31 50.30 50.28 50.27 50.26 50.24 50.23 50.22 50.21 50.20 50.19 50.18 50.17 50.16 50.15 50.14 50.13 50.12 50.12 50.11 50.10 50.10 50.09 50.09 50.08 50.08 50.08 50.08 50.07 50.07 50.07 50.07 50.07 50.07 50.07 50.07 50.07 50.07 50.08 50.08 50.08 50.09 50.09 50.10 50.10 50.11 50.11 50.12 50.13 50.13 50.14 50.15 50.16 50.17 50.18 50.19 50.20 50.21 50.22 50.23 50.24 50.25 50.26 50.27 50.28 50.30 50.31 50.32 50.33 50.35 50.36 50.37 50.38 50.40 50.41 50.42 50.44 50.45 50.46 50.48 50.49 50.50 50.52 50.53 50.54 50.55 50.57 50.58 50.59 50.60 50.62 50.63 50.64 50.65 50.66 50.67 50.68 50.69 50.70 50.71 50.72 50.73 50.74 50.75 50.76 50.77 50.77 50.78 50.79 50.79 50.80 50.80 50.81 50.81 50.82 50.82 50.82 50.83 50.83 50.83 50.83 50.83 50.83 50.83 50.83 50.83 50.83 50.83 50.82 50.82 50.82 50.81 50.81 50.80 50.80 50.79 50.78 50.78 50.77 50.76 50.75 50.74 50.73 50.72 50.71 50.70 50.69 50.68 50.67 50.66 50.64 50.63 50.62 50.60 50.59 50.57 50.56 50.54 50.53 50.51 50.50 50.48 50.46 50.45 50.43 50.41 50.40 50.38 50.36 50.34 50.33 50.31 50.29 50.27 50.25 50.24 50.22 50.20 50.18 50.16 50.15 50.13 50.11 50.09 50.07 50.06 50.04 50.02 50.00 49.99 49.97 49.95 49.94 49.92 49.90 49.89 49.87 49.86 49.84 49.83 49.81 49.80 49.78 49.77 49.76 49.74 49.73 49.72 49.71 49.70 49.69 49.68 49.67 49.66 49.65 49.64 49.63 49.62 49.62 49.61 49.60 49.60 49.59 49.59 49.58 49.58 49.58 49.58 49.57 49.57 49.57 49.57 49.57 49.57 49.57 49.57 49.57 49.57 49.58 49.58 49.58 49.59 49.59 49.60 49.60 49.61 49.61 49.62 49.63 49.63 49.64 49.65 49.66 49.67 49.68 49.69 49.70 49.71 49.72 49.73 49.74 49.75 49.76 49.77 49.78 49.80 49.81 49.82 49.83 49.85 49.86 49.87 49.88 49.90 49.91 49.92 49.94 49.95 49.96 49.98 49.99 50.00 50.02 50.03 50.04 50.05 50.07 50.08 50.09 50.10 50.12 50.13 50.14 50.15 50.16 50.17 50.18 50.19 50.20 50.21 50.22 50.23 50.24 50.25 50.26 50.27 50.27 50.28 50.29 50.29 50.30 50.30 50.31 50.31 50.32 50.32 50.32 50.33 50.33 50.33 50.33 50.33 50.33 50.33 50.33 50.33 50.33 50.33 50.32 50.32 50.32 50.31 50.31 50.30 50.30 50.29 50.28 50.28 50.27 50.26 50.25 50.24 50.23 50.22 50.21 50.20 50.19 50.18 50.17 50.16 50.14 50.13 50.12 50.10 50.09 50.07 50.06 50.04 50.03 50.01 50.00 49.98 49.96 49.95 49.93 49.91 49.90 49.88 49.86 49.84 49.83 49.81 49.79 49.77 49.75 49.74 49.72 49.70 49.68 49.66 49.65 49.63 49.61 49.59 49.57 49.56 49.54 49.52 49.50 49.49 49.47 49.45 49.44 49.42 49.40 49.39 49.37 49.36 49.34 49.33 49.31 49.30 49.28 49.27 49.26 49.24 49.23 49.22 49.21 49.20 49.19 49.18 49.17 49.16 49.15 49.14 49.13 49.12 49.12 49.11 49.10 49.10 49.09 49.09 49.08 49.08 49.08 49.08 49.07 49.07 49.07 49.07 49.07 49.07 49.07 49.07 49.07 49.07 49.08 49.08 49.08 49.09 49.09 49.10 49.10 49.11 49.11 49.12 49.13 49.13 49.14 49.15 49.16 49.17 49.18 49.19 49.20 49.21 49.22 49.23 49.24 49.25 49.26 49.27 49.28 49.30 49.31 49.32 49.33 49.35 49.36 49.37 49.38 49.40 49.41 49.42 49.44 49.45 49.46 49.48 49.49 49.50 49.52 49.53 49.54 49.55 49.57 49.58 49.59 49.60 49.62 49.63 49.64 49.65 49.66 49.67 49.68 49.69 49.70 49.71 49.72 49.73 49.74 49.75 49.76 49.77 49.77 49.78 49.79 49.79 49.80 49.80 49.81 49.81 49.82 49.82 49.82 49.83 49.83 49.83 49.83 49.83 49.83 49.83 49.83 49.83 49.83 49.83 49.82 49.82 49.82 49.81 49.81 49.80 49.80 49.79 49.78 49.78 49.77 49.76 49.75 49.74 49.73 49.72 49.71 49.70 49.69 49.68 49.67 49.66 49.64 49.63 49.62 49.60 49.59 49.57 49.56 49.54 49.53 49.51 49.50 49.48 49.46 49.45 49.43 49.41 49.40 49.38 49.36 49.34 49.33 49.31 49.29 49.27 49.25 49.24 49.22
50.65 50.63 50.61 50.60 50.58 50.56 50.54 50.52 50.51 50.49 50.47 50.45 50.44 50.42 50.40 50.39 50.37 50.35 50.34 50.32 50.31 50.29 50.28 50.26 50.25 50.23 50.22 50.21 50.19 50.18 50.17 50.16 50.15 50.14 50.13 50.12 50.11 50.10 50.09 50.08 50.07 50.07 50.06 50.05 50.05 50.04 50.04 50.03 50.03 50.03 50.02 50.02 50.02 50.02 50.02 50.02 50.02 50.02 50.02 50.02 50.02 50.03 50.03 50.03 50.04 50.04 50.05 50.05 50.06 50.06 50.07 50.08 50.08 50.09 50.10 50.11 50.12 50.13 50.14 50.15 50.16 50.17 50.18 50.19 50.20 50.21 50.22 50.23 50.25 50.26 50.27 50.28 50.30 50.31 50.32 50.33 50.35 50.36 50.37 50.39 50.40 50.41 50.43 50.44 50.45 50.47 50.48 50.49 50.50 50.52 50.53 50.54 50.55 50.57 50.58 50.59 50.60 50.61 50.62 50.63 50.64 50.65 50.66 50.67 50.68 50.69 50.70 50.71 50.72 50.72 50.73 50.74 50.74 50.75 50.75 50.76 50.76 50.77 50.77 50.77 50.78 50.78 50.78 50.78 50.78 50.78 50.78 50.78 50.78 50.78 50.77 50.77 50.77 50.77 50.76 50.76 50.75 50.75 50.74 50.73 50.73 50.72 50.71 50.70 50.69 50.68 50.67 50.66 50.65 50.64 50.63 50.62 50.61 50.59 50.58 50.57 50.55 50.54 50.52 50.51 50.49 50.48 50.46 50.45 50.43 50.41 50.40 50.38 50.36 50.35 50.33 50.31 50.29 50.28 50.26 50.24 50.22 50.20 50.19 50.17 50.15 50.13 50.11 50.10 50.08 50.06 50.04 50.02 50.01 49.99 49.97 49.95 49.94 49.92 49.90 49.89 49.87 49.85 49.84 49.82 49.81 49.79 49.78 49.76 49.75 49.73 49.72 49.71 49.69 49.68 49.67 49.66 49.65 49.64 49.63 49.62 49.61 49.60 49.59 49.58 49.57 49.57 49.56 49.55 49.55 49.54 49.54 49.53 49.53 49.53 49.52 49.52 49.52 49.52 49.52 49.52 49.52 49.52 49.52 49.52 49.52 49.53 49.53 49.53 49.54 49.54 49.55 49.55 49.56 49.56 49.57 49.58 49.58 49.59 49.60 49.61 49.62 49.63 49.64 49.65 49.66 49.67 49.68 49.69 49.70 49.71 49.72 49.73 49.75 49.76 49.77 49.78 49.80 49.81 49.82 49.83 49.85 49.86 49.87 49.89 49.90 49.91 49.93 49.94 49.95 49.97 49.98 49.99 50.00 50.02 50.03 50.04 50.05 50.07 50.08 50.09 50.10 50.11 50.12 50.13 50.14 50.15 50.16 50.17 50.18 50.19 50.20 50.21 50.22 50.22 50.23 50.24 50.24 50.25 50.25 50.26 50.26 50.27 50.27 50.27 50.28 50.28 50.28 50.28 50.28 50.28 50.28 50.28 50.28 50.28 50.27 50.27 50.27 50.27 50.26 50.26 50.25 50.25 50.24 50.23 50.23 50.22 50.21 50.20 50.19 50.18 50.17 50.16 50.15 50.14 50.13 50.12 50.11 50.09 50.08 50.07 50.05 50.04 50.02 50.01 49.99 49.98 49.96 49.95 49.93 49.91 49.90 49.88 49.86 49.85 49.83 49.81 49.79 49.78 49.76 49.74 49.72 49.70 49.69 49.67 49.65 49.63 49.61 49.60 49.58 49.56 49.54 49.52 49.51 49.49 49.47 49.45 49.44 49.42 49.40 49.39 49.37 49.35 49.34 49.32 49.31 49.29 49.28 49.26 49.25 49.23 49.22 49.21 49.19 49.18 49.17 49.16 49.15 49.14 49.13 49.12 49.11 49.10 49.09 49.08 49.07 49.07 49.06 49.05 49.05 49.04 49.04 49.03 49.03 49.03 49.02 49.02 49.02 49.02 49.02 49.02 49.02 49.02 49.02 49.02 49.02 49.03 49.03 49.03 49.04 49.04 49.05 49.05 49.06 49.06 49.07 49.08 49.08 49.09 49.10 49.11 49.12 49.13 49.14 49.15 49.16 49.17 49.18 49.19 49.20 49.21 49.22 49.23 49.25 49.26 49.27 49.28 49.30 49.31 49.32 49.33 49.35 49.36 49.37 49.39 49.40 49.41 49.43 49.44 49.45 49.47 49.48 49.49 49.50 49.52 49.53 49.54 49.55 49.57 49.58 49.59 49.60 49.61 49.62 49.63 49.64 49.65 49.66 49.67 49.68 49.69 49.70 49.71 49.72 49.72 49.73 49.74 49.74 49.75 49.75 49.76 49.76 49.77 49.77 49.77 49.78 49.78 49.78 49.78 49.78 49.78 49.78 49.78 49.78 49.78 49.77 49.77 49.77 49.77 49.76 49.76 49.75 49.75 49.74 49.73 49.73 49.72 49.71 49.70 49.69 49.68 49.67 49.66 49.65 49.64 49.63 49.62 49.61 49.59 49.58 49.57 49.55 49.54 49.52 49.51 49.49 49.48 49.46 49.45 49.43 49.41 49.40 49.38 49.36 49.35 49.33 49.31 49.29 49.28 49.26 49.24 49.22 49.20 49.19 49.17
50.60 50.58 50.56 50.55 50.53 50.51 50.49 50.47 50.46 50.44 50.42 50.40 50.39 50.37 50.35 50.34 50.32 50.30 50.29 50.27 50.26 50.24 50.23 50.21 50.20 50.18 50.17 50.16 50.14 50.13 50.12 50.11 50.10 50.09 50.08 50.07 50.06 50.05 50.04 50.03 50.02 50.02 50.01 50.00 50.00 49.99 49.99 49.98 49.98 49.98 49.98 49.97 49.97 49.97 49.97 49.97 49.97 49.97 49.97 49.97 49.97 49.98 49.98 49.98 49.99 49.99 50.00 50.00 50.01 50.01 50.02 50.03 50.03 50.04 50.05 50.06 50.07 50.08 50.09 50.10 50.11 50.12 50.13 50.14 50.15 50.16 50.17 50.18 50.20 50.21 50.22 50.23 50.25 50.26 50.27 50.28 50.30 50.31 50.32 50.34 50.35 50.36 50.38 50.39 50.40 50.42 50.43 50.44 50.45 50.47 50.48 50.49 50.50 50.52 50.53 50.54 50.55 50.56 50.57 50.58 50.59 50.60 50.61 50.62 50.63 50.64 50.65 50.66 50.67 50.67 50.68 50.69 50.69 50.70 50.70 50.71 50.71 50.72 50.72 50.72 50.73 50.73 50.73 50.73 50.73 50.73 50.73 50.73 50.73 50.73 50.73 50.72 50.72 50.72 50.71 50.71 50.70 50.70 50.69 50.68 50.68 50.67 50.66 50.65 50.64 50.63 50.62 50.61 50.60 50.59 50.58 50.57 50.56 50.54 50.53 50.52 50.50 50.49 50.47 50.46 50.44 50.43 50.41 50.40 50.38 50.36 50.35 50.33 50.31 50.30 50.28 50.26 50.24 50.23 50.21 50.19 50.17 50.15 50.14 50.12 50.10 50.08 50.06 50.05 50.03 50.01 49.99 49.97 49.96 49.94 49.92 49.90 49.89 49.87 49.85 49.84 49.82 49.80 49.79 49.77 49.76 49.74 49.73 49.71 49.70 49.68 49.67 49.66 49.64 49.63 49.62 49.61 49.60 49.59 49.58 49.57 49.56 49.55 49.54 49.53 49.52 49.52 49.51 49.50 49.50 49.49 49.49 49.48 49.48 49.48 49.48 49.47 49.47 49.47 49.47 49.47 49.47 49.47 49.47 49.47 49.47 49.48 49.48 49.48 49.49 49.49 49.50 49.50 49.51 49.51 49.52 49.53 49.53 49.54 49.55 49.56 49.57 49.58 49.59 49.60 49.61 49.62 49.63 49.64 49.65 49.66 49.67 49.68 49.70 49.71 49.72 49.73 49.75 49.76 49.77 49.78 49.80 49.81 49.82 49.84 49.85 49.86 49.88 49.89 49.90 49.92 49.93 49.94 49.95 49.97 49.98 49.99 50.00 50.02 50.03 50.04 50.05 50.06 50.07 50.08 50.09 50.10 50.11 50.12 50.13 50.14 50.15 50.16 50.17 50.17 50.18 50.19 50.19 50.20 50.20 50.21 50.21 50.22 50.22 50.22 50.23 50.23 50.23 50.23 50.23 50.23 50.23 50.23 50.23 50.23 50.23 50.22 50.22 50.22 50.21 50.21 50.20 50.20 50.19 50.18 50.18 50.17 50.16 50.15 50.14 50.13 50.12 50.11 50.10 50.09 50.08 50.07 50.06 50.04 50.03 50.02 50.00 49.99 49.97 49.96 49.94 49.93 49.91 49.90 49.88 49.86 49.85 49.83 49.81 49.80 49.78 49.76 49.74 49.73 49.71 49.69 49.67 49.65 49.64 49.62 49.60 49.58 49.56 49.55 49.53 49.51 49.49 49.47 49.46 49.44 49.42 49.40 49.39 49.37 49.35 49.34 49.32 49.30 49.29 49.27 49.26 49.24 49.23 49.21 49.20 49.18 49.17 49.16 49.14 49.13 49.12 49.11 49.10 49.09 49.08 49.07 49.06 49.05 49.04 49.03 49.02 49.02 49.01 49.00 49.00 48.99 48.99 48.98 48.98 48.98 48.98 48.97 48.97 48.97 48.97 48.97 48.97 48.97 48.97 48.97 48.97 48.98 48.98 48.98 48.99 48.99 49.00 49.00 49.01 49.01 49.02 49.03 49.03 49.04 49.05 49.06 49.07 49.08 49.09 49.10 49.11 49.12 49.13 49.14 49.15 49.16 49.17 49.18 49.20 49.21 49.22 49.23 49.25 49.26 49.27 49.28 49.30 49.31 49.32 49.34 49.35 49.36 49.38 49.39 49.40 49.42 49.43 49.44 49.45 49.47 49.48 49.49 49.50 49.52 49.53 49.54 49.55 49.56 49.57 49.58 49.59 49.60 49.61 49.62 49.63 49.64 49.65 49.66 49.67 49.67 49.68 49.69 49.69 49.70 49.70 49.71 49.71 49.72 49.72 49.72 49.73 49.73 49.73 49.73 49.73 49.73 49.73 49.73 49.73 49.73 49.73 49.72 49.72 49.72 49.71 49.71 49.70 49.70 49.69 49.68 49.68 49.67 49.66 49.65 49.64 49.63 49.62 49.61 49.60 49.59 49.58 49.57 49.56 49.54 49.53 49.52 49.50 49.49 49.47 49.46 49.44 49.43 49.41 49.40 49.38 49.36 49.35 49.33 49.31 49.30 49.28 49.26 49.24 49.23 49.21 49.19 49.17 49.15 49.14 49.12
50.55 50.53 50.51 50.50 50.48 50.46 50.44 50.42 50.41 50.39 50.37 50.35 50.34 50.32 50.30 50.29 50.27 50.25 50.24 50.22 50.21 50.19 50.18 50.16 50.15 50.13 50.12 50.11 50.09 50.08 50.07 50.06 50.05 50.04 50.03 50.02 50.01 50.00 49.99 49.98 49.97 49.97 49.96 49.95 49.95 49.94 49.94 49.93 49.93 49.93 49.92 49.92 49.92 49.92 49.92 49.92 49.92 49.92 49.92 49.92 49.92 49.93 49.93 49.93 49.94 49.94 49.95 49.95 49.96 49.96 49.97 49.98 49.98 49.99 50.00 50.01 50.02 50.03 50.04 50.05 50.06 50.07 50.08 50.09 50.10 50.11 50.12 50.13 50.15 50.16 50.17 50.18 50.20 50.21 50.22 50.23 50.25 50.26 50.27 50.29 50.30 50.31 50.33 50.34 50.35 50.37 50.38 50.39 50.40 50.42 50.43 50.44 50.45 50.47 50.48 50.49 50.50 50.51 50.52 50.53 50.54 50.55 50.56 50.57 50.58 50.59 50.60 50.61 50.62 50.62 50.63 50.64 50.64 50.65 50.65 50.66 50.66 50.67 50.67 50.67 50.68 50.68 50.68 50.68 50.68 50.68 50.68 50.68 50.68 50.68 50.67 50.67 50.67 50.67 50.66 50.66 50.65 50.65 50.64 50.63 50.63 50.62 50.61 50.60 50.59 50.58 50.57 50.56 50.55 50.54 50.53 50.52 50.51 50.49 50.48 50.47 50.45 50.44 50.42 50.41 50.39 50.38 50.36 50.35 50.33 50.31 50.30 50.28 50.26 50.25 50.23 50.21 50.19 50.18 50.16 50.14 50.12 50.10 50.09 50.07 50.05 50.03 50.01 50.00 49.98 49.96 49.94 49.92 49.91 49.89 49.87 49.85 49.84 49.82 49.80 49.79 49.77 49.75 49.74 49.72 49.71 49.69 49.68 49.66 49.65 49.63 49.62 49.61 49.59 49.58 49.57 49.56 49.55 49.54 49.53 49.52 49.51 49.50 49.49 49.48 49.47 49.47 49.46 49.45 49.45 49.44 49.44 49.43 49.43 49.43 49.42 49.42 49.42 49.42 49.42 49.42 49.42 49.42 49.42 49.42 49.42 49.43 49.43 49.43 49.44 49.44 49.45 49.45 49.46 49.46 49.47 49.48 49.48 49.49 49.50 49.51 49.52 49.53 49.54 49.55 49.56 49.57 49.58 49.59 49.60 49.61 49.62 49.63 49.65 49.66 49.67 49.68 49.70 49.71 49.72 49.73 49.75 49.76 49.77 49.79 49.80 49.81 49.83 49.84 49.85 49.87 49.88 49.89 49.90 49.92 49.93 49.94 49.95 49.97 49.98 49.99 50.00 50.01 50.02 50.03 50.04 50.05 50.06 50.07 50.08 50.09 50.10 50.11 50.12 50.12 50.13 50.14 50.14 50.15 50.15 50.16 50.16 50.17 50.17 50.17 50.18 50.18 50.18 50.18 50.18 50.18 50.18 50.18 50.18 50.18 50.17 50.17 50.17 50.17 50.16 50.16 50.15 50.15 50.14 50.13 50.13 50.12 50.11 50.10 50.09 50.08 50.07 50.06 50.05 50.04 50.03 50.02 50.01 49.99 49.98 49.97 49.95 49.94 49.92 49.91 49.89 49.88 49.86 49.85 49.83 49.81 49.80 49.78 49.76 49.75 49.73 49.71 49.69 49.68 49.66 49.64 49.62 49.60 49.59 49.57 49.55 49.53 49.51 49.50 49.48 49.46 49.44 49.42 49.41 49.39 49.37 49.35 49.34 49.32 49.30 49.29 49.27 49.25 49.24 49.22 49.21 49.19 49.18 49.16 49.15 49.13 49.12 49.11 49.09 49.08 49.07 49.06 49.05 49.04 49.03 49.02 49.01 49.00 48.99 48.98 48.97 48.97 48.96 48.95 48.95 48.94 48.94 48.93 48.93 48.93 48.92 48.92 48.92 48.92 48.92 48.92 48.92 48.92 48.92 48.92 48.92 48.93 48.93 48.93 48.94 48.94 48.95 48.95 48.96 48.96 48.97 48.98 48.98 48.99 49.00 49.01 49.02 49.03 49.04 49.05 49.06 49.07 49.08 49.09 49.10 49.11 49.12 49.13 49.15 49.16 49.17 49.18 49.20 49.21 49.22 49.23 49.25 49.26 49.27 49.29 49.30 49.31 49.33 49.34 49.35 49.37 49.38 49.39 49.40 49.42 49.43 49.44 49.45 49.47 49.48 49.49 49.50 49.51 49.52 49.53 49.54 49.55 49.56 49.57 49.58 49.59 49.60 49.61 49.62 49.62 49.63 49.64 49.64 49.65 49.65 49.66 49.66 49.67 49.67 49.67 49.68 49.68 49.68 49.68 49.68 49.68 49.68 49.68 49.68 49.68 49.67 49.67 49.67 49.67 49.66 49.66 49.65 49.65 49.64 49.63 49.63 49.62 49.61 49.60 49.59 49.58 49.57 49.56 49.55 49.54 49.53 49.52 49.51 49.49 49.48 49.47 49.45 49.44 49.42 49.41 49.39 49.38 49.36 49.35 49.33 49.31 49.30 49.28 49.26 49.25 49.23 49.21 49.19 49.18 49.16 49.14 49.12 49.10 49.09 49.07
50.50 50.48 50.46 50.45 50.43 50.41 50.39 50.37 50.36 50.34 50.32 50.30 50.29 50.27 50.25 50.24 50.22 50.20 50.19 50.17 50.16 50.14 50.13 50.11 50.10 50.08 50.07 50.06 50.04 50.03 50.02 50.01 50.00 49.99 49.98 49.97 49.96 49.95 49.94 49.93 49.92 49.92 49.91 49.90 49.90 49.89 49.89 49.88 49.88 49.88 49.88 49.87 49.87 49.87 49.87 49.87 49.87 49.87 49.87 49.87 49.87 49.88 49.88 49.88 49.89 49.89 49.90 49.90 49.91 49.91 49.92 49.93 49.93 49.94 49.95 49.96 49.97 49.98 49.99 50.00 50.01 50.02 50.03 50.04 50.05 50.06 50.07 50.08 50.10 50.11 50.12 50.13 50.15 50.16 50.17 50.18 50.20 50.21 50.22 50.24 50.25 50.26 50.28 50.29 50.30 50.32 50.33 50.34 50.35 50.37 50.38 50.39 50.40 50.42 50.43 50.44 50.45 50.46 50.47 50.48 50.49 50.50 50.51 50.52 50.53 50.54 50.55 50.56 50.57 50.57 50.58 50.59 50.59 50.60 50.60 50.61 50.61 50.62 50.62 50.62 50.63 50.63 50.63 50.63 50.63 50.63 50.63 50.63 50.63 50.63 50.62 50.62 50.62 50.62 50.61 50.61 50.60 50.60 50.59 50.58 50.58 50.57 50.56 50.55 50.54 50.53 50.52 50.51 50.50 50.49 50.48 50.47 50.46 50.44 50.43 50.42 50.40 50.39 50.37 50.36 50.34 50.33 50.31 50.30 50.28 50.26 50.25 50.23 50.21 50.20 50.18 50.16 50.14 50.13 50.11 50.09 50.07 50.05 50.04 50.02 50.00 49.98 49.96 49.95 49.93 49.91 49.89 49.87 49.86 49.84 49.82 49.80 49.79 49.77 49.75 49.74 49.72 49.70 49.69 49.67 49.66 49.64 49.63 49.61 49.60 49.58 49.57 49.56 49.54 49.53 49.52 49.51 49.50 49.49 49.48 49.47 49.46 49.45 49.44 49.43 49.42 49.42 49.41 49.40 49.40 49.39 49.39 49.38 49.38 49.38 49.38 49.37 49.37 49.37 49.37 49.37 49.37 49.37 49.37 49.37 49.37 49.38 49.38 49.38 49.39 49.39 49.40 49.40 49.41 49.41 49.42 49.43 49.43 49.44 49.45 49.46 49.47 49.48 49.49 49.50 49.51 49.52 49.53 49.54 49.55 49.56 49.57 49.58 49.60 49.61 49.62 49.63 49.65 49.66 49.67 49.68 49.70 49.71 49.72 49.74 49.75 49.76 49.78 49.79 49.80 49.82 49.83 49.84 49.85 49.87 49.88 49.89 49.90 49.92 49.93 49.94 49.95 49.96 49.97 49.98 49.99 50.00 50.01 50.02 50.03 50.04 50.05 50.06 50.07 50.07 50.08 50.09 50.09 50.10 50.10 50.11 50.11 50.12 50.12 50.12 50.13 50.13 50.13 50.13 50.13 50.13 50.13 50.13 50.13 50.13 50.12 50.12 50.12 50.12 50.11 50.11 50.10 50.10 50.09 50.08 50.08 50.07 50.06 50.05 50.04 50.03 50.02 50.01 50.00 49.99 49.98 49.97 49.96 49.94 49.93 49.92 49.90 49.89 49.87 49.86 49.84 49.83 49.81 49.80 49.78 49.76 49.75 49.73 49.71 49.70 49.68 49.66 49.64 49.63 49.61 49.59 49.57 49.55 49.54 49.52 49.50 49.48 49.46 49.45 49.43 49.41 49.39 49.37 49.36 49.34 49.32 49.30 49.29 49.27 49.25 49.24 49.22 49.20 49.19 49.17 49.16 49.14 49.13 49.11 49.10 49.08 49.07 49.06 49.04 49.03 49.02 49.01 49.00 48.99 48.98 48.97 48.96 48.95 48.94 48.93 48.92 48.92 48.91 48.90 48.90 48.89 48.89 48.88 48.88 48.88 48.88 48.87 48.87 48.87 48.87 48.87 48.87 48.87 48.87 48.87 48.87 48.88 48.88 48.88 48.89 48.89 48.90 48.90 48.91 48.91 48.92 48.93 48.93 48.94 48.95 48.96 48.97 48.98 48.99 49.00 49.01 49.02 49.03 49.04 49.05 49.06 49.07 49.08 49.10 49.11 49.12 49.13 49.15 49.16 49.17 49.18 49.20 49.21 49.22 49.24 49.25 49.26 49.28 49.29 49.30 49.32 49.33 49.34 49.35 49.37 49.38 49.39 49.40 49.42 49.43 49.44 49.45 49.46 49.47 49.48 49.49 49.50 49.51 49.52 49.53 49.54 49.55 49.56 49.57 49.57 49.58 49.59 49.59 49.60 49.60 49.61 49.61 49.62 49.62 49.62 49.63 49.63 49.63 49.63 49.63 49.63 49.63 49.63 49.63 49.63 49.62 49.62 49.62 49.62 49.61 49.61 49.60 49.60 49.59 49.58 49.58 49.57 49.56 49.55 49.54 49.53 49.52 49.51 49.50 49.49 49.48 49.47 49.46 49.44 49.43 49.42 49.40 49.39 49.37 49.36 49.34 49.33 49.31 49.30 49.28 49.26 49.25 49.23 49.21 49.20 49.18 49.16 49.14 49.13 49.11 49.09 49.07 49.05 49.04 49.02
50.45 50.43 50.41 50.40 50.38 50.36 50.34 50.32 50.31 50.29 50.27 50.25 50.24 50.22 50.20 50.19 50.17 50.15 50.14 50.12 50.11 50.09 50.08 50.06 50.05 50.03 50.02 50.01 49.99 49.98 49.97 49.96 49.95 49.94 49.93 49.92 49.86 49.73 49.61 49.50 49.40 49.31 49.23 49.16 49.10 49.05 49.01 48.97 48.95 48.93 48.92 48.93 48.94 48.96 48.99 49.02 49.07 49.13 49.19 49.27 49.35 49.45 49.55 49.67 49.79 49.84 49.85 49.85 49.86 49.86 49.87 49.88 49.88 49.89 49.90 49.91 49.92 49.93 49.94 49.95 49.96 49.97 49.98 49.99 50.00 50.01 50.02 50.03 50.05 50.06 50.07 50.08 50.10 50.11 50.12 50.13 50.15 50.16 50.17 50.19 50.20 50.21 50.23 50.24 50.25 50.27 50.28 50.29 50.30 50.32 50.33 50.34 50.35 50.37 50.38 50.39 50.40 50.41 50.42 50.43 50.44 50.45 50.46 50.47 50.48 50.49 50.50 50.51 50.52 50.52 50.53 50.54 50.54 50.55 50.55 50.56 50.56 50.57 50.57 50.57 50.58 50.58 50.58 50.58 50.58 50.58 50.58 50.58 50.58 50.58 50.58 50.57 50.57 50.57 50.56 50.56 50.55 50.55 50.54 50.53 50.53 50.52 50.51 50.50 50.49 50.48 50.47 50.46 50.45 50.44 50.43 50.42 50.41 50.39 50.38 50.37 50.35 50.34 50.32 50.31 50.29 50.28 50.26 50.25 50.23 50.21 50.20 50.18 50.16 50.15 50.13 50.11 50.09 50.08 50.06 50.04 50.02 50.00 49.99 49.97 49.95 49.93 49.91 49.90 49.88 49.86 49.84 49.82 49.81 49.79 49.77 49.75 49.74 49.72 49.70 49.69 49.67 49.65 49.64 49.62 49.61 49.59 49.58 49.56 49.55 49.53 49.52 49.51 49.49 49.48 49.47 49.46 49.45 49.44 49.43 49.42 49.36 49.23 49.11 49.00 48.90 48.81 48.73 48.66 48.60 48.55 48.51 48.47 48.45 48.43 48.42 48.43 48.44 48.46 48.49 48.52 48.57 48.63 48.69 48.77 48.85 48.95 49.05 49.17 49.29 49.34 49.35 49.35 49.36 49.36 49.37 49.38 49.38 49.39 49.40 49.41 49.42 49.43 49.44 49.45 49.46 49.47 49.48 49.49 49.50 49.51 49.52 49.53 49.55 49.56 49.57 49.58 49.60 49.61 49.62 49.63 49.65 49.66 49.67 49.69 49.70 49.71 49.73 49.74 49.75 49.77 49.78 49.79 49.80 49.82 49.83 49.84 49.85 49.87 49.88 49.89 49.90 49.91 49.92 49.93 49.94 49.95 49.96 49.97 49.98 49.99 50.00 50.01 50.02 50.02 50.03 50.04 50.04 50.05 50.05 50.06 50.06 50.07 50.07 50.07 50.08 50.08 50.08 50.08 50.08 50.08 50.08 50.08 50.08 50.08 50.08 50.07 50.07 50.07 50.06 50.06 50.05 50.05 50.04 50.03 50.03 50.02 50.01 50.00 49.99 49.98 49.97 49.96 49.95 49.94 49.93 49.92 49.91 49.89 49.88 49.87 49.85 49.84 49.82 49.81 49.79 49.78 49.76 49.75 49.73 49.71 49.70 49.68 49.66 49.65 49.63 49.61 49.59 49.58 49.56 49.54 49.52 49.50 49.49 49.47 49.45 49.43 49.41 49.40 49.38 49.36 49.34 49.32 49.31 49.29 49.27 49.25 49.24 49.22 49.20 49.19 49.17 49.15 49.14 49.12 49.11 49.09 49.08 49.06 49.05 49.03 49.02 49.01 48.99 48.98 48.97 48.96 48.95 48.94 48.93 48.92 48.86 48.73 48.61 48.50 48.40 48.31 48.23 48.16 48.10 48.05 48.01 47.97 47.95 47.93 47.92 47.93 47.94 47.96 47.99 48.02 48.07 48.13 48.19 48.27 48.35 48.45 48.55 48.67 48.79 48.84 48.85 48.85 48.86 48.86 48.87 48.88 48.88 48.89 48.90 48.91 48.92 48.93 48.94 48.95 48.96 48.97 48.98 48.99 49.00 49.01 49.02 49.03 49.05 49.06 49.07 49.08 49.10 49.11 49.12 49.13 49.15 49.16 49.17 49.19 49.20 49.21 49.23 49.24 49.25 49.27 49.28 49.29 49.30 49.32 49.33 49.34 49.35 49.37 49.38 49.39 49.40 49.41 49.42 49.43 49.44 49.45 49.46 49.47 49.48 49.49 49.50 49.51 49.52 49.52 49.53 49.54 49.54 49.55 49.55 49.56 49.56 49.57 49.57 49.57 49.58 49.58 49.58 49.58 49.58 49.58 49.58 49.58 49.58 49.58 49.58 49.57 49.57 49.57 49.56 49.56 49.55 49.55 49.54 49.53 49.53 49.52 49.51 49.50 49.49 49.48 49.47 49.46 49.45 49.44 49.43 49.42 49.41 49.39 49.38 49.37 49.35 49.34 49.32 49.31 49.29 49.28 49.26 49.25 49.23 49.21 49.20 49.18 49.16 49.15 49.13 49.11 49.09 49.08 49.06 49.04 49.02 49.00 48.99 48.97
50.40 50.38 50.36 50.35 50.33 50.31 50.29 50.27 50.26 50.24 50.22 50.20 50.19 50.17 50.15 50.14 50.12 50.10 50.09 50.07 50.06 50.04 50.03 50.01 50.00 49.98 49.97 49.96 49.94 49.93 49.84 49.66 49.49 49.33 49.18 49.04 48.92 48.80 48.69 48.59 48.50 48.42 48.35 48.29 48.23 48.19 48.15 48.12 48.10 48.08 48.08 48.08 48.09 48.10 48.13 48.16 48.20 48.25 48.31 48.38 48.45 48.54 48.63 48.73 48.85 48.97 49.10 49.24 49.40 49.56 49.74 49.83 49.83 49.84 49.85 49.86 49.87 49.88 49.89 49.90 49.91 49.92 49.93 49.94 49.95 49.96 49.97 49.98 50.00 50.01 50.02 50.03 50.05 50.06 50.07 50.08 50.10 50.11 50.12 50.14 50.15 50.16 50.18 50.19 50.20 50.22 50.23 50.24 50.25 50.27 50.28 50.29 50.30 50.32 50.33 50.34 50.35 50.36 50.37 50.38 50.39 50.40 50.41 50.42 50.43 50.44 50.45 50.46 50.47 50.47 50.48 50.49 50.49 50.50 50.50 50.51 50.51 50.52 50.52 50.52 50.53 50.53 50.53 50.53 50.53 50.53 50.53 50.53 50.53 50.53 50.52 50.52 50.52 50.52 50.51 50.51 50.50 50.50 50.49 50.48 50.48 50.47 50.46 50.45 50.44 50.43 50.42 50.41 50.40 50.39 50.38 50.37 50.36 50.34 50.33 50.32 50.30 50.29 50.27 50.26 50.24 50.23 50.21 50.20 50.18 50.16 50.15 50.13 50.11 50.10 50.08 50.06 50.04 50.03 50.01 49.99 49.97 49.95 49.94 49.92 49.90 49.88 49.86 49.85 49.83 49.81 49.79 49.77 49.76 49.74 49.72 49.70 49.69 49.67 49.65 49.64 49.62 49.60 49.59 49.57 49.56 49.54 49.53 49.51 49.50 49.48 49.47 49.46 49.44 49.43 49.34 49.16 48.99 48.83 48.68 48.54 48.42 48.30 48.19 48.09 48.00 47.92 47.85 47.79 47.73 47.69 47.65 47.62 47.60 47.58 47.58 47.58 47.59 47.60 47.63 47.66 47.70 47.75 47.81 47.88 47.95 48.04 48.13 48.23 48.35 48.47 48.60 48.74 48.90 49.06 49.24 49.33 49.33 49.34 49.35 49.36 49.37 49.38 49.39 49.40 49.41 49.42 49.43 49.44 49.45 49.46 49.47 49.48 49.50 49.51 49.52 49.53 49.55 49.56 49.57 49.58 49.60 49.61 49.62 49.64 49.65 49.66 49.68 49.69 49.70 49.72 49.73 49.74 49.75 49.77 49.78 49.79 49.80 49.82 49.83 49.84 49.85 49.86 49.87 49.88 49.89 49.90 49.91 49.92 49.93 49.94 49.95 49.96 49.97 49.97 49.98 49.99 49.99 50.00 50.00 50.01 50.01 50.02 50.02 50.02 50.03 50.03 50.03 50.03 50.03 50.03 50.03 50.03 50.03 50.03 50.02 50.02 50.02 50.02 50.01 50.01 50.00 50.00 49.99 49.98 49.98 49.97 49.96 49.95 49.94 49.93 49.92 49.91 49.90 49.89 49.88 49.87 49.86 49.84 49.83 49.82 49.80 49.79 49.77 49.76 49.74 49.73 49.71 49.70 49.68 49.66 49.65 49.63 49.61 49.60 49.58 49.56 49.54 49.53 49.51 49.49 49.47 49.45 49.44 49.42 49.40 49.38 49.36 49.35 49.33 49.31 49.29 49.27 49.26 49.24 49.22 49.20 49.19 49.17 49.15 49.14 49.12 49.10 49.09 49.07 49.06 49.04 49.03 49.01 49.00 48.98 48.97 48.96 48.94 48.93 48.84 48.66 48.49 48.33 48.18 48.04 47.92 47.80 47.69 47.59 47.50 47.42 47.35 47.29 47.23 47.19 47.15 47.12 47.10 47.08 47.08 47.08 47.09 47.10 47.13 47.16 47.20 47.25 47.31 47.38 47.45 47.54 47.63 47.73 47.85 47.97 48.10 48.24 48.40 48.56 48.74 48.83 48.83 48.84 48.85 48.86 48.87 48.88 48.89 48.90 48.91 48.92 48.93 48.94 48.95 48.96 48.97 48.98 49.00 49.01 49.02 49.03 49.05 49.06 49.07 49.08 49.10 49.11 49.12 49.14 49.15 49.16 49.18 49.19 49.20 49.22 49.23 49.24 49.25 49.27 49.28 49.29 49.30 49.32 49.33 49.34 49.35 49.36 49.37 49.38 49.39 49.40 49.41 49.42 49.43 49.44 49.45 49.46 49.47 49.47 49.48 49.49 49.49 49.50 49.50 49.51 49.51 49.52 49.52 49.52 49.53 49.53 49.53 49.53 49.53 49.53 49.53 49.53 49.53 49.53 49.52 49.52 49.52 49.52 49.51 49.51 49.50 49.50 49.49 49.48 49.48 49.47 49.46 49.45 49.44 49.43 49.42 49.41 49.40 49.39 49.38 49.37 49.36 49.34 49.33 49.32 49.30 49.29 49.27 49.26 49.24 49.23 49.21 49.20 49.18 49.16 49.15 49.13 49.11 49.10 49.08 49.06 49.04 49.03 49.01 48.99 48.97 48.95 48.94 48.92
50.35 50.33 50.31 50.30 50.28 50.26 50.24 50.22 50.21 50.19 50.17 50.15 50.14 50.12 50.10 50.09 50.07 50.05 50.04 50.02 50.01 49.99 49.98 49.96 49.95 49.87 49.65 49.44 49.25 49.07 48.89 48.73 48.58 48.44 48.31 48.18 48.07 47.97 47.87 47.78 47.70 47.63 47.57 47.51 47.47 47.42 47.39 47.36 47.34 47.33 47.33 47.33 47.33 47.35 47.37 47.40 47.44 47.48 47.53 47.59 47.65 47.73 47.81 47.90 48.00 48.11 48.23 48.35 48.49 48.64 48.79 48.96 49.14 49.33 49.53 49.74 49.82 49.83 49.84 49.85 49.86 49.87 49.88 49.89 49.90 49.91 49.92 49.93 49.95 49.96 49.97 49.98 50.00 50.01 50.02 50.03 50.05 50.06 50.07 50.09 50.10 50.11 50.13 50.14 50.15 50.17 50.18 50.19 50.20 50.22 50.23 50.24 50.25 50.27 50.28 50.29 50.30 50.31 50.32 50.33 50.34 50.35 50.36 50.37 50.38 50.39 50.40 50.41 50.42 50.42 50.43 50.44 50.44 50.45 50.45 50.46 50.46 50.47 50.47 50.47 50.48 50.48 50.48 50.48 50.48 50.48 50.48 50.48 50.48 50.48 50.48 50.47 50.47 50.47 50.46 50.46 50.45 50.45 50.44 50.43 50.43 50.42 50.41 50.40 50.39 50.38 50.37 50.36 50.35 50.34 50.33 50.32 50.31 50.29 50.28 50.27 50.25 50.24 50.22 50.21 50.19 50.18 50.16 50.15 50.13 50.11 50.10 50.08 50.06 50.05 50.03 50.01 49.99 49.98 49.96 49.94 49.92 49.90 49.89 49.87 49.85 49.83 49.81 49.80 49.78 49.76 49.74 49.72 49.71 49.69 49.67 49.65 49.64 49.62 49.60 49.59 49.57 49.55 49.54 49.52 49.51 49.49 49.48 49.46 49.45 49.37 49.15 48.94 48.75 48.57 48.39 48.23 48.08 47.94 47.81 47.68 47.57 47.47 47.37 47.28 47.20 47.13 47.07 47.01 46.97 46.92 46.89 46.86 46.84 46.83 46.83 46.83 46.83 46.85 46.87 46.90 46.94 46.98 47.03 47.09 47.15 47.23 47.31 47.40 47.50 47.61 47.73 47.85 47.99 48.14 48.29 48.46 48.64 48.83 49.03 49.24 49.32 49.33 49.34 49.35 49.36 49.37 49.38 49.39 49.40 49.41 49.42 49.43 49.45 49.46 49.47 49.48 49.50 49.51 49.52 49.53 49.55 49.56 49.57 49.59 49.60 49.61 49.63 49.64 49.65 49.67 49.68 49.69 49.70 49.72 49.73 49.74 49.75 49.77 49.78 49.79 49.80 49.81 49.82 49.83 49.84 49.85 49.86 49.87 49.88 49.89 49.90 49.91 49.92 49.92 49.93 49.94 49.94 49.95 49.95 49.96 49.96 49.97 49.97 49.97 49.98 49.98 49.98 49.98 49.98 49.98 49.98 49.98 49.98 49.98 49.98 49.97 49.97 49.97 49.96 49.96 49.95 49.95 49.94 49.93 49.93 49.92 49.91 49.90 49.89 49.88 49.87 49.86 49.85 49.84 49.83 49.82 49.81 49.79 49.78 49.77 49.75 49.74 49.72 49.71 49.69 49.68 49.66 49.65 49.63 49.61 49.60 49.58 49.56 49.55 49.53 49.51 49.49 49.48 49.46 49.44 49.42 49.40 49.39 49.37 49.35 49.33 49.31 49.30 49.28 49.26 49.24 49.22 49.21 49.19 49.17 49.15 49.14 49.12 49.10 49.09 49.07 49.05 49.04 49.02 49.01 48.99 48.98 48.96 48.95 48.87 48.65 48.44 48.25 48.07 47.89 47.73 47.58 47.44 47.31 47.18 47.07 46.97 46.87 46.78 46.70 46.63 46.57 46.51 46.47 46.42 46.39 46.36 46.34 46.33 46.33 46.33 46.33 46.35 46.37 46.40 46.44 46.48 46.53 46.59 46.65 46.73 46.81 46.90 47.00 47.11 47.23 47.35 47.49 47.64 47.79 47.96 48.14 48.33 48.53 48.74 48.82 48.83 48.84 48.85 48.86 48.87 48.88 48.89 48.90 48.91 48.92 48.93 48.95 48.96 48.97 48.98 49.00 49.01 49.02 49.03 49.05 49.06 49.07 49.09 49.10 49.11 49.13 49.14 49.15 49.17 49.18 49.19 49.20 49.22 49.23 49.24 49.25 49.27 49.28 49.29 49.30 49.31 49.32 49.33 49.34 49.35 49.36 49.37 49.38 49.39 49.40 49.41 49.42 49.42 49.43 49.44 49.44 49.45 49.45 49.46 49.46 49.47 49.47 49.47 49.48 49.48 49.48 49.48 49.48 49.48 49.48 49.48 49.48 49.48 49.48 49.47 49.47 49.47 49.46 49.46 49.45 49.45 49.44 49.43 49.43 49.42 49.41 49.40 49.39 49.38 49.37 49.36 49.35 49.34 49.33 49.32 49.31 49.29 49.28 49.27 49.25 49.24 49.22 49.21 49.19 49.18 49.16 49.15 49.13 49.11 49.10 49.08 49.06 49.05 49.03 49.01 48.99 48.98 48.96 48.94 48.92 48.90 48.89 48.87
50.30 50.28 50.26 50.25 50.23 50.21 50.19 50.17 50.16 50.14 50.12 50.10 50.09 50.07 50.05 50.04 50.02 50.00 49.99 49.97 49.96 49.82 49.58 49.35 49.13 48.92 48.73 48.54 48.37 48.21 48.05 47.91 47.78 47.65 47.53 47.43 47.33 47.23 47.15 47.07 47.01 46.94 46.89 46.84 46.80 46.76 46.73 46.71 46.69 46.68 46.67 46.68 46.68 46.69 46.71 46.74 46.77 46.80 46.85 46.90 46.96 47.02 47.09 47.17 47.26 47.35 47.45 47.57 47.69 47.81 47.95 48.10 48.26 48.43 48.61 48.80 49.00 49.21 49.44 49.67 49.81 49.82 49.83 49.84 49.85 49.86 49.87 49.88 49.90 49.91 49.92 49.93 49.95 49.96 49.97 49.98 50.00 50.01 50.02 50.04 50.05 50.06 50.08 50.09 50.10 50.12 50.13 50.14 50.15 50.17 50.18 50.19 50.20 50.22 50.23 50.24 50.25 50.26 50.27 50.28 50.29 50.30 50.31 50.32 50.33 50.34 50.35 50.36 50.37 50.37 50.38 50.39 50.39 50.40 50.40 50.41 50.41 50.42 50.42 50.42 50.43 50.43 50.43 50.43 50.43 50.43 50.43 50.43 50.43 50.43 50.42 50.42 50.42 50.42 50.41 50.41 50.40 50.40 50.39 50.38 50.38 50.37 50.36 50.35 50.34 50.33 50.32 50.31 50.30 50.29 50.28 50.27 50.26 50.24 50.23 50.22 50.20 50.19 50.17 50.16 50.14 50.13 50.11 50.10 50.08 50.06 50.05 50.03 50.01 50.00 49.98 49.96 49.94 49.93 49.91 49.89 49.87 49.85 49.84 49.82 49.80 49.78 49.76 49.75 49.73 49.71 49.69 49.67 49.66 49.64 49.62 49.60 49.59 49.57 49.55 49.54 49.52 49.50 49.49 49.47 49.46 49.32 49.08 48.85 48.63 48.42 48.23 48.04 47.87 47.71 47.55 47.41 47.28 47.15 47.03 46.93 46.83 46.73 46.65 46.57 46.51 46.44 46.39 46.34 46.30 46.26 46.23 46.21 46.19 46.18 46.17 46.18 46.18 46.19 46.21 46.24 46.27 46.30 46.35 46.40 46.46 46.52 46.59 46.67 46.76 46.85 46.95 47.07 47.19 47.31 47.45 47.60 47.76 47.93 48.11 48.30 48.50 48.71 48.94 49.17 49.31 49.32 49.33 49.34 49.35 49.36 49.37 49.38 49.40 49.41 49.42 49.43 49.45 49.46 49.47 49.48 49.50 49.51 49.52 49.54 49.55 49.56 49.58 49.59 49.60 49.62 49.63 49.64 49.65 49.67 49.68 49.69 49.70 49.72 49.73 49.74 49.75 49.76 49.77 49.78 49.79 49.80 49.81 49.82 49.83 49.84 49.85 49.86 49.87 49.87 49.88 49.89 49.89 49.90 49.90 49.91 49.91 49.92 49.92 49.92 49.93 49.93 49.93 49.93 49.93 49.93 49.93 49.93 49.93 49.93 49.92 49.92 49.92 49.92 49.91 49.91 49.90 49.90 49.89 49.88 49.88 49.87 49.86 49.85 49.84 49.83 49.82 49.81 49.80 49.79 49.78 49.77 49.76 49.74 49.73 49.72 49.70 49.69 49.67 49.66 49.64 49.63 49.61 49.60 49.58 49.56 49.55 49.53 49.51 49.50 49.48 49.46 49.44 49.43 49.41 49.39 49.37 49.35 49.34 49.32 49.30 49.28 49.26 49.25 49.23 49.21 49.19 49.17 49.16 49.14 49.12 49.10 49.09 49.07 49.05 49.04 49.02 49.00 48.99 48.97 48.96 48.82 48.58 48.35 48.13 47.92 47.73 47.54 47.37 47.21 47.05 46.91 46.78 46.65 46.53 46.43 46.33 46.23 46.15 46.07 46.01 45.94 45.89 45.84 45.80 45.76 45.73 45.71 45.69 45.68 45.67 45.68 45.68 45.69 45.71 45.74 45.77 45.80 45.85 45.90 45.96 46.02 46.09 46.17 46.26 46.35 46.45 46.57 46.69 46.81 46.95 47.10 47.26 47.43 47.61 47.80 48.00 48.21 48.44 48.67 48.81 48.82 48.83 48.84 48.85 48.86 48.87 48.88 48.90 48.91 48.92 48.93 48.95 48.96 48.97 48.98 49.00 49.01 49.02 49.04 49.05 49.06 49.08 49.09 49.10 49.12 49.13 49.14 49.15 49.17 49.18 49.19 49.20 49.22 49.23 49.24 49.25 49.26 49.27 49.28 49.29 49.30 49.31 49.32 49.33 49.34 49.35 49.36 49.37 49.37 49.38 49.39 49.39 49.40 49.40 49.41 49.41 49.42 49.42 49.42 49.43 49.43 49.43 49.43 49.43 49.43 49.43 49.43 49.43 49.43 49.42 49.42 49.42 49.42 49.41 49.41 49.40 49.40 49.39 49.38 49.38 49.37 49.36 49.35 49.34 49.33 49.32 49.31 49.30 49.29 49.28 49.27 49.26 49.24 49.23 49.22 49.20 49.19 49.17 49.16 49.14 49.13 49.11 49.10 49.08 49.06 49.05 49.03 49.01 49.00 48.98 48.96 48.94 48.93 48.91 48.89 48.87 48.85 48.84 48.82
50.25 50.23 50.21 50.20 50.18 50.16 50.14 50.12 50.11 50.09 50.07 50.05 50.04 50.02 50.00 49.99 49.97 49.87 49.60 49.35 49.11 48.88 48.67 48.46 48.26 48.08 47.91 47.74 47.59 47.45 47.31 47.19 47.07 46.96 46.86 46.77 46.68 46.60 46.53 46.47 46.41 46.35 46.31 46.27 46.23 46.20 46.17 46.15 46.14 46.13 46.12 46.12 46.13 46.14 46.15 46.17 46.20 46.23 46.27 46.31 46.36 46.41 46.47 46.54 46.61 46.69 46.78 46.88 46.98 47.09 47.21 47.34 47.48 47.63 47.79 47.96 48.13 48.32 48.53 48.74 48.96 49.20 49.44 49.70 49.80 49.81 49.82 49.83 49.85 49.86 49.87 49.88 49.90 49.91 49.92 49.93 49.95 49.96 49.97 49.99 50.00 50.01 50.03 50.04 50.05 50.07 50.08 50.09 50.10 50.12 50.13 50.14 50.15 50.17 50.18 50.19 50.20 50.21 50.22 50.23 50.24 50.25 50.26 50.27 50.28 50.29 50.30 50.31 50.32 50.32 50.33 50.34 50.34 50.35 50.35 50.36 50.36 50.37 50.37 50.37 50.38 50.38 50.38 50.38 50.38 50.38 50.38 50.38 50.38 50.38 50.38 50.37 50.37 50.37 50.36 50.36 50.35 50.35 50.34 50.33 50.33 50.32 50.31 50.30 50.29 50.28 50.27 50.26 50.25 50.24 50.23 50.22 50.21 50.19 50.18 50.17 50.15 50.14 50.12 50.11 50.09 50.08 50.06 50.05 50.03 50.01 50.00 49.98 49.96 49.95 49.93 49.91 49.89 49.88 49.86 49.84 49.82 49.80 49.79 49.77 49.75 49.73 49.71 49.70 49.68 49.66 49.64 49.62 49.61 49.59 49.57 49.55 49.54 49.52 49.50 49.49 49.47 49.37 49.10 48.85 48.61 48.38 48.17 47.96 47.76 47.58 47.41 47.24 47.09 46.95 46.81 46.69 46.57 46.46 46.36 46.27 46.18 46.10 46.03 45.97 45.91 45.85 45.81 45.77 45.73 45.70 45.67 45.65 45.64 45.63 45.62 45.62 45.63 45.64 45.65 45.67 45.70 45.73 45.77 45.81 45.86 45.91 45.97 46.04 46.11 46.19 46.28 46.38 46.48 46.59 46.71 46.84 46.98 47.13 47.29 47.46 47.63 47.82 48.03 48.24 48.46 48.70 48.94 49.20 49.30 49.31 49.32 49.33 49.35 49.36 49.37 49.38 49.40 49.41 49.42 49.43 49.45 49.46 49.47 49.49 49.50 49.51 49.53 49.54 49.55 49.57 49.58 49.59 49.60 49.62 49.63 49.64 49.65 49.67 49.68 49.69 49.70 49.71 49.72 49.73 49.74 49.75 49.76 49.77 49.78 49.79 49.80 49.81 49.82 49.82 49.83 49.84 49.84 49.85 49.85 49.86 49.86 49.87 49.87 49.87 49.88 49.88 49.88 49.88 49.88 49.88 49.88 49.88 49.88 49.88 49.88 49.87 49.87 49.87 49.86 49.86 49.85 49.85 49.84 49.83 49.83 49.82 49.81 49.80 49.79 49.78 49.77 49.76 49.75 49.74 49.73 49.72 49.71 49.69 49.68 49.67 49.65 49.64 49.62 49.61 49.59 49.58 49.56 49.55 49.53 49.51 49.50 49.48 49.46 49.45 49.43 49.41 49.39 49.38 49.36 49.34 49.32 49.30 49.29 49.27 49.25 49.23 49.21 49.20 49.18 49.16 49.14 49.12 49.11 49.09 49.07 49.05 49.04 49.02 49.00 48.99 48.97 48.87 48.60 48.35 48.11 47.88 47.67 47.46 47.26 47.08 46.91 46.74 46.59 46.45 46.31 46.19 46.07 45.96 45.86 45.77 45.68 45.60 45.53 45.47 45.41 45.35 45.31 45.27 45.23 45.20 45.17 45.15 45.14 45.13 45.12 45.12 45.13 45.14 45.15 45.17 45.20 45.23 45.27 45.31 45.36 45.41 45.47 45.54 45.61 45.69 45.78 45.88 45.98 46.09 46.21 46.34 46.48 46.63 46.79 46.96 47.13 47.32 47.53 47.74 47.96 48.20 48.44 48.70 48.80 48.81 48.82 48.83 48.85 48.86 48.87 48.88 48.90 48.91 48.92 48.93 48.95 48.96 48.97 48.99 49.00 49.01 49.03 49.04 49.05 49.07 49.08 49.09 49.10 49.12 49.13 49.14 49.15 49.17 49.18 49.19 49.20 49.21 49.22 49.23 49.24 49.25 49.26 49.27 49.28 49.29 49.30 49.31 49.32 49.32 49.33 49.34 49.34 49.35 49.35 49.36 49.36 49.37 49.37 49.37 49.38 49.38 49.38 49.38 49.38 49.38 49.38 49.38 49.38 49.38 49.38 49.37 49.37 49.37 49.36 49.36 49.35 49.35 49.34 49.33 49.33 49.32 49.31 49.30 49.29 49.28 49.27 49.26 49.25 49.24 49.23 49.22 49.21 49.19 49.18 49.17 49.15 49.14 49.12 49.11 49.09 49.08 49.06 49.05 49.03 49.01 49.00 48.98 48.96 48.95 48.93 48.91 48.89 48.88 48.86 48.84 48.82 48.80 48.79 48.77
50.20 50.18 50.16 50.15 50.13 50.11 50.09 50.07 50.06 50.04 50.02 50.00 49.99 49.97 49.71 49.44 49.18 48.93 48.69 48.46 48.25 48.05 47.85 47.67 47.50 47.34 47.19 47.04 46.91 46.79 46.67 46.56 46.46 46.37 46.29 46.21 46.14 46.07 46.01 45.96 45.91 45.86 45.83 45.79 45.76 45.74 45.72 45.70 45.69 45.68 45.67 45.67 45.68 45.69 45.70 45.71 45.73 45.76 45.79 45.82 45.86 45.90 45.95 46.01 46.07 46.13 46.21 46.29 46.37 46.47 46.57 46.68 46.80 46.93 47.07 47.21 47.37 47.54 47.71 47.90 48.10 48.31 48.53 48.76 49.01 49.26 49.53 49.78 49.80 49.81 49.82 49.83 49.85 49.86 49.87 49.88 49.90 49.91 49.92 49.94 49.95 49.96 49.98 49.99 50.00 50.02 50.03 50.04 50.05 50.07 50.08 50.09 50.10 50.12 50.13 50.14 50.15 50.16 50.17 50.18 50.19 50.20 50.21 50.22 50.23 50.24 50.25 50.26 50.27 50.27 50.28 50.29 50.29 50.30 50.30 50.31 50.31 50.32 50.32 50.32 50.33 50.33 50.33 50.33 50.33 50.33 50.33 50.33 50.33 50.33 50.33 50.32 50.32 50.32 50.31 50.31 50.30 50.30 50.29 50.28 50.28 50.27 50.26 50.25 50.24 50.23 50.22 50.21 50.20 50.19 50.18 50.17 50.16 50.14 50.13 50.12 50.10 50.09 50.07 50.06 50.04 50.03 50.01 50.00 49.98 49.96 49.95 49.93 49.91 49.90 49.88 49.86 49.84 49.83 49.81 49.79 49.77 49.75 49.74 49.72 49.70 49.68 49.66 49.65 49.63 49.61 49.59 49.57 49.56 49.54 49.52 49.50 49.49 49.47 49.21 48.94 48.68 48.43 48.19 47.96 47.75 47.55 47.35 47.17 47.00 46.84 46.69 46.54 46.41 46.29 46.17 46.06 45.96 45.87 45.79 45.71 45.64 45.57 45.51 45.46 45.41 45.36 45.33 45.29 45.26 45.24 45.22 45.20 45.19 45.18 45.17 45.17 45.18 45.19 45.20 45.21 45.23 45.26 45.29 45.32 45.36 45.40 45.45 45.51 45.57 45.63 45.71 45.79 45.87 45.97 46.07 46.18 46.30 46.43 46.57 46.71 46.87 47.04 47.21 47.40 47.60 47.81 48.03 48.26 48.51 48.76 49.03 49.28 49.30 49.31 49.32 49.33 49.35 49.36 49.37 49.38 49.40 49.41 49.42 49.44 49.45 49.46 49.48 49.49 49.50 49.52 49.53 49.54 49.55 49.57 49.58 49.59 49.60 49.62 49.63 49.64 49.65 49.66 49.67 49.68 49.69 49.70 49.71 49.72 49.73 49.74 49.75 49.76 49.77 49.77 49.78 49.79 49.79 49.80 49.80 49.81 49.81 49.82 49.82 49.82 49.83 49.83 49.83 49.83 49.83 49.83 49.83 49.83 49.83 49.83 49.83 49.82 49.82 49.82 49.81 49.81 49.80 49.80 49.79 49.78 49.78 49.77 49.76 49.75 49.74 49.73 49.72 49.71 49.70 49.69 49.68 49.67 49.66 49.64 49.63 49.62 49.60 49.59 49.57 49.56 49.54 49.53 49.51 49.50 49.48 49.46 49.45 49.43 49.41 49.40 49.38 49.36 49.34 49.33 49.31 49.29 49.27 49.25 49.24 49.22 49.20 49.18 49.16 49.15 49.13 49.11 49.09 49.07 49.06 49.04 49.02 49.00 48.99 48.97 48.71 48.44 48.18 47.93 47.69 47.46 47.25 47.05 46.85 46.67 46.50 46.34 46.19 46.04 45.91 45.79 45.67 45.56 45.46 45.37 45.29 45.21 45.14 45.07 45.01 44.96 44.91 44.86 44.83 44.79 44.76 44.74 44.72 44.70 44.69 44.68 44.67 44.67 44.68 44.69 44.70 44.71 44.73 44.76 44.79 44.82 44.86 44.90 44.95 45.01 45.07 45.13 45.21 45.29 45.37 45.47 45.57 45.68 45.80 45.93 46.07 46.21 46.37 46.54 46.71 46.90 47.10 47.31 47.53 47.76 48.01 48.26 48.53 48.78 48.80 48.81 48.82 48.83 48.85 48.86 48.87 48.88 48.90 48.91 48.92 48.94 48.95 48.96 48.98 48.99 49.00 49.02 49.03 49.04 49.05 49.07 49.08 49.09 49.10 49.12 49.13 49.14 49.15 49.16 49.17 49.18 49.19 49.20 49.21 49.22 49.23 49.24 49.25 49.26 49.27 49.27 49.28 49.29 49.29 49.30 49.30 49.31 49.31 49.32 49.32 49.32 49.33 49.33 49.33 49.33 49.33 49.33 49.33 49.33 49.33 49.33 49.33 49.32 49.32 49.32 49.31 49.31 49.30 49.30 49.29 49.28 49.28 49.27 49.26 49.25 49.24 49.23 49.22 49.21 49.20 49.19 49.18 49.17 49.16 49.14 49.13 49.12 49.10 49.09 49.07 49.06 49.04 49.03 49.01 49.00 48.98 48.96 48.95 48.93 48.91 48.90 48.88 48.86 48.84 48.83 48.81 48.79 48.77 48.75 48.74 48.72
50.15 50.13 50.11 50.10 50.08 50.06 50.04 50.02 50.01 49.99 49.89 49.59 49.31 49.04 48.79 48.54 48.31 48.09 47.87 47.68 47.49 47.31 47.14 46.98 46.83 46.70 46.57 46.44 46.33 46.23 46.13 46.04 45.96 45.88 45.81 45.75 45.69 45.64 45.59 45.55 45.51 45.47 45.44 45.42 45.39 45.38 45.36 45.35 45.34 45.33 45.33 45.32 45.33 45.33 45.34 45.35 45.36 45.38 45.40 45.43 45.46 45.49 45.53 45.57 45.62 45.67 45.73 45.80 45.87 45.95 46.03 46.12 46.22 46.33 46.45 46.57 46.70 46.85 47.00 47.16 47.34 47.52 47.71 47.92 48.14 48.37 48.61 48.86 49.12 49.40 49.69 49.78 49.80 49.81 49.82 49.83 49.85 49.86 49.87 49.89 49.90 49.91 49.93 49.94 49.95 49.97 49.98 49.99 50.00 50.02 50.03 50.04 50.05 50.07 50.08 50.09 50.10 50.11 50.12 50.13 50.14 50.15 50.16 50.17 50.18 50.19 50.20 50.21 50.22 50.22 50.23 50.24 50.24 50.25 50.25 50.26 50.26 50.27 50.27 50.27 50.28 50.28 50.28 50.28 50.28 50.28 50.28 50.28 50.28 50.28 50.27 50.27 50.27 50.27 50.26 50.26 50.25 50.25 50.24 50.23 50.23 50.22 50.21 50.20 50.19 50.18 50.17 50.16 50.15 50.14 50.13 50.12 50.11 50.09 50.08 50.07 50.05 50.04 50.02 50.01 49.99 49.98 49.96 49.95 49.93 49.91 49.90 49.88 49.86 49.85 49.83 49.81 49.79 49.78 49.76 49.74 49.72 49.70 49.69 49.67 49.65 49.63 49.61 49.60 49.58 49.56 49.54 49.52 49.51 49.49 49.39 49.09 48.81 48.54 48.29 48.04 47.81 47.59 47.37 47.18 46.99 46.81 46.64 46.48 46.33 46.20 46.07 45.94 45.83 45.73 45.63 45.54 45.46 45.38 45.31 45.25 45.19 45.14 45.09 45.05 45.01 44.97 44.94 44.92 44.89 44.88 44.86 44.85 44.84 44.83 44.83 44.82 44.83 44.83 44.84 44.85 44.86 44.88 44.90 44.93 44.96 44.99 45.03 45.07 45.12 45.17 45.23 45.30 45.37 45.45 45.53 45.62 45.72 45.83 45.95 46.07 46.20 46.35 46.50 46.66 46.84 47.02 47.21 47.42 47.64 47.87 48.11 48.36 48.62 48.90 49.19 49.28 49.30 49.31 49.32 49.33 49.35 49.36 49.37 49.39 49.40 49.41 49.43 49.44 49.45 49.47 49.48 49.49 49.50 49.52 49.53 49.54 49.55 49.57 49.58 49.59 49.60 49.61 49.62 49.63 49.64 49.65 49.66 49.67 49.68 49.69 49.70 49.71 49.72 49.72 49.73 49.74 49.74 49.75 49.75 49.76 49.76 49.77 49.77 49.77 49.78 49.78 49.78 49.78 49.78 49.78 49.78 49.78 49.78 49.78 49.77 49.77 49.77 49.77 49.76 49.76 49.75 49.75 49.74 49.73 49.73 49.72 49.71 49.70 49.69 49.68 49.67 49.66 49.65 49.64 49.63 49.62 49.61 49.59 49.58 49.57 49.55 49.54 49.52 49.51 49.49 49.48 49.46 49.45 49.43 49.41 49.40 49.38 49.36 49.35 49.33 49.31 49.29 49.28 49.26 49.24 49.22 49.20 49.19 49.17 49.15 49.13 49.11 49.10 49.08 49.06 49.04 49.02 49.01 48.99 48.89 48.59 48.31 48.04 47.79 47.54 47.31 47.09 46.87 46.68 46.49 46.31 46.14 45.98 45.83 45.70 45.57 45.44 45.33 45.23 45.13 45.04 44.96 44.88 44.81 44.75 44.69 44.64 44.59 44.55 44.51 44.47 44.44 44.42 44.39 44.38 44.36 44.35 44.34 44.33 44.33 44.32 44.33 44.33 44.34 44.35 44.36 44.38 44.40 44.43 44.46 44.49 44.53 44.57 44.62 44.67 44.73 44.80 44.87 44.95 45.03 45.12 45.22 45.33 45.45 45.57 45.70 45.85 46.00 46.16 46.34 46.52 46.71 46.92 47.14 47.37 47.61 47.86 48.12 48.40 48.69 48.78 48.80 48.81 48.82 48.83 48.85 48.86 48.87 48.89 48.90 48.91 48.93 48.94 48.95 48.97 48.98 48.99 49.00 49.02 49.03 49.04 49.05 49.07 49.08 49.09 49.10 49.11 49.12 49.13 49.14 49.15 49.16 49.17 49.18 49.19 49.20 49.21 49.22 49.22 49.23 49.24 49.24 49.25 49.25 49.26 49.26 49.27 49.27 49.27 49.28 49.28 49.28 49.28 49.28 49.28 49.28 49.28 49.28 49.28 49.27 49.27 49.27 49.27 49.26 49.26 49.25 49.25 49.24 49.23 49.23 49.22 49.21 49.20 49.19 49.18 49.17 49.16 49.15 49.14 49.13 49.12 49.11 49.09 49.08 49.07 49.05 49.04 49.02 49.01 48.99 48.98 48.96 48.95 48.93 48.91 48.90 48.88 48.86 48.85 48.83 48.81 48.79 48.78 48.76 48.74 48.72 48.70 48.69 48.67
50.10 50.08 50.06 50.05 50.03 50.01 49.99 49.80 49.50 49.22 48.94 48.68 48.43 48.19 47.96 47.75 47.54 47.34 47.16 46.99 46.82 46.67 46.53 46.39 46.27 46.15 46.04 45.94 45.85 45.77 45.69 45.62 45.55 45.49 45.44 45.39 45.35 45.31 45.27 45.24 45.21 45.18 45.16 45.14 45.13 45.11 45.10 45.09 45.08 45.08 45.08 45.07 45.07 45.08 45.08 45.09 45.10 45.11 45.12 45.14 45.16 45.18 45.21 45.24 45.28 45.31 45.36 45.41 45.46 45.52 45.59 45.66 45.74 45.83 45.92 46.03 46.14 46.26 46.39 46.53 46.67 46.83 47.00 47.18 47.37 47.57 47.78 48.01 48.24 48.49 48.74 49.01 49.29 49.59 49.77 49.78 49.80 49.81 49.82 49.84 49.85 49.86 49.88 49.89 49.90 49.92 49.93 49.94 49.95 49.97 49.98 49.99 50.00 50.02 50.03 50.04 50.05 50.06 50.07 50.08 50.09 50.10 50.11 50.12 50.13 50.14 50.15 50.16 50.17 50.17 50.18 50.19 50.19 50.20 50.20 50.21 50.21 50.22 50.22 50.22 50.23 50.23 50.23 50.23 50.23 50.23 50.23 50.23 50.23 50.23 50.23 50.22 50.22 50.22 50.21 50.21 50.20 50.20 50.19 50.18 50.18 50.17 50.16 50.15 50.14 50.13 50.12 50.11 50.10 50.09 50.08 50.07 50.06 50.04 50.03 50.02 50.00 49.99 49.97 49.96 49.94 49.93 49.91 49.90 49.88 49.86 49.85 49.83 49.81 49.80 49.78 49.76 49.74 49.73 49.71 49.69 49.67 49.65 49.64 49.62 49.60 49.58 49.56 49.55 49.53 49.51 49.49 49.30 49.00 48.72 48.44 48.18 47.93 47.69 47.46 47.25 47.04 46.84 46.66 46.49 46.32 46.17 46.03 45.89 45.77 45.65 45.54 45.44 45.35 45.27 45.19 45.12 45.05 44.99 44.94 44.89 44.85 44.81 44.77 44.74 44.71 44.68 44.66 44.64 44.63 44.61 44.60 44.59 44.58 44.58 44.58 44.57 44.57 44.58 44.58 44.59 44.60 44.61 44.62 44.64 44.66 44.68 44.71 44.74 44.78 44.81 44.86 44.91 44.96 45.02 45.09 45.16 45.24 45.33 45.42 45.53 45.64 45.76 45.89 46.03 46.17 46.33 46.50 46.68 46.87 47.07 47.28 47.51 47.74 47.99 48.24 48.51 48.79 49.09 49.27 49.28 49.30 49.31 49.32 49.34 49.35 49.36 49.38 49.39 49.40 49.42 49.43 49.44 49.45 49.47 49.48 49.49 49.50 49.52 49.53 49.54 49.55 49.56 49.57 49.58 49.59 49.60 49.61 49.62 49.63 49.64 49.65 49.66 49.67 49.67 49.68 49.69 49.69 49.70 49.70 49.71 49.71 49.72 49.72 49.72 49.73 49.73 49.73 49.73 49.73 49.73 49.73 49.73 49.73 49.73 49.73 49.72 49.72 49.72 49.71 49.71 49.70 49.70 49.69 49.68 49.68 49.67 49.66 49.65 49.64 49.63 49.62 49.61 49.60 49.59 49.58 49.57 49.56 49.54 49.53 49.52 49.50 49.49 49.47 49.46 49.44 49.43 49.41 49.40 49.38 49.36 49.35 49.33 49.31 49.30 49.28 49.26 49.24 49.23 49.21 49.19 49.17 49.15 49.14 49.12 49.10 49.08 49.06 49.05 49.03 49.01 48.99 48.80 48.50 48.22 47.94 47.68 47.43 47.19 46.96 46.75 46.54 46.34 46.16 45.99 45.82 45.67 45.53 45.39 45.27 45.15 45.04 44.94 44.85 44.77 44.69 44.62 44.55 44.49 44.44 44.39 44.35 44.31 44.27 44.24 44.21 44.18 44.16 44.14 44.13 44.11 44.10 44.09 44.08 44.08 44.08 44.07 44.07 44.08 44.08 44.09 44.10 44.11 44.12 44.14 44.16 44.18 44.21 44.24 44.28 44.31 44.36 44.41 44.46 44.52 44.59 44.66 44.74 44.83 44.92 45.03 45.14 45.26 45.39 45.53 45.67 45.83 46.00 46.18 46.37 46.57 46.78 47.01 47.24 47.49 47.74 48.01 48.29 48.59 48.77 48.78 48.80 48.81 48.82 48.84 48.85 48.86 48.88 48.89 48.90 48.92 48.93 48.94 48.95 48.97 48.98 48.99 49.00 49.02 49.03 49.04 49.05 49.06 49.07 49.08 49.09 49.10 49.11 49.12 49.13 49.14 49.15 49.16 49.17 49.17 49.18 49.19 49.19 49.20 49.20 49.21 49.21 49.22 49.22 49.22 49.23 49.23 49.23 49.23 49.23 49.23 49.23 49.23 49.23 49.23 49.23 49.22 49.22 49.22 49.21 49.21 49.20 49.20 49.19 49.18 49.18 49.17 49.16 49.15 49.14 49.13 49.12 49.11 49.10 49.09 49.08 49.07 49.06 49.04 49.03 49.02 49.00 48.99 48.97 48.96 48.94 48.93 48.91 48.90 48.88 48.86 48.85 48.83 48.81 48.80 48.78 48.76 48.74 48.73 48.71 48.69 48.67 48.65 48.64 48.62
50.05 50.03 50.01 50.00 49.74 49.44 49.15 48.87 48.60 48.35 48.10 47.87 47.65 47.44 47.24 47.05 46.87 46.70 46.55 46.40 46.26 46.13 46.01 45.90 45.80 45.71 45.62 45.54 45.47 45.41 45.35 45.29 45.25 45.20 45.17 45.13 45.10 45.07 45.05 45.03 45.01 45.00 44.98 44.97 44.96 44.95 44.94 44.94 44.93 44.93 44.92 44.92 44.92 44.92 44.92 44.93 44.93 44.93 44.94 44.95 44.96 44.97 44.99 45.01 45.03 45.06 45.09 45.12 45.16 45.20 45.25 45.30 45.36 45.43 45.50 45.58 45.67 45.77 45.87 45.99 46.11 46.24 46.39 46.54 46.70 46.87 47.06 47.25 47.46 47.68 47.90 48.14 48.39 48.66 48.93 49.21 49.51 49.76 49.77 49.79 49.80 49.81 49.83 49.84 49.85 49.87 49.88 49.89 49.90 49.92 49.93 49.94 49.95 49.97 49.98 49.99 50.00 50.01 50.02 50.03 50.04 50.05 50.06 50.07 50.08 50.09 50.10 50.11 50.12 50.12 50.13 50.14 50.14 50.15 50.15 50.16 50.16 50.17 50.17 50.17 50.18 50.18 50.18 50.18 50.18 50.18 50.18 50.18 50.18 50.18 50.17 50.17 50.17 50.17 50.16 50.16 50.15 50.15 50.14 50.13 50.13 50.12 50.11 50.10 50.09 50.08 50.07 50.06 50.05 50.04 50.03 50.02 50.01 49.99 49.98 49.97 49.95 49.94 49.92 49.91 49.89 49.88 49.86 49.85 49.83 49.81 49.80 49.78 49.76 49.75 49.73 49.71 49.69 49.68 49.66 49.64 49.62 49.60 49.59 49.57 49.55 49.53 49.51 49.50 49.24 48.94 48.65 48.37 48.10 47.85 47.60 47.37 47.15 46.94 46.74 46.55 46.37 46.20 46.05 45.90 45.76 45.63 45.51 45.40 45.30 45.21 45.12 45.04 44.97 44.91 44.85 44.79 44.75 44.70 44.67 44.63 44.60 44.57 44.55 44.53 44.51 44.50 44.48 44.47 44.46 44.45 44.44 44.44 44.43 44.43 44.42 44.42 44.42 44.42 44.42 44.43 44.43 44.43 44.44 44.45 44.46 44.47 44.49 44.51 44.53 44.56 44.59 44.62 44.66 44.70 44.75 44.80 44.86 44.93 45.00 45.08 45.17 45.27 45.37 45.49 45.61 45.74 45.89 46.04 46.20 46.37 46.56 46.75 46.96 47.18 47.40 47.64 47.89 48.16 48.43 48.71 49.01 49.26 49.27 49.29 49.30 49.31 49.33 49.34 49.35 49.37 49.38 49.39 49.40 49.42 49.43 49.44 49.45 49.47 49.48 49.49 49.50 49.51 49.52 49.53 49.54 49.55 49.56 49.57 49.58 49.59 49.60 49.61 49.62 49.62 49.63 49.64 49.64 49.65 49.65 49.66 49.66 49.67 49.67 49.67 49.68 49.68 49.68 49.68 49.68 49.68 49.68 49.68 49.68 49.68 49.67 49.67 49.67 49.67 49.66 49.66 49.65 49.65 49.64 49.63 49.63 49.62 49.61 49.60 49.59 49.58 49.57 49.56 49.55 49.54 49.53 49.52 49.51 49.49 49.48 49.47 49.45 49.44 49.42 49.41 49.39 49.38 49.36 49.35 49.33 49.31 49.30 49.28 49.26 49.25 49.23 49.21 49.19 49.18 49.16 49.14 49.12 49.10 49.09 49.07 49.05 49.03 49.01 49.00 48.74 48.44 48.15 47.87 47.60 47.35 47.10 46.87 46.65 46.44 46.24 46.05 45.87 45.70 45.55 45.40 45.26 45.13 45.01 44.90 44.80 44.71 44.62 44.54 44.47 44.41 44.35 44.29 44.25 44.20 44.17 44.13 44.10 44.07 44.05 44.03 44.01 44.00 43.98 43.97 43.96 43.95 43.94 43.94 43.93 43.93 43.92 43.92 43.92 43.92 43.92 43.93 43.93 43.93 43.94 43.95 43.96 43.97 43.99 44.01 44.03 44.06 44.09 44.12 44.16 44.20 44.25 44.30 44.36 44.43 44.50 44.58 44.67 44.77 44.87 44.99 45.11 45.24 45.39 45.54 45.70 45.87 46.06 46.25 46.46 46.68 46.90 47.14 47.39 47.66 47.93 48.21 48.51 48.76 48.77 48.79 48.80 48.81 48.83 48.84 48.85 48.87 48.88 48.89 48.90 48.92 48.93 48.94 48.95 48.97 48.98 48.99 49.00 49.01 49.02 49.03 49.04 49.05 49.06 49.07 49.08 49.09 49.10 49.11 49.12 49.12 49.13 49.14 49.14 49.15 49.15 49.16 49.16 49.17 49.17 49.17 49.18 49.18 49.18 49.18 49.18 49.18 49.18 49.18 49.18 49.18 49.17 49.17 49.17 49.17 49.16 49.16 49.15 49.15 49.14 49.13 49.13 49.12 49.11 49.10 49.09 49.08 49.07 49.06 49.05 49.04 49.03 49.02 49.01 48.99 48.98 48.97 48.95 48.94 48.92 48.91 48.89 48.88 48.86 48.85 48.83 48.81 48.80 48.78 48.76 48.75 48.73 48.71 48.69 48.68 48.66 48.64 48.62 48.60 48.59 48.57
50.00 49.69 49.39 49.10 48.82 48.55 48.29 48.04 47.80 47.58 47.36 47.16 46.97 46.78 46.61 46.45 46.30 46.16 46.03 45.91 45.80 45.70 45.60 45.52 45.44 45.37 45.30 45.24 45.19 45.15 45.11 45.07 45.04 45.01 44.99 44.97 44.96 44.94 44.93 44.92 44.91 44.91 44.90 44.90 44.89 44.89 44.89 44.88 44.88 44.88 44.88 44.87 44.87 44.87 44.87 44.86 44.86 44.86 44.86 44.86 44.86 44.86 44.87 44.88 44.89 44.90 44.91 44.93 44.95 44.98 45.01 45.04 45.08 45.13 45.18 45.24 45.31 45.38 45.46 45.55 45.65 45.76 45.87 46.00 46.13 46.28 46.43 46.60 46.78 46.96 47.16 47.37 47.59 47.82 48.07 48.32 48.59 48.86 49.15 49.44 49.75 49.76 49.78 49.79 49.80 49.82 49.83 49.84 49.85 49.87 49.88 49.89 49.90 49.92 49.93 49.94 49.95 49.96 49.97 49.98 49.99 50.00 50.01 50.02 50.03 50.04 50.05 50.06 50.07 50.07 50.08 50.09 50.09 50.10 50.10 50.11 50.11 50.12 50.12 50.12 50.13 50.13 50.13 50.13 50.13 50.13 50.13 50.13 50.13 50.13 50.12 50.12 50.12 50.12 50.11 50.11 50.10 50.10 50.09 50.08 50.08 50.07 50.06 50.05 50.04 50.03 50.02 50.01 50.00 49.99 49.98 49.97 49.96 49.94 49.93 49.92 49.90 49.89 49.87 49.86 49.84 49.83 49.81 49.80 49.78 49.76 49.75 49.73 49.71 49.70 49.68 49.66 49.64 49.63 49.61 49.59 49.57 49.55 49.54 49.52 49.50 49.19 48.89 48.60 48.32 48.05 47.79 47.54 47.30 47.08 46.86 46.66 46.47 46.28 46.11 45.95 45.80 45.66 45.53 45.41 45.30 45.20 45.10 45.02 44.94 44.87 44.80 44.74 44.69 44.65 44.61 44.57 44.54 44.51 44.49 44.47 44.46 44.44 44.43 44.42 44.41 44.41 44.40 44.40 44.39 44.39 44.39 44.38 44.38 44.38 44.38 44.37 44.37 44.37 44.37 44.36 44.36 44.36 44.36 44.36 44.36 44.36 44.37 44.38 44.39 44.40 44.41 44.43 44.45 44.48 44.51 44.54 44.58 44.63 44.68 44.74 44.81 44.88 44.96 45.05 45.15 45.26 45.37 45.50 45.63 45.78 45.93 46.10 46.28 46.46 46.66 46.87 47.09 47.32 47.57 47.82 48.09 48.36 48.65 48.94 49.25 49.26 49.28 49.29 49.30 49.32 49.33 49.34 49.35 49.37 49.38 49.39 49.40 49.42 49.43 49.44 49.45 49.46 49.47 49.48 49.49 49.50 49.51 49.52 49.53 49.54 49.55 49.56 49.57 49.57 49.58 49.59 49.59 49.60 49.60 49.61 49.61 49.62 49.62 49.62 49.63 49.63 49.63 49.63 49.63 49.63 49.63 49.63 49.63 49.63 49.62 49.62 49.62 49.62 49.61 49.61 49.60 49.60 49.59 49.58 49.58 49.57 49.56 49.55 49.54 49.53 49.52 49.51 49.50 49.49 49.48 49.47 49.46 49.44 49.43 49.42 49.40 49.39 49.37 49.36 49.34 49.33 49.31 49.30 49.28 49.26 49.25 49.23 49.21 49.20 49.18 49.16 49.14 49.13 49.11 49.09 49.07 49.05 49.04 49.02 49.00 48.69 48.39 48.10 47.82 47.55 47.29 47.04 46.80 46.58 46.36 46.16 45.97 45.78 45.61 45.45 45.30 45.16 45.03 44.91 44.80 44.70 44.60 44.52 44.44 44.37 44.30 44.24 44.19 44.15 44.11 44.07 44.04 44.01 43.99 43.97 43.96 43.94 43.93 43.92 43.91 43.91 43.90 43.90 43.89 43.89 43.89 43.88 43.88 43.88 43.88 43.87 43.87 43.87 43.87 43.86 43.86 43.86 43.86 43.86 43.86 43.86 43.87 43.88 43.89 43.90 43.91 43.93 43.95 43.98 44.01 44.04 44.08 44.13 44.18 44.24 44.31 44.38 44.46 44.55 44.65 44.76 44.87 45.00 45.13 45.28 45.43 45.60 45.78 45.96 46.16 46.37 46.59 46.82 47.07 47.32 47.59 47.86 48.15 48.44 48.75 48.76 48.78 48.79 48.80 48.82 48.83 48.84 48.85 48.87 48.88 48.89 48.90 48.92 48.93 48.94 48.95 48.96 48.97 48.98 48.99 49.00 49.01 49.02 49.03 49.04 49.05 49.06 49.07 49.07 49.08 49.09 49.09 49.10 49.10 49.11 49.11 49.12 49.12 49.12 49.13 49.13 49.13 49.13 49.13 49.13 49.13 49.13 49.13 49.13 49.12 49.12 49.12 49.12 49.11 49.11 49.10 49.10 49.09 49.08 49.08 49.07 49.06 49.05 49.04 49.03 49.02 49.01 49.00 48.99 48.98 48.97 48.96 48.94 48.93 48.92 48.90 48.89 48.87 48.86 48.84 48.83 48.81 48.80 48.78 48.76 48.75 48.73 48.71 48.70 48.68 48.66 48.64 48.63 48.61 48.59 48.57 48.55 48.54 48.52
49.05 48.77 48.50 48.24 47.99 47.75 47.52 47.31 47.10 46.91 46.72 46.55 46.38 46.23 46.09 45.96 45.83 45.72 45.62 45.52 45.44 45.36 45.29 45.23 45.17 45.12 45.08 45.04 45.01 44.99 44.97 44.95 44.94 44.93 44.92 44.91 44.91 44.91 44.91 44.91 44.91 44.92 44.92 44.92 44.92 44.93 44.93 44.93 44.93 44.93 44.92 44.92 44.92 44.91 44.91 44.90 44.89 44.89 44.88 44.87 44.86 44.86 44.85 44.84 44.84 44.84 44.84 44.84 44.85 44.85 44.87 44.88 44.90 44.93 44.96 45.00 45.04 45.09 45.15 45.21 45.29 45.37 45.46 45.56 45.66 45.78 45.91 46.05 46.19 46.35 46.52 46.70 46.89 47.09 47.30 47.53 47.76 48.00 48.26 48.52 48.80 49.09 49.38 49.68 49.75 49.77 49.78 49.79 49.80 49.82 49.83 49.84 49.85 49.87 49.88 49.89 49.90 49.91 49.92 49.93 49.94 49.95 49.96 49.97 49.98 49.99 50.00 50.01 50.02 50.02 50.03 50.04 50.04 50.05 50.05 50.06 50.06 50.07 50.07 50.07 50.08 50.08 50.08 50.08 50.08 50.08 50.08 50.08 50.08 50.08 50.08 50.07 50.07 50.07 50.06 50.06 50.05 50.05 50.04 50.03 50.03 50.02 50.01 50.00 49.99 49.98 49.97 49.96 49.95 49.94 49.93 49.92 49.91 49.89 49.88 49.87 49.85 49.84 49.82 49.81 49.79 49.78 49.76 49.75 49.73 49.71 49.70 49.68 49.66 49.65 49.63 49.61 49.59 49.58 49.56 49.54 49.52 49.45 49.14 48.84 48.55 48.27 48.00 47.74 47.49 47.25 47.02 46.81 46.60 46.41 46.22 46.05 45.88 45.73 45.59 45.46 45.33 45.22 45.12 45.02 44.94 44.86 44.79 44.73 44.67 44.62 44.58 44.54 44.51 44.49 44.47 44.45 44.44 44.43 44.42 44.41 44.41 44.41 44.41 44.41 44.41 44.42 44.42 44.42 44.42 44.43 44.43 44.43 44.43 44.43 44.42 44.42 44.42 44.41 44.41 44.40 44.39 44.39 44.38 44.37 44.36 44.36 44.35 44.34 44.34 44.34 44.34 44.34 44.35 44.35 44.37 44.38 44.40 44.43 44.46 44.50 44.54 44.59 44.65 44.71 44.79 44.87 44.96 45.06 45.16 45.28 45.41 45.55 45.69 45.85 46.02 46.20 46.39 46.59 46.80 47.03 47.26 47.50 47.76 48.02 48.30 48.59 48.88 49.18 49.25 49.27 49.28 49.29 49.30 49.32 49.33 49.34 49.35 49.37 49.38 49.39 49.40 49.41 49.42 49.43 49.44 49.45 49.46 49.47 49.48 49.49 49.50 49.51 49.52 49.52 49.53 49.54 49.54 49.55 49.55 49.56 49.56 49.57 49.57 49.57 49.58 49.58 49.58 49.58 49.58 49.58 49.58 49.58 49.58 49.58 49.58 49.57 49.57 49.57 49.56 49.56 49.55 49.55 49.54 49.53 49.53 49.52 49.51 49.50 49.49 49.48 49.47 49.46 49.45 49.44 49.43 49.42 49.41 49.39 49.38 49.37 49.35 49.34 49.32 49.31 49.29 49.28 49.26 49.25 49.23 49.21 49.20 49.18 49.16 49.15 49.13 49.11 49.09 49.08 49.06 49.04 49.02 48.95 48.64 48.34 48.05 47.77 47.50 47.24 46.99 46.75 46.52 46.31 46.10 45.91 45.72 45.55 45.38 45.23 45.09 44.96 44.83 44.72 44.62 44.52 44.44 44.36 44.29 44.23 44.17 44.12 44.08 44.04 44.01 43.99 43.97 43.95 43.94 43.93 43.92 43.91 43.91 43.91 43.91 43.91 43.91 43.92 43.92 43.92 43.92 43.93 43.93 43.93 43.93 43.93 43.92 43.92 43.92 43.91 43.91 43.90 43.89 43.89 43.88 43.87 43.86 43.86 43.85 43.84 43.84 43.84 43.84 43.84 43.85 43.85 43.87 43.88 43.90 43.93 43.96 44.00 44.04 44.09 44.15 44.21 44.29 44.37 44.46 44.56 44.66 44.78 44.91 45.05 45.19 45.35 45.52 45.70 45.89 46.09 46.30 46.53 46.76 47.00 47.26 47.52 47.80 48.09 48.38 48.68 48.75 48.77 48.78 48.79 48.80 48.82 48.83 48.84 48.85 48.87 48.88 48.89 48.90 48.91 48.92 48.93 48.94 48.95 48.96 48.97 48.98 48.99 49.00 49.01 49.02 49.02 49.03 49.04 49.04 49.05 49.05 49.06 49.06 49.07 49.07 49.07 49.08 49.08 49.08 49.08 49.08 49.08 49.08 49.08 49.08 49.08 49.08 49.07 49.07 49.07 49.06 49.06 49.05 49.05 49.04 49.03 49.03 49.02 49.01 49.00 48.99 48.98 48.97 48.96 48.95 48.94 48.93 48.92 48.91 48.89 48.88 48.87 48.85 48.84 48.82 48.81 48.79 48.78 48.76 48.75 48.73 48.71 48.70 48.68 48.66 48.65 48.63 48.61 48.59 48.58 48.56 48.54 48.52 48.45 48.14 47.84
48.20 47.95 47.71 47.48 47.27 47.06 46.86 46.68 46.50 46.33 46.18 46.04 45.90 45.78 45.67 45.56 45.47 45.38 45.30 45.24 45.18 45.12 45.08 45.04 45.01 44.98 44.96 44.94 44.93 44.93 44.93 44.93 44.93 44.94 44.94 44.95 44.96 44.98 44.99 45.00 45.01 45.03 45.04 45.05 45.06 45.06 45.07 45.07 45.08 45.08 45.08 45.07 45.07 45.06 45.05 45.04 45.03 45.01 45.00 44.98 44.96 44.95 44.93 44.91 44.89 44.88 44.86 44.85 44.84 44.83 44.83 44.82 44.82 44.83 44.84 44.86 44.88 44.90 44.94 44.98 45.03 45.08 45.14 45.22 45.30 45.39 45.49 45.59 45.71 45.84 45.98 46.13 46.29 46.46 46.64 46.83 47.04 47.25 47.47 47.71 47.95 48.20 48.47 48.74 49.02 49.31 49.61 49.74 49.75 49.77 49.78 49.79 49.80 49.82 49.83 49.84 49.85 49.86 49.87 49.88 49.89 49.90 49.91 49.92 49.93 49.94 49.95 49.96 49.97 49.97 49.98 49.99 49.99 50.00 50.00 50.01 50.01 50.02 50.02 50.02 50.03 50.03 50.03 50.03 50.03 50.03 50.03 50.03 50.03 50.03 50.02 50.02 50.02 50.02 50.01 50.01 50.00 50.00 49.99 49.98 49.98 49.97 49.96 49.95 49.94 49.93 49.92 49.91 49.90 49.89 49.88 49.87 49.86 49.84 49.83 49.82 49.80 49.79 49.77 49.76 49.74 49.73 49.71 49.70 49.68 49.66 49.65 49.63 49.61 49.60 49.58 49.56 49.54 49.53 49.39 49.09 48.79 48.50 48.23 47.96 47.70 47.45 47.21 46.98 46.77 46.56 46.36 46.18 46.00 45.83 45.68 45.54 45.40 45.28 45.17 45.06 44.97 44.88 44.80 44.74 44.68 44.62 44.58 44.54 44.51 44.48 44.46 44.44 44.43 44.43 44.43 44.43 44.43 44.44 44.44 44.45 44.46 44.48 44.49 44.50 44.51 44.53 44.54 44.55 44.56 44.56 44.57 44.57 44.58 44.58 44.58 44.57 44.57 44.56 44.55 44.54 44.53 44.51 44.50 44.48 44.46 44.45 44.43 44.41 44.39 44.38 44.36 44.35 44.34 44.33 44.33 44.32 44.32 44.33 44.34 44.36 44.38 44.40 44.44 44.48 44.53 44.58 44.64 44.72 44.80 44.89 44.99 45.09 45.21 45.34 45.48 45.63 45.79 45.96 46.14 46.33 46.54 46.75 46.97 47.21 47.45 47.70 47.97 48.24 48.52 48.81 49.11 49.24 49.25 49.27 49.28 49.29 49.30 49.32 49.33 49.34 49.35 49.36 49.37 49.38 49.39 49.40 49.41 49.42 49.43 49.44 49.45 49.46 49.47 49.47 49.48 49.49 49.49 49.50 49.50 49.51 49.51 49.52 49.52 49.52 49.53 49.53 49.53 49.53 49.53 49.53 49.53 49.53 49.53 49.53 49.52 49.52 49.52 49.52 49.51 49.51 49.50 49.50 49.49 49.48 49.48 49.47 49.46 49.45 49.44 49.43 49.42 49.41 49.40 49.39 49.38 49.37 49.36 49.34 49.33 49.32 49.30 49.29 49.27 49.26 49.24 49.23 49.21 49.20 49.18 49.16 49.15 49.13 49.11 49.10 49.08 49.06 49.04 49.03 48.89 48.59 48.29 48.00 47.73 47.46 47.20 46.95 46.71 46.48 46.27 46.06 45.86 45.68 45.50 45.33 45.18 45.04 44.90 44.78 44.67 44.56 44.47 44.38 44.30 44.24 44.18 44.12 44.08 44.04 44.01 43.98 43.96 43.94 43.93 43.93 43.93 43.93 43.93 43.94 43.94 43.95 43.96 43.98 43.99 44.00 44.01 44.03 44.04 44.05 44.06 44.06 44.07 44.07 44.08 44.08 44.08 44.07 44.07 44.06 44.05 44.04 44.03 44.01 44.00 43.98 43.96 43.95 43.93 43.91 43.89 43.88 43.86 43.85 43.84 43.83 43.83 43.82 43.82 43.83 43.84 43.86 43.88 43.90 43.94 43.98 44.03 44.08 44.14 44.22 44.30 44.39 44.49 44.59 44.71 44.84 44.98 45.13 45.29 45.46 45.64 45.83 46.04 46.25 46.47 46.71 46.95 47.20 47.47 47.74 48.02 48.31 48.61 48.74 48.75 48.77 48.78 48.79 48.80 48.82 48.83 48.84 48.85 48.86 48.87 48.88 48.89 48.90 48.91 48.92 48.93 48.94 48.95 48.96 48.97 48.97 48.98 48.99 48.99 49.00 49.00 49.01 49.01 49.02 49.02 49.02 49.03 49.03 49.03 49.03 49.03 49.03 49.03 49.03 49.03 49.03 49.02 49.02 49.02 49.02 49.01 49.01 49.00 49.00 48.99 48.98 48.98 48.97 48.96 48.95 48.94 48.93 48.92 48.91 48.90 48.89 48.88 48.87 48.86 48.84 48.83 48.82 48.80 48.79 48.77 48.76 48.74 48.73 48.71 48.70 48.68 48.66 48.65 48.63 48.61 48.60 48.58 48.56 48.54 48.53 48.39 48.09 47.79 47.50 47.23 46.96
47.45 47.23 47.03 46.83 46.64 46.46 46.30 46.14 46.00 45.86 45.74 45.63 45.52 45.43 45.34 45.27 45.20 45.14 45.09 45.05 45.01 44.99 44.96 44.95 44.94 44.94 44.94 44.95 44.95 44.97 44.98 45.00 45.02 45.05 45.07 45.09 45.12 45.14 45.17 45.19 45.22 45.24 45.26 45.27 45.29 45.30 45.31 45.32 45.32 45.33 45.33 45.32 45.31 45.30 45.29 45.28 45.26 45.24 45.22 45.19 45.17 45.14 45.11 45.08 45.05 45.02 44.99 44.96 44.93 44.91 44.88 44.86 44.84 44.83 44.82 44.81 44.81 44.81 44.82 44.84 44.86 44.89 44.93 44.97 45.03 45.09 45.16 45.24 45.33 45.43 45.54 45.66 45.79 45.93 46.08 46.24 46.41 46.59 46.79 46.99 47.20 47.42 47.65 47.90 48.15 48.40 48.67 48.95 49.23 49.52 49.73 49.74 49.75 49.77 49.78 49.79 49.80 49.81 49.82 49.83 49.84 49.85 49.86 49.87 49.88 49.89 49.90 49.91 49.92 49.92 49.93 49.94 49.94 49.95 49.95 49.96 49.96 49.97 49.97 49.97 49.98 49.98 49.98 49.98 49.98 49.98 49.98 49.98 49.98 49.98 49.98 49.97 49.97 49.97 49.96 49.96 49.95 49.95 49.94 49.93 49.93 49.92 49.91 49.90 49.89 49.88 49.87 49.86 49.85 49.84 49.83 49.82 49.81 49.79 49.78 49.77 49.75 49.74 49.72 49.71 49.69 49.68 49.66 49.65 49.63 49.61 49.60 49.58 49.56 49.55 49.53 49.31 49.02 48.73 48.45 48.18 47.92 47.66 47.41 47.18 46.95 46.73 46.53 46.33 46.14 45.96 45.80 45.64 45.50 45.36 45.24 45.13 45.02 44.93 44.84 44.77 44.70 44.64 44.59 44.55 44.51 44.49 44.46 44.45 44.44 44.44 44.44 44.45 44.45 44.47 44.48 44.50 44.52 44.55 44.57 44.59 44.62 44.64 44.67 44.69 44.72 44.74 44.76 44.77 44.79 44.80 44.81 44.82 44.82 44.83 44.83 44.82 44.81 44.80 44.79 44.78 44.76 44.74 44.72 44.69 44.67 44.64 44.61 44.58 44.55 44.52 44.49 44.46 44.43 44.41 44.38 44.36 44.34 44.33 44.32 44.31 44.31 44.31 44.32 44.34 44.36 44.39 44.43 44.47 44.53 44.59 44.66 44.74 44.83 44.93 45.04 45.16 45.29 45.43 45.58 45.74 45.91 46.09 46.29 46.49 46.70 46.92 47.15 47.40 47.65 47.90 48.17 48.45 48.73 49.02 49.23 49.24 49.25 49.27 49.28 49.29 49.30 49.31 49.32 49.33 49.34 49.35 49.36 49.37 49.38 49.39 49.40 49.41 49.42 49.42 49.43 49.44 49.44 49.45 49.45 49.46 49.46 49.47 49.47 49.47 49.48 49.48 49.48 49.48 49.48 49.48 49.48 49.48 49.48 49.48 49.48 49.47 49.47 49.47 49.46 49.46 49.45 49.45 49.44 49.43 49.43 49.42 49.41 49.40 49.39 49.38 49.37 49.36 49.35 49.34 49.33 49.32 49.31 49.29 49.28 49.27 49.25 49.24 49.22 49.21 49.19 49.18 49.16 49.15 49.13 49.11 49.10 49.08 49.06 49.05 49.03 48.81 48.52 48.23 47.95 47.68 47.42 47.16 46.91 46.68 46.45 46.23 46.03 45.83 45.64 45.46 45.30 45.14 45.00 44.86 44.74 44.63 44.52 44.43 44.34 44.27 44.20 44.14 44.09 44.05 44.01 43.99 43.96 43.95 43.94 43.94 43.94 43.95 43.95 43.97 43.98 44.00 44.02 44.05 44.07 44.09 44.12 44.14 44.17 44.19 44.22 44.24 44.26 44.27 44.29 44.30 44.31 44.32 44.32 44.33 44.33 44.32 44.31 44.30 44.29 44.28 44.26 44.24 44.22 44.19 44.17 44.14 44.11 44.08 44.05 44.02 43.99 43.96 43.93 43.91 43.88 43.86 43.84 43.83 43.82 43.81 43.81 43.81 43.82 43.84 43.86 43.89 43.93 43.97 44.03 44.09 44.16 44.24 44.33 44.43 44.54 44.66 44.79 44.93 45.08 45.24 45.41 45.59 45.79 45.99 46.20 46.42 46.65 46.90 47.15 47.40 47.67 47.95 48.23 48.52 48.73 48.74 48.75 48.77 48.78 48.79 48.80 48.81 48.82 48.83 48.84 48.85 48.86 48.87 48.88 48.89 48.90 48.91 48.92 48.92 48.93 48.94 48.94 48.95 48.95 48.96 48.96 48.97 48.97 48.97 48.98 48.98 48.98 48.98 48.98 48.98 48.98 48.98 48.98 48.98 48.98 48.97 48.97 48.97 48.96 48.96 48.95 48.95 48.94 48.93 48.93 48.92 48.91 48.90 48.89 48.88 48.87 48.86 48.85 48.84 48.83 48.82 48.81 48.79 48.78 48.77 48.75 48.74 48.72 48.71 48.69 48.68 48.66 48.65 48.63 48.61 48.60 48.58 48.56 48.55 48.53 48.31 48.02 47.73 47.45 47.18 46.92 46.66 46.41 46.18
46.80 46.61 46.44 46.27 46.12 45.97 45.84 45.71 45.60 45.49 45.40 45.31 45.24 45.17 45.12 45.07 45.03 45.00 44.98 44.96 44.95 44.95 44.95 44.96 44.98 44.99 45.02 45.05 45.08 45.11 45.14 45.18 45.22 45.26 45.30 45.34 45.37 45.41 45.45 45.48 45.52 45.55 45.57 45.60 45.62 45.64 45.65 45.66 45.67 45.68 45.67 45.67 45.66 45.65 45.63 45.61 45.59 45.56 45.53 45.50 45.47 45.43 45.39 45.35 45.30 45.26 45.22 45.17 45.13 45.09 45.04 45.00 44.97 44.93 44.90 44.87 44.85 44.83 44.81 44.80 44.80 44.80 44.82 44.83 44.86 44.89 44.94 44.99 45.05 45.12 45.20 45.29 45.39 45.50 45.62 45.75 45.89 46.04 46.20 46.37 46.55 46.74 46.94 47.15 47.37 47.60 47.83 48.08 48.33 48.59 48.86 49.13 49.41 49.69 49.73 49.74 49.75 49.76 49.77 49.78 49.79 49.80 49.81 49.82 49.83 49.84 49.85 49.86 49.87 49.87 49.88 49.89 49.89 49.90 49.90 49.91 49.91 49.92 49.92 49.92 49.93 49.93 49.93 49.93 49.93 49.93 49.93 49.93 49.93 49.93 49.92 49.92 49.92 49.92 49.91 49.91 49.90 49.90 49.89 49.88 49.88 49.87 49.86 49.85 49.84 49.83 49.82 49.81 49.80 49.79 49.78 49.77 49.76 49.74 49.73 49.72 49.70 49.69 49.67 49.66 49.64 49.63 49.61 49.60 49.58 49.56 49.55 49.50 49.22 48.93 48.66 48.39 48.12 47.86 47.61 47.37 47.14 46.92 46.70 46.50 46.30 46.11 45.94 45.77 45.62 45.47 45.34 45.21 45.10 44.99 44.90 44.81 44.74 44.67 44.62 44.57 44.53 44.50 44.48 44.46 44.45 44.45 44.45 44.46 44.48 44.49 44.52 44.55 44.58 44.61 44.64 44.68 44.72 44.76 44.80 44.84 44.87 44.91 44.95 44.98 45.02 45.05 45.07 45.10 45.12 45.14 45.15 45.16 45.17 45.18 45.17 45.17 45.16 45.15 45.13 45.11 45.09 45.06 45.03 45.00 44.97 44.93 44.89 44.85 44.80 44.76 44.72 44.67 44.63 44.59 44.54 44.50 44.47 44.43 44.40 44.37 44.35 44.33 44.31 44.30 44.30 44.30 44.32 44.33 44.36 44.39 44.44 44.49 44.55 44.62 44.70 44.79 44.89 45.00 45.12 45.25 45.39 45.54 45.70 45.87 46.05 46.24 46.44 46.65 46.87 47.10 47.33 47.58 47.83 48.09 48.36 48.63 48.91 49.19 49.23 49.24 49.25 49.26 49.27 49.28 49.29 49.30 49.31 49.32 49.33 49.34 49.35 49.36 49.37 49.37 49.38 49.39 49.39 49.40 49.40 49.41 49.41 49.42 49.42 49.42 49.43 49.43 49.43 49.43 49.43 49.43 49.43 49.43 49.43 49.43 49.42 49.42 49.42 49.42 49.41 49.41 49.40 49.40 49.39 49.38 49.38 49.37 49.36 49.35 49.34 49.33 49.32 49.31 49.30 49.29 49.28 49.27 49.26 49.24 49.23 49.22 49.20 49.19 49.17 49.16 49.14 49.13 49.11 49.10 49.08 49.06 49.05 49.00 48.72 48.43 48.16 47.89 47.62 47.36 47.11 46.87 46.64 46.42 46.20 46.00 45.80 45.61 45.44 45.27 45.12 44.97 44.84 44.71 44.60 44.49 44.40 44.31 44.24 44.17 44.12 44.07 44.03 44.00 43.98 43.96 43.95 43.95 43.95 43.96 43.98 43.99 44.02 44.05 44.08 44.11 44.14 44.18 44.22 44.26 44.30 44.34 44.37 44.41 44.45 44.48 44.52 44.55 44.57 44.60 44.62 44.64 44.65 44.66 44.67 44.68 44.67 44.67 44.66 44.65 44.63 44.61 44.59 44.56 44.53 44.50 44.47 44.43 44.39 44.35 44.30 44.26 44.22 44.17 44.13 44.09 44.04 44.00 43.97 43.93 43.90 43.87 43.85 43.83 43.81 43.80 43.80 43.80 43.82 43.83 43.86 43.89 43.94 43.99 44.05 44.12 44.20 44.29 44.39 44.50 44.62 44.75 44.89 45.04 45.20 45.37 45.55 45.74 45.94 46.15 46.37 46.60 46.83 47.08 47.33 47.59 47.86 48.13 48.41 48.69 48.73 48.74 48.75 48.76 48.77 48.78 48.79 48.80 48.81 48.82 48.83 48.84 48.85 48.86 48.87 48.87 48.88 48.89 48.89 48.90 48.90 48.91 48.91 48.92 48.92 48.92 48.93 48.93 48.93 48.93 48.93 48.93 48.93 48.93 48.93 48.93 48.92 48.92 48.92 48.92 48.91 48.91 48.90 48.90 48.89 48.88 48.88 48.87 48.86 48.85 48.84 48.83 48.82 48.81 48.80 48.79 48.78 48.77 48.76 48.74 48.73 48.72 48.70 48.69 48.67 48.66 48.64 48.63 48.61 48.60 48.58 48.56 48.55 48.50 48.22 47.93 47.66 47.39 47.12 46.86 46.61 46.37 46.14 45.92 45.70 45.50
46.25 46.10 45.95 45.82 45.69 45.58 45.47 45.38 45.30 45.22 45.16 45.10 45.06 45.02 44.99 44.97 44.96 44.96 44.96 44.97 44.99 45.01 45.04 45.07 45.11 45.15 45.20 45.25 45.30 45.35 45.40 45.46 45.51 45.57 45.62 45.68 45.73 45.78 45.83 45.87 45.92 45.96 45.99 46.02 46.05 46.08 46.10 46.11 46.12 46.13 46.12 46.12 46.11 46.10 46.08 46.05 46.02 45.99 45.95 45.91 45.87 45.82 45.77 45.72 45.66 45.60 45.54 45.48 45.42 45.36 45.30 45.24 45.19 45.13 45.08 45.03 44.98 44.94 44.90 44.87 44.84 44.82 44.80 44.79 44.79 44.80 44.81 44.84 44.87 44.91 44.96 45.02 45.09 45.16 45.25 45.35 45.46 45.58 45.71 45.85 46.00 46.16 46.33 46.51 46.70 46.89 47.10 47.31 47.53 47.76 48.00 48.24 48.49 48.74 49.00 49.26 49.53 49.71 49.72 49.73 49.74 49.75 49.76 49.77 49.78 49.79 49.80 49.81 49.82 49.82 49.83 49.84 49.84 49.85 49.85 49.86 49.86 49.87 49.87 49.87 49.88 49.88 49.88 49.88 49.88 49.88 49.88 49.88 49.88 49.88 49.88 49.87 49.87 49.87 49.86 49.86 49.85 49.85 49.84 49.83 49.83 49.82 49.81 49.80 49.79 49.78 49.77 49.76 49.75 49.74 49.73 49.72 49.71 49.69 49.68 49.67 49.65 49.64 49.62 49.61 49.59 49.58 49.56 49.55 49.36 49.09 48.82 48.56 48.30 48.04 47.80 47.56 47.32 47.10 46.88 46.67 46.47 46.27 46.09 45.91 45.75 45.60 45.45 45.32 45.19 45.08 44.97 44.88 44.80 44.72 44.66 44.60 44.56 44.52 44.49 44.47 44.46 44.46 44.46 44.47 44.49 44.51 44.54 44.57 44.61 44.65 44.70 44.75 44.80 44.85 44.90 44.96 45.01 45.07 45.12 45.18 45.23 45.28 45.33 45.37 45.42 45.46 45.49 45.52 45.55 45.58 45.60 45.61 45.62 45.63 45.62 45.62 45.61 45.60 45.58 45.55 45.52 45.49 45.45 45.41 45.37 45.32 45.27 45.22 45.16 45.10 45.04 44.98 44.92 44.86 44.80 44.74 44.69 44.63 44.58 44.53 44.48 44.44 44.40 44.37 44.34 44.32 44.30 44.29 44.29 44.30 44.31 44.34 44.37 44.41 44.46 44.52 44.59 44.66 44.75 44.85 44.96 45.08 45.21 45.35 45.50 45.66 45.83 46.01 46.20 46.39 46.60 46.81 47.03 47.26 47.50 47.74 47.99 48.24 48.50 48.76 49.03 49.21 49.22 49.23 49.24 49.25 49.26 49.27 49.28 49.29 49.30 49.31 49.32 49.32 49.33 49.34 49.34 49.35 49.35 49.36 49.36 49.37 49.37 49.37 49.38 49.38 49.38 49.38 49.38 49.38 49.38 49.38 49.38 49.38 49.38 49.37 49.37 49.37 49.36 49.36 49.35 49.35 49.34 49.33 49.33 49.32 49.31 49.30 49.29 49.28 49.27 49.26 49.25 49.24 49.23 49.22 49.21 49.19 49.18 49.17 49.15 49.14 49.12 49.11 49.09 49.08 49.06 49.05 48.86 48.59 48.32 48.06 47.80 47.54 47.30 47.06 46.82 46.60 46.38 46.17 45.97 45.77 45.59 45.41 45.25 45.10 44.95 44.82 44.69 44.58 44.47 44.38 44.30 44.22 44.16 44.10 44.06 44.02 43.99 43.97 43.96 43.96 43.96 43.97 43.99 44.01 44.04 44.07 44.11 44.15 44.20 44.25 44.30 44.35 44.40 44.46 44.51 44.57 44.62 44.68 44.73 44.78 44.83 44.87 44.92 44.96 44.99 45.02 45.05 45.08 45.10 45.11 45.12 45.13 45.12 45.12 45.11 45.10 45.08 45.05 45.02 44.99 44.95 44.91 44.87 44.82 44.77 44.72 44.66 44.60 44.54 44.48 44.42 44.36 44.30 44.24 44.19 44.13 44.08 44.03 43.98 43.94 43.90 43.87 43.84 43.82 43.80 43.79 43.79 43.80 43.81 43.84 43.87 43.91 43.96 44.02 44.09 44.16 44.25 44.35 44.46 44.58 44.71 44.85 45.00 45.16 45.33 45.51 45.70 45.89 46.10 46.31 46.53 46.76 47.00 47.24 47.49 47.74 48.00 48.26 48.53 48.71 48.72 48.73 48.74 48.75 48.76 48.77 48.78 48.79 48.80 48.81 48.82 48.82 48.83 48.84 48.84 48.85 48.85 48.86 48.86 48.87 48.87 48.87 48.88 48.88 48.88 48.88 48.88 48.88 48.88 48.88 48.88 48.88 48.88 48.87 48.87 48.87 48.86 48.86 48.85 48.85 48.84 48.83 48.83 48.82 48.81 48.80 48.79 48.78 48.77 48.76 48.75 48.74 48.73 48.72 48.71 48.69 48.68 48.67 48.65 48.64 48.62 48.61 48.59 48.58 48.56 48.55 48.36 48.09 47.82 47.56 47.30 47.04 46.80 46.56 46.32 46.10 45.88 45.67 45.47 45.27 45.09 44.91
45.80 45.68 45.56 45.46 45.37 45.28 45.21 45.15 45.09 45.05 45.02 44.99 44.98 44.97 44.97 44.98 44.99 45.02 45.05 45.08 45.13 45.17 45.23 45.28 45.34 45.41 45.48 45.55 45.62 45.69 45.76 45.83 45.91 45.98 46.05 46.12 46.18 46.25 46.31 46.37 46.42 46.47 46.51 46.55 46.59 46.61 46.64 46.66 46.67 46.67 46.67 46.67 46.66 46.64 46.62 46.59 46.56 46.52 46.47 46.42 46.37 46.31 46.25 46.18 46.11 46.04 45.97 45.89 45.82 45.74 45.66 45.58 45.51 45.43 45.36 45.28 45.21 45.15 45.09 45.03 44.98 44.93 44.89 44.85 44.82 44.80 44.79 44.78 44.79 44.80 44.82 44.85 44.88 44.93 44.99 45.06 45.14 45.23 45.32 45.43 45.55 45.68 45.82 45.96 46.12 46.29 46.46 46.64 46.83 47.03 47.24 47.45 47.67 47.89 48.12 48.36 48.60 48.84 49.08 49.33 49.58 49.70 49.71 49.72 49.73 49.74 49.75 49.76 49.77 49.77 49.78 49.79 49.79 49.80 49.80 49.81 49.81 49.82 49.82 49.82 49.83 49.83 49.83 49.83 49.83 49.83 49.83 49.83 49.83 49.83 49.83 49.82 49.82 49.82 49.81 49.81 49.80 49.80 49.79 49.78 49.78 49.77 49.76 49.75 49.74 49.73 49.72 49.71 49.70 49.69 49.68 49.67 49.66 49.64 49.63 49.62 49.60 49.59 49.57 49.56 49.43 49.18 48.92 48.67 48.43 48.18 47.94 47.71 47.48 47.26 47.04 46.83 46.62 46.43 46.24 46.06 45.89 45.73 45.58 45.43 45.30 45.18 45.06 44.96 44.87 44.78 44.71 44.65 44.59 44.55 44.52 44.49 44.48 44.47 44.47 44.48 44.49 44.52 44.55 44.58 44.63 44.67 44.73 44.78 44.84 44.91 44.98 45.05 45.12 45.19 45.26 45.33 45.41 45.48 45.55 45.62 45.68 45.75 45.81 45.87 45.92 45.97 46.01 46.05 46.09 46.11 46.14 46.16 46.17 46.17 46.17 46.17 46.16 46.14 46.12 46.09 46.06 46.02 45.97 45.92 45.87 45.81 45.75 45.68 45.61 45.54 45.47 45.39 45.32 45.24 45.16 45.08 45.01 44.93 44.86 44.78 44.71 44.65 44.59 44.53 44.48 44.43 44.39 44.35 44.32 44.30 44.29 44.28 44.29 44.30 44.32 44.35 44.38 44.43 44.49 44.56 44.64 44.73 44.82 44.93 45.05 45.18 45.32 45.46 45.62 45.79 45.96 46.14 46.33 46.53 46.74 46.95 47.17 47.39 47.62 47.86 48.10 48.34 48.58 48.83 49.08 49.20 49.21 49.22 49.23 49.24 49.25 49.26 49.27 49.27 49.28 49.29 49.29 49.30 49.30 49.31 49.31 49.32 49.32 49.32 49.33 49.33 49.33 49.33 49.33 49.33 49.33 49.33 49.33 49.33 49.33 49.32 49.32 49.32 49.31 49.31 49.30 49.30 49.29 49.28 49.28 49.27 49.26 49.25 49.24 49.23 49.22 49.21 49.20 49.19 49.18 49.17 49.16 49.14 49.13 49.12 49.10 49.09 49.07 49.06 48.93 48.68 48.42 48.17 47.93 47.68 47.44 47.21 46.98 46.76 46.54 46.33 46.12 45.93 45.74 45.56 45.39 45.23 45.08 44.93 44.80 44.68 44.56 44.46 44.37 44.28 44.21 44.15 44.09 44.05 44.02 43.99 43.98 43.97 43.97 43.98 43.99 44.02 44.05 44.08 44.13 44.17 44.23 44.28 44.34 44.41 44.48 44.55 44.62 44.69 44.76 44.83 44.91 44.98 45.05 45.12 45.18 45.25 45.31 45.37 45.42 45.47 45.51 45.55 45.59 45.61 45.64 45.66 45.67 45.67 45.67 45.67 45.66 45.64 45.62 45.59 45.56 45.52 45.47 45.42 45.37 45.31 45.25 45.18 45.11 45.04 44.97 44.89 44.82 44.74 44.66 44.58 44.51 44.43 44.36 44.28 44.21 44.15 44.09 44.03 43.98 43.93 43.89 43.85 43.82 43.80 43.79 43.78 43.79 43.80 43.82 43.85 43.88 43.93 43.99 44.06 44.14 44.23 44.32 44.43 44.55 44.68 44.82 44.96 45.12 45.29 45.46 45.64 45.83 46.03 46.24 46.45 46.67 46.89 47.12 47.36 47.60 47.84 48.08 48.33 48.58 48.70 48.71 48.72 48.73 48.74 48.75 48.76 48.77 48.77 48.78 48.79 48.79 48.80 48.80 48.81 48.81 48.82 48.82 48.82 48.83 48.83 48.83 48.83 48.83 48.83 48.83 48.83 48.83 48.83 48.83 48.82 48.82 48.82 48.81 48.81 48.80 48.80 48.79 48.78 48.78 48.77 48.76 48.75 48.74 48.73 48.72 48.71 48.70 48.69 48.68 48.67 48.66 48.64 48.63 48.62 48.60 48.59 48.57 48.56 48.43 48.18 47.92 47.67 47.43 47.18 46.94 46.71 46.48 46.26 46.04 45.83 45.62 45.43 45.24 45.06 44.89 44.73 44.58 44.43
45.45 45.36 45.28 45.20 45.14 45.09 45.05 45.02 44.99 44.98 44.98 44.98 44.99 45.01 45.04 45.08 45.13 45.18 45.23 45.30 45.36 45.44 45.51 45.60 45.68 45.77 45.86 45.95 46.04 46.13 46.22 46.31 46.40 46.49 46.58 46.66 46.74 46.82 46.89 46.96 47.02 47.08 47.13 47.18 47.22 47.25 47.28 47.30 47.32 47.32 47.33 47.32 47.31 47.29 47.26 47.23 47.19 47.14 47.09 47.03 46.97 46.90 46.83 46.75 46.67 46.58 46.50 46.40 46.31 46.22 46.12 46.02 45.93 45.83 45.74 45.64 45.55 45.46 45.37 45.29 45.21 45.14 45.07 45.01 44.96 44.91 44.86 44.83 44.80 44.79 44.78 44.77 44.78 44.80 44.83 44.87 44.91 44.97 45.04 45.11 45.20 45.30 45.40 45.52 45.64 45.78 45.92 46.07 46.24 46.40 46.58 46.76 46.95 47.15 47.35 47.56 47.77 47.98 48.20 48.42 48.64 48.86 49.09 49.31 49.54 49.69 49.70 49.71 49.72 49.72 49.73 49.74 49.74 49.75 49.75 49.76 49.76 49.77 49.77 49.77 49.78 49.78 49.78 49.78 49.78 49.78 49.78 49.78 49.78 49.78 49.77 49.77 49.77 49.77 49.76 49.76 49.75 49.75 49.74 49.73 49.73 49.72 49.71 49.70 49.69 49.68 49.67 49.66 49.65 49.64 49.63 49.62 49.61 49.59 49.58 49.57 49.41 49.18 48.95 48.72 48.49 48.26 48.04 47.82 47.60 47.38 47.17 46.96 46.76 46.57 46.38 46.20 46.03 45.86 45.70 45.55 45.41 45.28 45.16 45.05 44.95 44.86 44.78 44.70 44.64 44.59 44.55 44.52 44.49 44.48 44.48 44.48 44.49 44.51 44.54 44.58 44.63 44.68 44.73 44.80 44.86 44.94 45.01 45.10 45.18 45.27 45.36 45.45 45.54 45.63 45.72 45.81 45.90 45.99 46.08 46.16 46.24 46.32 46.39 46.46 46.52 46.58 46.63 46.68 46.72 46.75 46.78 46.80 46.82 46.82 46.83 46.82 46.81 46.79 46.76 46.73 46.69 46.64 46.59 46.53 46.47 46.40 46.33 46.25 46.17 46.08 46.00 45.90 45.81 45.72 45.62 45.52 45.43 45.33 45.24 45.14 45.05 44.96 44.87 44.79 44.71 44.64 44.57 44.51 44.46 44.41 44.36 44.33 44.30 44.29 44.28 44.27 44.28 44.30 44.33 44.37 44.41 44.47 44.54 44.61 44.70 44.80 44.90 45.02 45.14 45.28 45.42 45.57 45.74 45.90 46.08 46.26 46.45 46.65 46.85 47.06 47.27 47.48 47.70 47.92 48.14 48.36 48.59 48.81 49.04 49.19 49.20 49.21 49.22 49.22 49.23 49.24 49.24 49.25 49.25 49.26 49.26 49.27 49.27 49.27 49.28 49.28 49.28 49.28 49.28 49.28 49.28 49.28 49.28 49.28 49.27 49.27 49.27 49.27 49.26 49.26 49.25 49.25 49.24 49.23 49.23 49.22 49.21 49.20 49.19 49.18 49.17 49.16 49.15 49.14 49.13 49.12 49.11 49.09 49.08 49.07 48.91 48.68 48.45 48.22 47.99 47.76 47.54 47.32 47.10 46.88 46.67 46.46 46.26 46.07 45.88 45.70 45.53 45.36 45.20 45.05 44.91 44.78 44.66 44.55 44.45 44.36 44.28 44.20 44.14 44.09 44.05 44.02 43.99 43.98 43.98 43.98 43.99 44.01 44.04 44.08 44.13 44.18 44.23 44.30 44.36 44.44 44.51 44.60 44.68 44.77 44.86 44.95 45.04 45.13 45.22 45.31 45.40 45.49 45.58 45.66 45.74 45.82 45.89 45.96 46.02 46.08 46.13 46.18 46.22 46.25 46.28 46.30 46.32 46.32 46.33 46.32 46.31 46.29 46.26 46.23 46.19 46.14 46.09 46.03 45.97 45.90 45.83 45.75 45.67 45.58 45.50 45.40 45.31 45.22 45.12 45.02 44.93 44.83 44.74 44.64 44.55 44.46 44.37 44.29 44.21 44.14 44.07 44.01 43.96 43.91 43.86 43.83 43.80 43.79 43.78 43.77 43.78 43.80 43.83 43.87 43.91 43.97 44.04 44.11 44.20 44.30 44.40 44.52 44.64 44.78 44.92 45.07 45.24 45.40 45.58 45.76 45.95 46.15 46.35 46.56 46.77 46.98 47.20 47.42 47.64 47.86 48.09 48.31 48.54 48.69 48.70 48.71 48.72 48.72 48.73 48.74 48.74 48.75 48.75 48.76 48.76 48.77 48.77 48.77 48.78 48.78 48.78 48.78 48.78 48.78 48.78 48.78 48.78 48.78 48.77 48.77 48.77 48.77 48.76 48.76 48.75 48.75 48.74 48.73 48.73 48.72 48.71 48.70 48.69 48.68 48.67 48.66 48.65 48.64 48.63 48.62 48.61 48.59 48.58 48.57 48.41 48.18 47.95 47.72 47.49 47.26 47.04 46.82 46.60 46.38 46.17 45.96 45.76 45.57 45.38 45.20 45.03 44.86 44.70 44.55 44.41 44.28 44.16 44.05
45.20 45.14 45.09 45.05 45.02 45.00 44.99 44.98 44.99 45.01 45.03 45.07 45.11 45.16 45.22 45.29 45.36 45.44 45.52 45.61 45.70 45.80 45.90 46.01 46.11 46.22 46.33 46.45 46.56 46.67 46.78 46.89 47.00 47.10 47.20 47.30 47.39 47.48 47.57 47.65 47.72 47.79 47.85 47.90 47.95 47.99 48.02 48.05 48.06 48.07 48.08 48.07 48.05 48.03 48.00 47.96 47.92 47.87 47.81 47.74 47.67 47.59 47.51 47.42 47.32 47.22 47.12 47.02 46.91 46.79 46.68 46.56 46.45 46.33 46.21 46.10 45.98 45.87 45.76 45.65 45.55 45.45 45.36 45.27 45.19 45.11 45.04 44.98 44.92 44.87 44.83 44.80 44.78 44.77 44.77 44.77 44.79 44.81 44.85 44.89 44.95 45.02 45.09 45.17 45.27 45.37 45.49 45.61 45.74 45.87 46.02 46.17 46.33 46.50 46.67 46.85 47.03 47.22 47.41 47.61 47.80 48.00 48.20 48.40 48.60 48.80 49.00 49.20 49.39 49.58 49.68 49.69 49.69 49.70 49.70 49.71 49.71 49.72 49.72 49.72 49.73 49.73 49.73 49.73 49.73 49.73 49.73 49.73 49.73 49.73 49.73 49.72 49.72 49.72 49.71 49.71 49.70 49.70 49.69 49.68 49.68 49.67 49.66 49.65 49.64 49.63 49.62 49.61 49.60 49.59 49.58 49.47 49.28 49.08 48.88 48.68 48.47 48.27 48.06 47.86 47.65 47.45 47.25 47.06 46.86 46.68 46.49 46.32 46.14 45.98 45.82 45.67 45.53 45.39 45.27 45.15 45.04 44.94 44.85 44.77 44.70 44.64 44.59 44.55 44.52 44.50 44.49 44.48 44.49 44.51 44.53 44.57 44.61 44.66 44.72 44.79 44.86 44.94 45.02 45.11 45.20 45.30 45.40 45.51 45.61 45.72 45.83 45.95 46.06 46.17 46.28 46.39 46.50 46.60 46.70 46.80 46.89 46.98 47.07 47.15 47.22 47.29 47.35 47.40 47.45 47.49 47.52 47.55 47.56 47.57 47.58 47.57 47.55 47.53 47.50 47.46 47.42 47.37 47.31 47.24 47.17 47.09 47.01 46.92 46.82 46.72 46.62 46.52 46.41 46.29 46.18 46.06 45.95 45.83 45.71 45.60 45.48 45.37 45.26 45.15 45.05 44.95 44.86 44.77 44.69 44.61 44.54 44.48 44.42 44.37 44.33 44.30 44.28 44.27 44.27 44.27 44.29 44.31 44.35 44.39 44.45 44.52 44.59 44.67 44.77 44.87 44.99 45.11 45.24 45.37 45.52 45.67 45.83 46.00 46.17 46.35 46.53 46.72 46.91 47.11 47.30 47.50 47.70 47.90 48.10 48.30 48.50 48.70 48.89 49.08 49.18 49.19 49.19 49.20 49.20 49.21 49.21 49.22 49.22 49.22 49.23 49.23 49.23 49.23 49.23 49.23 49.23 49.23 49.23 49.23 49.23 49.22 49.22 49.22 49.21 49.21 49.20 49.20 49.19 49.18 49.18 49.17 49.16 49.15 49.14 49.13 49.12 49.11 49.10 49.09 49.08 48.97 48.78 48.58 48.38 48.18 47.97 47.77 47.56 47.36 47.15 46.95 46.75 46.56 46.36 46.18 45.99 45.82 45.64 45.48 45.32 45.17 45.03 44.89 44.77 44.65 44.54 44.44 44.35 44.27 44.20 44.14 44.09 44.05 44.02 44.00 43.99 43.98 43.99 44.01 44.03 44.07 44.11 44.16 44.22 44.29 44.36 44.44 44.52 44.61 44.70 44.80 44.90 45.01 45.11 45.22 45.33 45.45 45.56 45.67 45.78 45.89 46.00 46.10 46.20 46.30 46.39 46.48 46.57 46.65 46.72 46.79 46.85 46.90 46.95 46.99 47.02 47.05 47.06 47.07 47.08 47.07 47.05 47.03 47.00 46.96 46.92 46.87 46.81 46.74 46.67 46.59 46.51 46.42 46.32 46.22 46.12 46.02 45.91 45.79 45.68 45.56 45.45 45.33 45.21 45.10 44.98 44.87 44.76 44.65 44.55 44.45 44.36 44.27 44.19 44.11 44.04 43.98 43.92 43.87 43.83 43.80 43.78 43.77 43.77 43.77 43.79 43.81 43.85 43.89 43.95 44.02 44.09 44.17 44.27 44.37 44.49 44.61 44.74 44.87 45.02 45.17 45.33 45.50 45.67 45.85 46.03 46.22 46.41 46.61 46.80 47.00 47.20 47.40 47.60 47.80 48.00 48.20 48.39 48.58 48.68 48.69 48.69 48.70 48.70 48.71 48.71 48.72 48.72 48.72 48.73 48.73 48.73 48.73 48.73 48.73 48.73 48.73 48.73 48.73 48.73 48.72 48.72 48.72 48.71 48.71 48.70 48.70 48.69 48.68 48.68 48.67 48.66 48.65 48.64 48.63 48.62 48.61 48.60 48.59 48.58 48.47 48.28 48.08 47.88 47.68 47.47 47.27 47.06 46.86 46.65 46.45 46.25 46.06 45.86 45.68 45.49 45.32 45.14 44.98 44.82 44.67 44.53 44.39 44.27 44.15 44.04 43.94 43.85 43.77
45.05 45.02 45.00 44.99 44.99 45.00 45.02 45.05 45.09 45.14 45.19 45.26 45.33 45.41 45.50 45.59 45.69 45.79 45.90 46.02 46.14 46.26 46.39 46.52 46.65 46.78 46.91 47.05 47.18 47.31 47.44 47.57 47.69 47.81 47.93 48.04 48.15 48.25 48.35 48.44 48.52 48.60 48.67 48.73 48.78 48.83 48.86 48.89 48.91 48.92 48.92 48.92 48.90 48.88 48.84 48.80 48.75 48.69 48.63 48.55 48.47 48.38 48.29 48.19 48.08 47.97 47.85 47.73 47.60 47.47 47.34 47.20 47.07 46.93 46.79 46.66 46.52 46.38 46.25 46.12 45.99 45.87 45.74 45.63 45.52 45.41 45.32 45.22 45.14 45.06 44.99 44.93 44.88 44.84 44.80 44.78 44.76 44.76 44.76 44.78 44.80 44.83 44.88 44.93 44.99 45.07 45.15 45.24 45.34 45.45 45.56 45.68 45.82 45.95 46.10 46.25 46.40 46.56 46.73 46.89 47.07 47.24 47.41 47.59 47.77 47.94 48.12 48.30 48.47 48.64 48.81 48.97 49.13 49.28 49.43 49.57 49.66 49.67 49.67 49.67 49.68 49.68 49.68 49.68 49.68 49.68 49.68 49.68 49.68 49.68 49.67 49.67 49.67 49.67 49.66 49.66 49.65 49.65 49.64 49.63 49.63 49.62 49.61 49.60 49.59 49.50 49.35 49.20 49.04 48.87 48.71 48.53 48.36 48.18 48.00 47.82 47.64 47.46 47.27 47.09 46.92 46.74 46.57 46.40 46.23 46.07 45.92 45.77 45.63 45.49 45.36 45.24 45.13 45.02 44.93 44.84 44.76 44.70 44.64 44.59 44.55 44.52 44.50 44.49 44.49 44.50 44.52 44.55 44.59 44.64 44.69 44.76 44.83 44.91 45.00 45.09 45.19 45.29 45.40 45.52 45.64 45.76 45.89 46.02 46.15 46.28 46.41 46.55 46.68 46.81 46.94 47.07 47.19 47.31 47.43 47.54 47.65 47.75 47.85 47.94 48.02 48.10 48.17 48.23 48.28 48.33 48.36 48.39 48.41 48.42 48.42 48.42 48.40 48.38 48.34 48.30 48.25 48.19 48.13 48.05 47.97 47.88 47.79 47.69 47.58 47.47 47.35 47.23 47.10 46.97 46.84 46.70 46.57 46.43 46.29 46.16 46.02 45.88 45.75 45.62 45.49 45.37 45.24 45.13 45.02 44.91 44.82 44.72 44.64 44.56 44.49 44.43 44.38 44.34 44.30 44.28 44.26 44.26 44.26 44.28 44.30 44.33 44.38 44.43 44.49 44.57 44.65 44.74 44.84 44.95 45.06 45.18 45.32 45.45 45.60 45.75 45.90 46.06 46.23 46.39 46.57 46.74 46.91 47.09 47.27 47.44 47.62 47.80 47.97 48.14 48.31 48.47 48.63 48.78 48.93 49.07 49.16 49.17 49.17 49.17 49.18 49.18 49.18 49.18 49.18 49.18 49.18 49.18 49.18 49.18 49.17 49.17 49.17 49.17 49.16 49.16 49.15 49.15 49.14 49.13 49.13 49.12 49.11 49.10 49.09 49.00 48.85 48.70 48.54 48.37 48.21 48.03 47.86 47.68 47.50 47.32 47.14 46.96 46.77 46.59 46.42 46.24 46.07 45.90 45.73 45.57 45.42 45.27 45.13 44.99 44.86 44.74 44.63 44.52 44.43 44.34 44.26 44.20 44.14 44.09 44.05 44.02 44.00 43.99 43.99 44.00 44.02 44.05 44.09 44.14 44.19 44.26 44.33 44.41 44.50 44.59 44.69 44.79 44.90 45.02 45.14 45.26 45.39 45.52 45.65 45.78 45.91 46.05 46.18 46.31 46.44 46.57 46.69 46.81 46.93 47.04 47.15 47.25 47.35 47.44 47.52 47.60 47.67 47.73 47.78 47.83 47.86 47.89 47.91 47.92 47.92 47.92 47.90 47.88 47.84 47.80 47.75 47.69 47.63 47.55 47.47 47.38 47.29 47.19 47.08 46.97 46.85 46.73 46.60 46.47 46.34 46.20 46.07 45.93 45.79 45.66 45.52 45.38 45.25 45.12 44.99 44.87 44.74 44.63 44.52 44.41 44.32 44.22 44.14 44.06 43.99 43.93 43.88 43.84 43.80 43.78 43.76 43.76 43.76 43.78 43.80 43.83 43.88 43.93 43.99 44.07 44.15 44.24 44.34 44.45 44.56 44.68 44.82 44.95 45.10 45.25 45.40 45.56 45.73 45.89 46.07 46.24 46.41 46.59 46.77 46.94 47.12 47.30 47.47 47.64 47.81 47.97 48.13 48.28 48.43 48.57 48.66 48.67 48.67 48.67 48.68 48.68 48.68 48.68 48.68 48.68 48.68 48.68 48.68 48.68 48.67 48.67 48.67 48.67 48.66 48.66 48.65 48.65 48.64 48.63 48.63 48.62 48.61 48.60 48.59 48.50 48.35 48.20 48.04 47.87 47.71 47.53 47.36 47.18 47.00 46.82 46.64 46.46 46.27 46.09 45.92 45.74 45.57 45.40 45.23 45.07 44.92 44.77 44.63 44.49 44.36 44.24 44.13 44.02 43.93 43.84 43.76 43.70 43.64 43.59
45.00 45.00 45.01 45.04 45.07 45.11 45.16 45.22 45.29 45.37 45.45 45.55 45.65 45.76 45.87 45.99 46.12 46.25 46.39 46.53 46.68 46.83 46.98 47.13 47.28 47.44 47.59 47.75 47.90 48.05 48.20 48.34 48.48 48.62 48.75 48.88 49.00 49.12 49.23 49.33 49.42 49.51 49.59 49.65 49.71 49.77 49.81 49.84 49.86 49.87 49.88 49.87 49.85 49.82 49.79 49.74 49.68 49.62 49.55 49.46 49.37 49.27 49.17 49.05 48.93 48.81 48.67 48.54 48.39 48.25 48.10 47.94 47.79 47.63 47.47 47.31 47.15 46.99 46.84 46.68 46.53 46.38 46.23 46.09 45.95 45.82 45.69 45.57 45.46 45.35 45.25 45.16 45.08 45.01 44.94 44.88 44.84 44.80 44.77 44.76 44.75 44.75 44.76 44.79 44.82 44.86 44.91 44.97 45.04 45.12 45.20 45.30 45.40 45.51 45.62 45.74 45.87 46.00 46.14 46.28 46.43 46.58 46.73 46.88 47.03 47.19 47.34 47.50 47.65 47.80 47.95 48.09 48.23 48.37 48.50 48.63 48.75 48.87 48.98 49.08 49.17 49.26 49.34 49.40 49.46 49.52 49.56 49.59 49.61 49.62 49.62 49.62 49.60 49.57 49.54 49.49 49.43 49.37 49.30 49.21 49.12 49.02 48.92 48.80 48.68 48.56 48.42 48.29 48.14 48.00 47.85 47.69 47.54 47.38 47.22 47.06 46.90 46.74 46.59 46.43 46.28 46.13 45.98 45.84 45.70 45.57 45.44 45.32 45.21 45.10 45.00 44.91 44.83 44.76 44.69 44.63 44.59 44.55 44.52 44.51 44.50 44.50 44.51 44.54 44.57 44.61 44.66 44.72 44.79 44.87 44.95 45.05 45.15 45.26 45.37 45.49 45.62 45.75 45.89 46.03 46.18 46.33 46.48 46.63 46.78 46.94 47.09 47.25 47.40 47.55 47.70 47.84 47.98 48.12 48.25 48.38 48.50 48.62 48.73 48.83 48.92 49.01 49.09 49.15 49.21 49.27 49.31 49.34 49.36 49.37 49.38 49.37 49.35 49.32 49.29 49.24 49.18 49.12 49.05 48.96 48.87 48.77 48.67 48.55 48.43 48.31 48.17 48.04 47.89 47.75 47.60 47.44 47.29 47.13 46.97 46.81 46.65 46.49 46.34 46.18 46.03 45.88 45.73 45.59 45.45 45.32 45.19 45.07 44.96 44.85 44.75 44.66 44.58 44.51 44.44 44.38 44.34 44.30 44.27 44.26 44.25 44.25 44.26 44.29 44.32 44.36 44.41 44.47 44.54 44.62 44.70 44.80 44.90 45.01 45.12 45.24 45.37 45.50 45.64 45.78 45.93 46.08 46.23 46.38 46.53 46.69 46.84 47.00 47.15 47.30 47.45 47.59 47.73 47.87 48.00 48.13 48.25 48.37 48.48 48.58 48.67 48.76 48.84 48.90 48.96 49.02 49.06 49.09 49.11 49.12 49.12 49.12 49.10 49.07 49.04 48.99 48.93 48.87 48.80 48.71 48.62 48.52 48.42 48.30 48.18 48.06 47.92 47.79 47.64 47.50 47.35 47.19 47.04 46.88 46.72 46.56 46.40 46.24 46.09 45.93 45.78 45.63 45.48 45.34 45.20 45.07 44.94 44.82 44.71 44.60 44.50 44.41 44.33 44.26 44.19 44.13 44.09 44.05 44.02 44.01 44.00 44.00 44.01 44.04 44.07 44.11 44.16 44.22 44.29 44.37 44.45 44.55 44.65 44.76 44.87 44.99 45.12 45.25 45.39 45.53 45.68 45.83 45.98 46.13 46.28 46.44 46.59 46.75 46.90 47.05 47.20 47.34 47.48 47.62 47.75 47.88 48.00 48.12 48.23 48.33 48.42 48.51 48.59 48.65 48.71 48.77 48.81 48.84 48.86 48.87 48.88 48.87 48.85 48.82 48.79 48.74 48.68 48.62 48.55 48.46 48.37 48.27 48.17 48.05 47.93 47.81 47.67 47.54 47.39 47.25 47.10 46.94 46.79 46.63 46.47 46.31 46.15 45.99 45.84 45.68 45.53 45.38 45.23 45.09 44.95 44.82 44.69 44.57 44.46 44.35 44.25 44.16 44.08 44.01 43.94 43.88 43.84 43.80 43.77 43.76 43.75 43.75 43.76 43.79 43.82 43.86 43.91 43.97 44.04 44.12 44.20 44.30 44.40 44.51 44.62 44.74 44.87 45.00 45.14 45.28 45.43 45.58 45.73 45.88 46.03 46.19 46.34 46.50 46.65 46.80 46.95 47.09 47.23 47.37 47.50 47.63 47.75 47.87 47.98 48.08 48.17 48.26 48.34 48.40 48.46 48.52 48.56 48.59 48.61 48.62 48.62 48.62 48.60 48.57 48.54 48.49 48.43 48.37 48.30 48.21 48.12 48.02 47.92 47.80 47.68 47.56 47.42 47.29 47.14 47.00 46.85 46.69 46.54 46.38 46.22 46.06 45.90 45.74 45.59 45.43 45.28 45.13 44.98 44.84 44.70 44.57 44.44 44.32 44.21 44.10 44.00 43.91 43.83 43.76 43.69 43.63 43.59 43.55 43.52 43.51
45.05 45.08 45.13 45.18 45.24 45.32 45.40 45.49 45.59 45.70 45.81 45.93 46.07 46.20 46.35 46.50 46.65 46.81 46.98 47.14 47.32 47.49 47.66 47.84 48.02 48.19 48.37 48.55 48.72 48.89 49.06 49.22 49.38 49.53 49.68 49.82 49.91 49.92 49.92 49.92 49.93 49.93 49.93 49.93 49.93 49.93 49.93 49.93 49.93 49.93 49.92 49.92 49.92 49.92 49.91 49.91 49.90 49.90 49.89 49.88 49.88 49.87 49.86 49.85 49.84 49.75 49.60 49.45 49.29 49.12 48.96 48.78 48.61 48.43 48.25 48.07 47.89 47.71 47.52 47.34 47.17 46.99 46.82 46.65 46.48 46.32 46.17 46.02 45.88 45.74 45.61 45.49 45.38 45.27 45.18 45.09 45.01 44.95 44.89 44.84 44.80 44.77 44.75 44.74 44.74 44.75 44.77 44.80 44.84 44.89 44.94 45.01 45.08 45.16 45.25 45.34 45.44 45.54 45.65 45.77 45.89 46.01 46.14 46.27 46.40 46.53 46.66 46.80 46.93 47.06 47.19 47.32 47.44 47.56 47.68 47.79 47.90 48.00 48.10 48.19 48.27 48.35 48.42 48.48 48.53 48.58 48.61 48.64 48.66 48.67 48.67 48.67 48.65 48.63 48.59 48.55 48.50 48.44 48.38 48.30 48.22 48.13 48.04 47.94 47.83 47.72 47.60 47.48 47.35 47.22 47.09 46.95 46.82 46.68 46.54 46.41 46.27 46.13 46.00 45.87 45.74 45.62 45.49 45.38 45.27 45.16 45.07 44.97 44.89 44.81 44.74 44.68 44.63 44.59 44.55 44.53 44.51 44.51 44.51 44.53 44.55 44.58 44.63 44.68 44.74 44.82 44.90 44.99 45.09 45.20 45.31 45.43 45.57 45.70 45.85 46.00 46.15 46.31 46.48 46.64 46.82 46.99 47.16 47.34 47.52 47.69 47.87 48.05 48.22 48.39 48.56 48.72 48.88 49.03 49.18 49.32 49.41 49.42 49.42 49.42 49.43 49.43 49.43 49.43 49.43 49.43 49.43 49.43 49.43 49.43 49.42 49.42 49.42 49.42 49.41 49.41 49.40 49.40 49.39 49.38 49.38 49.37 49.36 49.35 49.34 49.25 49.10 48.95 48.79 48.62 48.46 48.28 48.11 47.93 47.75 47.57 47.39 47.21 47.02 46.84 46.67 46.49 46.32 46.15 45.98 45.82 45.67 45.52 45.38 45.24 45.11 44.99 44.88 44.77 44.68 44.59 44.51 44.45 44.39 44.34 44.30 44.27 44.25 44.24 44.24 44.25 44.27 44.30 44.34 44.39 44.44 44.51 44.58 44.66 44.75 44.84 44.94 45.04 45.15 45.27 45.39 45.51 45.64 45.77 45.90 46.03 46.16 46.30 46.43 46.56 46.69 46.82 46.94 47.06 47.18 47.29 47.40 47.50 47.60 47.69 47.77 47.85 47.92 47.98 48.03 48.08 48.11 48.14 48.16 48.17 48.17 48.17 48.15 48.13 48.09 48.05 48.00 47.94 47.88 47.80 47.72 47.63 47.54 47.44 47.33 47.22 47.10 46.98 46.85 46.72 46.59 46.45 46.32 46.18 46.04 45.91 45.77 45.63 45.50 45.37 45.24 45.12 44.99 44.88 44.77 44.66 44.57 44.47 44.39 44.31 44.24 44.18 44.13 44.09 44.05 44.03 44.01 44.01 44.01 44.03 44.05 44.08 44.13 44.18 44.24 44.32 44.40 44.49 44.59 44.70 44.81 44.93 45.07 45.20 45.35 45.50 45.65 45.81 45.98 46.14 46.32 46.49 46.66 46.84 47.02 47.19 47.37 47.55 47.72 47.89 48.06 48.22 48.38 48.53 48.68 48.82 48.91 48.92 48.92 48.92 48.93 48.93 48.93 48.93 48.93 48.93 48.93 48.93 48.93 48.93 48.92 48.92 48.92 48.92 48.91 48.91 48.90 48.90 48.89 48.88 48.88 48.87 48.86 48.85 48.84 48.75 48.60 48.45 48.29 48.12 47.96 47.78 47.61 47.43 47.25 47.07 46.89 46.71 46.52 46.34 46.17 45.99 45.82 45.65 45.48 45.32 45.17 45.02 44.88 44.74 44.61 44.49 44.38 44.27 44.18 44.09 44.01 43.95 43.89 43.84 43.80 43.77 43.75 43.74 43.74 43.75 43.77 43.80 43.84 43.89 43.94 44.01 44.08 44.16 44.25 44.34 44.44 44.54 44.65 44.77 44.89 45.01 45.14 45.27 45.40 45.53 45.66 45.80 45.93 46.06 46.19 46.32 46.44 46.56 46.68 46.79 46.90 47.00 47.10 47.19 47.27 47.35 47.42 47.48 47.53 47.58 47.61 47.64 47.66 47.67 47.67 47.67 47.65 47.63 47.59 47.55 47.50 47.44 47.38 47.30 47.22 47.13 47.04 46.94 46.83 46.72 46.60 46.48 46.35 46.22 46.09 45.95 45.82 45.68 45.54 45.41 45.27 45.13 45.00 44.87 44.74 44.62 44.49 44.38 44.27 44.16 44.07 43.97 43.89 43.81 43.74 43.68 43.63 43.59 43.55 43.53 43.51 43.51 43.51 43.53
45.20 45.27 45.34 45.42 45.52 45.62 45.74 45.86 45.99 46.12 46.27 46.42 46.58 46.75 46.92 47.10 47.28 47.47 47.66 47.86 48.05 48.25 48.45 48.65 48.85 49.05 49.25 49.45 49.64 49.83 49.93 49.94 49.94 49.95 49.95 49.96 49.96 49.97 49.97 49.97 49.98 49.98 49.98 49.98 49.98 49.98 49.98 49.98 49.98 49.98 49.98 49.97 49.97 49.97 49.96 49.96 49.95 49.95 49.94 49.93 49.93 49.92 49.91 49.90 49.89 49.88 49.87 49.86 49.85 49.84 49.83 49.72 49.53 49.33 49.13 48.93 48.72 48.52 48.31 48.11 47.90 47.70 47.50 47.31 47.11 46.93 46.74 46.57 46.39 46.23 46.07 45.92 45.78 45.64 45.52 45.40 45.29 45.19 45.10 45.02 44.95 44.89 44.84 44.80 44.77 44.75 44.74 44.73 44.74 44.76 44.78 44.82 44.86 44.91 44.97 45.04 45.11 45.19 45.27 45.36 45.45 45.55 45.65 45.76 45.86 45.97 46.08 46.20 46.31 46.42 46.53 46.64 46.75 46.85 46.95 47.05 47.14 47.23 47.32 47.40 47.47 47.54 47.60 47.65 47.70 47.74 47.77 47.80 47.81 47.82 47.83 47.82 47.80 47.78 47.75 47.71 47.67 47.62 47.56 47.49 47.42 47.34 47.26 47.17 47.07 46.97 46.87 46.77 46.66 46.54 46.43 46.31 46.20 46.08 45.96 45.85 45.73 45.62 45.51 45.40 45.30 45.20 45.11 45.02 44.94 44.86 44.79 44.73 44.67 44.62 44.58 44.55 44.53 44.52 44.52 44.52 44.54 44.56 44.60 44.64 44.70 44.77 44.84 44.92 45.02 45.12 45.24 45.36 45.49 45.62 45.77 45.92 46.08 46.25 46.42 46.60 46.78 46.97 47.16 47.36 47.55 47.75 47.95 48.15 48.35 48.55 48.75 48.95 49.14 49.33 49.43 49.44 49.44 49.45 49.45 49.46 49.46 49.47 49.47 49.47 49.48 49.48 49.48 49.48 49.48 49.48 49.48 49.48 49.48 49.48 49.48 49.47 49.47 49.47 49.46 49.46 49.45 49.45 49.44 49.43 49.43 49.42 49.41 49.40 49.39 49.38 49.37 49.36 49.35 49.34 49.33 49.22 49.03 48.83 48.63 48.43 48.22 48.02 47.81 47.61 47.40 47.20 47.00 46.81 46.61 46.43 46.24 46.07 45.89 45.73 45.57 45.42 45.28 45.14 45.02 44.90 44.79 44.69 44.60 44.52 44.45 44.39 44.34 44.30 44.27 44.25 44.24 44.23 44.24 44.26 44.28 44.32 44.36 44.41 44.47 44.54 44.61 44.69 44.77 44.86 44.95 45.05 45.15 45.26 45.36 45.47 45.58 45.70 45.81 45.92 46.03 46.14 46.25 46.35 46.45 46.55 46.64 46.73 46.82 46.90 46.97 47.04 47.10 47.15 47.20 47.24 47.27 47.30 47.31 47.32 47.33 47.32 47.30 47.28 47.25 47.21 47.17 47.12 47.06 46.99 46.92 46.84 46.76 46.67 46.57 46.47 46.37 46.27 46.16 46.04 45.93 45.81 45.70 45.58 45.46 45.35 45.23 45.12 45.01 44.90 44.80 44.70 44.61 44.52 44.44 44.36 44.29 44.23 44.17 44.12 44.08 44.05 44.03 44.02 44.02 44.02 44.04 44.06 44.10 44.14 44.20 44.27 44.34 44.42 44.52 44.62 44.74 44.86 44.99 45.12 45.27 45.42 45.58 45.75 45.92 46.10 46.28 46.47 46.66 46.86 47.05 47.25 47.45 47.65 47.85 48.05 48.25 48.45 48.64 48.83 48.93 48.94 48.94 48.95 48.95 48.96 48.96 48.97 48.97 48.97 48.98 48.98 48.98 48.98 48.98 48.98 48.98 48.98 48.98 48.98 48.98 48.97 48.97 48.97 48.96 48.96 48.95 48.95 48.94 48.93 48.93 48.92 48.91 48.90 48.89 48.88 48.87 48.86 48.85 48.84 48.83 48.72 48.53 48.33 48.13 47.93 47.72 47.52 47.31 47.11 46.90 46.70 46.50 46.31 46.11 45.93 45.74 45.57 45.39 45.23 45.07 44.92 44.78 44.64 44.52 44.40 44.29 44.19 44.10 44.02 43.95 43.89 43.84 43.80 43.77 43.75 43.74 43.73 43.74 43.76 43.78 43.82 43.86 43.91 43.97 44.04 44.11 44.19 44.27 44.36 44.45 44.55 44.65 44.76 44.86 44.97 45.08 45.20 45.31 45.42 45.53 45.64 45.75 45.85 45.95 46.05 46.14 46.23 46.32 46.40 46.47 46.54 46.60 46.65 46.70 46.74 46.77 46.80 46.81 46.82 46.83 46.82 46.80 46.78 46.75 46.71 46.67 46.62 46.56 46.49 46.42 46.34 46.26 46.17 46.07 45.97 45.87 45.77 45.66 45.54 45.43 45.31 45.20 45.08 44.96 44.85 44.73 44.62 44.51 44.40 44.30 44.20 44.11 44.02 43.94 43.86 43.79 43.73 43.67 43.62 43.58 43.55 43.53 43.52 43.52 43.52 43.54 43.56 43.60 43.64
45.45 45.55 45.65 45.77 45.89 46.03 46.17 46.32 46.49 46.65 46.83 47.01 47.20 47.40 47.60 47.81 48.02 48.23 48.45 48.67 48.89 49.11 49.34 49.56 49.79 49.94 49.95 49.96 49.97 49.97 49.98 49.99 49.99 50.00 50.00 50.01 50.01 50.02 50.02 50.02 50.03 50.03 50.03 50.03 50.03 50.03 50.03 50.03 50.03 50.03 50.02 50.02 50.02 50.02 50.01 50.01 50.00 50.00 49.99 49.98 49.98 49.97 49.96 49.95 49.94 49.93 49.92 49.91 49.90 49.89 49.88 49.87 49.86 49.84 49.83 49.82 49.66 49.43 49.20 48.97 48.74 48.51 48.29 48.07 47.85 47.63 47.42 47.21 47.01 46.82 46.63 46.45 46.28 46.11 45.95 45.80 45.66 45.53 45.41 45.30 45.20 45.11 45.03 44.95 44.89 44.84 44.80 44.77 44.74 44.73 44.73 44.73 44.74 44.76 44.79 44.83 44.88 44.93 44.98 45.05 45.11 45.19 45.26 45.35 45.43 45.52 45.61 45.70 45.79 45.88 45.97 46.06 46.15 46.24 46.33 46.41 46.49 46.57 46.64 46.71 46.77 46.83 46.88 46.93 46.97 47.00 47.03 47.05 47.07 47.07 47.08 47.07 47.06 47.04 47.01 46.98 46.94 46.89 46.84 46.78 46.72 46.65 46.58 46.50 46.42 46.33 46.25 46.15 46.06 45.97 45.87 45.77 45.68 45.58 45.49 45.39 45.30 45.21 45.12 45.04 44.96 44.89 44.82 44.76 44.71 44.66 44.61 44.58 44.55 44.54 44.53 44.52 44.53 44.55 44.58 44.62 44.66 44.72 44.79 44.86 44.95 45.05 45.15 45.27 45.39 45.53 45.67 45.82 45.99 46.15 46.33 46.51 46.70 46.90 47.10 47.31 47.52 47.73 47.95 48.17 48.39 48.61 48.84 49.06 49.29 49.44 49.45 49.46 49.47 49.47 49.48 49.49 49.49 49.50 49.50 49.51 49.51 49.52 49.52 49.52 49.53 49.53 49.53 49.53 49.53 49.53 49.53 49.53 49.53 49.53 49.52 49.52 49.52 49.52 49.51 49.51 49.50 49.50 49.49 49.48 49.48 49.47 49.46 49.45 49.44 49.43 49.42 49.41 49.40 49.39 49.38 49.37 49.36 49.34 49.33 49.32 49.16 48.93 48.70 48.47 48.24 48.01 47.79 47.57 47.35 47.13 46.92 46.71 46.51 46.32 46.13 45.95 45.78 45.61 45.45 45.30 45.16 45.03 44.91 44.80 44.70 44.61 44.53 44.45 44.39 44.34 44.30 44.27 44.24 44.23 44.23 44.23 44.24 44.26 44.29 44.33 44.38 44.43 44.48 44.55 44.61 44.69 44.76 44.85 44.93 45.02 45.11 45.20 45.29 45.38 45.47 45.56 45.65 45.74 45.83 45.91 45.99 46.07 46.14 46.21 46.27 46.33 46.38 46.43 46.47 46.50 46.53 46.55 46.57 46.57 46.58 46.57 46.56 46.54 46.51 46.48 46.44 46.39 46.34 46.28 46.22 46.15 46.08 46.00 45.92 45.83 45.75 45.65 45.56 45.47 45.37 45.27 45.18 45.08 44.99 44.89 44.80 44.71 44.62 44.54 44.46 44.39 44.32 44.26 44.21 44.16 44.11 44.08 44.05 44.04 44.03 44.02 44.03 44.05 44.08 44.12 44.16 44.22 44.29 44.36 44.45 44.55 44.65 44.77 44.89 45.03 45.17 45.32 45.49 45.65 45.83 46.01 46.20 46.40 46.60 46.81 47.02 47.23 47.45 47.67 47.89 48.11 48.34 48.56 48.79 48.94 48.95 48.96 48.97 48.97 48.98 48.99 48.99 49.00 49.00 49.01 49.01 49.02 49.02 49.02 49.03 49.03 49.03 49.03 49.03 49.03 49.03 49.03 49.03 49.03 49.02 49.02 49.02 49.02 49.01 49.01 49.00 49.00 48.99 48.98 48.98 48.97 48.96 48.95 48.94 48.93 48.92 48.91 48.90 48.89 48.88 48.87 48.86 48.84 48.83 48.82 48.66 48.43 48.20 47.97 47.74 47.51 47.29 47.07 46.85 46.63 46.42 46.21 46.01 45.82 45.63 45.45 45.28 45.11 44.95 44.80 44.66 44.53 44.41 44.30 44.20 44.11 44.03 43.95 43.89 43.84 43.80 43.77 43.74 43.73 43.73 43.73 43.74 43.76 43.79 43.83 43.88 43.93 43.98 44.05 44.11 44.19 44.26 44.35 44.43 44.52 44.61 44.70 44.79 44.88 44.97 45.06 45.15 45.24 45.33 45.41 45.49 45.57 45.64 45.71 45.77 45.83 45.88 45.93 45.97 46.00 46.03 46.05 46.07 46.07 46.08 46.07 46.06 46.04 46.01 45.98 45.94 45.89 45.84 45.78 45.72 45.65 45.58 45.50 45.42 45.33 45.25 45.15 45.06 44.97 44.87 44.77 44.68 44.58 44.49 44.39 44.30 44.21 44.12 44.04 43.96 43.89 43.82 43.76 43.71 43.66 43.61 43.58 43.55 43.54 43.53 43.52 43.53 43.55 43.58 43.62 43.66 43.72 43.79 43.86
45.80 45.93 46.07 46.21 46.37 46.54 46.71 46.89 47.08 47.28 47.49 47.70 47.92 48.14 48.37 48.61 48.85 49.09 49.33 49.58 49.83 49.95 49.96 49.97 49.98 49.99 50.00 50.01 50.02 50.02 50.03 50.04 50.04 50.05 50.05 50.06 50.06 50.07 50.07 50.07 50.08 50.08 50.08 50.08 50.08 50.08 50.08 50.08 50.08 50.08 50.08 50.07 50.07 50.07 50.06 50.06 50.05 50.05 50.04 50.03 50.03 50.02 50.01 50.00 49.99 49.98 49.97 49.96 49.95 49.94 49.93 49.92 49.91 49.89 49.88 49.87 49.85 49.84 49.82 49.81 49.68 49.43 49.17 48.92 48.68 48.43 48.19 47.96 47.73 47.51 47.29 47.08 46.87 46.68 46.49 46.31 46.14 45.98 45.83 45.68 45.55 45.43 45.31 45.21 45.12 45.03 44.96 44.90 44.84 44.80 44.77 44.74 44.73 44.72 44.72 44.73 44.74 44.77 44.80 44.83 44.88 44.92 44.98 45.03 45.09 45.16 45.23 45.30 45.37 45.44 45.51 45.58 45.66 45.73 45.80 45.87 45.93 46.00 46.06 46.12 46.17 46.22 46.26 46.30 46.34 46.36 46.39 46.41 46.42 46.42 46.42 46.42 46.41 46.39 46.37 46.34 46.31 46.27 46.22 46.17 46.12 46.06 46.00 45.93 45.86 45.79 45.72 45.64 45.57 45.49 45.41 45.33 45.26 45.18 45.11 45.03 44.96 44.90 44.84 44.78 44.73 44.68 44.64 44.60 44.57 44.55 44.54 44.53 44.54 44.55 44.57 44.60 44.63 44.68 44.74 44.81 44.89 44.98 45.07 45.18 45.30 45.43 45.57 45.71 45.87 46.04 46.21 46.39 46.58 46.78 46.99 47.20 47.42 47.64 47.87 48.11 48.35 48.59 48.83 49.08 49.33 49.45 49.46 49.47 49.48 49.49 49.50 49.51 49.52 49.52 49.53 49.54 49.54 49.55 49.55 49.56 49.56 49.57 49.57 49.57 49.58 49.58 49.58 49.58 49.58 49.58 49.58 49.58 49.58 49.58 49.58 49.57 49.57 49.57 49.56 49.56 49.55 49.55 49.54 49.53 49.53 49.52 49.51 49.50 49.49 49.48 49.47 49.46 49.45 49.44 49.43 49.42 49.41 49.39 49.38 49.37 49.35 49.34 49.32 49.31 49.18 48.93 48.67 48.42 48.18 47.93 47.69 47.46 47.23 47.01 46.79 46.58 46.37 46.18 45.99 45.81 45.64 45.48 45.33 45.18 45.05 44.93 44.81 44.71 44.62 44.53 44.46 44.40 44.34 44.30 44.27 44.24 44.23 44.22 44.22 44.23 44.24 44.27 44.30 44.33 44.38 44.42 44.48 44.53 44.59 44.66 44.73 44.80 44.87 44.94 45.01 45.08 45.16 45.23 45.30 45.37 45.43 45.50 45.56 45.62 45.67 45.72 45.76 45.80 45.84 45.86 45.89 45.91 45.92 45.92 45.92 45.92 45.91 45.89 45.87 45.84 45.81 45.77 45.72 45.67 45.62 45.56 45.50 45.43 45.36 45.29 45.22 45.14 45.07 44.99 44.91 44.83 44.76 44.68 44.61 44.53 44.46 44.40 44.34 44.28 44.23 44.18 44.14 44.10 44.07 44.05 44.04 44.03 44.04 44.05 44.07 44.10 44.13 44.18 44.24 44.31 44.39 44.48 44.57 44.68 44.80 44.93 45.07 45.21 45.37 45.54 45.71 45.89 46.08 46.28 46.49 46.70 46.92 47.14 47.37 47.61 47.85 48.09 48.33 48.58 48.83 48.95 48.96 48.97 48.98 48.99 49.00 49.01 49.02 49.02 49.03 49.04 49.04 49.05 49.05 49.06 49.06 49.07 49.07 49.07 49.08 49.08 49.08 49.08 49.08 49.08 49.08 49.08 49.08 49.08 49.08 49.07 49.07 49.07 49.06 49.06 49.05 49.05 49.04 49.03 49.03 49.02 49.01 49.00 48.99 48.98 48.97 48.96 48.95 48.94 48.93 48.92 48.91 48.89 48.88 48.87 48.85 48.84 48.82 48.81 48.68 48.43 48.17 47.92 47.68 47.43 47.19 46.96 46.73 46.51 46.29 46.08 45.87 45.68 45.49 45.31 45.14 44.98 44.83 44.68 44.55 44.43 44.31 44.21 44.12 44.03 43.96 43.90 43.84 43.80 43.77 43.74 43.73 43.72 43.72 43.73 43.74 43.77 43.80 43.83 43.88 43.92 43.98 44.03 44.09 44.16 44.23 44.30 44.37 44.44 44.51 44.58 44.66 44.73 44.80 44.87 44.93 45.00 45.06 45.12 45.17 45.22 45.26 45.30 45.34 45.36 45.39 45.41 45.42 45.42 45.42 45.42 45.41 45.39 45.37 45.34 45.31 45.27 45.22 45.17 45.12 45.06 45.00 44.93 44.86 44.79 44.72 44.64 44.57 44.49 44.41 44.33 44.26 44.18 44.11 44.03 43.96 43.90 43.84 43.78 43.73 43.68 43.64 43.60 43.57 43.55 43.54 43.53 43.54 43.55 43.57 43.60 43.63 43.68 43.74 43.81 43.89 43.98 44.07 44.18
46.25 46.41 46.58 46.76 46.95 47.14 47.35 47.56 47.78 48.01 48.25 48.49 48.74 48.99 49.25 49.51 49.78 49.96 49.97 49.98 49.99 50.00 50.01 50.02 50.03 50.04 50.05 50.06 50.07 50.07 50.08 50.09 50.09 50.10 50.10 50.11 50.11 50.12 50.12 50.12 50.13 50.13 50.13 50.13 50.13 50.13 50.13 50.13 50.13 50.13 50.12 50.12 50.12 50.12 50.11 50.11 50.10 50.10 50.09 50.08 50.08 50.07 50.06 50.05 50.04 50.03 50.02 50.01 50.00 49.99 49.98 49.97 49.96 49.94 49.93 49.92 49.90 49.89 49.87 49.86 49.84 49.83 49.81 49.80 49.61 49.34 49.07 48.81 48.55 48.29 48.05 47.81 47.57 47.35 47.13 46.92 46.72 46.52 46.34 46.16 46.00 45.85 45.70 45.57 45.44 45.33 45.22 45.13 45.05 44.97 44.91 44.85 44.81 44.77 44.74 44.72 44.71 44.71 44.71 44.72 44.74 44.76 44.79 44.82 44.86 44.90 44.95 45.00 45.05 45.10 45.15 45.21 45.26 45.32 45.37 45.43 45.48 45.53 45.58 45.62 45.67 45.71 45.74 45.77 45.80 45.83 45.85 45.86 45.87 45.88 45.88 45.87 45.86 45.85 45.83 45.80 45.77 45.74 45.70 45.66 45.62 45.57 45.52 45.47 45.41 45.35 45.29 45.23 45.17 45.11 45.05 44.99 44.94 44.88 44.83 44.78 44.73 44.69 44.65 44.62 44.59 44.57 44.55 44.54 44.54 44.55 44.56 44.59 44.62 44.66 44.71 44.77 44.84 44.91 45.00 45.10 45.21 45.33 45.46 45.60 45.75 45.91 46.08 46.26 46.45 46.64 46.85 47.06 47.28 47.51 47.75 47.99 48.24 48.49 48.75 49.01 49.28 49.46 49.47 49.48 49.49 49.50 49.51 49.52 49.53 49.54 49.55 49.56 49.57 49.57 49.58 49.59 49.59 49.60 49.60 49.61 49.61 49.62 49.62 49.62 49.63 49.63 49.63 49.63 49.63 49.63 49.63 49.63 49.63 49.63 49.62 49.62 49.62 49.62 49.61 49.61 49.60 49.60 49.59 49.58 49.58 49.57 49.56 49.55 49.54 49.53 49.52 49.51 49.50 49.49 49.48 49.47 49.46 49.44 49.43 49.42 49.40 49.39 49.37 49.36 49.34 49.33 49.31 49.30 49.11 48.84 48.57 48.31 48.05 47.79 47.55 47.31 47.07 46.85 46.63 46.42 46.22 46.02 45.84 45.66 45.50 45.35 45.20 45.07 44.94 44.83 44.72 44.63 44.55 44.47 44.41 44.35 44.31 44.27 44.24 44.22 44.21 44.21 44.21 44.22 44.24 44.26 44.29 44.32 44.36 44.40 44.45 44.50 44.55 44.60 44.65 44.71 44.76 44.82 44.87 44.93 44.98 45.03 45.08 45.12 45.17 45.21 45.24 45.27 45.30 45.33 45.35 45.36 45.37 45.38 45.38 45.37 45.36 45.35 45.33 45.30 45.27 45.24 45.20 45.16 45.12 45.07 45.02 44.97 44.91 44.85 44.79 44.73 44.67 44.61 44.55 44.49 44.44 44.38 44.33 44.28 44.23 44.19 44.15 44.12 44.09 44.07 44.05 44.04 44.04 44.05 44.06 44.09 44.12 44.16 44.21 44.27 44.34 44.41 44.50 44.60 44.71 44.83 44.96 45.10 45.25 45.41 45.58 45.76 45.95 46.14 46.35 46.56 46.78 47.01 47.25 47.49 47.74 47.99 48.25 48.51 48.78 48.96 48.97 48.98 48.99 49.00 49.01 49.02 49.03 49.04 49.05 49.06 49.07 49.07 49.08 49.09 49.09 49.10 49.10 49.11 49.11 49.12 49.12 49.12 49.13 49.13 49.13 49.13 49.13 49.13 49.13 49.13 49.13 49.13 49.12 49.12 49.12 49.12 49.11 49.11 49.10 49.10 49.09 49.08 49.08 49.07 49.06 49.05 49.04 49.03 49.02 49.01 49.00 48.99 48.98 48.97 48.96 48.94 48.93 48.92 48.90 48.89 48.87 48.86 48.84 48.83 48.81 48.80 48.61 48.34 48.07 47.81 47.55 47.29 47.05 46.81 46.57 46.35 46.13 45.92 45.72 45.52 45.34 45.16 45.00 44.85 44.70 44.57 44.44 44.33 44.22 44.13 44.05 43.97 43.91 43.85 43.81 43.77 43.74 43.72 43.71 43.71 43.71 43.72 43.74 43.76 43.79 43.82 43.86 43.90 43.95 44.00 44.05 44.10 44.15 44.21 44.26 44.32 44.37 44.43 44.48 44.53 44.58 44.62 44.67 44.71 44.74 44.77 44.80 44.83 44.85 44.86 44.87 44.88 44.88 44.87 44.86 44.85 44.83 44.80 44.77 44.74 44.70 44.66 44.62 44.57 44.52 44.47 44.41 44.35 44.29 44.23 44.17 44.11 44.05 43.99 43.94 43.88 43.83 43.78 43.73 43.69 43.65 43.62 43.59 43.57 43.55 43.54 43.54 43.55 43.56 43.59 43.62 43.66 43.71 43.77 43.84 43.91 44.00 44.10 44.21 44.33 44.46 44.60
46.80 46.99 47.19 47.40 47.62 47.85 48.08 48.33 48.58 48.84 49.11 49.38 49.66 49.94 49.98 49.99 50.00 50.01 50.02 50.03 50.04 50.05 50.06 50.07 50.08 50.09 50.10 50.11 50.12 50.12 50.13 50.14 50.14 50.15 50.15 50.16 50.16 50.17 50.17 50.17 50.18 50.18 50.18 50.18 50.18 50.18 50.18 50.18 50.18 50.18 50.17 50.17 50.17 50.17 50.16 50.16 50.15 50.15 50.14 50.13 50.13 50.12 50.11 50.10 50.09 50.08 50.07 50.06 50.05 50.04 50.03 50.02 50.01 49.99 49.98 49.97 49.95 49.94 49.92 49.91 49.89 49.88 49.86 49.85 49.83 49.81 49.80 49.75 49.47 49.18 48.91 48.64 48.37 48.11 47.86 47.62 47.39 47.17 46.95 46.75 46.55 46.36 46.19 46.02 45.87 45.72 45.59 45.46 45.35 45.24 45.15 45.06 44.99 44.92 44.87 44.82 44.78 44.75 44.73 44.71 44.70 44.70 44.70 44.71 44.73 44.74 44.77 44.80 44.83 44.86 44.89 44.93 44.97 45.01 45.05 45.09 45.12 45.16 45.20 45.23 45.27 45.30 45.32 45.35 45.37 45.39 45.40 45.41 45.42 45.43 45.42 45.42 45.41 45.40 45.38 45.36 45.34 45.31 45.28 45.25 45.22 45.18 45.14 45.10 45.05 45.01 44.97 44.92 44.88 44.84 44.79 44.75 44.72 44.68 44.65 44.62 44.60 44.58 44.56 44.55 44.55 44.55 44.57 44.58 44.61 44.64 44.69 44.74 44.80 44.87 44.95 45.04 45.14 45.25 45.37 45.50 45.64 45.79 45.95 46.12 46.30 46.49 46.69 46.90 47.12 47.35 47.58 47.83 48.08 48.34 48.61 48.88 49.16 49.44 49.48 49.49 49.50 49.51 49.52 49.53 49.54 49.55 49.56 49.57 49.58 49.59 49.60 49.61 49.62 49.62 49.63 49.64 49.64 49.65 49.65 49.66 49.66 49.67 49.67 49.67 49.68 49.68 49.68 49.68 49.68 49.68 49.68 49.68 49.68 49.68 49.67 49.67 49.67 49.67 49.66 49.66 49.65 49.65 49.64 49.63 49.63 49.62 49.61 49.60 49.59 49.58 49.57 49.56 49.55 49.54 49.53 49.52 49.51 49.49 49.48 49.47 49.45 49.44 49.42 49.41 49.39 49.38 49.36 49.35 49.33 49.31 49.30 49.25 48.97 48.68 48.41 48.14 47.87 47.61 47.36 47.12 46.89 46.67 46.45 46.25 46.05 45.86 45.69 45.52 45.37 45.22 45.09 44.96 44.85 44.74 44.65 44.56 44.49 44.42 44.37 44.32 44.28 44.25 44.23 44.21 44.20 44.20 44.20 44.21 44.23 44.24 44.27 44.30 44.33 44.36 44.39 44.43 44.47 44.51 44.55 44.59 44.62 44.66 44.70 44.73 44.77 44.80 44.82 44.85 44.87 44.89 44.90 44.91 44.92 44.93 44.92 44.92 44.91 44.90 44.88 44.86 44.84 44.81 44.78 44.75 44.72 44.68 44.64 44.60 44.55 44.51 44.47 44.42 44.38 44.34 44.29 44.25 44.22 44.18 44.15 44.12 44.10 44.08 44.06 44.05 44.05 44.05 44.07 44.08 44.11 44.14 44.19 44.24 44.30 44.37 44.45 44.54 44.64 44.75 44.87 45.00 45.14 45.29 45.45 45.62 45.80 45.99 46.19 46.40 46.62 46.85 47.08 47.33 47.58 47.84 48.11 48.38 48.66 48.94 48.98 48.99 49.00 49.01 49.02 49.03 49.04 49.05 49.06 49.07 49.08 49.09 49.10 49.11 49.12 49.12 49.13 49.14 49.14 49.15 49.15 49.16 49.16 49.17 49.17 49.17 49.18 49.18 49.18 49.18 49.18 49.18 49.18 49.18 49.18 49.18 49.17 49.17 49.17 49.17 49.16 49.16 49.15 49.15 49.14 49.13 49.13 49.12 49.11 49.10 49.09 49.08 49.07 49.06 49.05 49.04 49.03 49.02 49.01 48.99 48.98 48.97 48.95 48.94 48.92 48.91 48.89 48.88 48.86 48.85 48.83 48.81 48.80 48.75 48.47 48.18 47.91 47.64 47.37 47.11 46.86 46.62 46.39 46.17 45.95 45.75 45.55 45.36 45.19 45.02 44.87 44.72 44.59 44.46 44.35 44.24 44.15 44.06 43.99 43.92 43.87 43.82 43.78 43.75 43.73 43.71 43.70 43.70 43.70 43.71 43.73 43.74 43.77 43.80 43.83 43.86 43.89 43.93 43.97 44.01 44.05 44.09 44.12 44.16 44.20 44.23 44.27 44.30 44.32 44.35 44.37 44.39 44.40 44.41 44.42 44.43 44.42 44.42 44.41 44.40 44.38 44.36 44.34 44.31 44.28 44.25 44.22 44.18 44.14 44.10 44.05 44.01 43.97 43.92 43.88 43.84 43.79 43.75 43.72 43.68 43.65 43.62 43.60 43.58 43.56 43.55 43.55 43.55 43.57 43.58 43.61 43.64 43.69 43.74 43.80 43.87 43.95 44.04 44.14 44.25 44.37 44.50 44.64 44.79 44.95 45.12
47.45 47.67 47.90 48.15 48.40 48.65 48.92 49.20 49.48 49.77 49.98 49.99 50.00 50.02 50.03 50.04 50.05 50.06 50.07 50.08 50.09 50.10 50.11 50.12 50.13 50.14 50.15 50.16 50.17 50.17 50.18 50.19 50.19 50.20 50.20 50.21 50.21 50.22 50.22 50.22 50.23 50.23 50.23 50.23 50.23 50.23 50.23 50.23 50.23 50.23 50.23 50.22 50.22 50.22 50.21 50.21 50.20 50.20 50.19 50.18 50.18 50.17 50.16 50.15 50.14 50.13 50.12 50.11 50.10 50.09 50.08 50.07 50.06 50.04 50.03 50.02 50.00 49.99 49.97 49.96 49.94 49.93 49.91 49.90 49.88 49.86 49.85 49.83 49.81 49.80 49.78 49.56 49.27 48.98 48.70 48.43 48.17 47.91 47.66 47.43 47.20 46.98 46.78 46.58 46.39 46.21 46.05 45.89 45.75 45.61 45.49 45.38 45.27 45.18 45.09 45.02 44.95 44.89 44.84 44.80 44.76 44.74 44.71 44.70 44.69 44.69 44.69 44.70 44.70 44.72 44.73 44.75 44.77 44.80 44.82 44.84 44.87 44.89 44.92 44.94 44.97 44.99 45.01 45.02 45.04 45.05 45.06 45.07 45.07 45.08 45.08 45.07 45.06 45.05 45.04 45.03 45.01 44.99 44.97 44.94 44.92 44.89 44.86 44.83 44.80 44.77 44.74 44.71 44.68 44.66 44.63 44.61 44.59 44.58 44.57 44.56 44.56 44.56 44.57 44.59 44.61 44.64 44.68 44.72 44.78 44.84 44.91 44.99 45.08 45.18 45.29 45.41 45.54 45.68 45.83 45.99 46.16 46.34 46.54 46.74 46.95 47.17 47.40 47.65 47.90 48.15 48.42 48.70 48.98 49.27 49.48 49.49 49.50 49.52 49.53 49.54 49.55 49.56 49.57 49.58 49.59 49.60 49.61 49.62 49.63 49.64 49.65 49.66 49.67 49.67 49.68 49.69 49.69 49.70 49.70 49.71 49.71 49.72 49.72 49.72 49.73 49.73 49.73 49.73 49.73 49.73 49.73 49.73 49.73 49.73 49.73 49.72 49.72 49.72 49.71 49.71 49.70 49.70 49.69 49.68 49.68 49.67 49.66 49.65 49.64 49.63 49.62 49.61 49.60 49.59 49.58 49.57 49.56 49.54 49.53 49.52 49.50 49.49 49.47 49.46 49.44 49.43 49.41 49.40 49.38 49.36 49.35 49.33 49.31 49.30 49.28 49.06 48.77 48.48 48.20 47.93 47.67 47.41 47.16 46.93 46.70 46.48 46.28 46.08 45.89 45.71 45.55 45.39 45.25 45.11 44.99 44.88 44.77 44.68 44.59 44.52 44.45 44.39 44.34 44.30 44.26 44.24 44.21 44.20 44.19 44.19 44.19 44.20 44.20 44.22 44.23 44.25 44.27 44.30 44.32 44.34 44.37 44.39 44.42 44.44 44.47 44.49 44.51 44.52 44.54 44.55 44.56 44.57 44.57 44.58 44.58 44.57 44.56 44.55 44.54 44.53 44.51 44.49 44.47 44.44 44.42 44.39 44.36 44.33 44.30 44.27 44.24 44.21 44.18 44.16 44.13 44.11 44.09 44.08 44.07 44.06 44.06 44.06 44.07 44.09 44.11 44.14 44.18 44.22 44.28 44.34 44.41 44.49 44.58 44.68 44.79 44.91 45.04 45.18 45.33 45.49 45.66 45.84 46.04 46.24 46.45 46.67 46.90 47.15 47.40 47.65 47.92 48.20 48.48 48.77 48.98 48.99 49.00 49.02 49.03 49.04 49.05 49.06 49.07 49.08 49.09 49.10 49.11 49.12 49.13 49.14 49.15 49.16 49.17 49.17 49.18 49.19 49.19 49.20 49.20 49.21 49.21 49.22 49.22 49.22 49.23 49.23 49.23 49.23 49.23 49.23 49.23 49.23 49.23 49.23 49.23 49.22 49.22 49.22 49.21 49.21 49.20 49.20 49.19 49.18 49.18 49.17 49.16 49.15 49.14 49.13 49.12 49.11 49.10 49.09 49.08 49.07 49.06 49.04 49.03 49.02 49.00 48.99 48.97 48.96 48.94 48.93 48.91 48.90 48.88 48.86 48.85 48.83 48.81 48.80 48.78 48.56 48.27 47.98 47.70 47.43 47.17 46.91 46.66 46.43 46.20 45.98 45.78 45.58 45.39 45.21 45.05 44.89 44.75 44.61 44.49 44.38 44.27 44.18 44.09 44.02 43.95 43.89 43.84 43.80 43.76 43.74 43.71 43.70 43.69 43.69 43.69 43.70 43.70 43.72 43.73 43.75 43.77 43.80 43.82 43.84 43.87 43.89 43.92 43.94 43.97 43.99 44.01 44.02 44.04 44.05 44.06 44.07 44.07 44.08 44.08 44.07 44.06 44.05 44.04 44.03 44.01 43.99 43.97 43.94 43.92 43.89 43.86 43.83 43.80 43.77 43.74 43.71 43.68 43.66 43.63 43.61 43.59 43.58 43.57 43.56 43.56 43.56 43.57 43.59 43.61 43.64 43.68 43.72 43.78 43.84 43.91 43.99 44.08 44.18 44.29 44.41 44.54 44.68 44.83 44.99 45.16 45.34 45.54 45.74
48.20 48.45 48.72 48.99 49.27 49.56 49.86 49.99 50.00 50.02 50.03 50.04 50.05 50.07 50.08 50.09 50.10 50.11 50.12 50.13 50.14 50.15 50.16 50.17 50.18 50.19 50.20 50.21 50.22 50.22 50.23 50.24 50.24 50.25 50.25 50.26 50.26 50.27 50.27 50.27 50.28 50.28 50.28 50.28 50.28 50.28 50.28 50.28 50.28 50.28 50.27 50.27 50.27 50.27 50.26 50.26 50.25 50.25 50.24 50.23 50.23 50.22 50.21 50.20 50.19 50.18 50.17 50.16 50.15 50.14 50.13 50.12 50.11 50.09 50.08 50.07 50.05 50.04 50.02 50.01 49.99 49.98 49.96 49.95 49.93 49.91 49.90 49.88 49.86 49.85 49.83 49.81 49.79 49.78 49.64 49.34 49.04 48.75 48.48 48.21 47.95 47.70 47.46 47.23 47.02 46.81 46.61 46.43 46.25 46.08 45.93 45.79 45.65 45.53 45.42 45.31 45.22 45.13 45.05 44.99 44.93 44.87 44.83 44.79 44.76 44.73 44.71 44.69 44.68 44.68 44.68 44.68 44.68 44.69 44.69 44.70 44.71 44.73 44.74 44.75 44.76 44.78 44.79 44.80 44.81 44.81 44.82 44.82 44.83 44.83 44.83 44.82 44.82 44.81 44.80 44.79 44.78 44.76 44.75 44.73 44.71 44.70 44.68 44.66 44.64 44.63 44.61 44.60 44.59 44.58 44.58 44.57 44.57 44.58 44.59 44.61 44.63 44.65 44.69 44.73 44.78 44.83 44.89 44.97 45.05 45.14 45.24 45.34 45.46 45.59 45.73 45.88 46.04 46.21 46.39 46.58 46.79 47.00 47.22 47.46 47.70 47.95 48.22 48.49 48.77 49.06 49.36 49.49 49.50 49.52 49.53 49.54 49.55 49.57 49.58 49.59 49.60 49.61 49.62 49.63 49.64 49.65 49.66 49.67 49.68 49.69 49.70 49.71 49.72 49.72 49.73 49.74 49.74 49.75 49.75 49.76 49.76 49.77 49.77 49.77 49.78 49.78 49.78 49.78 49.78 49.78 49.78 49.78 49.78 49.78 49.77 49.77 49.77 49.77 49.76 49.76 49.75 49.75 49.74 49.73 49.73 49.72 49.71 49.70 49.69 49.68 49.67 49.66 49.65 49.64 49.63 49.62 49.61 49.59 49.58 49.57 49.55 49.54 49.52 49.51 49.49 49.48 49.46 49.45 49.43 49.41 49.40 49.38 49.36 49.35 49.33 49.31 49.29 49.28 49.14 48.84 48.54 48.25 47.98 47.71 47.45 47.20 46.96 46.73 46.52 46.31 46.11 45.93 45.75 45.58 45.43 45.29 45.15 45.03 44.92 44.81 44.72 44.63 44.55 44.49 44.43 44.37 44.33 44.29 44.26 44.23 44.21 44.19 44.18 44.18 44.18 44.18 44.18 44.19 44.19 44.20 44.21 44.23 44.24 44.25 44.26 44.28 44.29 44.30 44.31 44.31 44.32 44.32 44.33 44.33 44.33 44.32 44.32 44.31 44.30 44.29 44.28 44.26 44.25 44.23 44.21 44.20 44.18 44.16 44.14 44.13 44.11 44.10 44.09 44.08 44.08 44.07 44.07 44.08 44.09 44.11 44.13 44.15 44.19 44.23 44.28 44.33 44.39 44.47 44.55 44.64 44.74 44.84 44.96 45.09 45.23 45.38 45.54 45.71 45.89 46.08 46.29 46.50 46.72 46.96 47.20 47.45 47.72 47.99 48.27 48.56 48.86 48.99 49.00 49.02 49.03 49.04 49.05 49.07 49.08 49.09 49.10 49.11 49.12 49.13 49.14 49.15 49.16 49.17 49.18 49.19 49.20 49.21 49.22 49.22 49.23 49.24 49.24 49.25 49.25 49.26 49.26 49.27 49.27 49.27 49.28 49.28 49.28 49.28 49.28 49.28 49.28 49.28 49.28 49.28 49.27 49.27 49.27 49.27 49.26 49.26 49.25 49.25 49.24 49.23 49.23 49.22 49.21 49.20 49.19 49.18 49.17 49.16 49.15 49.14 49.13 49.12 49.11 49.09 49.08 49.07 49.05 49.04 49.02 49.01 48.99 48.98 48.96 48.95 48.93 48.91 48.90 48.88 48.86 48.85 48.83 48.81 48.79 48.78 48.64 48.34 48.04 47.75 47.48 47.21 46.95 46.70 46.46 46.23 46.02 45.81 45.61 45.43 45.25 45.08 44.93 44.79 44.65 44.53 44.42 44.31 44.22 44.13 44.05 43.99 43.93 43.87 43.83 43.79 43.76 43.73 43.71 43.69 43.68 43.68 43.68 43.68 43.68 43.69 43.69 43.70 43.71 43.73 43.74 43.75 43.76 43.78 43.79 43.80 43.81 43.81 43.82 43.82 43.83 43.83 43.83 43.82 43.82 43.81 43.80 43.79 43.78 43.76 43.75 43.73 43.71 43.70 43.68 43.66 43.64 43.63 43.61 43.60 43.59 43.58 43.58 43.57 43.57 43.58 43.59 43.61 43.63 43.65 43.69 43.73 43.78 43.83 43.89 43.97 44.05 44.14 44.24 44.34 44.46 44.59 44.73 44.88 45.04 45.21 45.39 45.58 45.79 46.00 46.22 46.46
49.05 49.34 49.63 49.93 50.00 50.02 50.03 50.04 50.05 50.07 50.08 50.09 50.10 50.12 50.13 50.14 50.15 50.16 50.17 50.18 50.19 50.20 50.21 50.22 50.23 50.24 50.25 50.26 50.27 50.27 50.28 50.29 50.29 50.30 50.30 50.31 50.31 50.32 50.32 50.32 50.33 50.33 50.33 50.33 50.33 50.33 50.33 50.33 50.33 50.33 50.33 50.32 50.32 50.32 50.31 50.31 50.30 50.30 50.29 50.28 50.28 50.27 50.26 50.25 50.24 50.23 50.22 50.21 50.20 50.19 50.18 50.17 50.16 50.14 50.13 50.12 50.10 50.09 50.07 50.06 50.04 50.03 50.01 50.00 49.98 49.96 49.95 49.93 49.91 49.90 49.88 49.86 49.84 49.83 49.81 49.79 49.77 49.70 49.39 49.09 48.80 48.52 48.25 47.99 47.74 47.50 47.27 47.06 46.85 46.66 46.47 46.30 46.13 45.98 45.84 45.71 45.58 45.47 45.37 45.27 45.19 45.11 45.04 44.98 44.92 44.87 44.83 44.79 44.76 44.74 44.72 44.70 44.69 44.68 44.67 44.66 44.66 44.66 44.66 44.66 44.66 44.67 44.67 44.67 44.67 44.68 44.68 44.68 44.68 44.68 44.67 44.67 44.67 44.66 44.66 44.65 44.64 44.64 44.63 44.62 44.61 44.61 44.60 44.59 44.59 44.59 44.59 44.59 44.60 44.60 44.62 44.63 44.65 44.68 44.71 44.75 44.79 44.84 44.90 44.96 45.04 45.12 45.21 45.31 45.41 45.53 45.66 45.80 45.94 46.10 46.27 46.45 46.64 46.84 47.05 47.28 47.51 47.75 48.01 48.27 48.55 48.84 49.13 49.43 49.50 49.52 49.53 49.54 49.55 49.57 49.58 49.59 49.60 49.62 49.63 49.64 49.65 49.66 49.67 49.68 49.69 49.70 49.71 49.72 49.73 49.74 49.75 49.76 49.77 49.77 49.78 49.79 49.79 49.80 49.80 49.81 49.81 49.82 49.82 49.82 49.83 49.83 49.83 49.83 49.83 49.83 49.83 49.83 49.83 49.83 49.83 49.82 49.82 49.82 49.81 49.81 49.80 49.80 49.79 49.78 49.78 49.77 49.76 49.75 49.74 49.73 49.72 49.71 49.70 49.69 49.68 49.67 49.66 49.64 49.63 49.62 49.60 49.59 49.57 49.56 49.54 49.53 49.51 49.50 49.48 49.46 49.45 49.43 49.41 49.40 49.38 49.36 49.34 49.33 49.31 49.29 49.27 49.20 48.89 48.59 48.30 48.02 47.75 47.49 47.24 47.00 46.77 46.56 46.35 46.16 45.97 45.80 45.63 45.48 45.34 45.21 45.08 44.97 44.87 44.77 44.69 44.61 44.54 44.48 44.42 44.37 44.33 44.29 44.26 44.24 44.22 44.20 44.19 44.18 44.17 44.16 44.16 44.16 44.16 44.16 44.16 44.17 44.17 44.17 44.17 44.18 44.18 44.18 44.18 44.18 44.17 44.17 44.17 44.16 44.16 44.15 44.14 44.14 44.13 44.12 44.11 44.11 44.10 44.09 44.09 44.09 44.09 44.09 44.10 44.10 44.12 44.13 44.15 44.18 44.21 44.25 44.29 44.34 44.40 44.46 44.54 44.62 44.71 44.81 44.91 45.03 45.16 45.30 45.44 45.60 45.77 45.95 46.14 46.34 46.55 46.78 47.01 47.25 47.51 47.77 48.05 48.34 48.63 48.93 49.00 49.02 49.03 49.04 49.05 49.07 49.08 49.09 49.10 49.12 49.13 49.14 49.15 49.16 49.17 49.18 49.19 49.20 49.21 49.22 49.23 49.24 49.25 49.26 49.27 49.27 49.28 49.29 49.29 49.30 49.30 49.31 49.31 49.32 49.32 49.32 49.33 49.33 49.33 49.33 49.33 49.33 49.33 49.33 49.33 49.33 49.33 49.32 49.32 49.32 49.31 49.31 49.30 49.30 49.29 49.28 49.28 49.27 49.26 49.25 49.24 49.23 49.22 49.21 49.20 49.19 49.18 49.17 49.16 49.14 49.13 49.12 49.10 49.09 49.07 49.06 49.04 49.03 49.01 49.00 48.98 48.96 48.95 48.93 48.91 48.90 48.88 48.86 48.84 48.83 48.81 48.79 48.77 48.70 48.39 48.09 47.80 47.52 47.25 46.99 46.74 46.50 46.27 46.06 45.85 45.66 45.47 45.30 45.13 44.98 44.84 44.71 44.58 44.47 44.37 44.27 44.19 44.11 44.04 43.98 43.92 43.87 43.83 43.79 43.76 43.74 43.72 43.70 43.69 43.68 43.67 43.66 43.66 43.66 43.66 43.66 43.66 43.67 43.67 43.67 43.67 43.68 43.68 43.68 43.68 43.68 43.67 43.67 43.67 43.66 43.66 43.65 43.64 43.64 43.63 43.62 43.61 43.61 43.60 43.59 43.59 43.59 43.59 43.59 43.60 43.60 43.62 43.63 43.65 43.68 43.71 43.75 43.79 43.84 43.90 43.96 44.04 44.12 44.21 44.31 44.41 44.53 44.66 44.80 44.94 45.10 45.27 45.45 45.64 45.84 46.05 46.28 46.51 46.75 47.01 47.27
50.00 50.01 50.03 50.04 50.05 50.07 50.08 50.09 50.10 50.12 50.13 50.14 50.15 50.17 50.18 50.19 50.20 50.21 50.22 50.23 50.24 50.25 50.26 50.27 50.28 50.29 50.30 50.31 50.32 50.32 50.33 50.34 50.34 50.35 50.35 50.36 50.36 50.37 50.37 50.37 50.38 50.38 50.38 50.38 50.38 50.38 50.38 50.38 50.38 50.38 50.38 50.37 50.37 50.37 50.36 50.36 50.35 50.35 50.34 50.33 50.33 50.32 50.31 50.30 50.29 50.28 50.27 50.26 50.25 50.24 50.23 50.22 50.21 50.19 50.18 50.17 50.15 50.14 50.12 50.11 50.09 50.08 50.06 50.05 50.03 50.01 50.00 49.98 49.96 49.95 49.93 49.91 49.89 49.88 49.86 49.84 49.82 49.80 49.79 49.77 49.75 49.44 49.14 48.85 48.57 48.30 48.04 47.79 47.55 47.33 47.11 46.91 46.72 46.53 46.36 46.20 46.05 45.91 45.78 45.66 45.55 45.45 45.35 45.27 45.19 45.12 45.05 44.99 44.94 44.90 44.86 44.82 44.79 44.76 44.74 44.72 44.71 44.69 44.68 44.67 44.66 44.66 44.65 44.65 44.64 44.64 44.64 44.63 44.63 44.63 44.62 44.62 44.62 44.62 44.62 44.61 44.61 44.61 44.61 44.61 44.61 44.61 44.62 44.63 44.64 44.65 44.66 44.68 44.70 44.73 44.76 44.79 44.83 44.88 44.93 44.99 45.06 45.13 45.21 45.30 45.40 45.51 45.62 45.75 45.88 46.03 46.18 46.35 46.53 46.71 46.91 47.12 47.34 47.57 47.82 48.07 48.34 48.61 48.90 49.19 49.50 49.51 49.53 49.54 49.55 49.57 49.58 49.59 49.60 49.62 49.63 49.64 49.65 49.67 49.68 49.69 49.70 49.71 49.72 49.73 49.74 49.75 49.76 49.77 49.78 49.79 49.80 49.81 49.82 49.82 49.83 49.84 49.84 49.85 49.85 49.86 49.86 49.87 49.87 49.87 49.88 49.88 49.88 49.88 49.88 49.88 49.88 49.88 49.88 49.88 49.88 49.87 49.87 49.87 49.86 49.86 49.85 49.85 49.84 49.83 49.83 49.82 49.81 49.80 49.79 49.78 49.77 49.76 49.75 49.74 49.73 49.72 49.71 49.69 49.68 49.67 49.65 49.64 49.62 49.61 49.59 49.58 49.56 49.55 49.53 49.51 49.50 49.48 49.46 49.45 49.43 49.41 49.39 49.38 49.36 49.34 49.32 49.30 49.29 49.27 49.25 48.94 48.64 48.35 48.07 47.80 47.54 47.29 47.05 46.83 46.61 46.41 46.22 46.03 45.86 45.70 45.55 45.41 45.28 45.16 45.05 44.95 44.85 44.77 44.69 44.62 44.55 44.49 44.44 44.40 44.36 44.32 44.29 44.26 44.24 44.22 44.21 44.19 44.18 44.17 44.16 44.16 44.15 44.15 44.14 44.14 44.14 44.13 44.13 44.13 44.12 44.12 44.12 44.12 44.12 44.11 44.11 44.11 44.11 44.11 44.11 44.11 44.12 44.13 44.14 44.15 44.16 44.18 44.20 44.23 44.26 44.29 44.33 44.38 44.43 44.49 44.56 44.63 44.71 44.80 44.90 45.01 45.12 45.25 45.38 45.53 45.68 45.85 46.03 46.21 46.41 46.62 46.84 47.07 47.32 47.57 47.84 48.11 48.40 48.69 49.00 49.01 49.03 49.04 49.05 49.07 49.08 49.09 49.10 49.12 49.13 49.14 49.15 49.17 49.18 49.19 49.20 49.21 49.22 49.23 49.24 49.25 49.26 49.27 49.28 49.29 49.30 49.31 49.32 49.32 49.33 49.34 49.34 49.35 49.35 49.36 49.36 49.37 49.37 49.37 49.38 49.38 49.38 49.38 49.38 49.38 49.38 49.38 49.38 49.38 49.38 49.37 49.37 49.37 49.36 49.36 49.35 49.35 49.34 49.33 49.33 49.32 49.31 49.30 49.29 49.28 49.27 49.26 49.25 49.24 49.23 49.22 49.21 49.19 49.18 49.17 49.15 49.14 49.12 49.11 49.09 49.08 49.06 49.05 49.03 49.01 49.00 48.98 48.96 48.95 48.93 48.91 48.89 48.88 48.86 48.84 48.82 48.80 48.79 48.77 48.75 48.44 48.14 47.85 47.57 47.30 47.04 46.79 46.55 46.33 46.11 45.91 45.72 45.53 45.36 45.20 45.05 44.91 44.78 44.66 44.55 44.45 44.35 44.27 44.19 44.12 44.05 43.99 43.94 43.90 43.86 43.82 43.79 43.76 43.74 43.72 43.71 43.69 43.68 43.67 43.66 43.66 43.65 43.65 43.64 43.64 43.64 43.63 43.63 43.63 43.62 43.62 43.62 43.62 43.62 43.61 43.61 43.61 43.61 43.61 43.61 43.61 43.62 43.63 43.64 43.65 43.66 43.68 43.70 43.73 43.76 43.79 43.83 43.88 43.93 43.99 44.06 44.13 44.21 44.30 44.40 44.51 44.62 44.75 44.88 45.03 45.18 45.35 45.53 45.71 45.91 46.12 46.34 46.57 46.82 47.07 47.34 47.61 47.90 48.19
50.05 50.06 50.08 50.09 50.10 50.12 50.13 50.14 50.15 50.17 50.18 50.19 50.20 50.22 50.23 50.24 50.25 50.26 50.27 50.28 50.29 50.30 50.31 50.32 50.33 50.34 50.35 50.36 50.37 50.37 50.38 50.39 50.39 50.40 50.40 50.41 50.41 50.42 50.42 50.42 50.43 50.43 50.43 50.43 50.43 50.43 50.43 50.43 50.43 50.43 50.42 50.42 50.42 50.42 50.41 50.41 50.40 50.40 50.39 50.38 50.38 50.37 50.36 50.35 50.34 50.33 50.32 50.31 50.30 50.29 50.28 50.27 50.26 50.24 50.23 50.22 50.20 50.19 50.17 50.16 50.14 50.13 50.11 50.10 50.08 50.06 50.05 50.03 50.01 50.00 49.98 49.96 49.94 49.93 49.91 49.89 49.87 49.85 49.84 49.82 49.80 49.78 49.76 49.75 49.49 49.19 48.90 48.62 48.35 48.10 47.85 47.62 47.40 47.19 46.99 46.80 46.62 46.45 46.30 46.15 46.01 45.88 45.76 45.65 45.55 45.46 45.37 45.29 45.22 45.16 45.10 45.04 45.00 44.95 44.92 44.88 44.85 44.82 44.80 44.78 44.76 44.75 44.73 44.72 44.71 44.70 44.69 44.69 44.68 44.68 44.67 44.67 44.67 44.67 44.67 44.68 44.68 44.68 44.69 44.70 44.71 44.72 44.74 44.76 44.78 44.81 44.84 44.87 44.91 44.95 45.00 45.05 45.11 45.18 45.25 45.33 45.42 45.52 45.62 45.74 45.86 45.99 46.14 46.29 46.45 46.62 46.81 47.00 47.21 47.43 47.65 47.89 48.14 48.41 48.68 48.96 49.26 49.51 49.52 49.54 49.55 49.56 49.58 49.59 49.60 49.62 49.63 49.64 49.65 49.67 49.68 49.69 49.70 49.72 49.73 49.74 49.75 49.76 49.77 49.78 49.79 49.80 49.81 49.82 49.83 49.84 49.85 49.86 49.87 49.87 49.88 49.89 49.89 49.90 49.90 49.91 49.91 49.92 49.92 49.92 49.93 49.93 49.93 49.93 49.93 49.93 49.93 49.93 49.93 49.93 49.92 49.92 49.92 49.92 49.91 49.91 49.90 49.90 49.89 49.88 49.88 49.87 49.86 49.85 49.84 49.83 49.82 49.81 49.80 49.79 49.78 49.77 49.76 49.74 49.73 49.72 49.70 49.69 49.67 49.66 49.64 49.63 49.61 49.60 49.58 49.56 49.55 49.53 49.51 49.50 49.48 49.46 49.44 49.43 49.41 49.39 49.37 49.35 49.34 49.32 49.30 49.28 49.26 49.25 48.99 48.69 48.40 48.12 47.85 47.60 47.35 47.12 46.90 46.69 46.49 46.30 46.12 45.95 45.80 45.65 45.51 45.38 45.26 45.15 45.05 44.96 44.87 44.79 44.72 44.66 44.60 44.54 44.50 44.45 44.42 44.38 44.35 44.32 44.30 44.28 44.26 44.25 44.23 44.22 44.21 44.20 44.19 44.19 44.18 44.18 44.17 44.17 44.17 44.17 44.17 44.18 44.18 44.18 44.19 44.20 44.21 44.22 44.24 44.26 44.28 44.31 44.34 44.37 44.41 44.45 44.50 44.55 44.61 44.68 44.75 44.83 44.92 45.02 45.12 45.24 45.36 45.49 45.64 45.79 45.95 46.12 46.31 46.50 46.71 46.93 47.15 47.39 47.64 47.91 48.18 48.46 48.76 49.01 49.02 49.04 49.05 49.06 49.08 49.09 49.10 49.12 49.13 49.14 49.15 49.17 49.18 49.19 49.20 49.22 49.23 49.24 49.25 49.26 49.27 49.28 49.29 49.30 49.31 49.32 49.33 49.34 49.35 49.36 49.37 49.37 49.38 49.39 49.39 49.40 49.40 49.41 49.41 49.42 49.42 49.42 49.43 49.43 49.43 49.43 49.43 49.43 49.43 49.43 49.43 49.43 49.42 49.42 49.42 49.42 49.41 49.41 49.40 49.40 49.39 49.38 49.38 49.37 49.36 49.35 49.34 49.33 49.32 49.31 49.30 49.29 49.28 49.27 49.26 49.24 49.23 49.22 49.20 49.19 49.17 49.16 49.14 49.13 49.11 49.10 49.08 49.06 49.05 49.03 49.01 49.00 48.98 48.96 48.94 48.93 48.91 48.89 48.87 48.85 48.84 48.82 48.80 48.78 48.76 48.75 48.49 48.19 47.90 47.62 47.35 47.10 46.85 46.62 46.40 46.19 45.99 45.80 45.62 45.45 45.30 45.15 45.01 44.88 44.76 44.65 44.55 44.46 44.37 44.29 44.22 44.16 44.10 44.04 44.00 43.95 43.92 43.88 43.85 43.82 43.80 43.78 43.76 43.75 43.73 43.72 43.71 43.70 43.69 43.69 43.68 43.68 43.67 43.67 43.67 43.67 43.67 43.68 43.68 43.68 43.69 43.70 43.71 43.72 43.74 43.76 43.78 43.81 43.84 43.87 43.91 43.95 44.00 44.05 44.11 44.18 44.25 44.33 44.42 44.52 44.62 44.74 44.86 44.99 45.14 45.29 45.45 45.62 45.81 46.00 46.21 46.43 46.65 46.89 47.14 47.41 47.68 47.96 48.26 48.51 48.52 48.54
50.10 50.11 50.13 50.14 50.15 50.17 50.18 50.19 50.20 50.22 50.23 50.24 50.25 50.27 50.28 50.29 50.30 50.31 50.32 50.33 50.34 50.35 50.36 50.37 50.38 50.39 50.40 50.41 50.42 50.42 50.43 50.44 50.44 50.45 50.45 50.46 50.46 50.47 50.47 50.47 50.48 50.48 50.48 50.48 50.48 50.48 50.48 50.48 50.48 50.48 50.48 50.47 50.47 50.47 50.46 50.46 50.45 50.45 50.44 50.43 50.43 50.42 50.41 50.40 50.39 50.38 50.37 50.36 50.35 50.34 50.33 50.32 50.31 50.29 50.28 50.27 50.25 50.24 50.22 50.21 50.19 50.18 50.16 50.15 50.13 50.11 50.10 50.08 50.06 50.05 50.03 50.01 49.99 49.98 49.96 49.94 49.92 49.90 49.89 49.87 49.85 49.83 49.81 49.80 49.78 49.76 49.74 49.55 49.25 48.97 48.69 48.43 48.18 47.94 47.71 47.50 47.29 47.09 46.91 46.74 46.57 46.42 46.28 46.14 46.02 45.90 45.79 45.69 45.60 45.52 45.44 45.37 45.30 45.24 45.19 45.14 45.10 45.06 45.02 44.99 44.96 44.93 44.91 44.89 44.88 44.86 44.85 44.84 44.83 44.83 44.83 44.82 44.82 44.83 44.83 44.84 44.85 44.86 44.87 44.89 44.91 44.93 44.96 44.99 45.03 45.06 45.11 45.16 45.21 45.27 45.34 45.41 45.49 45.58 45.67 45.78 45.89 46.01 46.14 46.28 46.42 46.58 46.75 46.93 47.12 47.32 47.53 47.76 47.99 48.24 48.49 48.76 49.04 49.34 49.52 49.53 49.55 49.56 49.57 49.59 49.60 49.61 49.63 49.64 49.65 49.67 49.68 49.69 49.70 49.72 49.73 49.74 49.75 49.77 49.78 49.79 49.80 49.81 49.82 49.83 49.84 49.85 49.86 49.87 49.88 49.89 49.90 49.91 49.92 49.92 49.93 49.94 49.94 49.95 49.95 49.96 49.96 49.97 49.97 49.97 49.98 49.98 49.98 49.98 49.98 49.98 49.98 49.98 49.98 49.98 49.98 49.97 49.97 49.97 49.96 49.96 49.95 49.95 49.94 49.93 49.93 49.92 49.91 49.90 49.89 49.88 49.87 49.86 49.85 49.84 49.83 49.82 49.81 49.79 49.78 49.77 49.75 49.74 49.72 49.71 49.69 49.68 49.66 49.65 49.63 49.61 49.60 49.58 49.56 49.55 49.53 49.51 49.49 49.48 49.46 49.44 49.42 49.40 49.39 49.37 49.35 49.33 49.31 49.30 49.28 49.26 49.24 49.05 48.75 48.47 48.19 47.93 47.68 47.44 47.21 47.00 46.79 46.59 46.41 46.24 46.07 45.92 45.78 45.64 45.52 45.40 45.29 45.19 45.10 45.02 44.94 44.87 44.80 44.74 44.69 44.64 44.60 44.56 44.52 44.49 44.46 44.43 44.41 44.39 44.38 44.36 44.35 44.34 44.33 44.33 44.33 44.32 44.32 44.33 44.33 44.34 44.35 44.36 44.37 44.39 44.41 44.43 44.46 44.49 44.53 44.56 44.61 44.66 44.71 44.77 44.84 44.91 44.99 45.08 45.17 45.28 45.39 45.51 45.64 45.78 45.92 46.08 46.25 46.43 46.62 46.82 47.03 47.26 47.49 47.74 47.99 48.26 48.54 48.84 49.02 49.03 49.05 49.06 49.07 49.09 49.10 49.11 49.13 49.14 49.15 49.17 49.18 49.19 49.20 49.22 49.23 49.24 49.25 49.27 49.28 49.29 49.30 49.31 49.32 49.33 49.34 49.35 49.36 49.37 49.38 49.39 49.40 49.41 49.42 49.42 49.43 49.44 49.44 49.45 49.45 49.46 49.46 49.47 49.47 49.47 49.48 49.48 49.48 49.48 49.48 49.48 49.48 49.48 49.48 49.48 49.48 49.47 49.47 49.47 49.46 49.46 49.45 49.45 49.44 49.43 49.43 49.42 49.41 49.40 49.39 49.38 49.37 49.36 49.35 49.34 49.33 49.32 49.31 49.29 49.28 49.27 49.25 49.24 49.22 49.21 49.19 49.18 49.16 49.15 49.13 49.11 49.10 49.08 49.06 49.05 49.03 49.01 48.99 48.98 48.96 48.94 48.92 48.90 48.89 48.87 48.85 48.83 48.81 48.80 48.78 48.76 48.74 48.55 48.25 47.97 47.69 47.43 47.18 46.94 46.71 46.50 46.29 46.09 45.91 45.74 45.57 45.42 45.28 45.14 45.02 44.90 44.79 44.69 44.60 44.52 44.44 44.37 44.30 44.24 44.19 44.14 44.10 44.06 44.02 43.99 43.96 43.93 43.91 43.89 43.88 43.86 43.85 43.84 43.83 43.83 43.83 43.82 43.82 43.83 43.83 43.84 43.85 43.86 43.87 43.89 43.91 43.93 43.96 43.99 44.03 44.06 44.11 44.16 44.21 44.27 44.34 44.41 44.49 44.58 44.67 44.78 44.89 45.01 45.14 45.28 45.42 45.58 45.75 45.93 46.12 46.32 46.53 46.76 46.99 47.24 47.49 47.76 48.04 48.34 48.52 48.53 48.55 48.56 48.57 48.59
50.15 50.16 50.18 50.19 50.20 50.22 50.23 50.24 50.25 50.27 50.28 50.29 50.30 50.32 50.33 50.34 50.35 50.36 50.37 50.38 50.39 50.40 50.41 50.42 50.43 50.44 50.45 50.46 50.47 50.47 50.48 50.49 50.49 50.50 50.50 50.51 50.51 50.52 50.52 50.52 50.53 50.53 50.53 50.53 50.53 50.53 50.53 50.53 50.53 50.53 50.52 50.52 50.52 50.52 50.51 50.51 50.50 50.50 50.49 50.48 50.48 50.47 50.46 50.45 50.44 50.43 50.42 50.41 50.40 50.39 50.38 50.37 50.36 50.34 50.33 50.32 50.30 50.29 50.27 50.26 50.24 50.23 50.21 50.20 50.18 50.16 50.15 50.13 50.11 50.10 50.08 50.06 50.04 50.03 50.01 49.99 49.97 49.95 49.94 49.92 49.90 49.88 49.86 49.85 49.83 49.81 49.79 49.77 49.76 49.74 49.64 49.34 49.06 48.79 48.54 48.29 48.06 47.84 47.62 47.43 47.24 47.06 46.89 46.73 46.58 46.45 46.32 46.19 46.08 45.98 45.88 45.79 45.71 45.63 45.56 45.50 45.44 45.39 45.34 45.30 45.26 45.22 45.19 45.17 45.14 45.13 45.11 45.10 45.09 45.08 45.08 45.07 45.08 45.08 45.09 45.10 45.11 45.13 45.15 45.18 45.21 45.24 45.28 45.32 45.37 45.42 45.48 45.55 45.62 45.70 45.78 45.87 45.97 46.08 46.20 46.32 46.45 46.60 46.75 46.91 47.09 47.27 47.46 47.67 47.89 48.12 48.36 48.61 48.87 49.15 49.44 49.53 49.55 49.56 49.57 49.58 49.60 49.61 49.62 49.64 49.65 49.66 49.68 49.69 49.70 49.72 49.73 49.74 49.75 49.77 49.78 49.79 49.80 49.82 49.83 49.84 49.85 49.86 49.87 49.88 49.89 49.90 49.91 49.92 49.93 49.94 49.95 49.96 49.97 49.97 49.98 49.99 49.99 50.00 50.00 50.01 50.01 50.02 50.02 50.02 50.03 50.03 50.03 50.03 50.03 50.03 50.03 50.03 50.03 50.03 50.02 50.02 50.02 50.02 50.01 50.01 50.00 50.00 49.99 49.98 49.98 49.97 49.96 49.95 49.94 49.93 49.92 49.91 49.90 49.89 49.88 49.87 49.86 49.84 49.83 49.82 49.80 49.79 49.77 49.76 49.74 49.73 49.71 49.70 49.68 49.66 49.65 49.63 49.61 49.60 49.58 49.56 49.54 49.53 49.51 49.49 49.47 49.45 49.44 49.42 49.40 49.38 49.36 49.35 49.33 49.31 49.29 49.27 49.26 49.24 49.14 48.84 48.56 48.29 48.04 47.79 47.56 47.34 47.12 46.93 46.74 46.56 46.39 46.23 46.08 45.95 45.82 45.69 45.58 45.48 45.38 45.29 45.21 45.13 45.06 45.00 44.94 44.89 44.84 44.80 44.76 44.72 44.69 44.67 44.64 44.63 44.61 44.60 44.59 44.58 44.58 44.57 44.58 44.58 44.59 44.60 44.61 44.63 44.65 44.68 44.71 44.74 44.78 44.82 44.87 44.92 44.98 45.05 45.12 45.20 45.28 45.37 45.47 45.58 45.70 45.82 45.95 46.10 46.25 46.41 46.59 46.77 46.96 47.17 47.39 47.62 47.86 48.11 48.37 48.65 48.94 49.03 49.05 49.06 49.07 49.08 49.10 49.11 49.12 49.14 49.15 49.16 49.18 49.19 49.20 49.22 49.23 49.24 49.25 49.27 49.28 49.29 49.30 49.32 49.33 49.34 49.35 49.36 49.37 49.38 49.39 49.40 49.41 49.42 49.43 49.44 49.45 49.46 49.47 49.47 49.48 49.49 49.49 49.50 49.50 49.51 49.51 49.52 49.52 49.52 49.53 49.53 49.53 49.53 49.53 49.53 49.53 49.53 49.53 49.53 49.52 49.52 49.52 49.52 49.51 49.51 49.50 49.50 49.49 49.48 49.48 49.47 49.46 49.45 49.44 49.43 49.42 49.41 49.40 49.39 49.38 49.37 49.36 49.34 49.33 49.32 49.30 49.29 49.27 49.26 49.24 49.23 49.21 49.20 49.18 49.16 49.15 49.13 49.11 49.10 49.08 49.06 49.04 49.03 49.01 48.99 48.97 48.95 48.94 48.92 48.90 48.88 48.86 48.85 48.83 48.81 48.79 48.77 48.76 48.74 48.64 48.34 48.06 47.79 47.54 47.29 47.06 46.84 46.62 46.43 46.24 46.06 45.89 45.73 45.58 45.45 45.32 45.19 45.08 44.98 44.88 44.79 44.71 44.63 44.56 44.50 44.44 44.39 44.34 44.30 44.26 44.22 44.19 44.17 44.14 44.13 44.11 44.10 44.09 44.08 44.08 44.07 44.08 44.08 44.09 44.10 44.11 44.13 44.15 44.18 44.21 44.24 44.28 44.32 44.37 44.42 44.48 44.55 44.62 44.70 44.78 44.87 44.97 45.08 45.20 45.32 45.45 45.60 45.75 45.91 46.09 46.27 46.46 46.67 46.89 47.12 47.36 47.61 47.87 48.15 48.44 48.53 48.55 48.56 48.57 48.58 48.60 48.61 48.62 48.64
50.20 50.21 50.23 50.24 50.25 50.27 50.28 50.29 50.30 50.32 50.33 50.34 50.35 50.37 50.38 50.39 50.40 50.41 50.42 50.43 50.44 50.45 50.46 50.47 50.48 50.49 50.50 50.51 50.52 50.52 50.53 50.54 50.54 50.55 50.55 50.56 50.56 50.57 50.57 50.57 50.58 50.58 50.58 50.58 50.58 50.58 50.58 50.58 50.58 50.58 50.58 50.57 50.57 50.57 50.56 50.56 50.55 50.55 50.54 50.53 50.53 50.52 50.51 50.50 50.49 50.48 50.47 50.46 50.45 50.44 50.43 50.42 50.41 50.39 50.38 50.37 50.35 50.34 50.32 50.31 50.29 50.28 50.26 50.25 50.23 50.21 50.20 50.18 50.16 50.15 50.13 50.11 50.09 50.08 50.06 50.04 50.02 50.00 49.99 49.97 49.95 49.93 49.91 49.90 49.88 49.86 49.84 49.82 49.81 49.79 49.77 49.75 49.74 49.72 49.46 49.19 48.93 48.68 48.44 48.21 48.00 47.80 47.60 47.42 47.25 47.09 46.94 46.79 46.66 46.54 46.42 46.31 46.21 46.12 46.04 45.96 45.89 45.82 45.76 45.71 45.66 45.61 45.58 45.54 45.51 45.49 45.47 45.45 45.44 45.43 45.42 45.42 45.43 45.44 45.45 45.46 45.48 45.51 45.54 45.57 45.61 45.65 45.70 45.76 45.82 45.88 45.96 46.04 46.12 46.22 46.32 46.43 46.55 46.68 46.82 46.96 47.12 47.29 47.46 47.65 47.85 48.06 48.28 48.51 48.76 49.01 49.28 49.53 49.55 49.56 49.57 49.58 49.60 49.61 49.62 49.63 49.65 49.66 49.67 49.69 49.70 49.71 49.73 49.74 49.75 49.77 49.78 49.79 49.80 49.82 49.83 49.84 49.85 49.87 49.88 49.89 49.90 49.91 49.92 49.93 49.94 49.95 49.96 49.97 49.98 49.99 50.00 50.01 50.02 50.02 50.03 50.04 50.04 50.05 50.05 50.06 50.06 50.07 50.07 50.07 50.08 50.08 50.08 50.08 50.08 50.08 50.08 50.08 50.08 50.08 50.08 50.07 50.07 50.07 50.06 50.06 50.05 50.05 50.04 50.03 50.03 50.02 50.01 50.00 49.99 49.98 49.97 49.96 49.95 49.94 49.93 49.92 49.91 49.89 49.88 49.87 49.85 49.84 49.82 49.81 49.79 49.78 49.76 49.75 49.73 49.71 49.70 49.68 49.66 49.65 49.63 49.61 49.59 49.58 49.56 49.54 49.52 49.50 49.49 49.47 49.45 49.43 49.41 49.40 49.38 49.36 49.34 49.32 49.31 49.29 49.27 49.25 49.24 49.22 48.96 48.69 48.43 48.18 47.94 47.71 47.50 47.30 47.10 46.92 46.75 46.59 46.44 46.29 46.16 46.04 45.92 45.81 45.71 45.62 45.54 45.46 45.39 45.32 45.26 45.21 45.16 45.11 45.08 45.04 45.01 44.99 44.97 44.95 44.94 44.93 44.92 44.92 44.93 44.94 44.95 44.96 44.98 45.01 45.04 45.07 45.11 45.15 45.20 45.26 45.32 45.38 45.46 45.54 45.62 45.72 45.82 45.93 46.05 46.18 46.32 46.46 46.62 46.79 46.96 47.15 47.35 47.56 47.78 48.01 48.26 48.51 48.78 49.03 49.05 49.06 49.07 49.08 49.10 49.11 49.12 49.13 49.15 49.16 49.17 49.19 49.20 49.21 49.23 49.24 49.25 49.27 49.28 49.29 49.30 49.32 49.33 49.34 49.35 49.37 49.38 49.39 49.40 49.41 49.42 49.43 49.44 49.45 49.46 49.47 49.48 49.49 49.50 49.51 49.52 49.52 49.53 49.54 49.54 49.55 49.55 49.56 49.56 49.57 49.57 49.57 49.58 49.58 49.58 49.58 49.58 49.58 49.58 49.58 49.58 49.58 49.58 49.57 49.57 49.57 49.56 49.56 49.55 49.55 49.54 49.53 49.53 49.52 49.51 49.50 49.49 49.48 49.47 49.46 49.45 49.44 49.43 49.42 49.41 49.39 49.38 49.37 49.35 49.34 49.32 49.31 49.29 49.28 49.26 49.25 49.23 49.21 49.20 49.18 49.16 49.15 49.13 49.11 49.09 49.08 49.06 49.04 49.02 49.00 48.99 48.97 48.95 48.93 48.91 48.90 48.88 48.86 48.84 48.82 48.81 48.79 48.77 48.75 48.74 48.72 48.46 48.19 47.93 47.68 47.44 47.21 47.00 46.80 46.60 46.42 46.25 46.09 45.94 45.79 45.66 45.54 45.42 45.31 45.21 45.12 45.04 44.96 44.89 44.82 44.76 44.71 44.66 44.61 44.58 44.54 44.51 44.49 44.47 44.45 44.44 44.43 44.42 44.42 44.43 44.44 44.45 44.46 44.48 44.51 44.54 44.57 44.61 44.65 44.70 44.76 44.82 44.88 44.96 45.04 45.12 45.22 45.32 45.43 45.55 45.68 45.82 45.96 46.12 46.29 46.46 46.65 46.85 47.06 47.28 47.51 47.76 48.01 48.28 48.53 48.55 48.56 48.57 48.58 48.60 48.61 48.62 48.63 48.65 48.66 48.67 48.69
50.25 50.26 50.28 50.29 50.30 50.32 50.33 50.34 50.35 50.37 50.38 50.39 50.40 50.42 50.43 50.44 50.45 50.46 50.47 50.48 50.49 50.50 50.51 50.52 50.53 50.54 50.55 50.56 50.57 50.57 50.58 50.59 50.59 50.60 50.60 50.61 50.61 50.62 50.62 50.62 50.63 50.63 50.63 50.63 50.63 50.63 50.63 50.63 50.63 50.63 50.62 50.62 50.62 50.62 50.61 50.61 50.60 50.60 50.59 50.58 50.58 50.57 50.56 50.55 50.54 50.53 50.52 50.51 50.50 50.49 50.48 50.47 50.46 50.44 50.43 50.42 50.40 50.39 50.37 50.36 50.34 50.33 50.31 50.30 50.28 50.26 50.25 50.23 50.21 50.20 50.18 50.16 50.14 50.13 50.11 50.09 50.07 50.05 50.04 50.02 50.00 49.98 49.96 49.95 49.93 49.91 49.89 49.87 49.86 49.84 49.82 49.80 49.79 49.77 49.75 49.74 49.72 49.62 49.35 49.10 48.86 48.63 48.42 48.21 48.01 47.83 47.66 47.49 47.34 47.20 47.06 46.94 46.82 46.71 46.61 46.52 46.43 46.35 46.28 46.22 46.16 46.10 46.06 46.02 45.98 45.95 45.92 45.90 45.89 45.88 45.88 45.87 45.88 45.89 45.90 45.92 45.95 45.98 46.02 46.06 46.11 46.16 46.22 46.29 46.36 46.44 46.53 46.63 46.73 46.84 46.96 47.09 47.23 47.38 47.54 47.71 47.88 48.07 48.28 48.49 48.71 48.95 49.19 49.45 49.55 49.56 49.57 49.58 49.60 49.61 49.62 49.63 49.65 49.66 49.67 49.68 49.70 49.71 49.72 49.74 49.75 49.76 49.78 49.79 49.80 49.82 49.83 49.84 49.85 49.87 49.88 49.89 49.90 49.92 49.93 49.94 49.95 49.96 49.97 49.98 49.99 50.00 50.01 50.02 50.03 50.04 50.05 50.06 50.07 50.07 50.08 50.09 50.09 50.10 50.10 50.11 50.11 50.12 50.12 50.12 50.13 50.13 50.13 50.13 50.13 50.13 50.13 50.13 50.13 50.13 50.12 50.12 50.12 50.12 50.11 50.11 50.10 50.10 50.09 50.08 50.08 50.07 50.06 50.05 50.04 50.03 50.02 50.01 50.00 49.99 49.98 49.97 49.96 49.94 49.93 49.92 49.90 49.89 49.87 49.86 49.84 49.83 49.81 49.80 49.78 49.76 49.75 49.73 49.71 49.70 49.68 49.66 49.64 49.63 49.61 49.59 49.57 49.55 49.54 49.52 49.50 49.48 49.46 49.45 49.43 49.41 49.39 49.37 49.36 49.34 49.32 49.30 49.29 49.27 49.25 49.24 49.22 49.12 48.85 48.60 48.36 48.13 47.92 47.71 47.51 47.33 47.16 46.99 46.84 46.70 46.56 46.44 46.32 46.21 46.11 46.02 45.93 45.85 45.78 45.72 45.66 45.60 45.56 45.52 45.48 45.45 45.42 45.40 45.39 45.38 45.38 45.37 45.38 45.39 45.40 45.42 45.45 45.48 45.52 45.56 45.61 45.66 45.72 45.79 45.86 45.94 46.03 46.13 46.23 46.34 46.46 46.59 46.73 46.88 47.04 47.21 47.38 47.57 47.78 47.99 48.21 48.45 48.69 48.95 49.05 49.06 49.07 49.08 49.10 49.11 49.12 49.13 49.15 49.16 49.17 49.18 49.20 49.21 49.22 49.24 49.25 49.26 49.28 49.29 49.30 49.32 49.33 49.34 49.35 49.37 49.38 49.39 49.40 49.42 49.43 49.44 49.45 49.46 49.47 49.48 49.49 49.50 49.51 49.52 49.53 49.54 49.55 49.56 49.57 49.57 49.58 49.59 49.59 49.60 49.60 49.61 49.61 49.62 49.62 49.62 49.63 49.63 49.63 49.63 49.63 49.63 49.63 49.63 49.63 49.63 49.62 49.62 49.62 49.62 49.61 49.61 49.60 49.60 49.59 49.58 49.58 49.57 49.56 49.55 49.54 49.53 49.52 49.51 49.50 49.49 49.48 49.47 49.46 49.44 49.43 49.42 49.40 49.39 49.37 49.36 49.34 49.33 49.31 49.30 49.28 49.26 49.25 49.23 49.21 49.20 49.18 49.16 49.14 49.13 49.11 49.09 49.07 49.05 49.04 49.02 49.00 48.98 48.96 48.95 48.93 48.91 48.89 48.87 48.86 48.84 48.82 48.80 48.79 48.77 48.75 48.74 48.72 48.62 48.35 48.10 47.86 47.63 47.42 47.21 47.01 46.83 46.66 46.49 46.34 46.20 46.06 45.94 45.82 45.71 45.61 45.52 45.43 45.35 45.28 45.22 45.16 45.10 45.06 45.02 44.98 44.95 44.92 44.90 44.89 44.88 44.88 44.87 44.88 44.89 44.90 44.92 44.95 44.98 45.02 45.06 45.11 45.16 45.22 45.29 45.36 45.44 45.53 45.63 45.73 45.84 45.96 46.09 46.23 46.38 46.54 46.71 46.88 47.07 47.28 47.49 47.71 47.95 48.19 48.45 48.55 48.56 48.57 48.58 48.60 48.61 48.62 48.63 48.65 48.66 48.67 48.68 48.70 48.71 48.72 48.74
50.30 50.31 50.33 50.34 50.35 50.37 50.38 50.39 50.40 50.42 50.43 50.44 50.45 50.47 50.48 50.49 50.50 50.51 50.52 50.53 50.54 50.55 50.56 50.57 50.58 50.59 50.60 50.61 50.62 50.62 50.63 50.64 50.64 50.65 50.65 50.66 50.66 50.67 50.67 50.67 50.68 50.68 50.68 50.68 50.68 50.68 50.68 50.68 50.68 50.68 50.67 50.67 50.67 50.67 50.66 50.66 50.65 50.65 50.64 50.63 50.63 50.62 50.61 50.60 50.59 50.58 50.57 50.56 50.55 50.54 50.53 50.52 50.51 50.49 50.48 50.47 50.45 50.44 50.42 50.41 50.39 50.38 50.36 50.35 50.33 50.31 50.30 50.28 50.26 50.25 50.23 50.21 50.19 50.18 50.16 50.14 50.12 50.10 50.09 50.07 50.05 50.03 50.01 50.00 49.98 49.96 49.94 49.92 49.91 49.89 49.87 49.85 49.84 49.82 49.80 49.79 49.77 49.75 49.74 49.72 49.71 49.57 49.33 49.10 48.88 48.67 48.48 48.29 48.12 47.96 47.80 47.66 47.53 47.40 47.28 47.18 47.08 46.98 46.90 46.82 46.76 46.69 46.64 46.59 46.55 46.51 46.48 46.46 46.44 46.43 46.42 46.43 46.43 46.44 46.46 46.49 46.52 46.55 46.60 46.65 46.71 46.77 46.84 46.92 47.01 47.10 47.20 47.32 47.44 47.56 47.70 47.85 48.01 48.18 48.36 48.55 48.75 48.96 49.19 49.42 49.56 49.57 49.58 49.59 49.60 49.61 49.62 49.63 49.65 49.66 49.67 49.68 49.70 49.71 49.72 49.73 49.75 49.76 49.77 49.79 49.80 49.81 49.83 49.84 49.85 49.87 49.88 49.89 49.90 49.92 49.93 49.94 49.95 49.97 49.98 49.99 50.00 50.01 50.02 50.03 50.04 50.05 50.06 50.07 50.08 50.09 50.10 50.11 50.12 50.12 50.13 50.14 50.14 50.15 50.15 50.16 50.16 50.17 50.17 50.17 50.18 50.18 50.18 50.18 50.18 50.18 50.18 50.18 50.18 50.18 50.17 50.17 50.17 50.17 50.16 50.16 50.15 50.15 50.14 50.13 50.13 50.12 50.11 50.10 50.09 50.08 50.07 50.06 50.05 50.04 50.03 50.02 50.01 49.99 49.98 49.97 49.95 49.94 49.92 49.91 49.89 49.88 49.86 49.85 49.83 49.81 49.80 49.78 49.76 49.75 49.73 49.71 49.69 49.68 49.66 49.64 49.62 49.60 49.59 49.57 49.55 49.53 49.51 49.50 49.48 49.46 49.44 49.42 49.41 49.39 49.37 49.35 49.34 49.32 49.30 49.29 49.27 49.25 49.24 49.22 49.21 49.07 48.83 48.60 48.38 48.17 47.98 47.79 47.62 47.46 47.30 47.16 47.03 46.90 46.78 46.68 46.58 46.48 46.40 46.32 46.26 46.19 46.14 46.09 46.05 46.01 45.98 45.96 45.94 45.93 45.92 45.93 45.93 45.94 45.96 45.99 46.02 46.05 46.10 46.15 46.21 46.27 46.34 46.42 46.51 46.60 46.70 46.82 46.94 47.06 47.20 47.35 47.51 47.68 47.86 48.05 48.25 48.46 48.69 48.92 49.06 49.07 49.08 49.09 49.10 49.11 49.12 49.13 49.15 49.16 49.17 49.18 49.20 49.21 49.22 49.23 49.25 49.26 49.27 49.29 49.30 49.31 49.33 49.34 49.35 49.37 49.38 49.39 49.40 49.42 49.43 49.44 49.45 49.47 49.48 49.49 49.50 49.51 49.52 49.53 49.54 49.55 49.56 49.57 49.58 49.59 49.60 49.61 49.62 49.62 49.63 49.64 49.64 49.65 49.65 49.66 49.66 49.67 49.67 49.67 49.68 49.68 49.68 49.68 49.68 49.68 49.68 49.68 49.68 49.68 49.67 49.67 49.67 49.67 49.66 49.66 49.65 49.65 49.64 49.63 49.63 49.62 49.61 49.60 49.59 49.58 49.57 49.56 49.55 49.54 49.53 49.52 49.51 49.49 49.48 49.47 49.45 49.44 49.42 49.41 49.39 49.38 49.36 49.35 49.33 49.31 49.30 49.28 49.26 49.25 49.23 49.21 49.19 49.18 49.16 49.14 49.12 49.10 49.09 49.07 49.05 49.03 49.01 49.00 48.98 48.96 48.94 48.92 48.91 48.89 48.87 48.85 48.84 48.82 48.80 48.79 48.77 48.75 48.74 48.72 48.71 48.57 48.33 48.10 47.88 47.67 47.48 47.29 47.12 46.96 46.80 46.66 46.53 46.40 46.28 46.18 46.08 45.98 45.90 45.82 45.76 45.69 45.64 45.59 45.55 45.51 45.48 45.46 45.44 45.43 45.42 45.43 45.43 45.44 45.46 45.49 45.52 45.55 45.60 45.65 45.71 45.77 45.84 45.92 46.01 46.10 46.20 46.32 46.44 46.56 46.70 46.85 47.01 47.18 47.36 47.55 47.75 47.96 48.19 48.42 48.56 48.57 48.58 48.59 48.60 48.61 48.62 48.63 48.65 48.66 48.67 48.68 48.70 48.71 48.72 48.73 48.75 48.76 48.77 48.79
50.35 50.36 50.38 50.39 50.40 50.42 50.43 50.44 50.45 50.47 50.48 50.49 50.50 50.52 50.53 50.54 50.55 50.56 50.57 50.58 50.59 50.60 50.61 50.62 50.63 50.64 50.65 50.66 50.67 50.67 50.68 50.69 50.69 50.70 50.70 50.71 50.71 50.72 50.72 50.72 50.73 50.73 50.73 50.73 50.73 50.73 50.73 50.73 50.73 50.73 50.73 50.72 50.72 50.72 50.71 50.71 50.70 50.70 50.69 50.68 50.68 50.67 50.66 50.65 50.64 50.63 50.62 50.61 50.60 50.59 50.58 50.57 50.56 50.54 50.53 50.52 50.50 50.49 50.47 50.46 50.44 50.43 50.41 50.40 50.38 50.36 50.35 50.33 50.31 50.30 50.28 50.26 50.24 50.23 50.21 50.19 50.17 50.15 50.14 50.12 50.10 50.08 50.06 50.05 50.03 50.01 49.99 49.97 49.96 49.94 49.92 49.90 49.89 49.87 49.85 49.84 49.82 49.80 49.79 49.77 49.76 49.74 49.73 49.71 49.70 49.62 49.40 49.19 49.00 48.82 48.64 48.48 48.33 48.19 48.06 47.93 47.82 47.72 47.62 47.53 47.45 47.38 47.32 47.26 47.22 47.17 47.14 47.11 47.09 47.08 47.08 47.08 47.08 47.10 47.12 47.15 47.19 47.23 47.28 47.34 47.40 47.48 47.56 47.65 47.75 47.86 47.98 48.10 48.24 48.39 48.54 48.71 48.89 49.08 49.28 49.49 49.57 49.58 49.59 49.60 49.61 49.62 49.63 49.64 49.65 49.66 49.67 49.68 49.70 49.71 49.72 49.73 49.75 49.76 49.77 49.78 49.80 49.81 49.82 49.84 49.85 49.86 49.88 49.89 49.90 49.92 49.93 49.94 49.95 49.97 49.98 49.99 50.00 50.02 50.03 50.04 50.05 50.06 50.07 50.08 50.09 50.10 50.11 50.12 50.13 50.14 50.15 50.16 50.17 50.17 50.18 50.19 50.19 50.20 50.20 50.21 50.21 50.22 50.22 50.22 50.23 50.23 50.23 50.23 50.23 50.23 50.23 50.23 50.23 50.23 50.23 50.22 50.22 50.22 50.21 50.21 50.20 50.20 50.19 50.18 50.18 50.17 50.16 50.15 50.14 50.13 50.12 50.11 50.10 50.09 50.08 50.07 50.06 50.04 50.03 50.02 50.00 49.99 49.97 49.96 49.94 49.93 49.91 49.90 49.88 49.86 49.85 49.83 49.81 49.80 49.78 49.76 49.74 49.73 49.71 49.69 49.67 49.65 49.64 49.62 49.60 49.58 49.56 49.55 49.53 49.51 49.49 49.47 49.46 49.44 49.42 49.40 49.39 49.37 49.35 49.34 49.32 49.30 49.29 49.27 49.26 49.24 49.23 49.21 49.20 49.12 48.90 48.69 48.50 48.32 48.14 47.98 47.83 47.69 47.56 47.43 47.32 47.22 47.12 47.03 46.95 46.88 46.82 46.76 46.72 46.67 46.64 46.61 46.59 46.58 46.58 46.58 46.58 46.60 46.62 46.65 46.69 46.73 46.78 46.84 46.90 46.98 47.06 47.15 47.25 47.36 47.48 47.60 47.74 47.89 48.04 48.21 48.39 48.58 48.78 48.99 49.07 49.08 49.09 49.10 49.11 49.12 49.13 49.14 49.15 49.16 49.17 49.18 49.20 49.21 49.22 49.23 49.25 49.26 49.27 49.28 49.30 49.31 49.32 49.34 49.35 49.36 49.38 49.39 49.40 49.42 49.43 49.44 49.45 49.47 49.48 49.49 49.50 49.52 49.53 49.54 49.55 49.56 49.57 49.58 49.59 49.60 49.61 49.62 49.63 49.64 49.65 49.66 49.67 49.67 49.68 49.69 49.69 49.70 49.70 49.71 49.71 49.72 49.72 49.72 49.73 49.73 49.73 49.73 49.73 49.73 49.73 49.73 49.73 49.73 49.73 49.72 49.72 49.72 49.71 49.71 49.70 49.70 49.69 49.68 49.68 49.67 49.66 49.65 49.64 49.63 49.62 49.61 49.60 49.59 49.58 49.57 49.56 49.54 49.53 49.52 49.50 49.49 49.47 49.46 49.44 49.43 49.41 49.40 49.38 49.36 49.35 49.33 49.31 49.30 49.28 49.26 49.24 49.23 49.21 49.19 49.17 49.15 49.14 49.12 49.10 49.08 49.06 49.05 49.03 49.01 48.99 48.97 48.96 48.94 48.92 48.90 48.89 48.87 48.85 48.84 48.82 48.80 48.79 48.77 48.76 48.74 48.73 48.71 48.70 48.62 48.40 48.19 48.00 47.82 47.64 47.48 47.33 47.19 47.06 46.93 46.82 46.72 46.62 46.53 46.45 46.38 46.32 46.26 46.22 46.17 46.14 46.11 46.09 46.08 46.08 46.08 46.08 46.10 46.12 46.15 46.19 46.23 46.28 46.34 46.40 46.48 46.56 46.65 46.75 46.86 46.98 47.10 47.24 47.39 47.54 47.71 47.89 48.08 48.28 48.49 48.57 48.58 48.59 48.60 48.61 48.62 48.63 48.64 48.65 48.66 48.67 48.68 48.70 48.71 48.72 48.73 48.75 48.76 48.77 48.78 48.80 48.81 48.82 48.84
50.40 50.41 50.43 50.44 50.45 50.47 50.48 50.49 50.50 50.52 50.53 50.54 50.55 50.57 50.58 50.59 50.60 50.61 50.62 50.63 50.64 50.65 50.66 50.67 50.68 50.69 50.70 50.71 50.72 50.72 50.73 50.74 50.74 50.75 50.75 50.76 50.76 50.77 50.77 50.77 50.78 50.78 50.78 50.78 50.78 50.78 50.78 50.78 50.78 50.78 50.77 50.77 50.77 50.77 50.76 50.76 50.75 50.75 50.74 50.73 50.73 50.72 50.71 50.70 50.69 50.68 50.67 50.66 50.65 50.64 50.63 50.62 50.61 50.59 50.58 50.57 50.55 50.54 50.52 50.51 50.49 50.48 50.46 50.45 50.43 50.41 50.40 50.38 50.36 50.35 50.33 50.31 50.29 50.28 50.26 50.24 50.22 50.20 50.19 50.17 50.15 50.13 50.11 50.10 50.08 50.06 50.04 50.02 50.01 49.99 49.97 49.95 49.94 49.92 49.90 49.89 49.87 49.85 49.84 49.82 49.81 49.79 49.78 49.76 49.75 49.73 49.72 49.71 49.69 49.68 49.59 49.41 49.24 49.08 48.93 48.79 48.67 48.55 48.44 48.34 48.25 48.17 48.10 48.04 47.98 47.94 47.90 47.87 47.85 47.83 47.83 47.83 47.84 47.85 47.88 47.91 47.95 48.00 48.06 48.13 48.20 48.29 48.38 48.48 48.60 48.72 48.85 48.99 49.15 49.31 49.49 49.58 49.58 49.59 49.60 49.61 49.62 49.63 49.64 49.65 49.66 49.67 49.68 49.69 49.70 49.71 49.72 49.73 49.75 49.76 49.77 49.78 49.80 49.81 49.82 49.83 49.85 49.86 49.87 49.89 49.90 49.91 49.93 49.94 49.95 49.97 49.98 49.99 50.00 50.02 50.03 50.04 50.05 50.07 50.08 50.09 50.10 50.11 50.12 50.13 50.14 50.15 50.16 50.17 50.18 50.19 50.20 50.21 50.22 50.22 50.23 50.24 50.24 50.25 50.25 50.26 50.26 50.27 50.27 50.27 50.28 50.28 50.28 50.28 50.28 50.28 50.28 50.28 50.28 50.28 50.27 50.27 50.27 50.27 50.26 50.26 50.25 50.25 50.24 50.23 50.23 50.22 50.21 50.20 50.19 50.18 50.17 50.16 50.15 50.14 50.13 50.12 50.11 50.09 50.08 50.07 50.05 50.04 50.02 50.01 49.99 49.98 49.96 49.95 49.93 49.91 49.90 49.88 49.86 49.85 49.83 49.81 49.79 49.78 49.76 49.74 49.72 49.70 49.69 49.67 49.65 49.63 49.61 49.60 49.58 49.56 49.54 49.52 49.51 49.49 49.47 49.45 49.44 49.42 49.40 49.39 49.37 49.35 49.34 49.32 49.31 49.29 49.28 49.26 49.25 49.23 49.22 49.21 49.19 49.18 49.09 48.91 48.74 48.58 48.43 48.29 48.17 48.05 47.94 47.84 47.75 47.67 47.60 47.54 47.48 47.44 47.40 47.37 47.35 47.33 47.33 47.33 47.34 47.35 47.38 47.41 47.45 47.50 47.56 47.63 47.70 47.79 47.88 47.98 48.10 48.22 48.35 48.49 48.65 48.81 48.99 49.08 49.08 49.09 49.10 49.11 49.12 49.13 49.14 49.15 49.16 49.17 49.18 49.19 49.20 49.21 49.22 49.23 49.25 49.26 49.27 49.28 49.30 49.31 49.32 49.33 49.35 49.36 49.37 49.39 49.40 49.41 49.43 49.44 49.45 49.47 49.48 49.49 49.50 49.52 49.53 49.54 49.55 49.57 49.58 49.59 49.60 49.61 49.62 49.63 49.64 49.65 49.66 49.67 49.68 49.69 49.70 49.71 49.72 49.72 49.73 49.74 49.74 49.75 49.75 49.76 49.76 49.77 49.77 49.77 49.78 49.78 49.78 49.78 49.78 49.78 49.78 49.78 49.78 49.78 49.77 49.77 49.77 49.77 49.76 49.76 49.75 49.75 49.74 49.73 49.73 49.72 49.71 49.70 49.69 49.68 49.67 49.66 49.65 49.64 49.63 49.62 49.61 49.59 49.58 49.57 49.55 49.54 49.52 49.51 49.49 49.48 49.46 49.45 49.43 49.41 49.40 49.38 49.36 49.35 49.33 49.31 49.29 49.28 49.26 49.24 49.22 49.20 49.19 49.17 49.15 49.13 49.11 49.10 49.08 49.06 49.04 49.02 49.01 48.99 48.97 48.95 48.94 48.92 48.90 48.89 48.87 48.85 48.84 48.82 48.81 48.79 48.78 48.76 48.75 48.73 48.72 48.71 48.69 48.68 48.59 48.41 48.24 48.08 47.93 47.79 47.67 47.55 47.44 47.34 47.25 47.17 47.10 47.04 46.98 46.94 46.90 46.87 46.85 46.83 46.83 46.83 46.84 46.85 46.88 46.91 46.95 47.00 47.06 47.13 47.20 47.29 47.38 47.48 47.60 47.72 47.85 47.99 48.15 48.31 48.49 48.58 48.58 48.59 48.60 48.61 48.62 48.63 48.64 48.65 48.66 48.67 48.68 48.69 48.70 48.71 48.72 48.73 48.75 48.76 48.77 48.78 48.80 48.81 48.82 48.83 48.85 48.86 48.87 48.89
50.45 50.46 50.48 50.49 50.50 50.52 50.53 50.54 50.55 50.57 50.58 50.59 50.60 50.62 50.63 50.64 50.65 50.66 50.67 50.68 50.69 50.70 50.71 50.72 50.73 50.74 50.75 50.76 50.77 50.77 50.78 50.79 50.79 50.80 50.80 50.81 50.81 50.82 50.82 50.82 50.83 50.83 50.83 50.83 50.83 50.83 50.83 50.83 50.83 50.83 50.83 50.82 50.82 50.82 50.81 50.81 50.80 50.80 50.79 50.78 50.78 50.77 50.76 50.75 50.74 50.73 50.72 50.71 50.70 50.69 50.68 50.67 50.66 50.64 50.63 50.62 50.60 50.59 50.57 50.56 50.54 50.53 50.51 50.50 50.48 50.46 50.45 50.43 50.41 50.40 50.38 50.36 50.34 50.33 50.31 50.29 50.27 50.25 50.24 50.22 50.20 50.18 50.16 50.15 50.13 50.11 50.09 50.07 50.06 50.04 50.02 50.00 49.99 49.97 49.95 49.94 49.92 49.90 49.89 49.87 49.86 49.84 49.83 49.81 49.80 49.78 49.77 49.76 49.74 49.73 49.72 49.71 49.70 49.69 49.68 49.67 49.61 49.48 49.36 49.25 49.15 49.06 48.98 48.91 48.85 48.80 48.76 48.72 48.70 48.68 48.67 48.68 48.69 48.71 48.74 48.77 48.82 48.88 48.94 49.02 49.10 49.20 49.30 49.42 49.54 49.59 49.60 49.60 49.61 49.61 49.62 49.63 49.63 49.64 49.65 49.66 49.67 49.68 49.69 49.70 49.71 49.72 49.73 49.74 49.75 49.76 49.77 49.78 49.80 49.81 49.82 49.83 49.85 49.86 49.87 49.88 49.90 49.91 49.92 49.94 49.95 49.96 49.98 49.99 50.00 50.02 50.03 50.04 50.05 50.07 50.08 50.09 50.10 50.12 50.13 50.14 50.15 50.16 50.17 50.18 50.19 50.20 50.21 50.22 50.23 50.24 50.25 50.26 50.27 50.27 50.28 50.29 50.29 50.30 50.30 50.31 50.31 50.32 50.32 50.32 50.33 50.33 50.33 50.33 50.33 50.33 50.33 50.33 50.33 50.33 50.33 50.32 50.32 50.32 50.31 50.31 50.30 50.30 50.29 50.28 50.28 50.27 50.26 50.25 50.24 50.23 50.22 50.21 50.20 50.19 50.18 50.17 50.16 50.14 50.13 50.12 50.10 50.09 50.07 50.06 50.04 50.03 50.01 50.00 49.98 49.96 49.95 49.93 49.91 49.90 49.88 49.86 49.84 49.83 49.81 49.79 49.77 49.75 49.74 49.72 49.70 49.68 49.66 49.65 49.63 49.61 49.59 49.57 49.56 49.54 49.52 49.50 49.49 49.47 49.45 49.44 49.42 49.40 49.39 49.37 49.36 49.34 49.33 49.31 49.30 49.28 49.27 49.26 49.24 49.23 49.22 49.21 49.20 49.19 49.18 49.17 49.11 48.98 48.86 48.75 48.65 48.56 48.48 48.41 48.35 48.30 48.26 48.22 48.20 48.18 48.17 48.18 48.19 48.21 48.24 48.27 48.32 48.38 48.44 48.52 48.60 48.70 48.80 48.92 49.04 49.09 49.10 49.10 49.11 49.11 49.12 49.13 49.13 49.14 49.15 49.16 49.17 49.18 49.19 49.20 49.21 49.22 49.23 49.24 49.25 49.26 49.27 49.28 49.30 49.31 49.32 49.33 49.35 49.36 49.37 49.38 49.40 49.41 49.42 49.44 49.45 49.46 49.48 49.49 49.50 49.52 49.53 49.54 49.55 49.57 49.58 49.59 49.60 49.62 49.63 49.64 49.65 49.66 49.67 49.68 49.69 49.70 49.71 49.72 49.73 49.74 49.75 49.76 49.77 49.77 49.78 49.79 49.79 49.80 49.80 49.81 49.81 49.82 49.82 49.82 49.83 49.83 49.83 49.83 49.83 49.83 49.83 49.83 49.83 49.83 49.83 49.82 49.82 49.82 49.81 49.81 49.80 49.80 49.79 49.78 49.78 49.77 49.76 49.75 49.74 49.73 49.72 49.71 49.70 49.69 49.68 49.67 49.66 49.64 49.63 49.62 49.60 49.59 49.57 49.56 49.54 49.53 49.51 49.50 49.48 49.46 49.45 49.43 49.41 49.40 49.38 49.36 49.34 49.33 49.31 49.29 49.27 49.25 49.24 49.22 49.20 49.18 49.16 49.15 49.13 49.11 49.09 49.07 49.06 49.04 49.02 49.00 48.99 48.97 48.95 48.94 48.92 48.90 48.89 48.87 48.86 48.84 48.83 48.81 48.80 48.78 48.77 48.76 48.74 48.73 48.72 48.71 48.70 48.69 48.68 48.67 48.61 48.48 48.36 48.25 48.15 48.06 47.98 47.91 47.85 47.80 47.76 47.72 47.70 47.68 47.67 47.68 47.69 47.71 47.74 47.77 47.82 47.88 47.94 48.02 48.10 48.20 48.30 48.42 48.54 48.59 48.60 48.60 48.61 48.61 48.62 48.63 48.63 48.64 48.65 48.66 48.67 48.68 48.69 48.70 48.71 48.72 48.73 48.74 48.75 48.76 48.77 48.78 48.80 48.81 48.82 48.83 48.85 48.86 48.87 48.88 48.90 48.91 48.92 48.94
50.50 50.51 50.53 50.54 50.55 50.57 50.58 50.59 50.60 50.62 50.63 50.64 50.65 50.67 50.68 50.69 50.70 50.71 50.72 50.73 50.74 50.75 50.76 50.77 50.78 50.79 50.80 50.81 50.82 50.82 50.83 50.84 50.84 50.85 50.85 50.86 50.86 50.87 50.87 50.87 50.88 50.88 50.88 50.88 50.88 50.88 50.88 50.88 50.88 50.88 50.88 50.87 50.87 50.87 50.86 50.86 50.85 50.85 50.84 50.83 50.83 50.82 50.81 50.80 50.79 50.78 50.77 50.76 50.75 50.74 50.73 50.72 50.71 50.69 50.68 50.67 50.65 50.64 50.62 50.61 50.59 50.58 50.56 50.55 50.53 50.51 50.50 50.48 50.46 50.45 50.43 50.41 50.39 50.38 50.36 50.34 50.32 50.30 50.29 50.27 50.25 50.23 50.21 50.20 50.18 50.16 50.14 50.12 50.11 50.09 50.07 50.05 50.04 50.02 50.00 49.99 49.97 49.95 49.94 49.92 49.91 49.89 49.88 49.86 49.85 49.83 49.82 49.81 49.79 49.78 49.77 49.76 49.75 49.74 49.73 49.72 49.71 49.70 49.69 49.68 49.67 49.67 49.66 49.65 49.65 49.64 49.64 49.63 49.63 49.63 49.62 49.62 49.62 49.62 49.62 49.62 49.62 49.62 49.62 49.62 49.62 49.63 49.63 49.63 49.64 49.64 49.65 49.65 49.66 49.66 49.67 49.68 49.68 49.69 49.70 49.71 49.72 49.73 49.74 49.75 49.76 49.77 49.78 49.79 49.80 49.81 49.82 49.83 49.85 49.86 49.87 49.88 49.90 49.91 49.92 49.93 49.95 49.96 49.97 49.99 50.00 50.01 50.03 50.04 50.05 50.07 50.08 50.09 50.10 50.12 50.13 50.14 50.15 50.17 50.18 50.19 50.20 50.21 50.22 50.23 50.24 50.25 50.26 50.27 50.28 50.29 50.30 50.31 50.32 50.32 50.33 50.34 50.34 50.35 50.35 50.36 50.36 50.37 50.37 50.37 50.38 50.38 50.38 50.38 50.38 50.38 50.38 50.38 50.38 50.38 50.38 50.37 50.37 50.37 50.36 50.36 50.35 50.35 50.34 50.33 50.33 50.32 50.31 50.30 50.29 50.28 50.27 50.26 50.25 50.24 50.23 50.22 50.21 50.19 50.18 50.17 50.15 50.14 50.12 50.11 50.09 50.08 50.06 50.05 50.03 50.01 50.00 49.98 49.96 49.95 49.93 49.91 49.89 49.88 49.86 49.84 49.82 49.80 49.79 49.77 49.75 49.73 49.71 49.70 49.68 49.66 49.64 49.62 49.61 49.59 49.57 49.55 49.54 49.52 49.50 49.49 49.47 49.45 49.44 49.42 49.41 49.39 49.38 49.36 49.35 49.33 49.32 49.31 49.29 49.28 49.27 49.26 49.25 49.24 49.23 49.22 49.21 49.20 49.19 49.18 49.17 49.17 49.16 49.15 49.15 49.14 49.14 49.13 49.13 49.13 49.12 49.12 49.12 49.12 49.12 49.12 49.12 49.12 49.12 49.12 49.12 49.13 49.13 49.13 49.14 49.14 49.15 49.15 49.16 49.16 49.17 49.18 49.18 49.19 49.20 49.21 49.22 49.23 49.24 49.25 49.26 49.27 49.28 49.29 49.30 49.31 49.32 49.33 49.35 49.36 49.37 49.38 49.40 49.41 49.42 49.43 49.45 49.46 49.47 49.49 49.50 49.51 49.53 49.54 49.55 49.57 49.58 49.59 49.60 49.62 49.63 49.64 49.65 49.67 49.68 49.69 49.70 49.71 49.72 49.73 49.74 49.75 49.76 49.77 49.78 49.79 49.80 49.81 49.82 49.82 49.83 49.84 49.84 49.85 49.85 49.86 49.86 49.87 49.87 49.87 49.88 49.88 49.88 49.88 49.88 49.88 49.88 49.88 49.88 49.88 49.88 49.87 49.87 49.87 49.86 49.86 49.85 49.85 49.84 49.83 49.83 49.82 49.81 49.80 49.79 49.78 49.77 49.76 49.75 49.74 49.73 49.72 49.71 49.69 49.68 49.67 49.65 49.64 49.62 49.61 49.59 49.58 49.56 49.55 49.53 49.51 49.50 49.48 49.46 49.45 49.43 49.41 49.39 49.38 49.36 49.34 49.32 49.30 49.29 49.27 49.25 49.23 49.21 49.20 49.18 49.16 49.14 49.12 49.11 49.09 49.07 49.05 49.04 49.02 49.00 48.99 48.97 48.95 48.94 48.92 48.91 48.89 48.88 48.86 48.85 48.83 48.82 48.81 48.79 48.78 48.77 48.76 48.75 48.74 48.73 48.72 48.71 48.70 48.69 48.68 48.67 48.67 48.66 48.65 48.65 48.64 48.64 48.63 48.63 48.63 48.62 48.62 48.62 48.62 48.62 48.62 48.62 48.62 48.62 48.62 48.62 48.63 48.63 48.63 48.64 48.64 48.65 48.65 48.66 48.66 48.67 48.68 48.68 48.69 48.70 48.71 48.72 48.73 48.74 48.75 48.76 48.77 48.78 48.79 48.80 48.81 48.82 48.83 48.85 48.86 48.87 48.88 48.90 48.91 48.92 48.93 48.95 48.96 48.97 48.99
50.55 50.56 50.58 50.59 50.60 50.62 50.63 50.64 50.65 50.67 50.68 50.69 50.70 50.72 50.73 50.74 50.75 50.76 50.77 50.78 50.79 50.80 50.81 50.82 50.83 50.84 50.85 50.86 50.87 50.87 50.88 50.89 50.89 50.90 50.90 50.91 50.91 50.92 50.92 50.92 50.93 50.93 50.93 50.93 50.93 50.93 50.93 50.93 50.93 50.93 50.92 50.92 50.92 50.92 50.91 50.91 50.90 50.90 50.89 50.88 50.88 50.87 50.86 50.85 50.84 50.83 50.82 50.81 50.80 50.79 50.78 50.77 50.76 50.74 50.73 50.72 50.70 50.69 50.67 50.66 50.64 50.63 50.61 50.60 50.58 50.56 50.55 50.53 50.51 50.50 50.48 50.46 50.44 50.43 50.41 50.39 50.37 50.35 50.34 50.32 50.30 50.28 50.26 50.25 50.23 50.21 50.19 50.17 50.16 50.14 50.12 50.10 50.09 50.07 50.05 50.04 50.02 50.00 49.99 49.97 49.96 49.94 49.93 49.91 49.90 49.88 49.87 49.86 49.84 49.83 49.82 49.81 49.80 49.79 49.78 49.77 49.76 49.75 49.74 49.73 49.72 49.72 49.71 49.70 49.70 49.69 49.69 49.68 49.68 49.68 49.67 49.67 49.67 49.67 49.67 49.67 49.67 49.67 49.67 49.67 49.67 49.68 49.68 49.68 49.69 49.69 49.70 49.70 49.71 49.71 49.72 49.73 49.73 49.74 49.75 49.76 49.77 49.78 49.79 49.80 49.81 49.82 49.83 49.84 49.85 49.86 49.87 49.88 49.90 49.91 49.92 49.93 49.95 49.96 49.97 49.98 50.00 50.01 50.02 50.04 50.05 50.06 50.08 50.09 50.10 50.12 50.13 50.14 50.15 50.17 50.18 50.19 50.20 50.22 50.23 50.24 50.25 50.26 50.27 50.28 50.29 50.30 50.31 50.32 50.33 50.34 50.35 50.36 50.37 50.37 50.38 50.39 50.39 50.40 50.40 50.41 50.41 50.42 50.42 50.42 50.43 50.43 50.43 50.43 50.43 50.43 50.43 50.43 50.43 50.43 50.42 50.42 50.42 50.42 50.41 50.41 50.40 50.40 50.39 50.38 50.38 50.37 50.36 50.35 50.34 50.33 50.32 50.31 50.30 50.29 50.28 50.27 50.26 50.24 50.23 50.22 50.20 50.19 50.17 50.16 50.14 50.13 50.11 50.10 50.08 50.06 50.05 50.03 50.01 50.00 49.98 49.96 49.94 49.93 49.91 49.89 49.87 49.85 49.84 49.82 49.80 49.78 49.76 49.75 49.73 49.71 49.69 49.67 49.66 49.64 49.62 49.60 49.59 49.57 49.55 49.54 49.52 49.50 49.49 49.47 49.46 49.44 49.43 49.41 49.40 49.38 49.37 49.36 49.34 49.33 49.32 49.31 49.30 49.29 49.28 49.27 49.26 49.25 49.24 49.23 49.22 49.22 49.21 49.20 49.20 49.19 49.19 49.18 49.18 49.18 49.17 49.17 49.17 49.17 49.17 49.17 49.17 49.17 49.17 49.17 49.17 49.18 49.18 49.18 49.19 49.19 49.20 49.20 49.21 49.21 49.22 49.23 49.23 49.24 49.25 49.26 49.27 49.28 49.29 49.30 49.31 49.32 49.33 49.34 49.35 49.36 49.37 49.38 49.40 49.41 49.42 49.43 49.45 49.46 49.47 49.48 49.50 49.51 49.52 49.54 49.55 49.56 49.58 49.59 49.60 49.62 49.63 49.64 49.65 49.67 49.68 49.69 49.70 49.72 49.73 49.74 49.75 49.76 49.77 49.78 49.79 49.80 49.81 49.82 49.83 49.84 49.85 49.86 49.87 49.87 49.88 49.89 49.89 49.90 49.90 49.91 49.91 49.92 49.92 49.92 49.93 49.93 49.93 49.93 49.93 49.93 49.93 49.93 49.93 49.93 49.92 49.92 49.92 49.92 49.91 49.91 49.90 49.90 49.89 49.88 49.88 49.87 49.86 49.85 49.84 49.83 49.82 49.81 49.80 49.79 49.78 49.77 49.76 49.74 49.73 49.72 49.70 49.69 49.67 49.66 49.64 49.63 49.61 49.60 49.58 49.56 49.55 49.53 49.51 49.50 49.48 49.46 49.44 49.43 49.41 49.39 49.37 49.35 49.34 49.32 49.30 49.28 49.26 49.25 49.23 49.21 49.19 49.17 49.16 49.14 49.12 49.10 49.09 49.07 49.05 49.04 49.02 49.00 48.99 48.97 48.96 48.94 48.93 48.91 48.90 48.88 48.87 48.86 48.84 48.83 48.82 48.81 48.80 48.79 48.78 48.77 48.76 48.75 48.74 48.73 48.72 48.72 48.71 48.70 48.70 48.69 48.69 48.68 48.68 48.68 48.67 48.67 48.67 48.67 48.67 48.67 48.67 48.67 48.67 48.67 48.67 48.68 48.68 48.68 48.69 48.69 48.70 48.70 48.71 48.71 48.72 48.73 48.73 48.74 48.75 48.76 48.77 48.78 48.79 48.80 48.81 48.82 48.83 48.84 48.85 48.86 48.87 48.88 48.90 48.91 48.92 48.93 48.95 48.96 48.97 48.98 49.00 49.01 49.02 49.04
50.60 50.61 50.63 50.64 50.65 50.67 50.68 50.69 50.70 50.72 50.73 50.74 50.75 50.77 50.78 50.79 50.80 50.81 50.82 50.83 50.84 50.85 50.86 50.87 50.88 50.89 50.90 50.91 50.92 50.92 50.93 50.94 50.94 50.95 50.95 50.96 50.96 50.97 50.97 50.97 50.98 50.98 50.98 50.98 50.98 50.98 50.98 50.98 50.98 50.98 50.98 50.97 50.97 50.97 50.96 50.96 50.95 50.95 50.94 50.93 50.93 50.92 50.91 50.90 50.89 50.88 50.87 50.86 50.85 50.84 50.83 50.82 50.81 50.79 50.78 50.77 50.75 50.74 50.72 50.71 50.69 50.68 50.66 50.65 50.63 50.61 50.60 50.58 50.56 50.55 50.53 50.51 50.49 50.48 50.46 50.44 50.42 50.40 50.39 50.37 50.35 50.33 50.31 50.30 50.28 50.26 50.24 50.22 50.21 50.19 50.17 50.15 50.14 50.12 50.10 50.09 50.07 50.05 50.04 50.02 50.01 49.99 49.98 49.96 49.95 49.93 49.92 49.91 49.89 49.88 49.87 49.86 49.85 49.84 49.83 49.82 49.81 49.80 49.79 49.78 49.77 49.77 49.76 49.75 49.75 49.74 49.74 49.73 49.73 49.73 49.73 49.72 49.72 49.72 49.72 49.72 49.72 49.72 49.72 49.72 49.72 49.73 49.73 49.73 49.74 49.74 49.75 49.75 49.76 49.76 49.77 49.78 49.78 49.79 49.80 49.81 49.82 49.83 49.84 49.85 49.86 49.87 49.88 49.89 49.90 49.91 49.92 49.93 49.95 49.96 49.97 49.98 50.00 50.01 50.02 50.03 50.05 50.06 50.07 50.09 50.10 50.11 50.13 50.14 50.15 50.17 50.18 50.19 50.20 50.22 50.23 50.24 50.25 50.27 50.28 50.29 50.30 50.31 50.32 50.33 50.34 50.35 50.36 50.37 50.38 50.39 50.40 50.41 50.42 50.42 50.43 50.44 50.44 50.45 50.45 50.46 50.46 50.47 50.47 50.47 50.48 50.48 50.48 50.48 50.48 50.48 50.48 50.48 50.48 50.48 50.48 50.47 50.47 50.47 50.46 50.46 50.45 50.45 50.44 50.43 50.43 50.42 50.41 50.40 50.39 50.38 50.37 50.36 50.35 50.34 50.33 50.32 50.31 50.29 50.28 50.27 50.25 50.24 50.22 50.21 50.19 50.18 50.16 50.15 50.13 50.11 50.10 50.08 50.06 50.05 50.03 50.01 49.99 49.98 49.96 49.94 49.92 49.90 49.89 49.87 49.85 49.83 49.81 49.80 49.78 49.76 49.74 49.72 49.71 49.69 49.67 49.65 49.64 49.62 49.60 49.59 49.57 49.55 49.54 49.52 49.51 49.49 49.48 49.46 49.45 49.43 49.42 49.41 49.39 49.38 49.37 49.36 49.35 49.34 49.33 49.32 49.31 49.30 49.29 49.28 49.27 49.27 49.26 49.25 49.25 49.24 49.24 49.23 49.23 49.23 49.23 49.22 49.22 49.22 49.22 49.22 49.22 49.22 49.22 49.22 49.22 49.23 49.23 49.23 49.24 49.24 49.25 49.25 49.26 49.26 49.27 49.28 49.28 49.29 49.30 49.31 49.32 49.33 49.34 49.35 49.36 49.37 49.38 49.39 49.40 49.41 49.42 49.43 49.45 49.46 49.47 49.48 49.50 49.51 49.52 49.53 49.55 49.56 49.57 49.59 49.60 49.61 49.63 49.64 49.65 49.67 49.68 49.69 49.70 49.72 49.73 49.74 49.75 49.77 49.78 49.79 49.80 49.81 49.82 49.83 49.84 49.85 49.86 49.87 49.88 49.89 49.90 49.91 49.92 49.92 49.93 49.94 49.94 49.95 49.95 49.96 49.96 49.97 49.97 49.97 49.98 49.98 49.98 49.98 49.98 49.98 49.98 49.98 49.98 49.98 49.98 49.97 49.97 49.97 49.96 49.96 49.95 49.95 49.94 49.93 49.93 49.92 49.91 49.90 49.89 49.88 49.87 49.86 49.85 49.84 49.83 49.82 49.81 49.79 49.78 49.77 49.75 49.74 49.72 49.71 49.69 49.68 49.66 49.65 49.63 49.61 49.60 49.58 49.56 49.55 49.53 49.51 49.49 49.48 49.46 49.44 49.42 49.40 49.39 49.37 49.35 49.33 49.31 49.30 49.28 49.26 49.24 49.22 49.21 49.19 49.17 49.15 49.14 49.12 49.10 49.09 49.07 49.05 49.04 49.02 49.01 48.99 48.98 48.96 48.95 48.93 48.92 48.91 48.89 48.88 48.87 48.86 48.85 48.84 48.83 48.82 48.81 48.80 48.79 48.78 48.77 48.77 48.76 48.75 48.75 48.74 48.74 48.73 48.73 48.73 48.73 48.72 48.72 48.72 48.72 48.72 48.72 48.72 48.72 48.72 48.72 48.73 48.73 48.73 48.74 48.74 48.75 48.75 48.76 48.76 48.77 48.78 48.78 48.79 48.80 48.81 48.82 48.83 48.84 48.85 48.86 48.87 48.88 48.89 48.90 48.91 48.92 48.93 48.95 48.96 48.97 48.98 49.00 49.01 49.02 49.03 49.05 49.06 49.07 49.09
50.65 50.66 50.68 50.69 50.70 50.72 50.73 50.74 50.75 50.77 50.78 50.79 50.80 50.82 50.83 50.84 50.85 50.86 50.87 50.88 50.89 50.90 50.91 50.92 50.93 50.94 50.95 50.96 50.97 50.97 50.98 50.99 50.99 51.00 51.00 51.01 51.01 51.02 51.02 51.02 51.03 51.03 51.03 51.03 51.03 51.03 51.03 51.03 51.03 51.03 51.02 51.02 51.02 51.02 51.01 51.01 51.00 51.00 50.99 50.98 50.98 50.97 50.96 50.95 50.94 50.93 50.92 50.91 50.90 50.89 50.88 50.87 50.86 50.84 50.83 50.82 50.80 50.79 50.77 50.76 50.74 50.73 50.71 50.70 50.68 50.66 50.65 50.63 50.61 50.60 50.58 50.56 50.54 50.53 50.51 50.49 50.47 50.45 50.44 50.42 50.40 50.38 50.36 50.35 50.33 50.31 50.29 50.27 50.26 50.24 50.22 50.20 50.19 50.17 50.15 50.14 50.12 50.10 50.09 50.07 50.06 50.04 50.03 50.01 50.00 49.98 49.97 49.96 49.94 49.93 49.92 49.91 49.90 49.89 49.88 49.87 49.86 49.85 49.84 49.83 49.82 49.82 49.81 49.80 49.80 49.79 49.79 49.78 49.78 49.78 49.77 49.77 49.77 49.77 49.77 49.77 49.77 49.77 49.77 49.77 49.77 49.78 49.78 49.78 49.79 49.79 49.80 49.80 49.81 49.81 49.82 49.83 49.83 49.84 49.85 49.86 49.87 49.88 49.89 49.90 49.91 49.92 49.93 49.94 49.95 49.96 49.97 49.98 50.00 50.01 50.02 50.03 50.05 50.06 50.07 50.08 50.10 50.11 50.12 50.14 50.15 50.16 50.18 50.19 50.20 50.22 50.23 50.24 50.25 50.27 50.28 50.29 50.30 50.32 50.33 50.34 50.35 50.36 50.37 50.38 50.39 50.40 50.41 50.42 50.43 50.44 50.45 50.46 50.47 50.47 50.48 50.49 50.49 50.50 50.50 50.51 50.51 50.52 50.52 50.52 50.53 50.53 50.53 50.53 50.53 50.53 50.53 50.53 50.53 50.53 50.52 50.52 50.52 50.52 50.51 50.51 50.50 50.50 50.49 50.48 50.48 50.47 50.46 50.45 50.44 50.43 50.42 50.41 50.40 50.39 50.38 50.37 50.36 50.34 50.33 50.32 50.30 50.29 50.27 50.26 50.24 50.23 50.21 50.20 50.18 50.16 50.15 50.13 50.11 50.10 50.08 50.06 50.04 50.03 50.01 49.99 49.97 49.95 49.94 49.92 49.90 49.88 49.86 49.85 49.83 49.81 49.79 49.77 49.76 49.74 49.72 49.70 49.69 49.67 49.65 49.64 49.62 49.60 49.59 49.57 49.56 49.54 49.53 49.51 49.50 49.48 49.47 49.46 49.44 49.43 49.42 49.41 49.40 49.39 49.38 49.37 49.36 49.35 49.34 49.33 49.32 49.32 49.31 49.30 49.30 49.29 49.29 49.28 49.28 49.28 49.27 49.27 49.27 49.27 49.27 49.27 49.27 49.27 49.27 49.27 49.27 49.28 49.28 49.28 49.29 49.29 49.30 49.30 49.31 49.31 49.32 49.33 49.33 49.34 49.35 49.36 49.37 49.38 49.39 49.40 49.41 49.42 49.43 49.44 49.45 49.46 49.47 49.48 49.50 49.51 49.52 49.53 49.55 49.56 49.57 49.58 49.60 49.61 49.62 49.64 49.65 49.66 49.68 49.69 49.70 49.72 49.73 49.74 49.75 49.77 49.78 49.79 49.80 49.82 49.83 49.84 49.85 49.86 49.87 49.88 49.89 49.90 49.91 49.92 49.93 49.94 49.95 49.96 49.97 49.97 49.98 49.99 49.99 50.00 50.00 50.01 50.01 50.02 50.02 50.02 50.03 50.03 50.03 50.03 50.03 50.03 50.03 50.03 50.03 50.03 50.02 50.02 50.02 50.02 50.01 50.01 50.00 50.00 49.99 49.98 49.98 49.97 49.96 49.95 49.94 49.93 49.92 49.91 49.90 49.89 49.88 49.87 49.86 49.84 49.83 49.82 49.80 49.79 49.77 49.76 49.74 49.73 49.71 49.70 49.68 49.66 49.65 49.63 49.61 49.60 49.58 49.56 49.54 49.53 49.51 49.49 49.47 49.45 49.44 49.42 49.40 49.38 49.36 49.35 49.33 49.31 49.29 49.27 49.26 49.24 49.22 49.20 49.19 49.17 49.15 49.14 49.12 49.10 49.09 49.07 49.06 49.04 49.03 49.01 49.00 48.98 48.97 48.96 48.94 48.93 48.92 48.91 48.90 48.89 48.88 48.87 48.86 48.85 48.84 48.83 48.82 48.82 48.81 48.80 48.80 48.79 48.79 48.78 48.78 48.78 48.77 48.77 48.77 48.77 48.77 48.77 48.77 48.77 48.77 48.77 48.77 48.78 48.78 48.78 48.79 48.79 48.80 48.80 48.81 48.81 48.82 48.83 48.83 48.84 48.85 48.86 48.87 48.88 48.89 48.90 48.91 48.92 48.93 48.94 48.95 48.96 48.97 48.98 49.00 49.01 49.02 49.03 49.05 49.06 49.07 49.08 49.10 49.11 49.12 49.14
50.70 50.71 50.73 50.74 50.75 50.77 50.78 50.79 50.80 50.82 50.83 50.84 50.85 50.87 50.88 50.89 50.90 50.91 50.92 50.93 50.94 50.95 50.96 50.97 50.98 50.99 51.00 51.01 51.02 51.02 51.03 51.04 51.04 51.05 51.05 51.06 51.06 51.07 51.07 51.07 51.08 51.08 51.08 51.08 51.08 51.08 51.08 51.08 51.08 51.08 51.08 51.07 51.07 51.07 51.06 51.06 51.05 51.05 51.04 51.03 51.03 51.02 51.01 51.00 50.99 50.98 50.97 50.96 50.95 50.94 50.93 50.92 50.91 50.89 50.88 50.87 50.85 50.84 50.82 50.81 50.79 50.78 50.76 50.75 50.73 50.71 50.70 50.68 50.66 50.65 50.63 50.61 50.59 50.58 50.56 50.54 50.52 50.50 50.49 50.47 50.45 50.43 50.41 50.40 50.38 50.36 50.34 50.32 50.31 50.29 50.27 50.25 50.24 50.22 50.20 50.19 50.17 50.15 50.14 50.12 50.11 50.09 50.08 50.06 50.05 50.03 50.02 50.01 49.99 49.98 49.97 49.96 49.95 49.94 49.93 49.92 49.91 49.90 49.89 49.88 49.87 49.87 49.86 49.85 49.85 49.84 49.84 49.83 49.83 49.83 49.83 49.82 49.82 49.82 49.82 49.82 49.82 49.82 49.82 49.82 49.82 49.83 49.83 49.83 49.84 49.84 49.85 49.85 49.86 49.86 49.87 49.88 49.88 49.89 49.90 49.91 49.92 49.93 49.94 49.95 49.96 49.97 49.98 49.99 50.00 50.01 50.02 50.03 50.05 50.06 50.07 50.08 50.10 50.11 50.12 50.13 50.15 50.16 50.17 50.19 50.20 50.21 50.23 50.24 50.25 50.27 50.28 50.29 50.30 50.32 50.33 50.34 50.35 50.37 50.38 50.39 50.40 50.41 50.42 50.43 50.44 50.45 50.46 50.47 50.48 50.49 50.50 50.51 50.52 50.52 50.53 50.54 50.54 50.55 50.55 50.56 50.56 50.57 50.57 50.57 50.58 50.58 50.58 50.58 50.58 50.58 50.58 50.58 50.58 50.58 50.58 50.57 50.57 50.57 50.56 50.56 50.55 50.55 50.54 50.53 50.53 50.52 50.51 50.50 50.49 50.48 50.47 50.46 50.45 50.44 50.43 50.42 50.41 50.39 50.38 50.37 50.35 50.34 50.32 50.31 50.29 50.28 50.26 50.25 50.23 50.21 50.20 50.18 50.16 50.15 50.13 50.11 50.09 50.08 50.06 50.04 50.02 50.00 49.99 49.97 49.95 49.93 49.91 49.90 49.88 49.86 49.84 49.82 49.81 49.79 49.77 49.75 49.74 49.72 49.70 49.69 49.67 49.65 49.64 49.62 49.61 49.59 49.58 49.56 49.55 49.53 49.52 49.51 49.49 49.48 49.47 49.46 49.45 49.44 49.43 49.42 49.41 49.40 49.39 49.38 49.37 49.37 49.36 49.35 49.35 49.34 49.34 49.33 49.33 49.33 49.33 49.32 49.32 49.32 49.32 49.32 49.32 49.32 49.32 49.32 49.32 49.33 49.33 49.33 49.34 49.34 49.35 49.35 49.36 49.36 49.37 49.38 49.38 49.39 49.40 49.41 49.42 49.43 49.44 49.45 49.46 49.47 49.48 49.49 49.50 49.51 49.52 49.53 49.55 49.56 49.57 49.58 49.60 49.61 49.62 49.63 49.65 49.66 49.67 49.69 49.70 49.71 49.73 49.74 49.75 49.77 49.78 49.79 49.80 49.82 49.83 49.84 49.85 49.87 49.88 49.89 49.90 49.91 49.92 49.93 49.94 49.95 49.96 49.97 49.98 49.99 50.00 50.01 50.02 50.02 50.03 50.04 50.04 50.05 50.05 50.06 50.06 50.07 50.07 50.07 50.08 50.08 50.08 50.08 50.08 50.08 50.08 50.08 50.08 50.08 50.08 50.07 50.07 50.07 50.06 50.06 50.05 50.05 50.04 50.03 50.03 50.02 50.01 50.00 49.99 49.98 49.97 49.96 49.95 49.94 49.93 49.92 49.91 49.89 49.88 49.87 49.85 49.84 49.82 49.81 49.79 49.78 49.76 49.75 49.73 49.71 49.70 49.68 49.66 49.65 49.63 49.61 49.59 49.58 49.56 49.54 49.52 49.50 49.49 49.47 49.45 49.43 49.41 49.40 49.38 49.36 49.34 49.32 49.31 49.29 49.27 49.25 49.24 49.22 49.20 49.19 49.17 49.15 49.14 49.12 49.11 49.09 49.08 49.06 49.05 49.03 49.02 49.01 48.99 48.98 48.97 48.96 48.95 48.94 48.93 48.92 48.91 48.90 48.89 48.88 48.87 48.87 48.86 48.85 48.85 48.84 48.84 48.83 48.83 48.83 48.83 48.82 48.82 48.82 48.82 48.82 48.82 48.82 48.82 48.82 48.82 48.83 48.83 48.83 48.84 48.84 48.85 48.85 48.86 48.86 48.87 48.88 48.88 48.89 48.90 48.91 48.92 48.93 48.94 48.95 48.96 48.97 48.98 48.99 49.00 49.01 49.02 49.03 49.05 49.06 49.07 49.08 49.10 49.11 49.12 49.13 49.15 49.16 49.17 49.19
50.75 50.76 50.78 50.79 50.80 50.82 50.83 50.84 50.85 50.87 50.88 50.89 50.90 50.92 50.93 50.94 50.95 50.96 50.97 50.98 50.99 51.00 51.01 51.02 51.03 51.04 51.05 51.06 51.07 51.07 51.08 51.09 51.09 51.10 51.10 51.11 51.11 51.12 51.12 51.12 51.13 51.13 51.13 51.13 51.13 51.13 51.13 51.13 51.13 51.13 51.12 51.12 51.12 51.12 51.11 51.11 51.10 51.10 51.09 51.08 51.08 51.07 51.06 51.05 51.04 51.03 51.02 51.01 51.00 50.99 50.98 50.97 50.96 50.94 50.93 50.92 50.90 50.89 50.87 50.86 50.84 50.83 50.81 50.80 50.78 50.76 50.75 50.73 50.71 50.70 50.68 50.66 50.64 50.63 50.61 50.59 50.57 50.55 50.54 50.52 50.50 50.48 50.46 50.45 50.43 50.41 50.39 50.37 50.36 50.34 50.32 50.30 50.29 50.27 50.25 50.24 50.22 50.20 50.19 50.17 50.16 50.14 50.13 50.11 50.10 50.08 50.07 50.06 50.04 50.03 50.02 50.01 50.00 49.99 49.98 49.97 49.96 49.95 49.94 49.93 49.92 49.92 49.91 49.90 49.90 49.89 49.89 49.88 49.88 49.88 49.88 49.87 49.87 49.87 49.87 49.87 49.87 49.87 49.87 49.87 49.87 49.88 49.88 49.88 49.89 49.89 49.90 49.90 49.91 49.91 49.92 49.93 49.93 49.94 49.95 49.96 49.97 49.98 49.99 50.00 50.01 50.02 50.03 50.04 50.05 50.06 50.07 50.08 50.10 50.11 50.12 50.13 50.15 50.16 50.17 50.18 50.20 50.21 50.22 50.24 50.25 50.26 50.28 50.29 50.30 50.32 50.33 50.34 50.35 50.37 50.38 50.39 50.40 50.42 50.43 50.44 50.45 50.46 50.47 50.48 50.49 50.50 50.51 50.52 50.53 50.54 50.55 50.56 50.57 50.57 50.58 50.59 50.59 50.60 50.60 50.61 50.61 50.62 50.62 50.62 50.63 50.63 50.63 50.63 50.63 50.63 50.63 50.63 50.63 50.63 50.62 50.62 50.62 50.62 50.61 50.61 50.60 50.60 50.59 50.58 50.58 50.57 50.56 50.55 50.54 50.53 50.52 50.51 50.50 50.49 50.48 50.47 50.46 50.44 50.43 50.42 50.40 50.39 50.37 50.36 50.34 50.33 50.31 50.30 50.28 50.26 50.25 50.23 50.21 50.20 50.18 50.16 50.14 50.13 50.11 50.09 50.07 50.05 50.04 50.02 50.00 49.98 49.96 49.95 49.93 49.91 49.89 49.87 49.86 49.84 49.82 49.80 49.79 49.77 49.75 49.74 49.72 49.70 49.69 49.67 49.66 49.64 49.63 49.61 49.60 49.58 49.57 49.56 49.54 49.53 49.52 49.51 49.50 49.49 49.48 49.47 49.46 49.45 49.44 49.43 49.42 49.42 49.41 49.40 49.40 49.39 49.39 49.38 49.38 49.38 49.38 49.37 49.37 49.37 49.37 49.37 49.37 49.37 49.37 49.37 49.37 49.38 49.38 49.38 49.39 49.39 49.40 49.40 49.41 49.41 49.42 49.43 49.43 49.44 49.45 49.46 49.47 49.48 49.49 49.50 49.51 49.52 49.53 49.54 49.55 49.56 49.57 49.58 49.60 49.61 49.62 49.63 49.65 49.66 49.67 49.68 49.70 49.71 49.72 49.74 49.75 49.76 49.78 49.79 49.80 49.82 49.83 49.84 49.85 49.87 49.88 49.89 49.90 49.92 49.93 49.94 49.95 49.96 49.97 49.98 49.99 50.00 50.01 50.02 50.03 50.04 50.05 50.06 50.07 50.07 50.08 50.09 50.09 50.10 50.10 50.11 50.11 50.12 50.12 50.12 50.13 50.13 50.13 50.13 50.13 50.13 50.13 50.13 50.13 50.13 50.12 50.12 50.12 50.12 50.11 50.11 50.10 50.10 50.09 50.08 50.08 50.07 50.06 50.05 50.04 50.03 50.02 50.01 50.00 49.99 49.98 49.97 49.96 49.94 49.93 49.92 49.90 49.89 49.87 49.86 49.84 49.83 49.81 49.80 49.78 49.76 49.75 49.73 49.71 49.70 49.68 49.66 49.64 49.63 49.61 49.59 49.57 49.55 49.54 49.52 49.50 49.48 49.46 49.45 49.43 49.41 49.39 49.37 49.36 49.34 49.32 49.30 49.29 49.27 49.25 49.24 49.22 49.20 49.19 49.17 49.16 49.14 49.13 49.11 49.10 49.08 49.07 49.06 49.04 49.03 49.02 49.01 49.00 48.99 48.98 48.97 48.96 48.95 48.94 48.93 48.92 48.92 48.91 48.90 48.90 48.89 48.89 48.88 48.88 48.88 48.88 48.87 48.87 48.87 48.87 48.87 48.87 48.87 48.87 48.87 48.87 48.88 48.88 48.88 48.89 48.89 48.90 48.90 48.91 48.91 48.92 48.93 48.93 48.94 48.95 48.96 48.97 48.98 48.99 49.00 49.01 49.02 49.03 49.04 49.05 49.06 49.07 49.08 49.10 49.11 49.12 49.13 49.15 49.16 49.17 49.18 49.20 49.21 49.22 49.24
50.80 50.81 50.83 50.84 50.85 50.87 50.88 50.89 50.90 50.92 50.93 50.94 50.95 50.97 50.98 50.99 51.00 51.01 51.02 51.03 51.04 51.05 51.06 51.07 51.08 51.09 51.10 51.11 51.12 51.12 51.13 51.14 51.14 51.15 51.15 51.16 51.16 51.17 51.17 51.17 51.18 51.18 51.18 51.18 51.18 51.18 51.18 51.18 51.18 51.18 51.17 51.17 51.17 51.17 51.16 51.16 51.15 51.15 51.14 51.13 51.13 51.12 51.11 51.10 51.09 51.08 51.07 51.06 51.05 51.04 51.03 51.02 51.01 50.99 50.98 50.97 50.95 50.94 50.92 50.91 50.89 50.88 50.86 50.85 50.83 50.81 50.80 50.78 50.76 50.75 50.73 50.71 50.69 50.68 50.66 50.64 50.62 50.60 50.59 50.57 50.55 50.53 50.51 50.50 50.48 50.46 50.44 50.42 50.41 50.39 50.37 50.35 50.34 50.32 50.30 50.29 50.27 50.25 50.24 50.22 50.21 50.19 50.18 50.16 50.15 50.13 50.12 50.11 50.09 50.08 50.07 50.06 50.05 50.04 50.03 50.02 50.01 50.00 49.99 49.98 49.97 49.97 49.96 49.95 49.95 49.94 49.94 49.93 49.93 49.93 49.92 49.92 49.92 49.92 49.92 49.92 49.92 49.92 49.92 49.92 49.92 49.93 49.93 49.93 49.94 49.94 49.95 49.95 49.96 49.96 49.97 49.98 49.98 49.99 50.00 50.01 50.02 50.03 50.04 50.05 50.06 50.07 50.08 50.09 50.10 50.11 50.12 50.13 50.15 50.16 50.17 50.18 50.20 50.21 50.22 50.23 50.25 50.26 50.27 50.29 50.30 50.31 50.33 50.34 50.35 50.37 50.38 50.39 50.40 50.42 50.43 50.44 50.45 50.47 50.48 50.49 50.50 50.51 50.52 50.53 50.54 50.55 50.56 50.57 50.58 50.59 50.60 50.61 50.62 50.62 50.63 50.64 50.64 50.65 50.65 50.66 50.66 50.67 50.67 50.67 50.68 50.68 50.68 50.68 50.68 50.68 50.68 50.68 50.68 50.68 50.67 50.67 50.67 50.67 50.66 50.66 50.65 50.65 50.64 50.63 50.63 50.62 50.61 50.60 50.59 50.58 50.57 50.56 50.55 50.54 50.53 50.52 50.51 50.49 50.48 50.47 50.45 50.44 50.42 50.41 50.39 50.38 50.36 50.35 50.33 50.31 50.30 50.28 50.26 50.25 50.23 50.21 50.19 50.18 50.16 50.14 50.12 50.10 50.09 50.07 50.05 50.03 50.01 50.00 49.98 49.96 49.94 49.92 49.91 49.89 49.87 49.85 49.84 49.82 49.80 49.79 49.77 49.75 49.74 49.72 49.71 49.69 49.68 49.66 49.65 49.63 49.62 49.61 49.59 49.58 49.57 49.56 49.55 49.54 49.53 49.52 49.51 49.50 49.49 49.48 49.47 49.47 49.46 49.45 49.45 49.44 49.44 49.43 49.43 49.43 49.42 49.42 49.42 49.42 49.42 49.42 49.42 49.42 49.42 49.42 49.42 49.43 49.43 49.43 49.44 49.44 49.45 49.45 49.46 49.46 49.47 49.48 49.48 49.49 49.50 49.51 49.52 49.53 49.54 49.55 49.56 49.57 49.58 49.59 49.60 49.61 49.62 49.63 49.65 49.66 49.67 49.68 49.70 49.71 49.72 49.73 49.75 49.76 49.77 49.79 49.80 49.81 49.83 49.84 49.85 49.87 49.88 49.89 49.90 49.92 49.93 49.94 49.95 49.97 49.98 49.99 50.00 50.01 50.02 50.03 50.04 50.05 50.06 50.07 50.08 50.09 50.10 50.11 50.12 50.12 50.13 50.14 50.14 50.15 50.15 50.16 50.16 50.17 50.17 50.17 50.18 50.18 50.18 50.18 50.18 50.18 50.18 50.18 50.18 50.18 50.17 50.17 50.17 50.17 50.16 50.16 50.15 50.15 50.14 50.13 50.13 50.12 50.11 50.10 50.09 50.08 50.07 50.06 50.05 50.04 50.03 50.02 50.01 49.99 49.98 49.97 49.95 49.94 49.92 49.91 49.89 49.88 49.86 49.85 49.83 49.81 49.80 49.78 49.76 49.75 49.73 49.71 49.69 49.68 49.66 49.64 49.62 49.60 49.59 49.57 49.55 49.53 49.51 49.50 49.48 49.46 49.44 49.42 49.41 49.39 49.37 49.35 49.34 49.32 49.30 49.29 49.27 49.25 49.24 49.22 49.21 49.19 49.18 49.16 49.15 49.13 49.12 49.11 49.09 49.08 49.07 49.06 49.05 49.04 49.03 49.02 49.01 49.00 48.99 48.98 48.97 48.97 48.96 48.95 48.95 48.94 48.94 48.93 48.93 48.93 48.92 48.92 48.92 48.92 48.92 48.92 48.92 48.92 48.92 48.92 48.92 48.93 48.93 48.93 48.94 48.94 48.95 48.95 48.96 48.96 48.97 48.98 48.98 48.99 49.00 49.01 49.02 49.03 49.04 49.05 49.06 49.07 49.08 49.09 49.10 49.11 49.12 49.13 49.15 49.16 49.17 49.18 49.20 49.21 49.22 49.23 49.25 49.26 49.27 49.29
50.85 50.86 50.88 50.89 50.90 50.92 50.93 50.94 50.95 50.97 50.98 50.99 51.00 51.02 51.03 51.04 51.05 51.06 51.07 51.08 51.09 51.10 51.11 51.12 51.13 51.14 51.15 51.16 51.17 51.17 51.18 51.19 51.19 51.20 51.20 51.21 51.21 51.22 51.22 51.22 51.23 51.23 51.23 51.23 51.23 51.23 51.23 51.23 51.23 51.23 51.23 51.22 51.22 51.22 51.21 51.21 51.20 51.20 51.19 51.18 51.18 51.17 51.16 51.15 51.14 51.13 51.12 51.11 51.10 51.09 51.08 51.07 51.06 51.04 51.03 51.02 51.00 50.99 50.97 50.96 50.94 50.93 50.91 50.90 50.88 50.86 50.85 50.83 50.81 50.80 50.78 50.76 50.74 50.73 50.71 50.69 50.67 50.65 50.64 50.62 50.60 50.58 50.56 50.55 50.53 50.51 50.49 50.47 50.46 50.44 50.42 50.40 50.39 50.37 50.35 50.34 50.32 50.30 50.29 50.27 50.26 50.24 50.23 50.21 50.20 50.18 50.17 50.16 50.14 50.13 50.12 50.11 50.10 50.09 50.08 50.07 50.06 50.05 50.04 50.03 50.02 50.02 50.01 50.00 50.00 49.99 49.99 49.98 49.98 49.98 49.98 49.97 49.97 49.97 49.97 49.97 49.97 49.97 49.97 49.97 49.97 49.98 49.98 49.98 49.99 49.99 50.00 50.00 50.01 50.01 50.02 50.03 50.03 50.04 50.05 50.06 50.07 50.08 50.09 50.10 50.11 50.12 50.13 50.14 50.15 50.16 50.17 50.18 50.20 50.21 50.22 50.23 50.25 50.26 50.27 50.28 50.30 50.31 50.32 50.34 50.35 50.36 50.38 50.39 50.40 50.42 50.43 50.44 50.45 50.47 50.48 50.49 50.50 50.52 50.53 50.54 50.55 50.56 50.57 50.58 50.59 50.60 50.61 50.62 50.63 50.64 50.65 50.66 50.67 50.67 50.68 50.69 50.69 50.70 50.70 50.71 50.71 50.72 50.72 50.72 50.73 50.73 50.73 50.73 50.73 50.73 50.73 50.73 50.73 50.73 50.73 50.72 50.72 50.72 50.71 50.71 50.70 50.70 50.69 50.68 50.68 50.67 50.66 50.65 50.64 50.63 50.62 50.61 50.60 50.59 50.58 50.57 50.56 50.54 50.53 50.52 50.50 50.49 50.47 50.46 50.44 50.43 50.41 50.40 50.38 50.36 50.35 50.33 50.31 50.30 50.28 50.26 50.24 50.23 50.21 50.19 50.17 50.15 50.14 50.12 50.10 50.08 50.06 50.05 50.03 50.01 49.99 49.97 49.96 49.94 49.92 49.90 49.89 49.87 49.85 49.84 49.82 49.80 49.79 49.77 49.76 49.74 49.73 49.71 49.70 49.68 49.67 49.66 49.64 49.63 49.62 49.61 49.60 49.59 49.58 49.57 49.56 49.55 49.54 49.53 49.52 49.52 49.51 49.50 49.50 49.49 49.49 49.48 49.48 49.48 49.48 49.47 49.47 49.47 49.47 49.47 49.47 49.47 49.47 49.47 49.47 49.48 49.48 49.48 49.49 49.49 49.50 49.50 49.51 49.51 49.52 49.53 49.53 49.54 49.55 49.56 49.57 49.58 49.59 49.60 49.61 49.62 49.63 49.64 49.65 49.66 49.67 49.68 49.70 49.71 49.72 49.73 49.75 49.76 49.77 49.78 49.80 49.81 49.82 49.84 49.85 49.86 49.88 49.89 49.90 49.92 49.93 49.94 49.95 49.97 49.98 49.99 50.00 50.02 50.03 50.04 50.05 50.06 50.07 50.08 50.09 50.10 50.11 50.12 50.13 50.14 50.15 50.16 50.17 50.17 50.18 50.19 50.19 50.20 50.20 50.21 50.21 50.22 50.22 50.22 50.23 50.23 50.23 50.23 50.23 50.23 50.23 50.23 50.23 50.23 50.23 50.22 50.22 50.22 50.21 50.21 50.20 50.20 50.19 50.18 50.18 50.17 50.16 50.15 50.14 50.13 50.12 50.11 50.10 50.09 50.08 50.07 50.06 50.04 50.03 50.02 50.00 49.99 49.97 49.96 49.94 49.93 49.91 49.90 49.88 49.86 49.85 49.83 49.81 49.80 49.78 49.76 49.74 49.73 49.71 49.69 49.67 49.65 49.64 49.62 49.60 49.58 49.56 49.55 49.53 49.51 49.49 49.47 49.46 49.44 49.42 49.40 49.39 49.37 49.35 49.34 49.32 49.30 49.29 49.27 49.26 49.24 49.23 49.21 49.20 49.18 49.17 49.16 49.14 49.13 49.12 49.11 49.10 49.09 49.08 49.07 49.06 49.05 49.04 49.03 49.02 49.02 49.01 49.00 49.00 48.99 48.99 48.98 48.98 48.98 48.98 48.97 48.97 48.97 48.97 48.97 48.97 48.97 48.97 48.97 48.97 48.98 48.98 48.98 48.99 48.99 49.00 49.00 49.01 49.01 49.02 49.03 49.03 49.04 49.05 49.06 49.07 49.08 49.09 49.10 49.11 49.12 49.13 49.14 49.15 49.16 49.17 49.18 49.20 49.21 49.22 49.23 49.25 49.26 49.27 49.28 49.30 49.31 49.32 49.34
50.90 50.91 50.93 50.94 50.95 50.97 50.98 50.99 51.00 51.02 51.03 51.04 51.05 51.07 51.08 51.09 51.10 51.11 51.12 51.13 51.14 51.15 51.16 51.17 51.18 51.19 51.20 51.21 51.22 51.22 51.23 51.24 51.24 51.25 51.25 51.26 51.26 51.27 51.27 51.27 51.28 51.28 51.28 51.28 51.28 51.28 51.28 51.28 51.28 51.28 51.27 51.27 51.27 51.27 51.26 51.26 51.25 51.25 51.24 51.23 51.23 51.22 51.21 51.20 51.19 51.18 51.17 51.16 51.15 51.14 51.13 51.12 51.11 51.09 51.08 51.07 51.05 51.04 51.02 51.01 50.99 50.98 50.96 50.95 50.93 50.91 50.90 50.88 50.86 50.85 50.83 50.81 50.79 50.78 50.76 50.74 50.72 50.70 50.69 50.67 50.65 50.63 50.61 50.60 50.58 50.56 50.54 50.52 50.51 50.49 50.47 50.45 50.44 50.42 50.40 50.39 50.37 50.35 50.34 50.32 50.31 50.29 50.28 50.26 50.25 50.23 50.22 50.21 50.19 50.18 50.17 50.16 50.15 50.14 50.13 50.12 50.11 50.10 50.09 50.08 50.07 50.07 50.06 50.05 50.05 50.04 50.04 50.03 50.03 50.03 50.02 50.02 50.02 50.02 50.02 50.02 50.02 50.02 50.02 50.02 50.02 50.03 50.03 50.03 50.04 50.04 50.05 50.05 50.06 50.06 50.07 50.08 50.08 50.09 50.10 50.11 50.12 50.13 50.14 50.15 50.16 50.17 50.18 50.19 50.20 50.21 50.22 50.23 50.25 50.26 50.27 50.28 50.30 50.31 50.32 50.33 50.35 50.36 50.37 50.39 50.40 50.41 50.43 50.44 50.45 50.47 50.48 50.49 50.50 50.52 50.53 50.54 50.55 50.57 50.58 50.59 50.60 50.61 50.62 50.63 50.64 50.65 50.66 50.67 50.68 50.69 50.70 50.71 50.72 50.72 50.73 50.74 50.74 50.75 50.75 50.76 50.76 50.77 50.77 50.77 50.78 50.78 50.78 50.78 50.78 50.78 50.78 50.78 50.78 50.78 50.77 50.77 50.77 50.77 50.76 50.76 50.75 50.75 50.74 50.73 50.73 50.72 50.71 50.70 50.69 50.68 50.67 50.66 50.65 50.64 50.63 50.62 50.61 50.59 50.58 50.57 50.55 50.54 50.52 50.51 50.49 50.48 50.46 50.45 50.43 50.41 50.40 50.38 50.36 50.35 50.33 50.31 50.29 50.28 50.26 50.24 50.22 50.20 50.19 50.17 50.15 50.13 50.11 50.10 50.08 50.06 50.04 50.02 50.01 49.99 49.97 49.95 49.94 49.92 49.90 49.89 49.87 49.85 49.84 49.82 49.81 49.79 49.78 49.76 49.75 49.73 49.72 49.71 49.69 49.68 49.67 49.66 49.65 49.64 49.63 49.62 49.61 49.60 49.59 49.58 49.57 49.57 49.56 49.55 49.55 49.54 49.54 49.53 49.53 49.53 49.52 49.52 49.52 49.52 49.52 49.52 49.52 49.52 49.52 49.52 49.52 49.53 49.53 49.53 49.54 49.54 49.55 49.55 49.56 49.56 49.57 49.58 49.58 49.59 49.60 49.61 49.62 49.63 49.64 49.65 49.66 49.67 49.68 49.69 49.70 49.71 49.72 49.73 49.75 49.76 49.77 49.78 49.80 49.81 49.82 49.83 49.85 49.86 49.87 49.89 49.90 49.91 49.93 49.94 49.95 49.97 49.98 49.99 50.00 50.02 50.03 50.04 50.05 50.07 50.08 50.09 50.10 50.11 50.12 50.13 50.14 50.15 50.16 50.17 50.18 50.19 50.20 50.21 50.22 50.22 50.23 50.24 50.24 50.25 50.25 50.26 50.26 50.27 50.27 50.27 50.28 50.28 50.28 50.28 50.28 50.28 50.28 50.28 50.28 50.28 50.27 50.27 50.27 50.27 50.26 50.26 50.25 50.25 50.24 50.23 50.23 50.22 50.21 50.20 50.19 50.18 50.17 50.16 50.15 50.14 50.13 50.12 50.11 50.09 50.08 50.07 50.05 50.04 50.02 50.01 49.99 49.98 49.96 49.95 49.93 49.91 49.90 49.88 49.86 49.85 49.83 49.81 49.79 49.78 49.76 49.74 49.72 49.70 49.69 49.67 49.65 49.63 49.61 49.60 49.58 49.56 49.54 49.52 49.51 49.49 49.47 49.45 49.44 49.42 49.40 49.39 49.37 49.35 49.34 49.32 49.31 49.29 49.28 49.26 49.25 49.23 49.22 49.21 49.19 49.18 49.17 49.16 49.15 49.14 49.13 49.12 49.11 49.10 49.09 49.08 49.07 49.07 49.06 49.05 49.05 49.04 49.04 49.03 49.03 49.03 49.02 49.02 49.02 49.02 49.02 49.02 49.02 49.02 49.02 49.02 49.02 49.03 49.03 49.03 49.04 49.04 49.05 49.05 49.06 49.06 49.07 49.08 49.08 49.09 49.10 49.11 49.12 49.13 49.14 49.15 49.16 49.17 49.18 49.19 49.20 49.21 49.22 49.23 49.25 49.26 49.27 49.28 49.30 49.31 49.32 49.33 49.35 49.36 49.37 49.39
50.95 50.96 50.98 50.99 51.00 51.02 51.03 51.04 51.05 51.07 51.08 51.09 51.10 51.12 51.13 51.14 51.15 51.16 51.17 51.18 51.19 51.20 51.21 51.22 51.23 51.24 51.25 51.26 51.27 51.27 51.28 51.29 51.29 51.30 51.30 51.31 51.31 51.32 51.32 51.32 51.33 51.33 51.33 51.33 51.33 51.33 51.33 51.33 51.33 51.33 51.33 51.32 51.32 51.32 51.31 51.31 51.30 51.30 51.29 51.28 51.28 51.27 51.26 51.25 51.24 51.23 51.22 51.21 51.20 51.19 51.18 51.17 51.16 51.14 51.13 51.12 51.10 51.09 51.07 51.06 51.04 51.03 51.01 51.00 50.98 50.96 50.95 50.93 50.91 50.90 50.88 50.86 50.84 50.83 50.81 50.79 50.77 50.75 50.74 50.72 50.70 50.68 50.66 50.65 50.63 50.61 50.59 50.57 50.56 50.54 50.52 50.50 50.49 50.47 50.45 50.44 50.42 50.40 50.39 50.37 50.36 50.34 50.33 50.31 50.30 50.28 50.27 50.26 50.24 50.23 50.22 50.21 50.20 50.19 50.18 50.17 50.16 50.15 50.14 50.13 50.12 50.12 50.11 50.10 50.10 50.09 50.09 50.08 50.08 50.08 50.08 50.07 50.07 50.07 50.07 50.07 50.07 50.07 50.07 50.07 50.07 50.08 50.08 50.08 50.09 50.09 50.10 50.10 50.11 50.11 50.12 50.13 50.13 50.14 50.15 50.16 50.17 50.18 50.19 50.20 50.21 50.22 50.23 50.24 50.25 50.26 50.27 50.28 50.30 50.31 50.32 50.33 50.35 50.36 50.37 50.38 50.40 50.41 50.42 50.44 50.45 50.46 50.48 50.49 50.50 50.52 50.53 50.54 50.55 50.57 50.58 50.59 50.60 50.62 50.63 50.64 50.65 50.66 50.67 50.68 50.69 50.70 50.71 50.72 50.73 50.74 50.75 50.76 50.77 50.77 50.78 50.79 50.79 50.80 50.80 50.81 50.81 50.82 50.82 50.82 50.83 50.83 50.83 50.83 50.83 50.83 50.83 50.83 50.83 50.83 50.83 50.82 50.82 50.82 50.81 50.81 50.80 50.80 50.79 50.78 50.78 50.77 50.76 50.75 50.74 50.73 50.72 50.71 50.70 50.69 50.68 50.67 50.66 50.64 50.63 50.62 50.60 50.59 50.57 50.56 50.54 50.53 50.51 50.50 50.48 50.46 50.45 50.43 50.41 50.40 50.38 50.36 50.34 50.33 50.31 50.29 50.27 50.25 50.24 50.22 50.20 50.18 50.16 50.15 50.13 50.11 50.09 50.07 50.06 50.04 50.02 50.00 49.99 49.97 49.95 49.94 49.92 49.90 49.89 49.87 49.86 49.84 49.83 49.81 49.80 49.78 49.77 49.76 49.74 49.73 49.72 49.71 49.70 49.69 49.68 49.67 49.66 49.65 49.64 49.63 49.62 49.62 49.61 49.60 49.60 49.59 49.59 49.58 49.58 49.58 49.58 49.57 49.57 49.57 49.57 49.57 49.57 49.57 49.57 49.57 49.57 49.58 49.58 49.58 49.59 49.59 49.60 49.60 49.61 49.61 49.62 49.63 49.63 49.64 49.65 49.66 49.67 49.68 49.69 49.70 49.71 49.72 49.73 49.74 49.75 49.76 49.77 49.78 49.80 49.81 49.82 49.83 49.85 49.86 49.87 49.88 49.90 49.91 49.92 49.94 49.95 49.96 49.98 49.99 50.00 50.02 50.03 50.04 50.05 50.07 50.08 50.09 50.10 50.12 50.13 50.14 50.15 50.16 50.17 50.18 50.19 50.20 50.21 50.22 50.23 50.24 50.25 50.26 50.27 50.27 50.28 50.29 50.29 50.30 50.30 50.31 50.31 50.32 50.32 50.32 50.33 50.33 50.33 50.33 50.33 50.33 50.33 50.33 50.33 50.33 50.33 50.32 50.32 50.32 50.31 50.31 50.30 50.30 50.29 50.28 50.28 50.27 50.26 50.25 50.24 50.23 50.22 50.21 50.20 50.19 50.18 50.17 50.16 50.14 50.13 50.12 50.10 50.09 50.07 50.06 50.04 50.03 50.01 50.00 49.98 49.96 49.95 49.93 49.91 49.90 49.88 49.86 49.84 49.83 49.81 49.79 49.77 49.75 49.74 49.72 49.70 49.68 49.66 49.65 49.63 49.61 49.59 49.57 49.56 49.54 49.52 49.50 49.49 49.47 49.45 49.44 49.42 49.40 49.39 49.37 49.36 49.34 49.33 49.31 49.30 49.28 49.27 49.26 49.24 49.23 49.22 49.21 49.20 49.19 49.18 49.17 49.16 49.15 49.14 49.13 49.12 49.12 49.11 49.10 49.10 49.09 49.09 49.08 49.08 49.08 49.08 49.07 49.07 49.07 49.07 49.07 49.07 49.07 49.07 49.07 49.07 49.08 49.08 49.08 49.09 49.09 49.10 49.10 49.11 49.11 49.12 49.13 49.13 49.14 49.15 49.16 49.17 49.18 49.19 49.20 49.21 49.22 49.23 49.24 49.25 49.26 49.27 49.28 49.30 49.31 49.32 49.33 49.35 49.36 49.37 49.38 49.40 49.41 49.42 49.44
51.00 51.01 51.03 51.04 51.05 51.07 51.08 51.09 51.10 51.12 51.13 51.14 51.15 51.17 51.18 51.19 51.20 51.21 51.22 51.23 51.24 51.25 51.26 51.27 51.28 51.29 51.30 51.31 51.32 51.32 51.33 51.34 51.34 51.35 51.35 51.36 51.36 51.37 51.37 51.37 51.38 51.38 51.38 51.38 51.38 51.38 51.38 51.38 51.38 51.38 51.38 51.37 51.37 51.37 51.36 51.36 51.35 51.35 51.34 51.33 51.33 51.32 51.31 51.30 51.29 51.28 51.27 51.26 51.25 51.24 51.23 51.22 51.21 51.19 51.18 51.17 51.15 51.14 51.12 51.11 51.09 51.08 51.06 51.05 51.03 51.01 51.00 50.98 50.96 50.95 50.93 50.91 50.89 50.88 50.86 50.84 50.82 50.80 50.79 50.77 50.75 50.73 50.71 50.70 50.68 50.66 50.64 50.62 50.61 50.59 50.57 50.55 50.54 50.52 50.50 50.49 50.47 50.45 50.44 50.42 50.41 50.39 50.38 50.36 50.35 50.33 50.32 50.31 50.29 50.28 50.27 50.26 50.25 50.24 50.23 50.22 50.21 50.20 50.19 50.18 50.17 50.17 50.16 50.15 50.15 50.14 50.14 50.13 50.13 50.13 50.12 50.12 50.12 50.12 50.12 50.12 50.12 50.12 50.12 50.12 50.12 50.13 50.13 50.13 50.14 50.14 50.15 50.15 50.16 50.16 50.17 50.18 50.18 50.19 50.20 50.21 50.22 50.23 50.24 50.25 50.26 50.27 50.28 50.29 50.30 50.31 50.32 50.33 50.35 50.36 50.37 50.38 50.40 50.41 50.42 50.43 50.45 50.46 50.47 50.49 50.50 50.51 50.53 50.54 50.55 50.57 50.58 50.59 50.60 50.62 50.63 50.64 50.65 50.67 50.68 50.69 50.70 50.71 50.72 50.73 50.74 50.75 50.76 50.77 50.78 50.79 50.80 50.81 50.82 50.82 50.83 50.84 50.84 50.85 50.85 50.86 50.86 50.87 50.87 50.87 50.88 50.88 50.88 50.88 50.88 50.88 50.88 50.88 50.88 50.88 50.88 50.87 50.87 50.87 50.86 50.86 50.85 50.85 50.84 50.83 50.83 50.82 50.81 50.80 50.79 50.78 50.77 50.76 50.75 50.74 50.73 50.72 50.71 50.69 50.68 50.67 50.65 50.64 50.62 50.61 50.59 50.58 50.56 50.55 50.53 50.51 50.50 50.48 50.46 50.45 50.43 50.41 50.39 50.38 50.36 50.34 50.32 50.30 50.29 50.27 50.25 50.23 50.21 50.20 50.18 50.16 50.14 50.12 50.11 50.09 50.07 50.05 50.04 50.02 50.00 49.99 49.97 49.95 49.94 49.92 49.91 49.89 49.88 49.86 49.85 49.83 49.82 49.81 49.79 49.78 49.77 49.76 49.75 49.74 49.73 49.72 49.71 49.70 49.69 49.68 49.67 49.67 49.66 49.65 49.65 49.64 49.64 49.63 49.63 49.63 49.62 49.62 49.62 49.62 49.62 49.62 49.62 49.62 49.62 49.62 49.62 49.63 49.63 49.63 49.64 49.64 49.65 49.65 49.66 49.66 49.67 49.68 49.68 49.69 49.70 49.71 49.72 49.73 49.74 49.75 49.76 49.77 49.78 49.79 49.80 49.81 49.82 49.83 49.85 49.86 49.87 49.88 49.90 49.91 49.92 49.93 49.95 49.96 49.97 49.99 50.00 50.01 50.03 50.04 50.05 50.07 50.08 50.09 50.10 50.12 50.13 50.14 50.15 50.17 50.18 50.19 50.20 50.21 50.22 50.23 50.24 50.25 50.26 50.27 50.28 50.29 50.30 50.31 50.32 50.32 50.33 50.34 50.34 50.35 50.35 50.36 50.36 50.37 50.37 50.37 50.38 50.38 50.38 50.38 50.38 50.38 50.38 50.38 50.38 50.38 50.38 50.37 50.37 50.37 50.36 50.36 50.35 50.35 50.34 50.33 50.33 50.32 50.31 50.30 50.29 50.28 50.27 50.26 50.25 50.24 50.23 50.22 50.21 50.19 50.18 50.17 50.15 50.14 50.12 50.11 50.09 50.08 50.06 50.05 50.03 50.01 50.00 49.98 49.96 49.95 49.93 49.91 49.89 49.88 49.86 49.84 49.82 49.80 49.79 49.77 49.75 49.73 49.71 49.70 49.68 49.66 49.64 49.62 49.61 49.59 49.57 49.55 49.54 49.52 49.50 49.49 49.47 49.45 49.44 49.42 49.41 49.39 49.38 49.36 49.35 49.33 49.32 49.31 49.29 49.28 49.27 49.26 49.25 49.24 49.23 49.22 49.21 49.20 49.19 49.18 49.17 49.17 49.16 49.15 49.15 49.14 49.14 49.13 49.13 49.13 49.12 49.12 49.12 49.12 49.12 49.12 49.12 49.12 49.12 49.12 49.12 49.13 49.13 49.13 49.14 49.14 49.15 49.15 49.16 49.16 49.17 49.18 49.18 49.19 49.20 49.21 49.22 49.23 49.24 49.25 49.26 49.27 49.28 49.29 49.30 49.31 49.32 49.33 49.35 49.36 49.37 49.38 49.40 49.41 49.42 49.43 49.45 49.46 49.47 49.49
51.05 51.06 51.08 51.09 51.10 51.12 51.13 51.14 51.15 51.17 51.18 51.19 51.20 51.22 51.23 51.24 51.25 51.26 51.27 51.28 51.29 51.30 51.31 51.32 51.33 51.34 51.35 51.36 51.37 51.37 51.38 51.39 51.39 51.40 51.40 51.41 51.41 51.42 51.42 51.42 51.43 51.43 51.43 51.43 51.43 51.43 51.43 51.43 51.43 51.43 51.42 51.42 51.42 51.42 51.41 51.41 51.40 51.40 51.39 51.38 51.38 51.37 51.36 51.35 51.34 51.33 51.32 51.31 51.30 51.29 51.28 51.27 51.26 51.24 51.23 51.22 51.20 51.19 51.17 51.16 51.14 51.13 51.11 51.10 51.08 51.06 51.05 51.03 51.01 51.00 50.98 50.96 50.94 50.93 50.91 50.89 50.87 50.85 50.84 50.82 50.80 50.78 50.76 50.75 50.73 50.71 50.69 50.67 50.66 50.64 50.62 50.60 50.59 50.57 50.55 50.54 50.52 50.50 50.49 50.47 50.46 50.44 50.43 50.41 50.40 50.38 50.37 50.36 50.34 50.33 50.32 50.31 50.30 50.29 50.28 50.27 50.26 50.25 50.24 50.23 50.22 50.22 50.21 50.20 50.20 50.19 50.19 50.18 50.18 50.18 50.17 50.17 50.17 50.17 50.17 50.17 50.17 50.17 50.17 50.17 50.17 50.18 50.18 50.18 50.19 50.19 50.20 50.20 50.21 50.21 50.22 50.23 50.23 50.24 50.25 50.26 50.27 50.28 50.29 50.30 50.31 50.32 50.33 50.34 50.35 50.36 50.37 50.38 50.40 50.41 50.42 50.43 50.45 50.46 50.47 50.48 50.50 50.51 50.52 50.54 50.55 50.56 50.58 50.59 50.60 50.62 50.63 50.64 50.65 50.67 50.68 50.69 50.70 50.72 50.73 50.74 50.75 50.76 50.77 50.78 50.79 50.80 50.81 50.82 50.83 50.84 50.85 50.86 50.87 50.87 50.88 50.89 50.89 50.90 50.90 50.91 50.91 50.92 50.92 50.92 50.93 50.93 50.93 50.93 50.93 50.93 50.93 50.93 50.93 50.93 50.92 50.92 50.92 50.92 50.91 50.91 50.90 50.90 50.89 50.88 50.88 50.87 50.86 50.85 50.84 50.83 50.82 50.81 50.80 50.79 50.78 50.77 50.76 50.74 50.73 50.72 50.70 50.69 50.67 50.66 50.64 50.63 50.61 50.60 50.58 50.56 50.55 50.53 50.51 50.50 50.48 50.46 50.44 50.43 50.41 50.39 50.37 50.35 50.34 50.32 50.30 50.28 50.26 50.25 50.23 50.21 50.19 50.17 50.16 50.14 50.12 50.10 50.09 50.07 50.05 50.04 50.02 50.00 49.99 49.97 49.96 49.94 49.93 49.91 49.90 49.88 49.87 49.86 49.84 49.83 49.82 49.81 49.80 49.79 49.78 49.77 49.76 49.75 49.74 49.73 49.72 49.72 49.71 49.70 49.70 49.69 49.69 49.68 49.68 49.68 49.67 49.67 49.67 49.67 49.67 49.67 49.67 49.67 49.67 49.67 49.67 49.68 49.68 49.68 49.69 49.69 49.70 49.70 49.71 49.71 49.72 49.73 49.73 49.74 49.75 49.76 49.77 49.78 49.79 49.80 49.81 49.82 49.83 49.84 49.85 49.86 49.87 49.88 49.90 49.91 49.92 49.93 49.95 49.96 49.97 49.98 50.00 50.01 50.02 50.04 50.05 50.06 50.08 50.09 50.10 50.12 50.13 50.14 50.15 50.17 50.18 50.19 50.20 50.22 50.23 50.24 50.25 50.26 50.27 50.28 50.29 50.30 50.31 50.32 50.33 50.34 50.35 50.36 50.37 50.37 50.38 50.39 50.39 50.40 50.40 50.41 50.41 50.42 50.42 50.42 50.43 50.43 50.43 50.43 50.43 50.43 50.43 50.43 50.43 50.43 50.42 50.42 50.42 50.42 50.41 50.41 50.40 50.40 50.39 50.38 50.38 50.37 50.36 50.35 50.34 50.33 50.32 50.31 50.30 50.29 50.28 50.27 50.26 50.24 50.23 50.22 50.20 50.19 50.17 50.16 50.14 50.13 50.11 50.10 50.08 50.06 50.05 50.03 50.01 50.00 49.98 49.96 49.94 49.93 49.91 49.89 49.87 49.85 49.84 49.82 49.80 49.78 49.76 49.75 49.73 49.71 49.69 49.67 49.66 49.64 49.62 49.60 49.59 49.57 49.55 49.54 49.52 49.50 49.49 49.47 49.46 49.44 49.43 49.41 49.40 49.38 49.37 49.36 49.34 49.33 49.32 49.31 49.30 49.29 49.28 49.27 49.26 49.25 49.24 49.23 49.22 49.22 49.21 49.20 49.20 49.19 49.19 49.18 49.18 49.18 49.17 49.17 49.17 49.17 49.17 49.17 49.17 49.17 49.17 49.17 49.17 49.18 49.18 49.18 49.19 49.19 49.20 49.20 49.21 49.21 49.22 49.23 49.23 49.24 49.25 49.26 49.27 49.28 49.29 49.30 49.31 49.32 49.33 49.34 49.35 49.36 49.37 49.38 49.40 49.41 49.42 49.43 49.45 49.46 49.47 49.48 49.50 49.51 49.52 49.54
51.10 51.11 51.13 51.14 51.15 51.17 51.18 51.19 51.20 51.22 51.23 51.24 51.25 51.27 51.28 51.29 51.30 51.31 51.32 51.33 51.34 51.35 51.36 51.37 51.38 51.39 51.40 51.41 51.42 51.42 51.43 51.44 51.44 51.45 51.45 51.46 51.46 51.47 51.47 51.47 51.48 51.48 51.48 51.48 51.48 51.48 51.48 51.48 51.48 51.48 51.48 51.47 51.47 51.47 51.46 51.46 51.45 51.45 51.44 51.43 51.43 51.42 51.41 51.40 51.39 51.38 51.37 51.36 51.35 51.34 51.33 51.32 51.31 51.29 51.28 51.27 51.25 51.24 51.22 51.21 51.19 51.18 51.16 51.15 51.13 51.11 51.10 51.08 51.06 51.05 51.03 51.01 50.99 50.98 50.96 50.94 50.92 50.90 50.89 50.87 50.85 50.83 50.81 50.80 50.78 50.76 50.74 50.72 50.71 50.69 50.67 50.65 50.64 50.62 50.60 50.59 50.57 50.55 50.54 50.52 50.51 50.49 50.48 50.46 50.45 50.43 50.42 50.41 50.39 50.38 50.37 50.36 50.35 50.34 50.33 50.32 50.31 50.30 50.29 50.28 50.27 50.27 50.26 50.25 50.25 50.24 50.24 50.23 50.23 50.23 50.23 50.22 50.22 50.22 50.22 50.22 50.22 50.22 50.22 50.22 50.22 50.23 50.23 50.23 50.24 50.24 50.25 50.25 50.26 50.26 50.27 50.28 50.28 50.29 50.30 50.31 50.32 50.33 50.34 50.35 50.36 50.37 50.38 50.39 50.40 50.41 50.42 50.43 50.45 50.46 50.47 50.48 50.50 50.51 50.52 50.53 50.55 50.56 50.57 50.59 50.60 50.61 50.63 50.64 50.65 50.67 50.68 50.69 50.70 50.72 50.73 50.74 50.75 50.77 50.78 50.79 50.80 50.81 50.82 50.83 50.84 50.85 50.86 50.87 50.88 50.89 50.90 50.91 50.92 50.92 50.93 50.94 50.94 50.95 50.95 50.96 50.96 50.97 50.97 50.97 50.98 50.98 50.98 50.98 50.98 50.98 50.98 50.98 50.98 50.98 50.98 50.97 50.97 50.97 50.96 50.96 50.95 50.95 50.94 50.93 50.93 50.92 50.91 50.90 50.89 50.88 50.87 50.86 50.85 50.84 50.83 50.82 50.81 50.79 50.78 50.77 50.75 50.74 50.72 50.71 50.69 50.68 50.66 50.65 50.63 50.61 50.60 50.58 50.56 50.55 50.53 50.51 50.49 50.48 50.46 50.44 50.42 50.40 50.39 50.37 50.35 50.33 50.31 50.30 50.28 50.26 50.24 50.22 50.21 50.19 50.17 50.15 50.14 50.12 50.10 50.09 50.07 50.05 50.04 50.02 50.01 49.99 49.98 49.96 49.95 49.93 49.92 49.91 49.89 49.88 49.87 49.86 49.85 49.84 49.83 49.82 49.81 49.80 49.79 49.78 49.77 49.77 49.76 49.75 49.75 49.74 49.74 49.73 49.73 49.73 49.73 49.72 49.72 49.72 49.72 49.72 49.72 49.72 49.72 49.72 49.72 49.73 49.73 49.73 49.74 49.74 49.75 49.75 49.76 49.76 49.77 49.78 49.78 49.79 49.80 49.81 49.82 49.83 49.84 49.85 49.86 49.87 49.88 49.89 49.90 49.91 49.92 49.93 49.95 49.96 49.97 49.98 50.00 50.01 50.02 50.03 50.05 50.06 50.07 50.09 50.10 50.11 50.13 50.14 50.15 50.17 50.18 50.19 50.20 50.22 50.23 50.24 50.25 50.27 50.28 50.29 50.30 50.31 50.32 50.33 50.34 50.35 50.36 50.37 50.38 50.39 50.40 50.41 50.42 50.42 50.43 50.44 50.44 50.45 50.45 50.46 50.46 50.47 50.47 50.47 50.48 50.48 50.48 50.48 50.48 50.48 50.48 50.48 50.48 50.48 50.48 50.47 50.47 50.47 50.46 50.46 50.45 50.45 50.44 50.43 50.43 50.42 50.41 50.40 50.39 50.38 50.37 50.36 50.35 50.34 50.33 50.32 50.31 50.29 50.28 50.27 50.25 50.24 50.22 50.21 50.19 50.18 50.16 50.15 50.13 50.11 50.10 50.08 50.06 50.05 50.03 50.01 49.99 49.98 49.96 49.94 49.92 49.90 49.89 49.87 49.85 49.83 49.81 49.80 49.78 49.76 49.74 49.72 49.71 49.69 49.67 49.65 49.64 49.62 49.60 49.59 49.57 49.55 49.54 49.52 49.51 49.49 49.48 49.46 49.45 49.43 49.42 49.41 49.39 49.38 49.37 49.36 49.35 49.34 49.33 49.32 49.31 49.30 49.29 49.28 49.27 49.27 49.26 49.25 49.25 49.24 49.24 49.23 49.23 49.23 49.23 49.22 49.22 49.22 49.22 49.22 49.22 49.22 49.22 49.22 49.22 49.23 49.23 49.23 49.24 49.24 49.25 49.25 49.26 49.26 49.27 49.28 49.28 49.29 49.30 49.31 49.32 49.33 49.34 49.35 49.36 49.37 49.38 49.39 49.40 49.41 49.42 49.43 49.45 49.46 49.47 49.48 49.50 49.51 49.52 49.53 49.55 49.56 49.57 49.59
51.15 51.16 51.18 51.19 51.20 51.22 51.23 51.24 51.25 51.27 51.28 51.29 51.30 51.32 51.33 51.34 51.35 51.36 51.37 51.38 51.39 51.40 51.41 51.42 51.43 51.44 51.45 51.46 51.47 51.47 51.48 51.49 51.49 51.50 51.50 51.51 51.51 51.52 51.52 51.52 51.53 51.53 51.53 51.53 51.53 51.53 51.53 51.53 51.53 51.53 51.52 51.52 51.52 51.52 51.51 51.51 51.50 51.50 51.49 51.48 51.48 51.47 51.46 51.45 51.44 51.43 51.42 51.41 51.40 51.39 51.38 51.37 51.36 51.34 51.33 51.32 51.30 51.29 51.27 51.26 51.24 51.23 51.21 51.20 51.18 51.16 51.15 51.13 51.11 51.10 51.08 51.06 51.04 51.03 51.01 50.99 50.97 50.95 50.94 50.92 50.90 50.88 50.86 50.85 50.83 50.81 50.79 50.77 50.76 50.74 50.72 50.70 50.69 50.67 50.65 50.64 50.62 50.60 50.59 50.57 50.56 50.54 50.53 50.51 50.50 50.48 50.47 50.46 50.44 50.43 50.42 50.41 50.40 50.39 50.38 50.37 50.36 50.35 50.34 50.33 50.32 50.32 50.31 50.30 50.30 50.29 50.29 50.28 50.28 50.28 50.27 50.27 50.27 50.27 50.27 50.27 50.27 50.27 50.27 50.27 50.27 50.28 50.28 50.28 50.29 50.29 50.30 50.30 50.31 50.31 50.32 50.33 50.33 50.34 50.35 50.36 50.37 50.38 50.39 50.40 50.41 50.42 50.43 50.44 50.45 50.46 50.47 50.48 50.50 50.51 50.52 50.53 50.55 50.56 50.57 50.58 50.60 50.61 50.62 50.64 50.65 50.66 50.68 50.69 50.70 50.72 50.73 50.74 50.75 50.77 50.78 50.79 50.80 50.82 50.83 50.84 50.85 50.86 50.87 50.88 50.89 50.90 50.91 50.92 50.93 50.94 50.95 50.96 50.97 50.97 50.98 50.99 50.99 51.00 51.00 51.01 51.01 51.02 51.02 51.02 51.03 51.03 51.03 51.03 51.03 51.03 51.03 51.03 51.03 51.03 51.02 51.02 51.02 51.02 51.01 51.01 51.00 51.00 50.99 50.98 50.98 50.97 50.96 50.95 50.94 50.93 50.92 50.91 50.90 50.89 50.88 50.87 50.86 50.84 50.83 50.82 50.80 50.79 50.77 50.76 50.74 50.73 50.71 50.70 50.68 50.66 50.65 50.63 50.61 50.60 50.58 50.56 50.54 50.53 50.51 50.49 50.47 50.45 50.44 50.42 50.40 50.38 50.36 50.35 50.33 50.31 50.29 50.27 50.26 50.24 50.22 50.20 50.19 50.17 50.15 50.14 50.12 50.10 50.09 50.07 50.06 50.04 50.03 50.01 50.00 49.98 49.97 49.96 49.94 49.93 49.92 49.91 49.90 49.89 49.88 49.87 49.86 49.85 49.84 49.83 49.82 49.82 49.81 49.80 49.80 49.79 49.79 49.78 49.78 49.78 49.77 49.77 49.77 49.77 49.77 49.77 49.77 49.77 49.77 49.77 49.77 49.78 49.78 49.78 49.79 49.79 49.80 49.80 49.81 49.81 49.82 49.83 49.83 49.84 49.85 49.86 49.87 49.88 49.89 49.90 49.91 49.92 49.93 49.94 49.95 49.96 49.97 49.98 50.00 50.01 50.02 50.03 50.05 50.06 50.07 50.08 50.10 50.11 50.12 50.14 50.15 50.16 50.18 50.19 50.20 50.22 50.23 50.24 50.25 50.27 50.28 50.29 50.30 50.32 50.33 50.34 50.35 50.36 50.37 50.38 50.39 50.40 50.41 50.42 50.43 50.44 50.45 50.46 50.47 50.47 50.48 50.49 50.49 50.50 50.50 50.51 50.51 50.52 50.52 50.52 50.53 50.53 50.53 50.53 50.53 50.53 50.53 50.53 50.53 50.53 50.52 50.52 50.52 50.52 50.51 50.51 50.50 50.50 50.49 50.48 50.48 50.47 50.46 50.45 50.44 50.43 50.42 50.41 50.40 50.39 50.38 50.37 50.36 50.34 50.33 50.32 50.30 50.29 50.27 50.26 50.24 50.23 50.21 50.20 50.18 50.16 50.15 50.13 50.11 50.10 50.08 50.06 50.04 50.03 50.01 49.99 49.97 49.95 49.94 49.92 49.90 49.88 49.86 49.85 49.83 49.81 49.79 49.77 49.76 49.74 49.72 49.70 49.69 49.67 49.65 49.64 49.62 49.60 49.59 49.57 49.56 49.54 49.53 49.51 49.50 49.48 49.47 49.46 49.44 49.43 49.42 49.41 49.40 49.39 49.38 49.37 49.36 49.35 49.34 49.33 49.32 49.32 49.31 49.30 49.30 49.29 49.29 49.28 49.28 49.28 49.27 49.27 49.27 49.27 49.27 49.27 49.27 49.27 49.27 49.27 49.27 49.28 49.28 49.28 49.29 49.29 49.30 49.30 49.31 49.31 49.32 49.33 49.33 49.34 49.35 49.36 49.37 49.38 49.39 49.40 49.41 49.42 49.43 49.44 49.45 49.46 49.47 49.48 49.50 49.51 49.52 49.53 49.55 49.56 49.57 49.58 49.60 49.61 49.62 49.64
51.20 51.21 51.23 51.24 51.25 51.27 51.28 51.29 51.30 51.32 51.33 51.34 51.35 51.37 51.38 51.39 51.40 51.41 51.42 51.43 51.44 51.45 51.46 51.47 51.48 51.49 51.50 51.51 51.52 51.52 51.53 51.54 51.54 51.55 51.55 51.56 51.56 51.57 51.57 51.57 51.58 51.58 51.58 51.58 51.58 51.58 51.58 51.58 51.58 51.58 51.58 51.57 51.57 51.57 51.56 51.56 51.55 51.55 51.54 51.53 51.53 51.52 51.51 51.50 51.49 51.48 51.47 51.46 51.45 51.44 51.43 51.42 51.41 51.39 51.38 51.37 51.35 51.34 51.32 51.31 51.29 51.28 51.26 51.25 51.23 51.21 51.20 51.18 51.16 51.15 51.13 51.11 51.09 51.08 51.06 51.04 51.02 51.00 50.99 50.97 50.95 50.93 50.91 50.90 50.88 50.86 50.84 50.82 50.81 50.79 50.77 50.75 50.74 50.72 50.70 50.69 50.67 50.65 50.64 50.62 50.61 50.59 50.58 50.56 50.55 50.53 50.52 50.51 50.49 50.48 50.47 50.46 50.45 50.44 50.43 50.42 50.41 50.40 50.39 50.38 50.37 50.37 50.36 50.35 50.35 50.34 50.34 50.33 50.33 50.33 50.33 50.32 50.32 50.32 50.32 50.32 50.32 50.32 50.32 50.32 50.32 50.33 50.33 50.33 50.34 50.34 50.35 50.35 50.36 50.36 50.37 50.38 50.38 50.39 50.40 50.41 50.42 50.43 50.44 50.45 50.46 50.47 50.48 50.49 50.50 50.51 50.52 50.53 50.55 50.56 50.57 50.58 50.60 50.61 50.62 50.63 50.65 50.66 50.67 50.69 50.70 50.71 50.73 50.74 50.75 50.77 50.78 50.79 50.80 50.82 50.83 50.84 50.85 50.87 50.88 50.89 50.90 50.91 50.92 50.93 50.94 50.95 50.96 50.97 50.98 50.99 51.00 51.01 51.02 51.02 51.03 51.04 51.04 51.05 51.05 51.06 51.06 51.07 51.07 51.07 51.08 51.08 51.08 51.08 51.08 51.08 51.08 51.08 51.08 51.08 51.08 51.07 51.07 51.07 51.06 51.06 51.05 51.05 51.04 51.03 51.03 51.02 51.01 51.00 50.99 50.98 50.97 50.96 50.95 50.94 50.93 50.92 50.91 50.89 50.88 50.87 50.85 50.84 50.82 50.81 50.79 50.78 50.76 50.75 50.73 50.71 50.70 50.68 50.66 50.65 50.63 50.61 50.59 50.58 50.56 50.54 50.52 50.50 50.49 50.47 50.45 50.43 50.41 50.40 50.38 50.36 50.34 50.32 50.31 50.29 50.27 50.25 50.24 50.22 50.20 50.19 50.17 50.15 50.14 50.12 50.11 50.09 50.08 50.06 50.05 50.03 50.02 50.01 49.99 49.98 49.97 49.96 49.95 49.94 49.93 49.92 49.91 49.90 49.89 49.88 49.87 49.87 49.86 49.85 49.85 49.84 49.84 49.83 49.83 49.83 49.83 49.82 49.82 49.82 49.82 49.82 49.82 49.82 49.82 49.82 49.82 49.83 49.83 49.83 49.84 49.84 49.85 49.85 49.86 49.86 49.87 49.88 49.88 49.89 49.90 49.91 49.92 49.93 49.94 49.95 49.96 49.97 49.98 49.99 50.00 50.01 50.02 50.03 50.05 50.06 50.07 50.08 50.10 50.11 50.12 50.13 50.15 50.16 50.17 50.19 50.20 50.21 50.23 50.24 50.25 50.27 50.28 50.29 50.30 50.32 50.33 50.34 50.35 50.37 50.38 50.39 50.40 50.41 50.42 50.43 50.44 50.45 50.46 50.47 50.48 50.49 50.50 50.51 50.52 50.52 50.53 50.54 50.54 50.55 50.55 50.56 50.56 50.57 50.57 50.57 50.58 50.58 50.58 50.58 50.58 50.58 50.58 50.58 50.58 50.58 50.58 50.57 50.57 50.57 50.56 50.56 50.55 50.55 50.54 50.53 50.53 50.52 50.51 50.50 50.49 50.48 50.47 50.46 50.45 50.44 50.43 50.42 50.41 50.39 50.38 50.37 50.35 50.34 50.32 50.31 50.29 50.28 50.26 50.25 50.23 50.21 50.20 50.18 50.16 50.15 50.13 50.11 50.09 50.08 50.06 50.04 50.02 50.00 49.99 49.97 49.95 49.93 49.91 49.90 49.88 49.86 49.84 49.82 49.81 49.79 49.77 49.75 49.74 49.72 49.70 49.69 49.67 49.65 49.64 49.62 49.61 49.59 49.58 49.56 49.55 49.53 49.52 49.51 49.49 49.48 49.47 49.46 49.45 49.44 49.43 49.42 49.41 49.40 49.39 49.38 49.37 49.37 49.36 49.35 49.35 49.34 49.34 49.33 49.33 49.33 49.33 49.32 49.32 49.32 49.32 49.32 49.32 49.32 49.32 49.32 49.32 49.33 49.33 49.33 49.34 49.34 49.35 49.35 49.36 49.36 49.37 49.38 49.38 49.39 49.40 49.41 49.42 49.43 49.44 49.45 49.46 49.47 49.48 49.49 49.50 49.51 49.52 49.53 49.55 49.56 49.57 49.58 49.60 49.61 49.62 49.63 49.65 49.66 49.67 49.69
51.25 51.26 51.28 51.29 51.30 51.32 51.33 51.34 51.35 51.37 51.38 51.39 51.40 51.42 51.43 51.44 51.45 51.46 51.47 51.48 51.49 51.50 51.51 51.52 51.53 51.54 51.55 51.56 51.57 51.57 51.58 51.59 51.59 51.60 51.60 51.61 51.61 51.62 51.62 51.62 51.63 51.63 51.63 51.63 51.63 51.63 51.63 51.63 51.63 51.63 51.62 51.62 51.62 51.62 51.61 51.61 51.60 51.60 51.59 51.58 51.58 51.57 51.56 51.55 51.54 51.53 51.52 51.51 51.50 51.49 51.48 51.47 51.46 51.44 51.43 51.42 51.40 51.39 51.37 51.36 51.34 51.33 51.31 51.30 51.28 51.26 51.25 51.23 51.21 51.20 51.18 51.16 51.14 51.13 51.11 51.09 51.07 51.05 51.04 51.02 51.00 50.98 50.96 50.95 50.93 50.91 50.89 50.87 50.86 50.84 50.82 50.80 50.79 50.77 50.75 50.74 50.72 50.70 50.69 50.67 50.66 50.64 50.63 50.61 50.60 50.58 50.57 50.56 50.54 50.53 50.52 50.51 50.50 50.49 50.48 50.47 50.46 50.45 50.44 50.43 50.42 50.42 50.41 50.40 50.40 50.39 50.39 50.38 50.38 50.38 50.38 50.37 50.37 50.37 50.37 50.37 50.37 50.37 50.37 50.37 50.37 50.38 50.38 50.38 50.39 50.39 50.40 50.40 50.41 50.41 50.42 50.43 50.43 50.44 50.45 50.46 50.47 50.48 50.49 50.50 50.51 50.52 50.53 50.54 50.55 50.56 50.57 50.58 50.60 50.61 50.62 50.63 50.65 50.66 50.67 50.68 50.70 50.71 50.72 50.74 50.75 50.76 50.78 50.79 50.80 50.82 50.83 50.84 50.85 50.87 50.88 50.89 50.90 50.92 50.93 50.94 50.95 50.96 50.97 50.98 50.99 51.00 51.01 51.02 51.03 51.04 51.05 51.06 51.07 51.07 51.08 51.09 51.09 51.10 51.10 51.11 51.11 51.12 51.12 51.12 51.13 51.13 51.13 51.13 51.13 51.13 51.13 51.13 51.13 51.13 51.12 51.12 51.12 51.12 51.11 51.11 51.10 51.10 51.09 51.08 51.08 51.07 51.06 51.05 51.04 51.03 51.02 51.01 51.00 50.99 50.98 50.97 50.96 50.94 50.93 50.92 50.90 50.89 50.87 50.86 50.84 50.83 50.81 50.80 50.78 50.76 50.75 50.73 50.71 50.70 50.68 50.66 50.64 50.63 50.61 50.59 50.57 50.55 50.54 50.52 50.50 50.48 50.46 50.45 50.43 50.41 50.39 50.37 50.36 50.34 50.32 50.30 50.29 50.27 50.25 50.24 50.22 50.20 50.19 50.17 50.16 50.14 50.13 50.11 50.10 50.08 50.07 50.06 50.04 50.03 50.02 50.01 50.00 49.99 49.98 49.97 49.96 49.95 49.94 49.93 49.92 49.92 49.91 49.90 49.90 49.89 49.89 49.88 49.88 49.88 49.88 49.87 49.87 49.87 49.87 49.87 49.87 49.87 49.87 49.87 49.87 49.88 49.88 49.88 49.89 49.89 49.90 49.90 49.91 49.91 49.92 49.93 49.93 49.94 49.95 49.96 49.97 49.98 49.99 50.00 50.01 50.02 50.03 50.04 50.05 50.06 50.07 50.08 50.10 50.11 50.12 50.13 50.15 50.16 50.17 50.18 50.20 50.21 50.22 50.24 50.25 50.26 50.28 50.29 50.30 50.32 50.33 50.34 50.35 50.37 50.38 50.39 50.40 50.42 50.43 50.44 50.45 50.46 50.47 50.48 50.49 50.50 50.51 50.52 50.53 50.54 50.55 50.56 50.57 50.57 50.58 50.59 50.59 50.60 50.60 50.61 50.61 50.62 50.62 50.62 50.63 50.63 50.63 50.63 50.63 50.63 50.63 50.63 50.63 50.63 50.62 50.62 50.62 50.62 50.61 50.61 50.60 50.60 50.59 50.58 50.58 50.57 50.56 50.55 50.54 50.53 50.52 50.51 50.50 50.49 50.48 50.47 50.46 50.44 50.43 50.42 50.40 50.39 50.37 50.36 50.34 50.33 50.31 50.30 50.28 50.26 50.25 50.23 50.21 50.20 50.18 50.16 50.14 50.13 50.11 50.09 50.07 50.05 50.04 50.02 50.00 49.98 49.96 49.95 49.93 49.91 49.89 49.87 49.86 49.84 49.82 49.80 49.79 49.77 49.75 49.74 49.72 49.70 49.69 49.67 49.66 49.64 49.63 49.61 49.60 49.58 49.57 49.56 49.54 49.53 49.52 49.51 49.50 49.49 49.48 49.47 49.46 49.45 49.44 49.43 49.42 49.42 49.41 49.40 49.40 49.39 49.39 49.38 49.38 49.38 49.38 49.37 49.37 49.37 49.37 49.37 49.37 49.37 49.37 49.37 49.37 49.38 49.38 49.38 49.39 49.39 49.40 49.40 49.41 49.41 49.42 49.43 49.43 49.44 49.45 49.46 49.47 49.48 49.49 49.50 49.51 49.52 49.53 49.54 49.55 49.56 49.57 49.58 49.60 49.61 49.62 49.63 49.65 49.66 49.67 49.68 49.70 49.71 49.72 49.74
51.30 51.31 51.33 51.34 51.35 51.37 51.38 51.39 51.40 51.42 51.43 51.44 51.45 51.47 51.48 51.49 51.50 51.51 51.52 51.53 51.54 51.55 51.56 51.57 51.58 51.59 51.60 51.61 51.62 51.62 51.63 51.64 51.64 51.65 51.65 51.66 51.66 51.67 51.67 51.67 51.68 51.68 51.68 51.68 51.68 51.68 51.68 51.68 51.68 51.68 51.67 51.67 51.67 51.67 51.66 51.66 51.65 51.65 51.64 51.63 51.63 51.62 51.61 51.60 51.59 51.58 51.57 51.56 51.55 51.54 51.53 51.52 51.51 51.49 51.48 51.47 51.45 51.44 51.42 51.41 51.39 51.38 51.36 51.35 51.33 51.31 51.30 51.28 51.26 51.25 51.23 51.21 51.19 51.18 51.16 51.14 51.12 51.10 51.09 51.07 51.05 51.03 51.01 51.00 50.98 50.96 50.94 50.92 50.91 50.89 50.87 50.85 50.84 50.82 50.80 50.79 50.77 50.75 50.74 50.72 50.71 50.69 50.68 50.66 50.65 50.63 50.62 50.61 50.59 50.58 50.57 50.56 50.55 50.54 50.53 50.52 50.51 50.50 50.49 50.48 50.47 50.47 50.46 50.45 50.45 50.44 50.44 50.43 50.43 50.43 50.42 50.42 50.42 50.42 50.42 50.42 50.42 50.42 50.42 50.42 50.42 50.43 50.43 50.43 50.44 50.44 50.45 50.45 50.46 50.46 50.47 50.48 50.48 50.49 50.50 50.51 50.52 50.53 50.54 50.55 50.56 50.57 50.58 50.59 50.60 50.61 50.62 50.63 50.65 50.66 50.67 50.68 50.70 50.71 50.72 50.73 50.75 50.76 50.77 50.79 50.80 50.81 50.83 50.84 50.85 50.87 50.88 50.89 50.90 50.92 50.93 50.94 50.95 50.97 50.98 50.99 51.00 51.01 51.02 51.03 51.04 51.05 51.06 51.07 51.08 51.09 51.10 51.11 51.12 51.12 51.13 51.14 51.14 51.15 51.15 51.16 51.16 51.17 51.17 51.17 51.18 51.18 51.18 51.18 51.18 51.18 51.18 51.18 51.18 51.18 51.17 51.17 51.17 51.17 51.16 51.16 51.15 51.15 51.14 51.13 51.13 51.12 51.11 51.10 51.09 51.08 51.07 51.06 51.05 51.04 51.03 51.02 51.01 50.99 50.98 50.97 50.95 50.94 50.92 50.91 50.89 50.88 50.86 50.85 50.83 50.81 50.80 50.78 50.76 50.75 50.73 50.71 50.69 50.68 50.66 50.64 50.62 50.60 50.59 50.57 50.55 50.53 50.51 50.50 50.48 50.46 50.44 50.42 50.41 50.39 50.37 50.35 50.34 50.32 50.30 50.29 50.27 50.25 50.24 50.22 50.21 50.19 50.18 50.16 50.15 50.13 50.12 50.11 50.09 50.08 50.07 50.06 50.05 50.04 50.03 50.02 50.01 50.00 49.99 49.98 49.97 49.97 49.96 49.95 49.95 49.94 49.94 49.93 49.93 49.93 49.92 49.92 49.92 49.92 49.92 49.92 49.92 49.92 49.92 49.92 49.92 49.93 49.93 49.93 49.94 49.94 49.95 49.95 49.96 49.96 49.97 49.98 49.98 49.99 50.00 50.01 50.02 50.03 50.04 50.05 50.06 50.07 50.08 50.09 50.10 50.11 50.12 50.13 50.15 50.16 50.17 50.18 50.20 50.21 50.22 50.23 50.25 50.26 50.27 50.29 50.30 50.31 50.33 50.34 50.35 50.37 50.38 50.39 50.40 50.42 50.43 50.44 50.45 50.47 50.48 50.49 50.50 50.51 50.52 50.53 50.54 50.55 50.56 50.57 50.58 50.59 50.60 50.61 50.62 50.62 50.63 50.64 50.64 50.65 50.65 50.66 50.66 50.67 50.67 50.67 50.68 50.68 50.68 50.68 50.68 50.68 50.68 50.68 50.68 50.68 50.67 50.67 50.67 50.67 50.66 50.66 50.65 50.65 50.64 50.63 50.63 50.62 50.61 50.60 50.59 50.58 50.57 50.56 50.55 50.54 50.53 50.52 50.51 50.49 50.48 50.47 50.45 50.44 50.42 50.41 50.39 50.38 50.36 50.35 50.33 50.31 50.30 50.28 50.26 50.25 50.23 50.21 50.19 50.18 50.16 50.14 50.12 50.10 50.09 50.07 50.05 50.03 50.01 50.00 49.98 49.96 49.94 49.92 49.91 49.89 49.87 49.85 49.84 49.82 49.80 49.79 49.77 49.75 49.74 49.72 49.71 49.69 49.68 49.66 49.65 49.63 49.62 49.61 49.59 49.58 49.57 49.56 49.55 49.54 49.53 49.52 49.51 49.50 49.49 49.48 49.47 49.47 49.46 49.45 49.45 49.44 49.44 49.43 49.43 49.43 49.42 49.42 49.42 49.42 49.42 49.42 49.42 49.42 49.42 49.42 49.42 49.43 49.43 49.43 49.44 49.44 49.45 49.45 49.46 49.46 49.47 49.48 49.48 49.49 49.50 49.51 49.52 49.53 49.54 49.55 49.56 49.57 49.58 49.59 49.60 49.61 49.62 49.63 49.65 49.66 49.67 49.68 49.70 49.71 49.72 49.73 49.75 49.76 49.77 49.79
51.35 51.36 51.38 51.39 51.40 51.42 51.43 51.44 51.45 51.47 51.48 51.49 51.50 51.52 51.53 51.54 51.55 51.56 51.57 51.58 51.59 51.60 51.61 51.62 51.63 51.64 51.65 51.66 51.67 51.67 51.68 51.69 51.69 51.70 51.70 51.71 51.71 51.72 51.72 51.72 51.73 51.73 51.73 51.73 51.73 51.73 51.73 51.73 51.73 51.73 51.73 51.72 51.72 51.72 51.71 51.71 51.70 51.70 51.69 51.68 51.68 51.67 51.66 51.65 51.64 51.63 51.62 51.61 51.60 51.59 51.58 51.57 51.56 51.54 51.53 51.52 51.50 51.49 51.47 51.46 51.44 51.43 51.41 51.40 51.38 51.36 51.35 51.33 51.31 51.30 51.28 51.26 51.24 51.23 51.21 51.19 51.17 51.15 51.14 51.12 51.10 51.08 51.06 51.05 51.03 51.01 50.99 50.97 50.96 50.94 50.92 50.90 50.89 50.87 50.85 50.84 50.82 50.80 50.79 50.77 50.76 50.74 50.73 50.71 50.70 50.68 50.67 50.66 50.64 50.63 50.62 50.61 50.60 50.59 50.58 50.57 50.56 50.55 50.54 50.53 50.52 50.52 50.51 50.50 50.50 50.49 50.49 50.48 50.48 50.48 50.48 50.47 50.47 50.47 50.47 50.47 50.47 50.47 50.47 50.47 50.47 50.48 50.48 50.48 50.49 50.49 50.50 50.50 50.51 50.51 50.52 50.53 50.53 50.54 50.55 50.56 50.57 50.58 50.59 50.60 50.61 50.62 50.63 50.64 50.65 50.66 50.67 50.68 50.70 50.71 50.72 50.73 50.75 50.76 50.77 50.78 50.80 50.81 50.82 50.84 50.85 50.86 50.88 50.89 50.90 50.92 50.93 50.94 50.95 50.97 50.98 50.99 51.00 51.02 51.03 51.04 51.05 51.06 51.07 51.08 51.09 51.10 51.11 51.12 51.13 51.14 51.15 51.16 51.17 51.17 51.18 51.19 51.19 51.20 51.20 51.21 51.21 51.22 51.22 51.22 51.23 51.23 51.23 51.23 51.23 51.23 51.23 51.23 51.23 51.23 51.23 51.22 51.22 51.22 51.21 51.21 51.20 51.20 51.19 51.18 51.18 51.17 51.16 51.15 51.14 51.13 51.12 51.11 51.10 51.09 51.08 51.07 51.06 51.04 51.03 51.02 51.00 50.99 50.97 50.96 50.94 50.93 50.91 50.90 50.88 50.86 50.85 50.83 50.81 50.80 50.78 50.76 50.74 50.73 50.71 50.69 50.67 50.65 50.64 50.62 50.60 50.58 50.56 50.55 50.53 50.51 50.49 50.47 50.46 50.44 50.42 50.40 50.39 50.37 50.35 50.34 50.32 50.30 50.29 50.27 50.26 50.24 50.23 50.21 50.20 50.18 50.17 50.16 50.14 50.13 50.12 50.11 50.10 50.09 50.08 50.07 50.06 50.05 50.04 50.03 50.02 50.02 50.01 50.00 50.00 49.99 49.99 49.98 49.98 49.98 49.98 49.97 49.97 49.97 49.97 49.97 49.97 49.97 49.97 49.97 49.97 49.98 49.98 49.98 49.99 49.99 50.00 50.00 50.01 50.01 50.02 50.03 50.03 50.04 50.05 50.06 50.07 50.08 50.09 50.10 50.11 50.12 50.13 50.14 50.15 50.16 50.17 50.18 50.20 50.21 50.22 50.23 50.25 50.26 50.27 50.28 50.30 50.31 50.32 50.34 50.35 50.36 50.38 50.39 50.40 50.42 50.43 50.44 50.45 50.47 50.48 50.49 50.50 50.52 50.53 50.54 50.55 50.56 50.57 50.58 50.59 50.60 50.61 50.62 50.63 50.64 50.65 50.66 50.67 50.67 50.68 50.69 50.69 50.70 50.70 50.71 50.71 50.72 50.72 50.72 50.73 50.73 50.73 50.73 50.73 50.73 50.73 50.73 50.73 50.73 50.73 50.72 50.72 50.72 50.71 50.71 50.70 50.70 50.69 50.68 50.68 50.67 50.66 50.65 50.64 50.63 50.62 50.61 50.60 50.59 50.58 50.57 50.56 50.54 50.53 50.52 50.50 50.49 50.47 50.46 50.44 50.43 50.41 50.40 50.38 50.36 50.35 50.33 50.31 50.30 50.28 50.26 50.24 50.23 50.21 50.19 50.17 50.15 50.14 50.12 50.10 50.08 50.06 50.05 50.03 50.01 49.99 49.97 49.96 49.94 49.92 49.90 49.89 49.87 49.85 49.84 49.82 49.80 49.79 49.77 49.76 49.74 49.73 49.71 49.70 49.68 49.67 49.66 49.64 49.63 49.62 49.61 49.60 49.59 49.58 49.57 49.56 49.55 49.54 49.53 49.52 49.52 49.51 49.50 49.50 49.49 49.49 49.48 49.48 49.48 49.48 49.47 49.47 49.47 49.47 49.47 49.47 49.47 49.47 49.47 49.47 49.48 49.48 49.48 49.49 49.49 49.50 49.50 49.51 49.51 49.52 49.53 49.53 49.54 49.55 49.56 49.57 49.58 49.59 49.60 49.61 49.62 49.63 49.64 49.65 49.66 49.67 49.68 49.70 49.71 49.72 49.73 49.75 49.76 49.77 49.78 49.80 49.81 49.82 49.84
51.40 51.41 51.43 51.44 51.45 51.47 51.48 51.49 51.50 51.52 51.53 51.54 51.55 51.57 51.58 51.59 51.60 51.61 51.62 51.63 51.64 51.65 51.66 51.67 51.68 51.69 51.70 51.71 51.72 51.72 51.73 51.74 51.74 51.75 51.75 51.76 51.76 51.77 51.77 51.77 51.78 51.78 51.78 51.78 51.78 51.78 51.78 51.78 51.78 51.78 51.77 51.77 51.77 51.77 51.76 51.76 51.75 51.75 51.74 51.73 51.73 51.72 51.71 51.70 51.69 51.68 51.67 51.66 51.65 51.64 51.63 51.62 51.61 51.59 51.58 51.57 51.55 51.54 51.52 51.51 51.49 51.48 51.46 51.45 51.43 51.41 51.40 51.38 51.36 51.35 51.33 51.31 51.29 51.28 51.26 51.24 51.22 51.20 51.19 51.17 51.15 51.13 51.11 51.10 51.08 51.06 51.04 51.02 51.01 50.99 50.97 50.95 50.94 50.92 50.90 50.89 50.87 50.85 50.84 50.82 50.81 50.79 50.78 50.76 50.75 50.73 50.72 50.71 50.69 50.68 50.67 50.66 50.65 50.64 50.63 50.62 50.61 50.60 50.59 50.58 50.57 50.57 50.56 50.55 50.55 50.54 50.54 50.53 50.53 50.53 50.52 50.52 50.52 50.52 50.52 50.52 50.52 50.52 50.52 50.52 50.52 50.53 50.53 50.53 50.54 50.54 50.55 50.55 50.56 50.56 50.57 50.58 50.58 50.59 50.60 50.61 50.62 50.63 50.64 50.65 50.66 50.67 50.68 50.69 50.70 50.71 50.72 50.73 50.75 50.76 50.77 50.78 50.80 50.81 50.82 50.83 50.85 50.86 50.87 50.89 50.90 50.91 50.93 50.94 50.95 50.97 50.98 50.99 51.00 51.02 51.03 51.04 51.05 51.07 51.08 51.09 51.10 51.11 51.12 51.13 51.14 51.15 51.16 51.17 51.18 51.19 51.20 51.21 51.22 51.22 51.23 51.24 51.24 51.25 51.25 51.26 51.26 51.27 51.27 51.27 51.28 51.28 51.28 51.28 51.28 51.28 51.28 51.28 51.28 51.28 51.27 51.27 51.27 51.27 51.26 51.26 51.25 51.25 51.24 51.23 51.23 51.22 51.21 51.20 51.19 51.18 51.17 51.16 51.15 51.14 51.13 51.12 51.11 51.09 51.08 51.07 51.05 51.04 51.02 51.01 50.99 50.98 50.96 50.95 50.93 50.91 50.90 50.88 50.86 50.85 50.83 50.81 50.79 50.78 50.76 50.74 50.72 50.70 50.69 50.67 50.65 50.63 50.61 50.60 50.58 50.56 50.54 50.52 50.51 50.49 50.47 50.45 50.44 50.42 50.40 50.39 50.37 50.35 50.34 50.32 50.31 50.29 50.28 50.26 50.25 50.23 50.22 50.21 50.19 50.18 50.17 50.16 50.15 50.14 50.13 50.12 50.11 50.10 50.09 50.08 50.07 50.07 50.06 50.05 50.05 50.04 50.04 50.03 50.03 50.03 50.02 50.02 50.02 50.02 50.02 50.02 50.02 50.02 50.02 50.02 50.02 50.03 50.03 50.03 50.04 50.04 50.05 50.05 50.06 50.06 50.07 50.08 50.08 50.09 50.10 50.11 50.12 50.13 50.14 50.15 50.16 50.17 50.18 50.19 50.20 50.21 50.22 50.23 50.25 50.26 50.27 50.28 50.30 50.31 50.32 50.33 50.35 50.36 50.37 50.39 50.40 50.41 50.43 50.44 50.45 50.47 50.48 50.49 50.50 50.52 50.53 50.54 50.55 50.57 50.58 50.59 50.60 50.61 50.62 50.63 50.64 50.65 50.66 50.67 50.68 50.69 50.70 50.71 50.72 50.72 50.73 50.74 50.74 50.75 50.75 50.76 50.76 50.77 50.77 50.77 50.78 50.78 50.78 50.78 50.78 50.78 50.78 50.78 50.78 50.78 50.77 50.77 50.77 50.77 50.76 50.76 50.75 50.75 50.74 50.73 50.73 50.72 50.71 50.70 50.69 50.68 50.67 50.66 50.65 50.64 50.63 50.62 50.61 50.59 50.58 50.57 50.55 50.54 50.52 50.51 50.49 50.48 50.46 50.45 50.43 50.41 50.40 50.38 50.36 50.35 50.33 50.31 50.29 50.28 50.26 50.24 50.22 50.20 50.19 50.17 50.15 50.13 50.11 50.10 50.08 50.06 50.04 50.02 50.01 49.99 49.97 49.95 49.94 49.92 49.90 49.89 49.87 49.85 49.84 49.82 49.81 49.79 49.78 49.76 49.75 49.73 49.72 49.71 49.69 49.68 49.67 49.66 49.65 49.64 49.63 49.62 49.61 49.60 49.59 49.58 49.57 49.57 49.56 49.55 49.55 49.54 49.54 49.53 49.53 49.53 49.52 49.52 49.52 49.52 49.52 49.52 49.52 49.52 49.52 49.52 49.52 49.53 49.53 49.53 49.54 49.54 49.55 49.55 49.56 49.56 49.57 49.58 49.58 49.59 49.60 49.61 49.62 49.63 49.64 49.65 49.66 49.67 49.68 49.69 49.70 49.71 49.72 49.73 49.75 49.76 49.77 49.78 49.80 49.81 49.82 49.83 49.85 49.86 49.87 49.89
51.45 51.46 51.48 51.49 51.50 51.52 51.53 51.54 51.55 51.57 51.58 51.59 51.60 51.62 51.63 51.64 51.65 51.66 51.67 51.68 51.69 51.70 51.71 51.72 51.73 51.74 51.75 51.76 51.77 51.77 51.78 51.79 51.79 51.80 51.80 51.81 51.81 51.82 51.82 51.82 51.83 51.83 51.83 51.83 51.83 51.83 51.83 51.83 51.83 51.83 51.83 51.82 51.82 51.82 51.81 51.81 51.80 51.80 51.79 51.78 51.78 51.77 51.76 51.75 51.74 51.73 51.72 51.71 51.70 51.69 51.68 51.67 51.66 51.64 51.63 51.62 51.60 51.59 51.57 51.56 51.54 51.53 51.51 51.50 51.48 51.46 51.45 51.43 51.41 51.40 51.38 51.36 51.34 51.33 51.31 51.29 51.27 51.25 51.24 51.22 51.20 51.18 51.16 51.15 51.13 51.11 51.09 51.07 51.06 51.04 51.02 51.00 50.99 50.97 50.95 50.94 50.92 50.90 50.89 50.87 50.86 50.84 50.83 50.81 50.80 50.78 50.77 50.76 50.74 50.73 50.72 50.71 50.70 50.69 50.68 50.67 50.66 50.65 50.64 50.63 50.62 50.62 50.61 50.60 50.60 50.59 50.59 50.58 50.58 50.58 50.58 50.57 50.57 50.57 50.57 50.57 50.57 50.57 50.57 50.57 50.57 50.58 50.58 50.58 50.59 50.59 50.60 50.60 50.61 50.61 50.62 50.63 50.63 50.64 50.65 50.66 50.67 50.68 50.69 50.70 50.71 50.72 50.73 50.74 50.75 50.76 50.77 50.78 50.80 50.81 50.82 50.83 50.85 50.86 50.87 50.88 50.90 50.91 50.92 50.94 50.95 50.96 50.98 50.99 51.00 51.02 51.03 51.04 51.05 51.07 51.08 51.09 51.10 51.12 51.13 51.14 51.15 51.16 51.17 51.18 51.19 51.20 51.21 51.22 51.23 51.24 51.25 51.26 51.27 51.27 51.28 51.29 51.29 51.30 51.30 51.31 51.31 51.32 51.32 51.32 51.33 51.33 51.33 51.33 51.33 51.33 51.33 51.33 51.33 51.33 51.33 51.32 51.32 51.32 51.31 51.31 51.30 51.30 51.29 51.28 51.28 51.27 51.26 51.25 51.24 51.23 51.22 51.21 51.20 51.19 51.18 51.17 51.16 51.14 51.13 51.12 51.10 51.09 51.07 51.06 51.04 51.03 51.01 51.00 50.98 50.96 50.95 50.93 50.91 50.90 50.88 50.86 50.84 50.83 50.81 50.79 50.77 50.75 50.74 50.72 50.70 50.68 50.66 50.65 50.63 50.61 50.59 50.57 50.56 50.54 50.52 50.50 50.49 50.47 50.45 50.44 50.42 50.40 50.39 50.37 50.36 50.34 50.33 50.31 50.30 50.28 50.27 50.26 50.24 50.23 50.22 50.21 50.20 50.19 50.18 50.17 50.16 50.15 50.14 50.13 50.12 50.12 50.11 50.10 50.10 50.09 50.09 50.08 50.08 50.08 50.08 50.07 50.07 50.07 50.07 50.07 50.07 50.07 50.07 50.07 50.07 50.08 50.08 50.08 50.09 50.09 50.10 50.10 50.11 50.11 50.12 50.13 50.13 50.14 50.15 50.16 50.17 50.18 50.19 50.20 50.21 50.22 50.23 50.24 50.25 50.26 50.27 50.28 50.30 50.31 50.32 50.33 50.35 50.36 50.37 50.38 50.40 50.41 50.42 50.44 50.45 50.46 50.48 50.49 50.50 50.52 50.53 50.54 50.55 50.57 50.58 50.59 50.60 50.62 50.63 50.64 50.65 50.66 50.67 50.68 50.69 50.70 50.71 50.72 50.73 50.74 50.75 50.76 50.77 50.77 50.78 50.79 50.79 50.80 50.80 50.81 50.81 50.82 50.82 50.82 50.83 50.83 50.83 50.83 50.83 50.83 50.83 50.83 50.83 50.83 50.83 50.82 50.82 50.82 50.81 50.81 50.80 50.80 50.79 50.78 50.78 50.77 50.76 50.75 50.74 50.73 50.72 50.71 50.70 50.69 50.68 50.67 50.66 50.64 50.63 50.62 50.60 50.59 50.57 50.56 50.54 50.53 50.51 50.50 50.48 50.46 50.45 50.43 50.41 50.40 50.38 50.36 50.34 50.33 50.31 50.29 50.27 50.25 50.24 50.22 50.20 50.18 50.16 50.15 50.13 50.11 50.09 50.07 50.06 50.04 50.02 50.00 49.99 49.97 49.95 49.94 49.92 49.90 49.89 49.87 49.86 49.84 49.83 49.81 49.80 49.78 49.77 49.76 49.74 49.73 49.72 49.71 49.70 49.69 49.68 49.67 49.66 49.65 49.64 49.63 49.62 49.62 49.61 49.60 49.60 49.59 49.59 49.58 49.58 49.58 49.58 49.57 49.57 49.57 49.57 49.57 49.57 49.57 49.57 49.57 49.57 49.58 49.58 49.58 49.59 49.59 49.60 49.60 49.61 49.61 49.62 49.63 49.63 49.64 49.65 49.66 49.67 49.68 49.69 49.70 49.71 49.72 49.73 49.74 49.75 49.76 49.77 49.78 49.80 49.81 49.82 49.83 49.85 49.86 49.87 49.88 49.90 49.91 49.92 49.94
51.50 51.51 51.53 51.54 51.55 51.57 51.58 51.59 51.60 51.62 51.63 51.64 51.65 51.67 51.68 51.69 51.70 51.71 51.72 51.73 51.74 51.75 51.76 51.77 51.78 51.79 51.80 51.81 51.82 51.82 51.83 51.84 51.84 51.85 51.85 51.86 51.86 51.87 51.87 51.87 51.88 51.88 51.88 51.88 51.88 51.88 51.88 51.88 51.88 51.88 51.88 51.87 51.87 51.87 51.86 51.86 51.85 51.85 51.84 51.83 51.83 51.82 51.81 51.80 51.79 51.78 51.77 51.76 51.75 51.74 51.73 51.72 51.71 51.69 51.68 51.67 51.65 51.64 51.62 51.61 51.59 51.58 51.56 51.55 51.53 51.51 51.50 51.48 51.46 51.45 51.43 51.41 51.39 51.38 51.36 51.34 51.32 51.30 51.29 51.27 51.25 51.23 51.21 51.20 51.18 51.16 51.14 51.12 51.11 51.09 51.07 51.05 51.04 51.02 51.00 50.99 50.97 50.95 50.94 50.92 50.91 50.89 50.88 50.86 50.85 50.83 50.82 50.81 50.79 50.78 50.77 50.76 50.75 50.74 50.73 50.72 50.71 50.70 50.69 50.68 50.67 50.67 50.66 50.65 50.65 50.64 50.64 50.63 50.63 50.63 50.62 50.62 50.62 50.62 50.62 50.62 50.62 50.62 50.62 50.62 50.62 50.63 50.63 50.63 50.64 50.64 50.65 50.65 50.66 50.66 50.67 50.68 50.68 50.69 50.70 50.71 50.72 50.73 50.74 50.75 50.76 50.77 50.78 50.79 50.80 50.81 50.82 50.83 50.85 50.86 50.87 50.88 50.90 50.91 50.92 50.93 50.95 50.96 50.97 50.99 51.00 51.01 51.03 51.04 51.05 51.07 51.08 51.09 51.10 51.12 51.13 51.14 51.15 51.17 51.18 51.19 51.20 51.21 51.22 51.23 51.24 51.25 51.26 51.27 51.28 51.29 51.30 51.31 51.32 51.32 51.33 51.34 51.34 51.35 51.35 51.36 51.36 51.37 51.37 51.37 51.38 51.38 51.38 51.38 51.38 51.38 51.38 51.38 51.38 51.38 51.38 51.37 51.37 51.37 51.36 51.36 51.35 51.35 51.34 51.33 51.33 51.32 51.31 51.30 51.29 51.28 51.27 51.26 51.25 51.24 51.23 51.22 51.21 51.19 51.18 51.17 51.15 51.14 51.12 51.11 51.09 51.08 51.06 51.05 51.03 51.01 51.00 50.98 50.96 50.95 50.93 50.91 50.89 50.88 50.86 50.84 50.82 50.80 50.79 50.77 50.75 50.73 50.71 50.70 50.68 50.66 50.64 50.62 50.61 50.59 50.57 50.55 50.54 50.52 50.50 50.49 50.47 50.45 50.44 50.42 50.41 50.39 50.38 50.36 50.35 50.33 50.32 50.31 50.29 50.28 50.27 50.26 50.25 50.24 50.23 50.22 50.21 50.20 50.19 50.18 50.17 50.17 50.16 50.15 50.15 50.14 50.14 50.13 50.13 50.13 50.12 50.12 50.12 50.12 50.12 50.12 50.12 50.12 50.12 50.12 50.12 50.13 50.13 50.13 50.14 50.14 50.15 50.15 50.16 50.16 50.17 50.18 50.18 50.19 50.20 50.21 50.22 50.23 50.24 50.25 50.26 50.27 50.28 50.29 50.30 50.31 50.32 50.33 50.35 50.36 50.37 50.38 50.40 50.41 50.42 50.43 50.45 50.46 50.47 50.49 50.50 50.51 50.53 50.54 50.55 50.57 50.58 50.59 50.60 50.62 50.63 50.64 50.65 50.67 50.68 50.69 50.70 50.71 50.72 50.73 50.74 50.75 50.76 50.77 50.78 50.79 50.80 50.81 50.82 50.82 50.83 50.84 50.84 50.85 50.85 50.86 50.86 50.87 50.87 50.87 50.88 50.88 50.88 50.88 50.88 50.88 50.88 50.88 50.88 50.88 50.88 50.87 50.87 50.87 50.86 50.86 50.85 50.85 50.84 50.83 50.83 50.82 50.81 50.80 50.79 50.78 50.77 50.76 50.75 50.74 50.73 50.72 50.71 50.69 50.68 50.67 50.65 50.64 50.62 50.61 50.59 50.58 50.56 50.55 50.53 50.51 50.50 50.48 50.46 50.45 50.43 50.41 50.39 50.38 50.36 50.34 50.32 50.30 50.29 50.27 50.25 50.23 50.21 50.20 50.18 50.16 50.14 50.12 50.11 50.09 50.07 50.05 50.04 50.02 50.00 49.99 49.97 49.95 49.94 49.92 49.91 49.89 49.88 49.86 49.85 49.83 49.82 49.81 49.79 49.78 49.77 49.76 49.75 49.74 49.73 49.72 49.71 49.70 49.69 49.68 49.67 49.67 49.66 49.65 49.65 49.64 49.64 49.63 49.63 49.63 49.62 49.62 49.62 49.62 49.62 49.62 49.62 49.62 49.62 49.62 49.62 49.63 49.63 49.63 49.64 49.64 49.65 49.65 49.66 49.66 49.67 49.68 49.68 49.69 49.70 49.71 49.72 49.73 49.74 49.75 49.76 49.77 49.78 49.79 49.80 49.81 49.82 49.83 49.85 49.86 49.87 49.88 49.90 49.91 49.92 49.93 49.95 49.96 49.97 49.99
51.55 51.56 51.58 51.59 51.60 51.62 51.63 51.64 51.65 51.67 51.68 51.69 51.70 51.72 51.73 51.74 51.75 51.76 51.77 51.78 51.79 51.80 51.81 51.82 51.83 51.84 51.85 51.86 51.87 51.87 51.88 51.89 51.89 51.90 51.90 51.91 51.91 51.92 51.92 51.92 51.93 51.93 51.93 51.93 51.93 51.93 51.93 51.93 51.93 51.93 51.92 51.92 51.92 51.92 51.91 51.91 51.90 51.90 51.89 51.88 51.88 51.87 51.86 51.85 51.84 51.83 51.82 51.81 51.80 51.79 51.78 51.77 51.76 51.74 51.73 51.72 51.70 51.69 51.67 51.66 51.64 51.63 51.61 51.60 51.58 51.56 51.55 51.53 51.51 51.50 51.48 51.46 51.44 51.43 51.41 51.39 51.37 51.35 51.34 51.32 51.30 51.28 51.26 51.25 51.23 51.21 51.19 51.17 51.16 51.14 51.12 51.10 51.09 51.07 51.05 51.04 51.02 51.00 50.99 50.97 50.96 50.94 50.93 50.91 50.90 50.88 50.87 50.86 50.84 50.83 50.82 50.81 50.80 50.79 50.78 50.77 50.76 50.75 50.74 50.73 50.72 50.72 50.71 50.70 50.70 50.69 50.69 50.68 50.68 50.68 50.67 50.67 50.67 50.67 50.67 50.67 50.67 50.67 50.67 50.67 50.67 50.68 50.68 50.68 50.69 50.69 50.70 50.70 50.71 50.71 50.72 50.73 50.73 50.74 50.75 50.76 50.77 50.78 50.79 50.80 50.81 50.82 50.83 50.84 50.85 50.86 50.87 50.88 50.90 50.91 50.92 50.93 50.95 50.96 50.97 50.98 51.00 51.01 51.02 51.04 51.05 51.06 51.08 51.09 51.10 51.12 51.13 51.14 51.15 51.17 51.18 51.19 51.20 51.22 51.23 51.24 51.25 51.26 51.27 51.28 51.29 51.30 51.31 51.32 51.33 51.34 51.35 51.36 51.37 51.37 51.38 51.39 51.39 51.40 51.40 51.41 51.41 51.42 51.42 51.42 51.43 51.43 51.43 51.43 51.43 51.43 51.43 51.43 51.43 51.43 51.42 51.42 51.42 51.42 51.41 51.41 51.40 51.40 51.39 51.38 51.38 51.37 51.36 51.35 51.34 51.33 51.32 51.31 51.30 51.29 51.28 51.27 51.26 51.24 51.23 51.22 51.20 51.19 51.17 51.16 51.14 51.13 51.11 51.10 51.08 51.06 51.05 51.03 51.01 51.00 50.98 50.96 50.94 50.93 50.91 50.89 50.87 50.85 50.84 50.82 50.80 50.78 50.76 50.75 50.73 50.71 50.69 50.67 50.66 50.64 50.62 50.60 50.59 50.57 50.55 50.54 50.52 50.50 50.49 50.47 50.46 50.44 50.43 50.41 50.40 50.38 50.37 50.36 50.34 50.33 50.32 50.31 50.30 50.29 50.28 50.27 50.26 50.25 50.24 50.23 50.22 50.22 50.21 50.20 50.20 50.19 50.19 50.18 50.18 50.18 50.17 50.17 50.17 50.17 50.17 50.17 50.17 50.17 50.17 50.17 50.17 50.18 50.18 50.18 50.19 50.19 50.20 50.20 50.21 50.21 50.22 50.23 50.23 50.24 50.25 50.26 50.27 50.28 50.29 50.30 50.31 50.32 50.33 50.34 50.35 50.36 50.37 50.38 50.40 50.41 50.42 50.43 50.45 50.46 50.47 50.48 50.50 50.51 50.52 50.54 50.55 50.56 50.58 50.59 50.60 50.62 50.63 50.64 50.65 50.67 50.68 50.69 50.70 50.72 50.73 50.74 50.75 50.76 50.77 50.78 50.79 50.80 50.81 50.82 50.83 50.84 50.85 50.86 50.87 50.87 50.88 50.89 50.89 50.90 50.90 50.91 50.91 50.92 50.92 50.92 50.93 50.93 50.93 50.93 50.93 50.93 50.93 50.93 50.93 50.93 50.92 50.92 50.92 50.92 50.91 50.91 50.90 50.90 50.89 50.88 50.88 50.87 50.86 50.85 50.84 50.83 50.82 50.81 50.80 50.79 50.78 50.77 50.76 50.74 50.73 50.72 50.70 50.69 50.67 50.66 50.64 50.63 50.61 50.60 50.58 50.56 50.55 50.53 50.51 50.50 50.48 50.46 50.44 50.43 50.41 50.39 50.37 50.35 50.34 50.32 50.30 50.28 50.26 50.25 50.23 50.21 50.19 50.17 50.16 50.14 50.12 50.10 50.09 50.07 50.05 50.04 50.02 50.00 49.99 49.97 49.96 49.94 49.93 49.91 49.90 49.88 49.87 49.86 49.84 49.83 49.82 49.81 49.80 49.79 49.78 49.77 49.76 49.75 49.74 49.73 49.72 49.72 49.71 49.70 49.70 49.69 49.69 49.68 49.68 49.68 49.67 49.67 49.67 49.67 49.67 49.67 49.67 49.67 49.67 49.67 49.67 49.68 49.68 49.68 49.69 49.69 49.70 49.70 49.71 49.71 49.72 49.73 49.73 49.74 49.75 49.76 49.77 49.78 49.79 49.80 49.81 49.82 49.83 49.84 49.85 49.86 49.87 49.88 49.90 49.91 49.92 49.93 49.95 49.96 49.97 49.98 50.00 50.01 50.02 50.04
51.60 51.61 51.63 51.64 51.65 51.67 51.68 51.69 51.70 51.72 51.73 51.74 51.75 51.77 51.78 51.79 51.80 51.81 51.82 51.83 51.84 51.85 51.86 51.87 51.88 51.89 51.90 51.91 51.92 51.92 51.93 51.94 51.94 51.95 51.95 51.96 51.96 51.97 51.97 51.97 51.98 51.98 51.98 51.98 51.98 51.98 51.98 51.98 51.98 51.98 51.98 51.97 51.97 51.97 51.96 51.96 51.95 51.95 51.94 51.93 51.93 51.92 51.91 51.90 51.89 51.88 51.87 51.86 51.85 51.84 51.83 51.82 51.81 51.79 51.78 51.77 51.75 51.74 51.72 51.71 51.69 51.68 51.66 51.65 51.63 51.61 51.60 51.58 51.56 51.55 51.53 51.51 51.49 51.48 51.46 51.44 51.42 51.40 51.39 51.37 51.35 51.33 51.31 51.30 51.28 51.26 51.24 51.22 51.21 51.19 51.17 51.15 51.14 51.12 51.10 51.09 51.07 51.05 51.04 51.02 51.01 50.99 50.98 50.96 50.95 50.93 50.92 50.91 50.89 50.88 50.87 50.86 50.85 50.84 50.83 50.82 50.81 50.80 50.79 50.78 50.77 50.77 50.76 50.75 50.75 50.74 50.74 50.73 50.73 50.73 50.73 50.72 50.72 50.72 50.72 50.72 50.72 50.72 50.72 50.72 50.72 50.73 50.73 50.73 50.74 50.74 50.75 50.75 50.76 50.76 50.77 50.78 50.78 50.79 50.80 50.81 50.82 50.83 50.84 50.85 50.86 50.87 50.88 50.89 50.90 50.91 50.92 50.93 50.95 50.96 50.97 50.98 51.00 51.01 51.02 51.03 51.05 51.06 51.07 51.09 51.10 51.11 51.13 51.14 51.15 51.17 51.18 51.19 51.20 51.22 51.23 51.24 51.25 51.27 51.28 51.29 51.30 51.31 51.32 51.33 51.34 51.35 51.36 51.37 51.38 51.39 51.40 51.41 51.42 51.42 51.43 51.44 51.44 51.45 51.45 51.46 51.46 51.47 51.47 51.47 51.48 51.48 51.48 51.48 51.48 51.48 51.48 51.48 51.48 51.48 51.48 51.47 51.47 51.47 51.46 51.46 51.45 51.45 51.44 51.43 51.43 51.42 51.41 51.40 51.39 51.38 51.37 51.36 51.35 51.34 51.33 51.32 51.31 51.29 51.28 51.27 51.25 51.24 51.22 51.21 51.19 51.18 51.16 51.15 51.13 51.11 51.10 51.08 51.06 51.05 51.03 51.01 50.99 50.98 50.96 50.94 50.92 50.90 50.89 50.87 50.85 50.83 50.81 50.80 50.78 50.76 50.74 50.72 50.71 50.69 50.67 50.65 50.64 50.62 50.60 50.59 50.57 50.55 50.54 50.52 50.51 50.49 50.48 50.46 50.45 50.43 50.42 50.41 50.39 50.38 50.37 50.36 50.35 50.34 50.33 50.32 50.31 50.30 50.29 50.28 50.27 50.27 50.26 50.25 50.25 50.24 50.24 50.23 50.23 50.23 50.23 50.22 50.22 50.22 50.22 50.22 50.22 50.22 50.22 50.22 50.22 50.23 50.23 50.23 50.24 50.24 50.25 50.25 50.26 50.26 50.27 50.28 50.28 50.29 50.30 50.31 50.32 50.33 50.34 50.35 50.36 50.37 50.38 50.39 50.40 50.41 50.42 50.43 50.45 50.46 50.47 50.48 50.50 50.51 50.52 50.53 50.55 50.56 50.57 50.59 50.60 50.61 50.63 50.64 50.65 50.67 50.68 50.69 50.70 50.72 50.73 50.74 50.75 50.77 50.78 50.79 50.80 50.81 50.82 50.83 50.84 50.85 50.86 50.87 50.88 50.89 50.90 50.91 50.92 50.92 50.93 50.94 50.94 50.95 50.95 50.96 50.96 50.97 50.97 50.97 50.98 50.98 50.98 50.98 50.98 50.98 50.98 50.98 50.98 50.98 50.98 50.97 50.97 50.97 50.96 50.96 50.95 50.95 50.94 50.93 50.93 50.92 50.91 50.90 50.89 50.88 50.87 50.86 50.85 50.84 50.83 50.82 50.81 50.79 50.78 50.77 50.75 50.74 50.72 50.71 50.69 50.68 50.66 50.65 50.63 50.61 50.60 50.58 50.56 50.55 50.53 50.51 50.49 50.48 50.46 50.44 50.42 50.40 50.39 50.37 50.35 50.33 50.31 50.30 50.28 50.26 50.24 50.22 50.21 50.19 50.17 50.15 50.14 50.12 50.10 50.09 50.07 50.05 50.04 50.02 50.01 49.99 49.98 49.96 49.95 49.93 49.92 49.91 49.89 49.88 49.87 49.86 49.85 49.84 49.83 49.82 49.81 49.80 49.79 49.78 49.77 49.77 49.76 49.75 49.75 49.74 49.74 49.73 49.73 49.73 49.73 49.72 49.72 49.72 49.72 49.72 49.72 49.72 49.72 49.72 49.72 49.73 49.73 49.73 49.74 49.74 49.75 49.75 49.76 49.76 49.77 49.78 49.78 49.79 49.80 49.81 49.82 49.83 49.84 49.85 49.86 49.87 49.88 49.89 49.90 49.91 49.92 49.93 49.95 49.96 49.97 49.98 50.00 50.01 50.02 50.03 50.05 50.06 50.07 50.09
51.65 51.66 51.68 51.69 51.70 51.72 51.73 51.74 51.75 51.77 51.78 51.79 51.80 51.82 51.83 51.84 51.85 51.86 51.87 51.88 51.89 51.90 51.91 51.92 51.93 51.94 51.95 51.96 51.97 51.97 51.98 51.99 51.99 52.00 52.00 52.01 52.01 52.02 52.02 52.02 52.03 52.03 52.03 52.03 52.03 52.03 52.03 52.03 52.03 52.03 52.02 52.02 52.02 52.02 52.01 52.01 52.00 52.00 51.99 51.98 51.98 51.97 51.96 51.95 51.94 51.93 51.92 51.91 51.90 51.89 51.88 51.87 51.86 51.84 51.83 51.82 51.80 51.79 51.77 51.76 51.74 51.73 51.71 51.70 51.68 51.66 51.65 51.63 51.61 51.60 51.58 51.56 51.54 51.53 51.51 51.49 51.47 51.45 51.44 51.42 51.40 51.38 51.36 51.35 51.33 51.31 51.29 51.27 51.26 51.24 51.22 51.20 51.19 51.17 51.15 51.14 51.12 51.10 51.09 51.07 51.06 51.04 51.03 51.01 51.00 50.98 50.97 50.96 50.94 50.93 50.92 50.91 50.90 50.89 50.88 50.87 50.86 50.85 50.84 50.83 50.82 50.82 50.81 50.80 50.80 50.79 50.79 50.78 50.78 50.78 50.77 50.77 50.77 50.77 50.77 50.77 50.77 50.77 50.77 50.77 50.77 50.78 50.78 50.78 50.79 50.79 50.80 50.80 50.81 50.81 50.82 50.83 50.83 50.84 50.85 50.86 50.87 50.88 50.89 50.90 50.91 50.92 50.93 50.94 50.95 50.96 50.97 50.98 51.00 51.01 51.02 51.03 51.05 51.06 51.07 51.08 51.10 51.11 51.12 51.14 51.15 51.16 51.18 51.19 51.20 51.22 51.23 51.24 51.25 51.27 51.28 51.29 51.30 51.32 51.33 51.34 51.35 51.36 51.37 51.38 51.39 51.40 51.41 51.42 51.43 51.44 51.45 51.46 51.47 51.47 51.48 51.49 51.49 51.50 51.50 51.51 51.51 51.52 51.52 51.52 51.53 51.53 51.53 51.53 51.53 51.53 51.53 51.53 51.53 51.53 51.52 51.52 51.52 51.52 51.51 51.51 51.50 51.50 51.49 51.48 51.48 51.47 51.46 51.45 51.44 51.43 51.42 51.41 51.40 51.39 51.38 51.37 51.36 51.34 51.33 51.32 51.30 51.29 51.27 51.26 51.24 51.23 51.21 51.20 51.18 51.16 51.15 51.13 51.11 51.10 51.08 51.06 51.04 51.03 51.01 50.99 50.97 50.95 50.94 50.92 50.90 50.88 50.86 50.85 50.83 50.81 50.79 50.77 50.76 50.74 50.72 50.70 50.69 50.67 50.65 50.64 50.62 50.60 50.59 50.57 50.56 50.54 50.53 50.51 50.50 50.48 50.47 50.46 50.44 50.43 50.42 50.41 50.40 50.39 50.38 50.37 50.36 50.35 50.34 50.33 50.32 50.32 50.31 50.30 50.30 50.29 50.29 50.28 50.28 50.28 50.27 50.27 50.27 50.27 50.27 50.27 50.27 50.27 50.27 50.27 50.27 50.28 50.28 50.28 50.29 50.29 50.30 50.30 50.31 50.31 50.32 50.33 50.33 50.34 50.35 50.36 50.37 50.38 50.39 50.40 50.41 50.42 50.43 50.44 50.45 50.46 50.47 50.48 50.50 50.51 50.52 50.53 50.55 50.56 50.57 50.58 50.60 50.61 50.62 50.64 50.65 50.66 50.68 50.69 50.70 50.72 50.73 50.74 50.75 50.77 50.78 50.79 50.80 50.82 50.83 50.84 50.85 50.86 50.87 50.88 50.89 50.90 50.91 50.92 50.93 50.94 50.95 50.96 50.97 50.97 50.98 50.99 50.99 51.00 51.00 51.01 51.01 51.02 51.02 51.02 51.03 51.03 51.03 51.03 51.03 51.03 51.03 51.03 51.03 51.03 51.02 51.02 51.02 51.02 51.01 51.01 51.00 51.00 50.99 50.98 50.98 50.97 50.96 50.95 50.94 50.93 50.92 50.91 50.90 50.89 50.88 50.87 50.86 50.84 50.83 50.82 50.80 50.79 50.77 50.76 50.74 50.73 50.71 50.70 50.68 50.66 50.65 50.63 50.61 50.60 50.58 50.56 50.54 50.53 50.51 50.49 50.47 50.45 50.44 50.42 50.40 50.38 50.36 50.35 50.33 50.31 50.29 50.27 50.26 50.24 50.22 50.20 50.19 50.17 50.15 50.14 50.12 50.10 50.09 50.07 50.06 50.04 50.03 50.01 50.00 49.98 49.97 49.96 49.94 49.93 49.92 49.91 49.90 49.89 49.88 49.87 49.86 49.85 49.84 49.83 49.82 49.82 49.81 49.80 49.80 49.79 49.79 49.78 49.78 49.78 49.77 49.77 49.77 49.77 49.77 49.77 49.77 49.77 49.77 49.77 49.77 49.78 49.78 49.78 49.79 49.79 49.80 49.80 49.81 49.81 49.82 49.83 49.83 49.84 49.85 49.86 49.87 49.88 49.89 49.90 49.91 49.92 49.93 49.94 49.95 49.96 49.97 49.98 50.00 50.01 50.02 50.03 50.05 50.06 50.07 50.08 50.10 50.11 50.12 50.14
51.70 51.71 51.73 51.74 51.75 51.77 51.78 51.79 51.80 51.82 51.83 51.84 51.85 51.87 51.88 51.89 51.90 51.91 51.92 51.93 51.94 51.95 51.96 51.97 51.98 51.99 52.00 52.01 52.02 52.02 52.03 52.04 52.04 52.05 52.05 52.06 52.06 52.07 52.07 52.07 52.08 52.08 52.08 52.08 52.08 52.08 52.08 52.08 52.08 52.08 52.08 52.07 52.07 52.07 52.06 52.06 52.05 52.05 52.04 52.03 52.03 52.02 52.01 52.00 51.99 51.98 51.97 51.96 51.95 51.94 51.93 51.92 51.91 51.89 51.88 51.87 51.85 51.84 51.82 51.81 51.79 51.78 51.76 51.75 51.73 51.71 51.70 51.68 51.66 51.65 51.63 51.61 51.59 51.58 51.56 51.54 51.52 51.50 51.49 51.47 51.45 51.43 51.41 51.40 51.38 51.36 51.34 51.32 51.31 51.29 51.27 51.25 51.24 51.22 51.20 51.19 51.17 51.15 51.14 51.12 51.11 51.09 51.08 51.06 51.05 51.03 51.02 51.01 50.99 50.98 50.97 50.96 50.95 50.94 50.93 50.92 50.91 50.90 50.89 50.88 50.87 50.87 50.86 50.85 50.85 50.84 50.84 50.83 50.83 50.83 50.83 50.82 50.82 50.82 50.82 50.82 50.82 50.82 50.82 50.82 50.82 50.83 50.83 50.83 50.84 50.84 50.85 50.85 50.86 50.86 50.87 50.88 50.88 50.89 50.90 50.91 50.92 50.93 50.94 50.95 50.96 50.97 50.98 50.99 51.00 51.01 51.02 51.03 51.05 51.06 51.07 51.08 51.10 51.11 51.12 51.13 51.15 51.16 51.17 51.19 51.20 51.21 51.23 51.24 51.25 51.27 51.28 51.29 51.30 51.32 51.33 51.34 51.35 51.37 51.38 51.39 51.40 51.41 51.42 51.43 51.44 51.45 51.46 51.47 51.48 51.49 51.50 51.51 51.52 51.52 51.53 51.54 51.54 51.55 51.55 51.56 51.56 51.57 51.57 51.57 51.58 51.58 51.58 51.58 51.58 51.58 51.58 51.58 51.58 51.58 51.58 51.57 51.57 51.57 51.56 51.56 51.55 51.55 51.54 51.53 51.53 51.52 51.51 51.50 51.49 51.48 51.47 51.46 51.45 51.44 51.43 51.42 51.41 51.39 51.38 51.37 51.35 51.34 51.32 51.31 51.29 51.28 51.26 51.25 51.23 51.21 51.20 51.18 51.16 51.15 51.13 51.11 51.09 51.08 51.06 51.04 51.02 51.00 50.99 50.97 50.95 50.93 50.91 50.90 50.88 50.86 50.84 50.82 50.81 50.79 50.77 50.75 50.74 50.72 50.70 50.69 50.67 50.65 50.64 50.62 50.61 50.59 50.58 50.56 50.55 50.53 50.52 50.51 50.49 50.48 50.47 50.46 50.45 50.44 50.43 50.42 50.41 50.40 50.39 50.38 50.37 50.37 50.36 50.35 50.35 50.34 50.34 50.33 50.33 50.33 50.33 50.32 50.32 50.32 50.32 50.32 50.32 50.32 50.32 50.32 50.32 50.33 50.33 50.33 50.34 50.34 50.35 50.35 50.36 50.36 50.37 50.38 50.38 50.39 50.40 50.41 50.42 50.43 50.44 50.45 50.46 50.47 50.48 50.49 50.50 50.51 50.52 50.53 50.55 50.56 50.57 50.58 50.60 50.61 50.62 50.63 50.65 50.66 50.67 50.69 50.70 50.71 50.73 50.74 50.75 50.77 50.78 50.79 50.80 50.82 50.83 50.84 50.85 50.87 50.88 50.89 50.90 50.91 50.92 50.93 50.94 50.95 50.96 50.97 50.98 50.99 51.00 51.01 51.02 51.02 51.03 51.04 51.04 51.05 51.05 51.06 51.06 51.07 51.07 51.07 51.08 51.08 51.08 51.08 51.08 51.08 51.08 51.08 51.08 51.08 51.08 51.07 51.07 51.07 51.06 51.06 51.05 51.05 51.04 51.03 51.03 51.02 51.01 51.00 50.99 50.98 50.97 50.96 50.95 50.94 50.93 50.92 50.91 50.89 50.88 50.87 50.85 50.84 50.82 50.81 50.79 50.78 50.76 50.75 50.73 50.71 50.70 50.68 50.66 50.65 50.63 50.61 50.59 50.58 50.56 50.54 50.52 50.50 50.49 50.47 50.45 50.43 50.41 50.40 50.38 50.36 50.34 50.32 50.31 50.29 50.27 50.25 50.24 50.22 50.20 50.19 50.17 50.15 50.14 50.12 50.11 50.09 50.08 50.06 50.05 50.03 50.02 50.01 49.99 49.98 49.97 49.96 49.95 49.94 49.93 49.92 49.91 49.90 49.89 49.88 49.87 49.87 49.86 49.85 49.85 49.84 49.84 49.83 49.83 49.83 49.83 49.82 49.82 49.82 49.82 49.82 49.82 49.82 49.82 49.82 49.82 49.83 49.83 49.83 49.84 49.84 49.85 49.85 49.86 49.86 49.87 49.88 49.88 49.89 49.90 49.91 49.92 49.93 49.94 49.95 49.96 49.97 49.98 49.99 50.00 50.01 50.02 50.03 50.05 50.06 50.07 50.08 50.10 50.11 50.12 50.13 50.15 50.16 50.17 50.19
51.75 51.76 51.78 51.79 51.80 51.82 51.83 51.84 51.85 51.87 51.88 51.89 51.90 51.92 51.93 51.94 51.95 51.96 51.97 51.98 51.99 52.00 52.01 52.02 52.03 52.04 52.05 52.06 52.07 52.07 52.08 52.09 52.09 52.10 52.10 52.11 52.11 52.12 52.12 52.12 52.13 52.13 52.13 52.13 52.13 52.13 52.13 52.13 52.13 52.13 52.12 52.12 52.12 52.12 52.11 52.11 52.10 52.10 52.09 52.08 52.08 52.07 52.06 52.05 52.04 52.03 52.02 52.01 52.00 51.99 51.98 51.97 51.96 51.94 51.93 51.92 51.90 51.89 51.87 51.86 51.84 51.83 51.81 51.80 51.78 51.76 51.75 51.73 51.71 51.70 51.68 51.66 51.64 51.63 51.61 51.59 51.57 51.55 51.54 51.52 51.50 51.48 51.46 51.45 51.43 51.41 51.39 51.37 51.36 51.34 51.32 51.30 51.29 51.27 51.25 51.24 51.22 51.20 51.19 51.17 51.16 51.14 51.13 51.11 51.10 51.08 51.07 51.06 51.04 51.03 51.02 51.01 51.00 50.99 50.98 50.97 50.96 50.95 50.94 50.93 50.92 50.92 50.91 50.90 50.90 50.89 50.89 50.88 50.88 50.88 50.88 50.87 50.87 50.87 50.87 50.87 50.87 50.87 50.87 50.87 50.87 50.88 50.88 50.88 50.89 50.89 50.90 50.90 50.91 50.91 50.92 50.93 50.93 50.94 50.95 50.96 50.97 50.98 50.99 51.00 51.01 51.02 51.03 51.04 51.05 51.06 51.07 51.08 51.10 51.11 51.12 51.13 51.15 51.16 51.17 51.18 51.20 51.21 51.22 51.24 51.25 51.26 51.28 51.29 51.30 51.32 51.33 51.34 51.35 51.37 51.38 51.39 51.40 51.42 51.43 51.44 51.45 51.46 51.47 51.48 51.49 51.50 51.51 51.52 51.53 51.54 51.55 51.56 51.57 51.57 51.58 51.59 51.59 51.60 51.60 51.61 51.61 51.62 51.62 51.62 51.63 51.63 51.63 51.63 51.63 51.63 51.63 51.63 51.63 51.63 51.62 51.62 51.62 51.62 51.61 51.61 51.60 51.60 51.59 51.58 51.58 51.57 51.56 51.55 51.54 51.53 51.52 51.51 51.50 51.49 51.48 51.47 51.46 51.44 51.43 51.42 51.40 51.39 51.37 51.36 51.34 51.33 51.31 51.30 51.28 51.26 51.25 51.23 51.21 51.20 51.18 51.16 51.14 51.13 51.11 51.09 51.07 51.05 51.04 51.02 51.00 50.98 50.96 50.95 50.93 50.91 50.89 50.87 50.86 50.84 50.82 50.80 50.79 50.77 50.75 50.74 50.72 50.70 50.69 50.67 50.66 50.64 50.63 50.61 50.60 50.58 50.57 50.56 50.54 50.53 50.52 50.51 50.50 50.49 50.48 50.47 50.46 50.45 50.44 50.43 50.42 50.42 50.41 50.40 50.40 50.39 50.39 50.38 50.38 50.38 50.38 50.37 50.37 50.37 50.37 50.37 50.37 50.37 50.37 50.37 50.37 50.38 50.38 50.38 50.39 50.39 50.40 50.40 50.41 50.41 50.42 50.43 50.43 50.44 50.45 50.46 50.47 50.48 50.49 50.50 50.51 50.52 50.53 50.54 50.55 50.56 50.57 50.58 50.60 50.61 50.62 50.63 50.65 50.66 50.67 50.68 50.70 50.71 50.72 50.74 50.75 50.76 50.78 50.79 50.80 50.82 50.83 50.84 50.85 50.87 50.88 50.89 50.90 50.92 50.93 50.94 50.95 50.96 50.97 50.98 50.99 51.00 51.01 51.02 51.03 51.04 51.05 51.06 51.07 51.07 51.08 51.09 51.09 51.10 51.10 51.11 51.11 51.12 51.12 51.12 51.13 51.13 51.13 51.13 51.13 51.13 51.13 51.13 51.13 51.13 51.12 51.12 51.12 51.12 51.11 51.11 51.10 51.10 51.09 51.08 51.08 51.07 51.06 51.05 51.04 51.03 51.02 51.01 51.00 50.99 50.98 50.97 50.96 50.94 50.93 50.92 50.90 50.89 50.87 50.86 50.84 50.83 50.81 50.80 50.78 50.76 50.75 50.73 50.71 50.70 50.68 50.66 50.64 50.63 50.61 50.59 50.57 50.55 50.54 50.52 50.50 50.48 50.46 50.45 50.43 50.41 50.39 50.37 50.36 50.34 50.32 50.30 50.29 50.27 50.25 50.24 50.22 50.20 50.19 50.17 50.16 50.14 50.13 50.11 50.10 50.08 50.07 50.06 50.04 50.03 50.02 50.01 50.00 49.99 49.98 49.97 49.96 49.95 49.94 49.93 49.92 49.92 49.91 49.90 49.90 49.89 49.89 49.88 49.88 49.88 49.88 49.87 49.87 49.87 49.87 49.87 49.87 49.87 49.87 49.87 49.87 49.88 49.88 49.88 49.89 49.89 49.90 49.90 49.91 49.91 49.92 49.93 49.93 49.94 49.95 49.96 49.97 49.98 49.99 50.00 50.01 50.02 50.03 50.04 50.05 50.06 50.07 50.08 50.10 50.11 50.12 50.13 50.15 50.16 50.17 50.18 50.20 50.21 50.22 50.24
51.80 51.81 51.83 51.84 51.85 51.87 51.88 51.89 51.90 51.92 51.93 51.94 51.95 51.97 51.98 51.99 52.00 52.01 52.02 52.03 52.04 52.05 52.06 52.07 52.08 52.09 52.10 52.11 52.12 52.12 52.13 52.14 52.14 52.15 52.15 52.16 52.16 52.17 52.17 52.17 52.18 52.18 52.18 52.18 52.18 52.18 52.18 52.18 52.18 52.18 52.17 52.17 52.17 52.17 52.16 52.16 52.15 52.15 52.14 52.13 52.13 52.12 52.11 52.10 52.09 52.08 52.07 52.06 52.05 52.04 52.03 52.02 52.01 51.99 51.98 51.97 51.95 51.94 51.92 51.91 51.89 51.88 51.86 51.85 51.83 51.81 51.80 51.78 51.76 51.75 51.73 51.71 51.69 51.68 51.66 51.64 51.62 51.60 51.59 51.57 51.55 51.53 51.51 51.50 51.48 51.46 51.44 51.42 51.41 51.39 51.37 51.35 51.34 51.32 51.30 51.29 51.27 51.25 51.24 51.22 51.21 51.19 51.18 51.16 51.15 51.13 51.12 51.11 51.09 51.08 51.07 51.06 51.05 51.04 51.03 51.02 51.01 51.00 50.99 50.98 50.97 50.97 50.96 50.95 50.95 50.94 50.94 50.93 50.93 50.93 50.92 50.92 50.92 50.92 50.92 50.92 50.92 50.92 50.92 50.92 50.92 50.93 50.93 50.93 50.94 50.94 50.95 50.95 50.96 50.96 50.97 50.98 50.98 50.99 51.00 51.01 51.02 51.03 51.04 51.05 51.06 51.07 51.08 51.09 51.10 51.11 51.12 51.13 51.15 51.16 51.17 51.18 51.20 51.21 51.22 51.23 51.25 51.26 51.27 51.29 51.30 51.31 51.33 51.34 51.35 51.37 51.38 51.39 51.40 51.42 51.43 51.44 51.45 51.47 51.48 51.49 51.50 51.51 51.52 51.53 51.54 51.55 51.56 51.57 51.58 51.59 51.60 51.61 51.62 51.62 51.63 51.64 51.64 51.65 51.65 51.66 51.66 51.67 51.67 51.67 51.68 51.68 51.68 51.68 51.68 51.68 51.68 51.68 51.68 51.68 51.67 51.67 51.67 51.67 51.66 51.66 51.65 51.65 51.64 51.63 51.63 51.62 51.61 51.60 51.59 51.58 51.57 51.56 51.55 51.54 51.53 51.52 51.51 51.49 51.48 51.47 51.45 51.44 51.42 51.41 51.39 51.38 51.36 51.35 51.33 51.31 51.30 51.28 51.26 51.25 51.23 51.21 51.19 51.18 51.16 51.14 51.12 51.10 51.09 51.07 51.05 51.03 51.01 51.00 50.98 50.96 50.94 50.92 50.91 50.89 50.87 50.85 50.84 50.82 50.80 50.79 50.77 50.75 50.74 50.72 50.71 50.69 50.68 50.66 50.65 50.63 50.62 50.61 50.59 50.58 50.57 50.56 50.55 50.54 50.53 50.52 50.51 50.50 50.49 50.48 50.47 50.47 50.46 50.45 50.45 50.44 50.44 50.43 50.43 50.43 50.42 50.42 50.42 50.42 50.42 50.42 50.42 50.42 50.42 50.42 50.42 50.43 50.43 50.43 50.44 50.44 50.45 50.45 50.46 50.46 50.47 50.48 50.48 50.49 50.50 50.51 50.52 50.53 50.54 50.55 50.56 50.57 50.58 50.59 50.60 50.61 50.62 50.63 50.65 50.66 50.67 50.68 50.70 50.71 50.72 50.73 50.75 50.76 50.77 50.79 50.80 50.81 50.83 50.84 50.85 50.87 50.88 50.89 50.90 50.92 50.93 50.94 50.95 50.97 50.98 50.99 51.00 51.01 51.02 51.03 51.04 51.05 51.06 51.07 51.08 51.09 51.10 51.11 51.12 51.12 51.13 51.14 51.14 51.15 51.15 51.16 51.16 51.17 51.17 51.17 51.18 51.18 51.18 51.18 51.18 51.18 51.18 51.18 51.18 51.18 51.17 51.17 51.17 51.17 51.16 51.16 51.15 51.15 51.14 51.13 51.13 51.12 51.11 51.10 51.09 51.08 51.07 51.06 51.05 51.04 51.03 51.02 51.01 50.99 50.98 50.97 50.95 50.94 50.92 50.91 50.89 50.88 50.86 50.85 50.83 50.81 50.80 50.78 50.76 50.75 50.73 50.71 50.69 50.68 50.66 50.64 50.62 50.60 50.59 50.57 50.55 50.53 50.51 50.50 50.48 50.46 50.44 50.42 50.41 50.39 50.37 50.35 50.34 50.32 50.30 50.29 50.27 50.25 50.24 50.22 50.21 50.19 50.18 50.16 50.15 50.13 50.12 50.11 50.09 50.08 50.07 50.06 50.05 50.04 50.03 50.02 50.01 50.00 49.99 49.98 49.97 49.97 49.96 49.95 49.95 49.94 49.94 49.93 49.93 49.93 49.92 49.92 49.92 49.92 49.92 49.92 49.92 49.92 49.92 49.92 49.92 49.93 49.93 49.93 49.94 49.94 49.95 49.95 49.96 49.96 49.97 49.98 49.98 49.99 50.00 50.01 50.02 50.03 50.04 50.05 50.06 50.07 50.08 50.09 50.10 50.11 50.12 50.13 50.15 50.16 50.17 50.18 50.20 50.21 50.22 50.23 50.25 50.26 50.27 50.29
51.85 51.86 51.88 51.89 51.90 51.92 51.93 51.94 51.95 51.97 51.98 51.99 52.00 52.02 52.03 52.04 52.05 52.06 52.07 52.08 52.09 52.10 52.11 52.12 52.13 52.14 52.15 52.16 52.17 52.17 52.18 52.19 52.19 52.20 52.20 52.21 52.21 52.22 52.22 52.22 52.23 52.23 52.23 52.23 52.23 52.23 52.23 52.23 52.23 52.23 52.23 52.22 52.22 52.22 52.21 52.21 52.20 52.20 52.19 52.18 52.18 52.17 52.16 52.15 52.14 52.13 52.12 52.11 52.10 52.09 52.08 52.07 52.06 52.04 52.03 52.02 52.00 51.99 51.97 51.96 51.94 51.93 51.91 51.90 51.88 51.86 51.85 51.83 51.81 51.80 51.78 51.76 51.74 51.73 51.71 51.69 51.67 51.65 51.64 51.62 51.60 51.58 51.56 51.55 51.53 51.51 51.49 51.47 51.46 51.44 51.42 51.40 51.39 51.37 51.35 51.34 51.32 51.30 51.29 51.27 51.26 51.24 51.23 51.21 51.20 51.18 51.17 51.16 51.14 51.13 51.12 51.11 51.10 51.09 51.08 51.07 51.06 51.05 51.04 51.03 51.02 51.02 51.01 51.00 51.00 50.99 50.99 50.98 50.98 50.98 50.98 50.97 50.97 50.97 50.97 50.97 50.97 50.97 50.97 50.97 50.97 50.98 50.98 50.98 50.99 50.99 51.00 51.00 51.01 51.01 51.02 51.03 51.03 51.04 51.05 51.06 51.07 51.08 51.09 51.10 51.11 51.12 51.13 51.14 51.15 51.16 51.17 51.18 51.20 51.21 51.22 51.23 51.25 51.26 51.27 51.28 51.30 51.31 51.32 51.34 51.35 51.36 51.38 51.39 51.40 51.42 51.43 51.44 51.45 51.47 51.48 51.49 51.50 51.52 51.53 51.54 51.55 51.56 51.57 51.58 51.59 51.60 51.61 51.62 51.63 51.64 51.65 51.66 51.67 51.67 51.68 51.69 51.69 51.70 51.70 51.71 51.71 51.72 51.72 51.72 51.73 51.73 51.73 51.73 51.73 51.73 51.73 51.73 51.73 51.73 51.73 51.72 51.72 51.72 51.71 51.71 51.70 51.70 51.69 51.68 51.68 51.67 51.66 51.65 51.64 51.63 51.62 51.61 51.60 51.59 51.58 51.57 51.56 51.54 51.53 51.52 51.50 51.49 51.47 51.46 51.44 51.43 51.41 51.40 51.38 51.36 51.35 51.33 51.31 51.30 51.28 51.26 51.24 51.23 51.21 51.19 51.17 51.15 51.14 51.12 51.10 51.08 51.06 51.05 51.03 51.01 50.99 50.97 50.96 50.94 50.92 50.90 50.89 50.87 50.85 50.84 50.82 50.80 50.79 50.77 50.76 50.74 50.73 50.71 50.70 50.68 50.67 50.66 50.64 50.63 50.62 50.61 50.60 50.59 50.58 50.57 50.56 50.55 50.54 50.53 50.52 50.52 50.51 50.50 50.50 50.49 50.49 50.48 50.48 50.48 50.48 50.47 50.47 50.47 50.47 50.47 50.47 50.47 50.47 50.47 50.47 50.48 50.48 50.48 50.49 50.49 50.50 50.50 50.51 50.51 50.52 50.53 50.53 50.54 50.55 50.56 50.57 50.58 50.59 50.60 50.61 50.62 50.63 50.64 50.65 50.66 50.67 50.68 50.70 50.71 50.72 50.73 50.75 50.76 50.77 50.78 50.80 50.81 50.82 50.84 50.85 50.86 50.88 50.89 50.90 50.92 50.93 50.94 50.95 50.97 50.98 50.99 51.00 51.02 51.03 51.04 51.05 51.06 51.07 51.08 51.09 51.10 51.11 51.12 51.13 51.14 51.15 51.16 51.17 51.17 51.18 51.19 51.19 51.20 51.20 51.21 51.21 51.22 51.22 51.22 51.23 51.23 51.23 51.23 51.23 51.23 51.23 51.23 51.23 51.23 51.23 51.22 51.22 51.22 51.21 51.21 51.20 51.20 51.19 51.18 51.18 51.17 51.16 51.15 51.14 51.13 51.12 51.11 51.10 51.09 51.08 51.07 51.06 51.04 51.03 51.02 51.00 50.99 50.97 50.96 50.94 50.93 50.91 50.90 50.88 50.86 50.85 50.83 50.81 50.80 50.78 50.76 50.74 50.73 50.71 50.69 50.67 50.65 50.64 50.62 50.60 50.58 50.56 50.55 50.53 50.51 50.49 50.47 50.46 50.44 50.42 50.40 50.39 50.37 50.35 50.34 50.32 50.30 50.29 50.27 50.26 50.24 50.23 50.21 50.20 50.18 50.17 50.16 50.14 50.13 50.12 50.11 50.10 50.09 50.08 50.07 50.06 50.05 50.04 50.03 50.02 50.02 50.01 50.00 50.00 49.99 49.99 49.98 49.98 49.98 49.98 49.97 49.97 49.97 49.97 49.97 49.97 49.97 49.97 49.97 49.97 49.98 49.98 49.98 49.99 49.99 50.00 50.00 50.01 50.01 50.02 50.03 50.03 50.04 50.05 50.06 50.07 50.08 50.09 50.10 50.11 50.12 50.13 50.14 50.15 50.16 50.17 50.18 50.20 50.21 50.22 50.23 50.25 50.26 50.27 50.28 50.30 50.31 50.32 50.34
51.90 51.91 51.93 51.94 51.95 51.97 51.98 51.99 52.00 52.02 52.03 52.04 52.05 52.07 52.08 52.09 52.10 52.11 52.12 52.13 52.14 52.15 52.16 52.17 52.18 52.19 52.20 52.21 52.22 52.22 52.23 52.24 52.24 52.25 52.25 52.26 52.26 52.27 52.27 52.27 52.28 52.28 52.28 52.28 52.28 52.28 52.28 52.28 52.28 52.28 52.27 52.27 52.27 52.27 52.26 52.26 52.25 52.25 52.24 52.23 52.23 52.22 52.21 52.20 52.19 52.18 52.17 52.16 52.15 52.14 52.13 52.12 52.11 52.09 52.08 52.07 52.05 52.04 52.02 52.01 51.99 51.98 51.96 51.95 51.93 51.91 51.90 51.88 51.86 51.85 51.83 51.81 51.79 51.78 51.76 51.74 51.72 51.70 51.69 51.67 51.65 51.63 51.61 51.60 51.58 51.56 51.54 51.52 51.51 51.49 51.47 51.45 51.44 51.42 51.40 51.39 51.37 51.35 51.34 51.32 51.31 51.29 51.28 51.26 51.25 51.23 51.22 51.21 51.19 51.18 51.17 51.16 51.15 51.14 51.13 51.12 51.11 51.10 51.09 51.08 51.07 51.07 51.06 51.05 51.05 51.04 51.04 51.03 51.03 51.03 51.02 51.02 51.02 51.02 51.02 51.02 51.02 51.02 51.02 51.02 51.02 51.03 51.03 51.03 51.04 51.04 51.05 51.05 51.06 51.06 51.07 51.08 51.08 51.09 51.10 51.11 51.12 51.13 51.14 51.15 51.16 51.17 51.18 51.19 51.20 51.21 51.22 51.23 51.25 51.26 51.27 51.28 51.30 51.31 51.32 51.33 51.35 51.36 51.37 51.39 51.40 51.41 51.43 51.44 51.45 51.47 51.48 51.49 51.50 51.52 51.53 51.54 51.55 51.57 51.58 51.59 51.60 51.61 51.62 51.63 51.64 51.65 51.66 51.67 51.68 51.69 51.70 51.71 51.72 51.72 51.73 51.74 51.74 51.75 51.75 51.76 51.76 51.77 51.77 51.77 51.78 51.78 51.78 51.78 51.78 51.78 51.78 51.78 51.78 51.78 51.77 51.77 51.77 51.77 51.76 51.76 51.75 51.75 51.74 51.73 51.73 51.72 51.71 51.70 51.69 51.68 51.67 51.66 51.65 51.64 51.63 51.62 51.61 51.59 51.58 51.57 51.55 51.54 51.52 51.51 51.49 51.48 51.46 51.45 51.43 51.41 51.40 51.38 51.36 51.35 51.33 51.31 51.29 51.28 51.26 51.24 51.22 51.20 51.19 51.17 51.15 51.13 51.11 51.10 51.08 51.06 51.04 51.02 51.01 50.99 50.97 50.95 50.94 50.92 50.90 50.89 50.87 50.85 50.84 50.82 50.81 50.79 50.78 50.76 50.75 50.73 50.72 50.71 50.69 50.68 50.67 50.66 50.65 50.64 50.63 50.62 50.61 50.60 50.59 50.58 50.57 50.57 50.56 50.55 50.55 50.54 50.54 50.53 50.53 50.53 50.52 50.52 50.52 50.52 50.52 50.52 50.52 50.52 50.52 50.52 50.52 50.53 50.53 50.53 50.54 50.54 50.55 50.55 50.56 50.56 50.57 50.58 50.58 50.59 50.60 50.61 50.62 50.63 50.64 50.65 50.66 50.67 50.68 50.69 50.70 50.71 50.72 50.73 50.75 50.76 50.77 50.78 50.80 50.81 50.82 50.83 50.85 50.86 50.87 50.89 50.90 50.91 50.93 50.94 50.95 50.97 50.98 50.99 51.00 51.02 51.03 51.04 51.05 51.07 51.08 51.09 51.10 51.11 51.12 51.13 51.14 51.15 51.16 51.17 51.18 51.19 51.20 51.21 51.22 51.22 51.23 51.24 51.24 51.25 51.25 51.26 51.26 51.27 51.27 51.27 51.28 51.28 51.28 51.28 51.28 51.28 51.28 51.28 51.28 51.28 51.27 51.27 51.27 51.27 51.26 51.26 51.25 51.25 51.24 51.23 51.23 51.22 51.21 51.20 51.19 51.18 51.17 51.16 51.15 51.14 51.13 51.12 51.11 51.09 51.08 51.07 51.05 51.04 51.02 51.01 50.99 50.98 50.96 50.95 50.93 50.91 50.90 50.88 50.86 50.85 50.83 50.81 50.79 50.78 50.76 50.74 50.72 50.70 50.69 50.67 50.65 50.63 50.61 50.60 50.58 50.56 50.54 50.52 50.51 50.49 50.47 50.45 50.44 50.42 50.40 50.39 50.37 50.35 50.34 50.32 50.31 50.29 50.28 50.26 50.25 50.23 50.22 50.21 50.19 50.18 50.17 50.16 50.15 50.14 50.13 50.12 50.11 50.10 50.09 50.08 50.07 50.07 50.06 50.05 50.05 50.04 50.04 50.03 50.03 50.03 50.02 50.02 50.02 50.02 50.02 50.02 50.02 50.02 50.02 50.02 50.02 50.03 50.03 50.03 50.04 50.04 50.05 50.05 50.06 50.06 50.07 50.08 50.08 50.09 50.10 50.11 50.12 50.13 50.14 50.15 50.16 50.17 50.18 50.19 50.20 50.21 50.22 50.23 50.25 50.26 50.27 50.28 50.30 50.31 50.32 50.33 50.35 50.36 50.37 50.39
51.95 51.96 51.98 51.99 52.00 52.02 52.03 52.04 52.05 52.07 52.08 52.09 52.10 52.12 52.13 52.14 52.15 52.16 52.17 52.18 52.19 52.20 52.21 52.22 52.23 52.24 52.25 52.26 52.27 52.27 52.28 52.29 52.29 52.30 52.30 52.31 52.31 52.32 52.32 52.32 52.33 52.33 52.33 52.33 52.33 52.33 52.33 52.33 52.33 52.33 52.33 52.32 52.32 52.32 52.31 52.31 52.30 52.30 52.29 52.28 52.28 52.27 52.26 52.25 52.24 52.23 52.22 52.21 52.20 52.19 52.18 52.17 52.16 52.14 52.13 52.12 52.10 52.09 52.07 52.06 52.04 52.03 52.01 52.00 51.98 51.96 51.95 51.93 51.91 51.90 51.88 51.86 51.84 51.83 51.81 51.79 51.77 51.75 51.74 51.72 51.70 51.68 51.66 51.65 51.63 51.61 51.59 51.57 51.56 51.54 51.52 51.50 51.49 51.47 51.45 51.44 51.42 51.40 51.39 51.37 51.36 51.34 51.33 51.31 51.30 51.28 51.27 51.26 51.24 51.23 51.22 51.21 51.20 51.19 51.18 51.17 51.16 51.15 51.14 51.13 51.12 51.12 51.11 51.10 51.10 51.09 51.09 51.08 51.08 51.08 51.08 51.07 51.07 51.07 51.07 51.07 51.07 51.07 51.07 51.07 51.07 51.08 51.08 51.08 51.09 51.09 51.10 51.10 51.11 51.11 51.12 51.13 51.13 51.14 51.15 51.16 51.17 51.18 51.19 51.20 51.21 51.22 51.23 51.24 51.25 51.26 51.27 51.28 51.30 51.31 51.32 51.33 51.35 51.36 51.37 51.38 51.40 51.41 51.42 51.44 51.45 51.46 51.48 51.49 51.50 51.52 51.53 51.54 51.55 51.57 51.58 51.59 51.60 51.62 51.63 51.64 51.65 51.66 51.67 51.68 51.69 51.70 51.71 51.72 51.73 51.74 51.75 51.76 51.77 51.77 51.78 51.79 51.79 51.80 51.80 51.81 51.81 51.82 51.82 51.82 51.83 51.83 51.83 51.83 51.83 51.83 51.83 51.83 51.83 51.83 51.83 51.82 51.82 51.82 51.81 51.81 51.80 51.80 51.79 51.78 51.78 51.77 51.76 51.75 51.74 51.73 51.72 51.71 51.70 51.69 51.68 51.67 51.66 51.64 51.63 51.62 51.60 51.59 51.57 51.56 51.54 51.53 51.51 51.50 51.48 51.46 51.45 51.43 51.41 51.40 51.38 51.36 51.34 51.33 51.31 51.29 51.27 51.25 51.24 51.22 51.20 51.18 51.16 51.15 51.13 51.11 51.09 51.07 51.06 51.04 51.02 51.00 50.99 50.97 50.95 50.94 50.92 50.90 50.89 50.87 50.86 50.84 50.83 50.81 50.80 50.78 50.77 50.76 50.74 50.73 50.72 50.71 50.70 50.69 50.68 50.67 50.66 50.65 50.64 50.63 50.62 50.62 50.61 50.60 50.60 50.59 50.59 50.58 50.58 50.58 50.58 50.57 50.57 50.57 50.57 50.57 50.57 50.57 50.57 50.57 50.57 50.58 50.58 50.58 50.59 50.59 50.60 50.60 50.61 50.61 50.62 50.63 50.63 50.64 50.65 50.66 50.67 50.68 50.69 50.70 50.71 50.72 50.73 50.74 50.75 50.76 50.77 50.78 50.80 50.81 50.82 50.83 50.85 50.86 50.87 50.88 50.90 50.91 50.92 50.94 50.95 50.96 50.98 50.99 51.00 51.02 51.03 51.04 51.05 51.07 51.08 51.09 51.10 51.12 51.13 51.14 51.15 51.16 51.17 51.18 51.19 51.20 51.21 51.22 51.23 51.24 51.25 51.26 51.27 51.27 51.28 51.29 51.29 51.30 51.30 51.31 51.31 51.32 51.32 51.32 51.33 51.33 51.33 51.33 51.33 51.33 51.33 51.33 51.33 51.33 51.33 51.32 51.32 51.32 51.31 51.31 51.30 51.30 51.29 51.28 51.28 51.27 51.26 51.25 51.24 51.23 51.22 51.21 51.20 51.19 51.18 51.17 51.16 51.14 51.13 51.12 51.10 51.09 51.07 51.06 51.04 51.03 51.01 51.00 50.98 50.96 50.95 50.93 50.91 50.90 50.88 50.86 50.84 50.83 50.81 50.79 50.77 50.75 50.74 50.72 50.70 50.68 50.66 50.65 50.63 50.61 50.59 50.57 50.56 50.54 50.52 50.50 50.49 50.47 50.45 50.44 50.42 50.40 50.39 50.37 50.36 50.34 50.33 50.31 50.30 50.28 50.27 50.26 50.24 50.23 50.22 50.21 50.20 50.19 50.18 50.17 50.16 50.15 50.14 50.13 50.12 50.12 50.11 50.10 50.10 50.09 50.09 50.08 50.08 50.08 50.08 50.07 50.07 50.07 50.07 50.07 50.07 50.07 50.07 50.07 50.07 50.08 50.08 50.08 50.09 50.09 50.10 50.10 50.11 50.11 50.12 50.13 50.13 50.14 50.15 50.16 50.17 50.18 50.19 50.20 50.21 50.22 50.23 50.24 50.25 50.26 50.27 50.28 50.30 50.31 50.32 50.33 50.35 50.36 50.37 50.38 50.40 50.41 50.42 50.44
52.00 52.01 52.03 52.04 52.05 52.07 52.08 52.09 52.10 52.12 52.13 52.14 52.15 52.17 52.18 52.19 52.20 52.21 52.22 52.23 52.24 52.25 52.26 52.27 52.28 52.29 52.30 52.31 52.32 52.32 52.33 52.34 52.34 52.35 52.35 52.36 52.36 52.37 52.37 52.37 52.38 52.38 52.38 52.38 52.38 52.38 52.38 52.38 52.38 52.38 52.38 52.37 52.37 52.37 52.36 52.36 52.35 52.35 52.34 52.33 52.33 52.32 52.31 52.30 52.29 52.28 52.27 52.26 52.25 52.24 52.23 52.22 52.21 52.19 52.18 52.17 52.15 52.14 52.12 52.11 52.09 52.08 52.06 52.05 52.03 52.01 52.00 51.98 51.96 51.95 51.93 51.91 51.89 51.88 51.86 51.84 51.82 51.80 51.79 51.77 51.75 51.73 51.71 51.70 51.68 51.66 51.64 51.62 51.61 51.59 51.57 51.55 51.54 51.52 51.50 51.49 51.47 51.45 51.44 51.42 51.41 51.39 51.38 51.36 51.35 51.33 51.32 51.31 51.29 51.28 51.27 51.26 51.25 51.24 51.23 51.22 51.21 51.20 51.19 51.18 51.17 51.17 51.16 51.15 51.15 51.14 51.14 51.13 51.13 51.13 51.12 51.12 51.12 51.12 51.12 51.12 51.12 51.12 51.12 51.12 51.12 51.13 51.13 51.13 51.14 51.14 51.15 51.15 51.16 51.16 51.17 51.18 51.18 51.19 51.20 51.21 51.22 51.23 51.24 51.25 51.26 51.27 51.28 51.29 51.30 51.31 51.32 51.33 51.35 51.36 51.37 51.38 51.40 51.41 51.42 51.43 51.45 51.46 51.47 51.49 51.50 51.51 51.53 51.54 51.55 51.57 51.58 51.59 51.60 51.62 51.63 51.64 51.65 51.67 51.68 51.69 51.70 51.71 51.72 51.73 51.74 51.75 51.76 51.77 51.78 51.79 51.80 51.81 51.82 51.82 51.83 51.84 51.84 51.85 51.85 51.86 51.86 51.87 51.87 51.87 51.88 51.88 51.88 51.88 51.88 51.88 51.88 51.88 51.88 51.88 51.88 51.87 51.87 51.87 51.86 51.86 51.85 51.85 51.84 51.83 51.83 51.82 51.81 51.80 51.79 51.78 51.77 51.76 51.75 51.74 51.73 51.72 51.71 51.69 51.68 51.67 51.65 51.64 51.62 51.61 51.59 51.58 51.56 51.55 51.53 51.51 51.50 51.48 51.46 51.45 51.43 51.41 51.39 51.38 51.36 51.34 51.32 51.30 51.29 51.27 51.25 51.23 51.21 51.20 51.18 51.16 51.14 51.12 51.11 51.09 51.07 51.05 51.04 51.02 51.00 50.99 50.97 50.95 50.94 50.92 50.91 50.89 50.88 50.86 50.85 50.83 50.82 50.81 50.79 50.78 50.77 50.76 50.75 50.74 50.73 50.72 50.71 50.70 50.69 50.68 50.67 50.67 50.66 50.65 50.65 50.64 50.64 50.63 50.63 50.63 50.62 50.62 50.62 50.62 50.62 50.62 50.62 50.62 50.62 50.62 50.62 50.63 50.63 50.63 50.64 50.64 50.65 50.65 50.66 50.66 50.67 50.68 50.68 50.69 50.70 50.71 50.72 50.73 50.74 50.75 50.76 50.77 50.78 50.79 50.80 50.81 50.82 50.83 50.85 50.86 50.87 50.88 50.90 50.91 50.92 50.93 50.95 50.96 50.97 50.99 51.00 51.01 51.03 51.04 51.05 51.07 51.08 51.09 51.10 51.12 51.13 51.14 51.15 51.17 51.18 51.19 51.20 51.21 51.22 51.23 51.24 51.25 51.26 51.27 51.28 51.29 51.30 51.31 51.32 51.32 51.33 51.34 51.34 51.35 51.35 51.36 51.36 51.37 51.37 51.37 51.38 51.38 51.38 51.38 51.38 51.38 51.38 51.38 51.38 51.38 51.38 51.37 51.37 51.37 51.36 51.36 51.35 51.35 51.34 51.33 51.33 51.32 51.31 51.30 51.29 51.28 51.27 51.26 51.25 51.24 51.23 51.22 51.21 51.19 51.18 51.17 51.15 51.14 51.12 51.11 51.09 51.08 51.06 51.05 51.03 51.01 51.00 50.98 50.96 50.95 50.93 50.91 50.89 50.88 50.86 50.84 50.82 50.80 50.79 50.77 50.75 50.73 50.71 50.70 50.68 50.66 50.64 50.62 50.61 50.59 50.57 50.55 50.54 50.52 50.50 50.49 50.47 50.45 50.44 50.42 50.41 50.39 50.38 50.36 50.35 50.33 50.32 50.31 50.29 50.28 50.27 50.26 50.25 50.24 50.23 50.22 50.21 50.20 50.19 50.18 50.17 50.17 50.16 50.15 50.15 50.14 50.14 50.13 50.13 50.13 50.12 50.12 50.12 50.12 50.12 50.12 50.12 50.12 50.12 50.12 50.12 50.13 50.13 50.13 50.14 50.14 50.15 50.15 50.16 50.16 50.17 50.18 50.18 50.19 50.20 50.21 50.22 50.23 50.24 50.25 50.26 50.27 50.28 50.29 50.30 50.31 50.32 50.33 50.35 50.36 50.37 50.38 50.40 50.41 50.42 50.43 50.45 50.46 50.47 50.49
52.05 52.06 52.08 52.09 52.10 52.12 52.13 52.14 52.15 52.17 52.18 52.19 52.20 52.22 52.23 52.24 52.25 52.26 52.27 52.28 52.29 52.30 52.31 52.32 52.33 52.34 52.35 52.36 52.37 52.37 52.38 52.39 52.39 52.40 52.40 52.41 52.41 52.42 52.42 52.42 52.43 52.43 52.43 52.43 52.43 52.43 52.43 52.43 52.43 52.43 52.42 52.42 52.42 52.42 52.41 52.41 52.40 52.40 52.39 52.38 52.38 52.37 52.36 52.35 52.34 52.33 52.32 52.31 52.30 52.29 52.28 52.27 52.26 52.24 52.23 52.22 52.20 52.19 52.17 52.16 52.14 52.13 52.11 52.10 52.08 52.06 52.05 52.03 52.01 52.00 51.98 51.96 51.94 51.93 51.91 51.89 51.87 51.85 51.84 51.82 51.80 51.78 51.76 51.75 51.73 51.71 51.69 51.67 51.66 51.64 51.62 51.60 51.59 51.57 51.55 51.54 51.52 51.50 51.49 51.47 51.46 51.44 51.43 51.41 51.40 51.38 51.37 51.36 51.34 51.33 51.32 51.31 51.30 51.29 51.28 51.27 51.26 51.25 51.24 51.23 51.22 51.22 51.21 51.20 51.20 51.19 51.19 51.18 51.18 51.18 51.17 51.17 51.17 51.17 51.17 51.17 51.17 51.17 51.17 51.17 51.17 51.18 51.18 51.18 51.19 51.19 51.20 51.20 51.21 51.21 51.22 51.23 51.23 51.24 51.25 51.26 51.27 51.28 51.29 51.30 51.31 51.32 51.33 51.34 51.35 51.36 51.37 51.38 51.40 51.41 51.42 51.43 51.45 51.46 51.47 51.48 51.50 51.51 51.52 51.54 51.55 51.56 51.58 51.59 51.60 51.62 51.63 51.64 51.65 51.67 51.68 51.69 51.70 51.72 51.73 51.74 51.75 51.76 51.77 51.78 51.79 51.80 51.81 51.82 51.83 51.84 51.85 51.86 51.87 51.87 51.88 51.89 51.89 51.90 51.90 51.91 51.91 51.92 51.92 51.92 51.93 51.93 51.93 51.93 51.93 51.93 51.93 51.93 51.93 51.93 51.92 51.92 51.92 51.92 51.91 51.91 51.90 51.90 51.89 51.88 51.88 51.87 51.86 51.85 51.84 51.83 51.82 51.81 51.80 51.79 51.78 51.77 51.76 51.74 51.73 51.72 51.70 51.69 51.67 51.66 51.64 51.63 51.61 51.60 51.58 51.56 51.55 51.53 51.51 51.50 51.48 51.46 51.44 51.43 51.41 51.39 51.37 51.35 51.34 51.32 51.30 51.28 51.26 51.25 51.23 51.21 51.19 51.17 51.16 51.14 51.12 51.10 51.09 51.07 51.05 51.04 51.02 51.00 50.99 50.97 50.96 50.94 50.93 50.91 50.90 50.88 50.87 50.86 50.84 50.83 50.82 50.81 50.80 50.79 50.78 50.77 50.76 50.75 50.74 50.73 50.72 50.72 50.71 50.70 50.70 50.69 50.69 50.68 50.68 50.68 50.67 50.67 50.67 50.67 50.67 50.67 50.67 50.67 50.67 50.67 50.67 50.68 50.68 50.68 50.69 50.69 50.70 50.70 50.71 50.71 50.72 50.73 50.73 50.74 50.75 50.76 50.77 50.78 50.79 50.80 50.81 50.82 50.83 50.84 50.85 50.86 50.87 50.88 50.90 50.91 50.92 50.93 50.95 50.96 50.97 50.98 51.00 51.01 51.02 51.04 51.05 51.06 51.08 51.09 51.10 51.12 51.13 51.14 51.15 51.17 51.18 51.19 51.20 51.22 51.23 51.24 51.25 51.26 51.27 51.28 51.29 51.30 51.31 51.32 51.33 51.34 51.35 51.36 51.37 51.37 51.38 51.39 51.39 51.40 51.40 51.41 51.41 51.42 51.42 51.42 51.43 51.43 51.43 51.43 51.43 51.43 51.43 51.43 51.43 51.43 51.42 51.42 51.42 51.42 51.41 51.41 51.40 51.40 51.39 51.38 51.38 51.37 51.36 51.35 51.34 51.33 51.32 51.31 51.30 51.29 51.28 51.27 51.26 51.24 51.23 51.22 51.20 51.19 51.17 51.16 51.14 51.13 51.11 51.10 51.08 51.06 51.05 51.03 51.01 51.00 50.98 50.96 50.94 50.93 50.91 50.89 50.87 50.85 50.84 50.82 50.80 50.78 50.76 50.75 50.73 50.71 50.69 50.67 50.66 50.64 50.62 50.60 50.59 50.57 50.55 50.54 50.52 50.50 50.49 50.47 50.46 50.44 50.43 50.41 50.40 50.38 50.37 50.36 50.34 50.33 50.32 50.31 50.30 50.29 50.28 50.27 50.26 50.25 50.24 50.23 50.22 50.22 50.21 50.20 50.20 50.19 50.19 50.18 50.18 50.18 50.17 50.17 50.17 50.17 50.17 50.17 50.17 50.17 50.17 50.17 50.17 50.18 50.18 50.18 50.19 50.19 50.20 50.20 50.21 50.21 50.22 50.23 50.23 50.24 50.25 50.26 50.27 50.28 50.29 50.30 50.31 50.32 50.33 50.34 50.35 50.36 50.37 50.38 50.40 50.41 50.42 50.43 50.45 50.46 50.47 50.48 50.50 50.51 50.52 50.54
52.10 52.11 52.13 52.14 52.15 52.17 52.18 52.19 52.20 52.22 52.23 52.24 52.25 52.27 52.28 52.29 52.30 52.31 52.32 52.33 52.34 52.35 52.36 52.37 52.38 52.39 52.40 52.41 52.42 52.42 52.43 52.44 52.44 52.45 52.45 52.46 52.46 52.47 52.47 52.47 52.48 52.48 52.48 52.48 52.48 52.48 52.48 52.48 52.48 52.48 52.48 52.47 52.47 52.47 52.46 52.46 52.45 52.45 52.44 52.43 52.43 52.42 52.41 52.40 52.39 52.38 52.37 52.36 52.35 52.34 52.33 52.32 52.31 52.29 52.28 52.27 52.25 52.24 52.22 52.21 52.19 52.18 52.16 52.15 52.13 52.11 52.10 52.08 52.06 52.05 52.03 52.01 51.99 51.98 51.96 51.94 51.92 51.90 51.89 51.87 51.85 51.83 51.81 51.80 51.78 51.76 51.74 51.72 51.71 51.69 51.67 51.65 51.64 51.62 51.60 51.59 51.57 51.55 51.54 51.52 51.51 51.49 51.48 51.46 51.45 51.43 51.42 51.41 51.39 51.38 51.37 51.36 51.35 51.34 51.33 51.32 51.31 51.30 51.29 51.28 51.27 51.27 51.26 51.25 51.25 51.24 51.24 51.23 51.23 51.23 51.23 51.22 51.22 51.22 51.22 51.22 51.22 51.22 51.22 51.22 51.22 51.23 51.23 51.23 51.24 51.24 51.25 51.25 51.26 51.26 51.27 51.28 51.28 51.29 51.30 51.31 51.32 51.33 51.34 51.35 51.36 51.37 51.38 51.39 51.40 51.41 51.42 51.43 51.45 51.46 51.47 51.48 51.50 51.51 51.52 51.53 51.55 51.56 51.57 51.59 51.60 51.61 51.63 51.64 51.65 51.67 51.68 51.69 51.70 51.72 51.73 51.74 51.75 51.77 51.78 51.79 51.80 51.81 51.82 51.83 51.84 51.85 51.86 51.87 51.88 51.89 51.90 51.91 51.92 51.92 51.93 51.94 51.94 51.95 51.95 51.96 51.96 51.97 51.97 51.97 51.98 51.98 51.98 51.98 51.98 51.98 51.98 51.98 51.98 51.98 51.98 51.97 51.97 51.97 51.96 51.96 51.95 51.95 51.94 51.93 51.93 51.92 51.91 51.90 51.89 51.88 51.87 51.86 51.85 51.84 51.83 51.82 51.81 51.79 51.78 51.77 51.75 51.74 51.72 51.71 51.69 51.68 51.66 51.65 51.63 51.61 51.60 51.58 51.56 51.55 51.53 51.51 51.49 51.48 51.46 51.44 51.42 51.40 51.39 51.37 51.35 51.33 51.31 51.30 51.28 51.26 51.24 51.22 51.21 51.19 51.17 51.15 51.14 51.12 51.10 51.09 51.07 51.05 51.04 51.02 51.01 50.99 50.98 50.96 50.95 50.93 50.92 50.91 50.89 50.88 50.87 50.86 50.85 50.84 50.83 50.82 50.81 50.80 50.79 50.78 50.77 50.77 50.76 50.75 50.75 50.74 50.74 50.73 50.73 50.73 50.73 50.72 50.72 50.72 50.72 50.72 50.72 50.72 50.72 50.72 50.72 50.73 50.73 50.73 50.74 50.74 50.75 50.75 50.76 50.76 50.77 50.78 50.78 50.79 50.80 50.81 50.82 50.83 50.84 50.85 50.86 50.87 50.88 50.89 50.90 50.91 50.92 50.93 50.95 50.96 50.97 50.98 51.00 51.01 51.02 51.03 51.05 51.06 51.07 51.09 51.10 51.11 51.13 51.14 51.15 51.17 51.18 51.19 51.20 51.22 51.23 51.24 51.25 51.27 51.28 51.29 51.30 51.31 51.32 51.33 51.34 51.35 51.36 51.37 51.38 51.39 51.40 51.41 51.42 51.42 51.43 51.44 51.44 51.45 51.45 51.46 51.46 51.47 51.47 51.47 51.48 51.48 51.48 51.48 51.48 51.48 51.48 51.48 51.48 51.48 51.48 51.47 51.47 51.47 51.46 51.46 51.45 51.45 51.44 51.43 51.43 51.42 51.41 51.40 51.39 51.38 51.37 51.36 51.35 51.34 51.33 51.32 51.31 51.29 51.28 51.27 51.25 51.24 51.22 51.21 51.19 51.18 51.16 51.15 51.13 51.11 51.10 51.08 51.06 51.05 51.03 51.01 50.99 50.98 50.96 50.94 50.92 50.90 50.89 50.87 50.85 50.83 50.81 50.80 50.78 50.76 50.74 50.72 50.71 50.69 50.67 50.65 50.64 50.62 50.60 50.59 50.57 50.55 50.54 50.52 50.51 50.49 50.48 50.46 50.45 50.43 50.42 50.41 50.39 50.38 50.37 50.36 50.35 50.34 50.33 50.32 50.31 50.30 50.29 50.28 50.27 50.27 50.26 50.25 50.25 50.24 50.24 50.23 50.23 50.23 50.23 50.22 50.22 50.22 50.22 50.22 50.22 50.22 50.22 50.22 50.22 50.23 50.23 50.23 50.24 50.24 50.25 50.25 50.26 50.26 50.27 50.28 50.28 50.29 50.30 50.31 50.32 50.33 50.34 50.35 50.36 50.37 50.38 50.39 50.40 50.41 50.42 50.43 50.45 50.46 50.47 50.48 50.50 50.51 50.52 50.53 50.55 50.56 50.57 50.59
52.15 52.16 52.18 52.19 52.20 52.22 52.23 52.24 52.25 52.27 52.28 52.29 52.30 52.32 52.33 52.34 52.35 52.36 52.37 52.38 52.39 52.40 52.41 52.42 52.43 52.44 52.45 52.46 52.47 52.47 52.48 52.49 52.49 52.50 52.50 52.51 52.51 52.52 52.52 52.52 52.53 52.53 52.53 52.53 52.53 52.53 52.53 52.53 52.53 52.53 52.52 52.52 52.52 52.52 52.51 52.51 52.50 52.50 52.49 52.48 52.48 52.47 52.46 52.45 52.44 52.43 52.42 52.41 52.40 52.39 52.38 52.37 52.36 52.34 52.33 52.32 52.30 52.29 52.27 52.26 52.24 52.23 52.21 52.20 52.18 52.16 52.15 52.13 52.11 52.10 52.08 52.06 52.04 52.03 52.01 51.99 51.97 51.95 51.94 51.92 51.90 51.88 51.86 51.85 51.83 51.81 51.79 51.77 51.76 51.74 51.72 51.70 51.69 51.67 51.65 51.64 51.62 51.60 51.59 51.57 51.56 51.54 51.53 51.51 51.50 51.48 51.47 51.46 51.44 51.43 51.42 51.41 51.40 51.39 51.38 51.37 51.36 51.35 51.34 51.33 51.32 51.32 51.31 51.30 51.30 51.29 51.29 51.28 51.28 51.28 51.27 51.27 51.27 51.27 51.27 51.27 51.27 51.27 51.27 51.27 51.27 51.28 51.28 51.28 51.29 51.29 51.30 51.30 51.31 51.31 51.32 51.33 51.33 51.34 51.35 51.36 51.37 51.38 51.39 51.40 51.41 51.42 51.43 51.44 51.45 51.46 51.47 51.48 51.50 51.51 51.52 51.53 51.55 51.56 51.57 51.58 51.60 51.61 51.62 51.64 51.65 51.66 51.68 51.69 51.70 51.72 51.73 51.74 51.75 51.77 51.78 51.79 51.80 51.82 51.83 51.84 51.85 51.86 51.87 51.88 51.89 51.90 51.91 51.92 51.93 51.94 51.95 51.96 51.97 51.97 51.98 51.99 51.99 52.00 52.00 52.01 52.01 52.02 52.02 52.02 52.03 52.03 52.03 52.03 52.03 52.03 52.03 52.03 52.03 52.03 52.02 52.02 52.02 52.02 52.01 52.01 52.00 52.00 51.99 51.98 51.98 51.97 51.96 51.95 51.94 51.93 51.92 51.91 51.90 51.89 51.88 51.87 51.86 51.84 51.83 51.82 51.80 51.79 51.77 51.76 51.74 51.73 51.71 51.70 51.68 51.66 51.65 51.63 51.61 51.60 51.58 51.56 51.54 51.53 51.51 51.49 51.47 51.45 51.44 51.42 51.40 51.38 51.36 51.35 51.33 51.31 51.29 51.27 51.26 51.24 51.22 51.20 51.19 51.17 51.15 51.14 51.12 51.10 51.09 51.07 51.06 51.04 51.03 51.01 51.00 50.98 50.97 50.96 50.94 50.93 50.92 50.91 50.90 50.89 50.88 50.87 50.86 50.85 50.84 50.83 50.82 50.82 50.81 50.80 50.80 50.79 50.79 50.78 50.78 50.78 50.77 50.77 50.77 50.77 50.77 50.77 50.77 50.77 50.77 50.77 50.77 50.78 50.78 50.78 50.79 50.79 50.80 50.80 50.81 50.81 50.82 50.83 50.83 50.84 50.85 50.86 50.87 50.88 50.89 50.90 50.91 50.92 50.93 50.94 50.95 50.96 50.97 50.98 51.00 51.01 51.02 51.03 51.05 51.06 51.07 51.08 51.10 51.11 51.12 51.14 51.15 51.16 51.18 51.19 51.20 51.22 51.23 51.24 51.25 51.27 51.28 51.29 51.30 51.32 51.33 51.34 51.35 51.36 51.37 51.38 51.39 51.40 51.41 51.42 51.43 51.44 51.45 51.46 51.47 51.47 51.48 51.49 51.49 51.50 51.50 51.51 51.51 51.52 51.52 51.52 51.53 51.53 51.53 51.53 51.53 51.53 51.53 51.53 51.53 51.53 51.52 51.52 51.52 51.52 51.51 51.51 51.50 51.50 51.49 51.48 51.48 51.47 51.46 51.45 51.44 51.43 51.42 51.41 51.40 51.39 51.38 51.37 51.36 51.34 51.33 51.32 51.30 51.29 51.27 51.26 51.24 51.23 51.21 51.20 51.18 51.16 51.15 51.13 51.11 51.10 51.08 51.06 51.04 51.03 51.01 50.99 50.97 50.95 50.94 50.92 50.90 50.88 50.86 50.85 50.83 50.81 50.79 50.77 50.76 50.74 50.72 50.70 50.69 50.67 50.65 50.64 50.62 50.60 50.59 50.57 50.56 50.54 50.53 50.51 50.50 50.48 50.47 50.46 50.44 50.43 50.42 50.41 50.40 50.39 50.38 50.37 50.36 50.35 50.34 50.33 50.32 50.32 50.31 50.30 50.30 50.29 50.29 50.28 50.28 50.28 50.27 50.27 50.27 50.27 50.27 50.27 50.27 50.27 50.27 50.27 50.27 50.28 50.28 50.28 50.29 50.29 50.30 50.30 50.31 50.31 50.32 50.33 50.33 50.34 50.35 50.36 50.37 50.38 50.39 50.40 50.41 50.42 50.43 50.44 50.45 50.46 50.47 50.48 50.50 50.51 50.52 50.53 50.55 50.56 50.57 50.58 50.60 50.61 50.62 50.64
52.20 52.21 52.23 52.24 52.25 52.27 52.28 52.29 52.30 52.32 52.33 52.34 52.35 52.37 52.38 52.39 52.40 52.41 52.42 52.43 52.44 52.45 52.46 52.47 52.48 52.49 52.50 52.51 52.52 52.52 52.53 52.54 52.54 52.55 52.55 52.56 52.56 52.57 52.57 52.57 52.58 52.58 52.58 52.58 52.58 52.58 52.58 52.58 52.58 52.58 52.58 52.57 52.57 52.57 52.56 52.56 52.55 52.55 52.54 52.53 52.53 52.52 52.51 52.50 52.49 52.48 52.47 52.46 52.45 52.44 52.43 52.42 52.41 52.39 52.38 52.37 52.35 52.34 52.32 52.31 52.29 52.28 52.26 52.25 52.23 52.21 52.20 52.18 52.16 52.15 52.13 52.11 52.09 52.08 52.06 52.04 52.02 52.00 51.99 51.97 51.95 51.93 51.91 51.90 51.88 51.86 51.84 51.82 51.81 51.79 51.77 51.75 51.74 51.72 51.70 51.69 51.67 51.65 51.64 51.62 51.61 51.59 51.58 51.56 51.55 51.53 51.52 51.51 51.49 51.48 51.47 51.46 51.45 51.44 51.43 51.42 51.41 51.40 51.39 51.38 51.37 51.37 51.36 51.35 51.35 51.34 51.34 51.33 51.33 51.33 51.33 51.32 51.32 51.32 51.32 51.32 51.32 51.32 51.32 51.32 51.32 51.33 51.33 51.33 51.34 51.34 51.35 51.35 51.36 51.36 51.37 51.38 51.38 51.39 51.40 51.41 51.42 51.43 51.44 51.45 51.46 51.47 51.48 51.49 51.50 51.51 51.52 51.53 51.55 51.56 51.57 51.58 51.60 51.61 51.62 51.63 51.65 51.66 51.67 51.69 51.70 51.71 51.73 51.74 51.75 51.77 51.78 51.79 51.80 51.82 51.83 51.84 51.85 51.87 51.88 51.89 51.90 51.91 51.92 51.93 51.94 51.95 51.96 51.97 51.98 51.99 52.00 52.01 52.02 52.02 52.03 52.04 52.04 52.05 52.05 52.06 52.06 52.07 52.07 52.07 52.08 52.08 52.08 52.08 52.08 52.08 52.08 52.08 52.08 52.08 52.08 52.07 52.07 52.07 52.06 52.06 52.05 52.05 52.04 52.03 52.03 52.02 52.01 52.00 51.99 51.98 51.97 51.96 51.95 51.94 51.93 51.92 51.91 51.89 51.88 51.87 51.85 51.84 51.82 51.81 51.79 51.78 51.76 51.75 51.73 51.71 51.70 51.68 51.66 51.65 51.63 51.61 51.59 51.58 51.56 51.54 51.52 51.50 51.49 51.47 51.45 51.43 51.41 51.40 51.38 51.36 51.34 51.32 51.31 51.29 51.27 51.25 51.24 51.22 51.20 51.19 51.17 51.15 51.14 51.12 51.11 51.09 51.08 51.06 51.05 51.03 51.02 51.01 50.99 50.98 50.97 50.96 50.95 50.94 50.93 50.92 50.91 50.90 50.89 50.88 50.87 50.87 50.86 50.85 50.85 50.84 50.84 50.83 50.83 50.83 50.83 50.82 50.82 50.82 50.82 50.82 50.82 50.82 50.82 50.82 50.82 50.83 50.83 50.83 50.84 50.84 50.85 50.85 50.86 50.86 50.87 50.88 50.88 50.89 50.90 50.91 50.92 50.93 50.94 50.95 50.96 50.97 50.98 50.99 51.00 51.01 51.02 51.03 51.05 51.06 51.07 51.08 51.10 51.11 51.12 51.13 51.15 51.16 51.17 51.19 51.20 51.21 51.23 51.24 51.25 51.27 51.28 51.29 51.30 51.32 51.33 51.34 51.35 51.37 51.38 51.39 51.40 51.41 51.42 51.43 51.44 51.45 51.46 51.47 51.48 51.49 51.50 51.51 51.52 51.52 51.53 51.54 51.54 51.55 51.55 51.56 51.56 51.57 51.57 51.57 51.58 51.58 51.58 51.58 51.58 51.58 51.58 51.58 51.58 51.58 51.58 51.57 51.57 51.57 51.56 51.56 51.55 51.55 51.54 51.53 51.53 51.52 51.51 51.50 51.49 51.48 51.47 51.46 51.45 51.44 51.43 51.42 51.41 51.39 51.38 51.37 51.35 51.34 51.32 51.31 51.29 51.28 51.26 51.25 51.23 51.21 51.20 51.18 51.16 51.15 51.13 51.11 51.09 51.08 51.06 51.04 51.02 51.00 50.99 50.97 50.95 50.93 50.91 50.90 50.88 50.86 50.84 50.82 50.81 50.79 50.77 50.75 50.74 50.72 50.70 50.69 50.67 50.65 50.64 50.62 50.61 50.59 50.58 50.56 50.55 50.53 50.52 50.51 50.49 50.48 50.47 50.46 50.45 50.44 50.43 50.42 50.41 50.40 50.39 50.38 50.37 50.37 50.36 50.35 50.35 50.34 50.34 50.33 50.33 50.33 50.33 50.32 50.32 50.32 50.32 50.32 50.32 50.32 50.32 50.32 50.32 50.33 50.33 50.33 50.34 50.34 50.35 50.35 50.36 50.36 50.37 50.38 50.38 50.39 50.40 50.41 50.42 50.43 50.44 50.45 50.46 50.47 50.48 50.49 50.50 50.51 50.52 50.53 50.55 50.56 50.57 50.58 50.60 50.61 50.62 50.63 50.65 50.66 50.67 50.69
52.25 52.26 52.28 52.29 52.30 52.32 52.33 52.34 52.35 52.37 52.38 52.39 52.40 52.42 52.43 52.44 52.45 52.46 52.47 52.48 52.49 52.50 52.51 52.52 52.53 52.54 52.55 52.56 52.57 52.57 52.58 52.59 52.59 52.60 52.60 52.61 52.61 52.62 52.62 52.62 52.63 52.63 52.63 52.63 52.63 52.63 52.63 52.63 52.63 52.63 52.62 52.62 52.62 52.62 52.61 52.61 52.60 52.60 52.59 52.58 52.58 52.57 52.56 52.55 52.54 52.53 52.52 52.51 52.50 52.49 52.48 52.47 52.46 52.44 52.43 52.42 52.40 52.39 52.37 52.36 52.34 52.33 52.31 52.30 52.28 52.26 52.25 52.23 52.21 52.20 52.18 52.16 52.14 52.13 52.11 52.09 52.07 52.05 52.04 52.02 52.00 51.98 51.96 51.95 51.93 51.91 51.89 51.87 51.86 51.84 51.82 51.80 51.79 51.77 51.75 51.74 51.72 51.70 51.69 51.67 51.66 51.64 51.63 51.61 51.60 51.58 51.57 51.56 51.54 51.53 51.52 51.51 51.50 51.49 51.48 51.47 51.46 51.45 51.44 51.43 51.42 51.42 51.41 51.40 51.40 51.39 51.39 51.38 51.38 51.38 51.38 51.37 51.37 51.37 51.37 51.37 51.37 51.37 51.37 51.37 51.37 51.38 51.38 51.38 51.39 51.39 51.40 51.40 51.41 51.41 51.42 51.43 51.43 51.44 51.45 51.46 51.47 51.48 51.49 51.50 51.51 51.52 51.53 51.54 51.55 51.56 51.57 51.58 51.60 51.61 51.62 51.63 51.65 51.66 51.67 51.68 51.70 51.71 51.72 51.74 51.75 51.76 51.78 51.79 51.80 51.82 51.83 51.84 51.85 51.87 51.88 51.89 51.90 51.92 51.93 51.94 51.95 51.96 51.97 51.98 51.99 52.00 52.01 52.02 52.03 52.04 52.05 52.06 52.07 52.07 52.08 52.09 52.09 52.10 52.10 52.11 52.11 52.12 52.12 52.12 52.13 52.13 52.13 52.13 52.13 52.13 52.13 52.13 52.13 52.13 52.12 52.12 52.12 52.12 52.11 52.11 52.10 52.10 52.09 52.08 52.08 52.07 52.06 52.05 52.04 52.03 52.02 52.01 52.00 51.99 51.98 51.97 51.96 51.94 51.93 51.92 51.90 51.89 51.87 51.86 51.84 51.83 51.81 51.80 51.78 51.76 51.75 51.73 51.71 51.70 51.68 51.66 51.64 51.63 51.61 51.59 51.57 51.55 51.54 51.52 51.50 51.48 51.46 51.45 51.43 51.41 51.39 51.37 51.36 51.34 51.32 51.30 51.29 51.27 51.25 51.24 51.22 51.20 51.19 51.17 51.16 51.14 51.13 51.11 51.10 51.08 51.07 51.06 51.04 51.03 51.02 51.01 51.00 50.99 50.98 50.97 50.96 50.95 50.94 50.93 50.92 50.92 50.91 50.90 50.90 50.89 50.89 50.88 50.88 50.88 50.88 50.87 50.87 50.87 50.87 50.87 50.87 50.87 50.87 50.87 50.87 50.88 50.88 50.88 50.89 50.89 50.90 50.90 50.91 50.91 50.92 50.93 50.93 50.94 50.95 50.96 50.97 50.98 50.99 51.00 51.01 51.02 51.03 51.04 51.05 51.06 51.07 51.08 51.10 51.11 51.12 51.13 51.15 51.16 51.17 51.18 51.20 51.21 51.22 51.24 51.25 51.26 51.28 51.29 51.30 51.32 51.33 51.34 51.35 51.37 51.38 51.39 51.40 51.42 51.43 51.44 51.45 51.46 51.47 51.48 51.49 51.50 51.51 51.52 51.53 51.54 51.55 51.56 51.57 51.57 51.58 51.59 51.59 51.60 51.60 51.61 51.61 51.62 51.62 51.62 51.63 51.63 51.63 51.63 51.63 51.63 51.63 51.63 51.63 51.63 51.62 51.62 51.62 51.62 51.61 51.61 51.60 51.60 51.59 51.58 51.58 51.57 51.56 51.55 51.54 51.53 51.52 51.51 51.50 51.49 51.48 51.47 51.46 51.44 51.43 51.42 51.40 51.39 51.37 51.36 51.34 51.33 51.31 51.30 51.28 51.26 51.25 51.23 51.21 51.20 51.18 51.16 51.14 51.13 51.11 51.09 51.07 51.05 51.04 51.02 51.00 50.98 50.96 50.95 50.93 50.91 50.89 50.87 50.86 50.84 50.82 50.80 50.79 50.77 50.75 50.74 50.72 50.70 50.69 50.67 50.66 50.64 50.63 50.61 50.60 50.58 50.57 50.56 50.54 50.53 50.52 50.51 50.50 50.49 50.48 50.47 50.46 50.45 50.44 50.43 50.42 50.42 50.41 50.40 50.40 50.39 50.39 50.38 50.38 50.38 50.38 50.37 50.37 50.37 50.37 50.37 50.37 50.37 50.37 50.37 50.37 50.38 50.38 50.38 50.39 50.39 50.40 50.40 50.41 50.41 50.42 50.43 50.43 50.44 50.45 50.46 50.47 50.48 50.49 50.50 50.51 50.52 50.53 50.54 50.55 50.56 50.57 50.58 50.60 50.61 50.62 50.63 50.65 50.66 50.67 50.68 50.70 50.71 50.72 50.74
52.30 52.31 52.33 52.34 52.35 52.37 52.38 52.39 52.40 52.42 52.43 52.44 52.45 52.47 52.48 52.49 52.50 52.51 52.52 52.53 52.54 52.55 52.56 52.57 52.58 52.59 52.60 52.61 52.62 52.62 52.63 52.64 52.64 52.65 52.65 52.66 52.66 52.67 52.67 52.67 52.68 52.68 52.68 52.68 52.68 52.68 52.68 52.68 52.68 52.68 52.67 52.67 52.67 52.67 52.66 52.66 52.65 52.65 52.64 52.63 52.63 52.62 52.61 52.60 52.59 52.58 52.57 52.56 52.55 52.54 52.53 52.52 52.51 52.49 52.48 52.47 52.45 52.44 52.42 52.41 52.39 52.38 52.36 52.35 52.33 52.31 52.30 52.28 52.26 52.25 52.23 52.21 52.19 52.18 52.16 52.14 52.12 52.10 52.09 52.07 52.05 52.03 52.01 52.00 51.98 51.96 51.94 51.92 51.91 51.89 51.87 51.85 51.84 51.82 51.80 51.79 51.77 51.75 51.74 51.72 51.71 51.69 51.68 51.66 51.65 51.63 51.62 51.61 51.59 51.58 51.57 51.56 51.55 51.54 51.53 51.52 51.51 51.50 51.49 51.48 51.47 51.47 51.46 51.45 51.45 51.44 51.44 51.43 51.43 51.43 51.42 51.42 51.42 51.42 51.42 51.42 51.42 51.42 51.42 51.42 51.42 51.43 51.43 51.43 51.44 51.44 51.45 51.45 51.46 51.46 51.47 51.48 51.48 51.49 51.50 51.51 51.52 51.53 51.54 51.55 51.56 51.57 51.58 51.59 51.60 51.61 51.62 51.63 51.65 51.66 51.67 51.68 51.70 51.71 51.72 51.73 51.75 51.76 51.77 51.79 51.80 51.81 51.83 51.84 51.85 51.87 51.88 51.89 51.90 51.92 51.93 51.94 51.95 51.97 51.98 51.99 52.00 52.01 52.02 52.03 52.04 52.05 52.06 52.07 52.08 52.09 52.10 52.11 52.12 52.12 52.13 52.14 52.14 52.15 52.15 52.16 52.16 52.17 52.17 52.17 52.18 52.18 52.18 52.18 52.18 52.18 52.18 52.18 52.18 52.18 52.17 52.17 52.17 52.17 52.16 52.16 52.15 52.15 52.14 52.13 52.13 52.12 52.11 52.10 52.09 52.08 52.07 52.06 52.05 52.04 52.03 52.02 52.01 51.99 51.98 51.97 51.95 51.94 51.92 51.91 51.89 51.88 51.86 51.85 51.83 51.81 51.80 51.78 51.76 51.75 51.73 51.71 51.69 51.68 51.66 51.64 51.62 51.60 51.59 51.57 51.55 51.53 51.51 51.50 51.48 51.46 51.44 51.42 51.41 51.39 51.37 51.35 51.34 51.32 51.30 51.29 51.27 51.25 51.24 51.22 51.21 51.19 51.18 51.16 51.15 51.13 51.12 51.11 51.09 51.08 51.07 51.06 51.05 51.04 51.03 51.02 51.01 51.00 50.99 50.98 50.97 50.97 50.96 50.95 50.95 50.94 50.94 50.93 50.93 50.93 50.92 50.92 50.92 50.92 50.92 50.92 50.92 50.92 50.92 50.92 50.92 50.93 50.93 50.93 50.94 50.94 50.95 50.95 50.96 50.96 50.97 50.98 50.98 50.99 51.00 51.01 51.02 51.03 51.04 51.05 51.06 51.07 51.08 51.09 51.10 51.11 51.12 51.13 51.15 51.16 51.17 51.18 51.20 51.21 51.22 51.23 51.25 51.26 51.27 51.29 51.30 51.31 51.33 51.34 51.35 51.37 51.38 51.39 51.40 51.42 51.43 51.44 51.45 51.47 51.48 51.49 51.50 51.51 51.52 51.53 51.54 51.55 51.56 51.57 51.58 51.59 51.60 51.61 51.62 51.62 51.63 51.64 51.64 51.65 51.65 51.66 51.66 51.67 51.67 51.67 51.68 51.68 51.68 51.68 51.68 51.68 51.68 51.68 51.68 51.68 51.67 51.67 51.67 51.67 51.66 51.66 51.65 51.65 51.64 51.63 51.63 51.62 51.61 51.60 51.59 51.58 51.57 51.56 51.55 51.54 51.53 51.52 51.51 51.49 51.48 51.47 51.45 51.44 51.42 51.41 51.39 51.38 51.36 51.35 51.33 51.31 51.30 51.28 51.26 51.25 51.23 51.21 51.19 51.18 51.16 51.14 51.12 51.10 51.09 51.07 51.05 51.03 51.01 51.00 50.98 50.96 50.94 50.92 50.91 50.89 50.87 50.85 50.84 50.82 50.80 50.79 50.77 50.75 50.74 50.72 50.71 50.69 50.68 50.66 50.65 50.63 50.62 50.61 50.59 50.58 50.57 50.56 50.55 50.54 50.53 50.52 50.51 50.50 50.49 50.48 50.47 50.47 50.46 50.45 50.45 50.44 50.44 50.43 50.43 50.43 50.42 50.42 50.42 50.42 50.42 50.42 50.42 50.42 50.42 50.42 50.42 50.43 50.43 50.43 50.44 50.44 50.45 50.45 50.46 50.46 50.47 50.48 50.48 50.49 50.50 50.51 50.52 50.53 50.54 50.55 50.56 50.57 50.58 50.59 50.60 50.61 50.62 50.63 50.65 50.66 50.67 50.68 50.70 50.71 50.72 50.73 50.75 50.76 50.77 50.79
52.35 52.36 52.38 52.39 52.40 52.42 52.43 52.44 52.45 52.47 52.48 52.49 52.50 52.52 52.53 52.54 52.55 52.56 52.57 52.58 52.59 52.60 52.61 52.62 52.63 52.64 52.65 52.66 52.67 52.67 52.68 52.69 52.69 52.70 52.70 52.71 52.71 52.72 52.72 52.72 52.73 52.73 52.73 52.73 52.73 52.73 52.73 52.73 52.73 52.73 52.73 52.72 52.72 52.72 52.71 52.71 52.70 52.70 52.69 52.68 52.68 52.67 52.66 52.65 52.64 52.63 52.62 52.61 52.60 52.59 52.58 52.57 52.56 52.54 52.53 52.52 52.50 52.49 52.47 52.46 52.44 52.43 52.41 52.40 52.38 52.36 52.35 52.33 52.31 52.30 52.28 52.26 52.24 52.23 52.21 52.19 52.17 52.15 52.14 52.12 52.10 52.08 52.06 52.05 52.03 52.01 51.99 51.97 51.96 51.94 51.92 51.90 51.89 51.87 51.85 51.84 51.82 51.80 51.79 51.77 51.76 51.74 51.73 51.71 51.70 51.68 51.67 51.66 51.64 51.63 51.62 51.61 51.60 51.59 51.58 51.57 51.56 51.55 51.54 51.53 51.52 51.52 51.51 51.50 51.50 51.49 51.49 51.48 51.48 51.48 51.48 51.47 51.47 51.47 51.47 51.47 51.47 51.47 51.47 51.47 51.47 51.48 51.48 51.48 51.49 51.49 51.50 51.50 51.51 51.51 51.52 51.53 51.53 51.54 51.55 51.56 51.57 51.58 51.59 51.60 51.61 51.62 51.63 51.64 51.65 51.66 51.67 51.68 51.70 51.71 51.72 51.73 51.75 51.76 51.77 51.78 51.80 51.81 51.82 51.84 51.85 51.86 51.88 51.89 51.90 51.92 51.93 51.94 51.95 51.97 51.98 51.99 52.00 52.02 52.03 52.04 52.05 52.06 52.07 52.08 52.09 52.10 52.11 52.12 52.13 52.14 52.15 52.16 52.17 52.17 52.18 52.19 52.19 52.20 52.20 52.21 52.21 52.22 52.22 52.22 52.23 52.23 52.23 52.23 52.23 52.23 52.23 52.23 52.23 52.23 52.23 52.22 52.22 52.22 52.21 52.21 52.20 52.20 52.19 52.18 52.18 52.17 52.16 52.15 52.14 52.13 52.12 52.11 52.10 52.09 52.08 52.07 52.06 52.04 52.03 52.02 52.00 51.99 51.97 51.96 51.94 51.93 51.91 51.90 51.88 51.86 51.85 51.83 51.81 51.80 51.78 51.76 51.74 51.73 51.71 51.69 51.67 51.65 51.64 51.62 51.60 51.58 51.56 51.55 51.53 51.51 51.49 51.47 51.46 51.44 51.42 51.40 51.39 51.37 51.35 51.34 51.32 51.30 51.29 51.27 51.26 51.24 51.23 51.21 51.20 51.18 51.17 51.16 51.14 51.13 51.12 51.11 51.10 51.09 51.08 51.07 51.06 51.05 51.04 51.03 51.02 51.02 51.01 51.00 51.00 50.99 50.99 50.98 50.98 50.98 50.98 50.97 50.97 50.97 50.97 50.97 50.97 50.97 50.97 50.97 50.97 50.98 50.98 50.98 50.99 50.99 51.00 51.00 51.01 51.01 51.02 51.03 51.03 51.04 51.05 51.06 51.07 51.08 51.09 51.10 51.11 51.12 51.13 51.14 51.15 51.16 51.17 51.18 51.20 51.21 51.22 51.23 51.25 51.26 51.27 51.28 51.30 51.31 51.32 51.34 51.35 51.36 51.38 51.39 51.40 51.42 51.43 51.44 51.45 51.47 51.48 51.49 51.50 51.52 51.53 51.54 51.55 51.56 51.57 51.58 51.59 51.60 51.61 51.62 51.63 51.64 51.65 51.66 51.67 51.67 51.68 51.69 51.69 51.70 51.70 51.71 51.71 51.72 51.72 51.72 51.73 51.73 51.73 51.73 51.73 51.73 51.73 51.73 51.73 51.73 51.73 51.72 51.72 51.72 51.71 51.71 51.70 51.70 51.69 51.68 51.68 51.67 51.66 51.65 51.64 51.63 51.62 51.61 51.60 51.59 51.58 51.57 51.56 51.54 51.53 51.52 51.50 51.49 51.47 51.46 51.44 51.43 51.41 51.40 51.38 51.36 51.35 51.33 51.31 51.30 51.28 51.26 51.24 51.23 51.21 51.19 51.17 51.15 51.14 51.12 51.10 51.08 51.06 51.05 51.03 51.01 50.99 50.97 50.96 50.94 50.92 50.90 50.89 50.87 50.85 50.84 50.82 50.80 50.79 50.77 50.76 50.74 50.73 50.71 50.70 50.68 50.67 50.66 50.64 50.63 50.62 50.61 50.60 50.59 50.58 50.57 50.56 50.55 50.54 50.53 50.52 50.52 50.51 50.50 50.50 50.49 50.49 50.48 50.48 50.48 50.48 50.47 50.47 50.47 50.47 50.47 50.47 50.47 50.47 50.47 50.47 50.48 50.48 50.48 50.49 50.49 50.50 50.50 50.51 50.51 50.52 50.53 50.53 50.54 50.55 50.56 50.57 50.58 50.59 50.60 50.61 50.62 50.63 50.64 50.65 50.66 50.67 50.68 50.70 50.71 50.72 50.73 50.75 50.76 50.77 50.78 50.80 50.81 50.82 50.84
52.40 52.41 52.43 52.44 52.45 52.47 52.48 52.49 52.50 52.52 52.53 52.54 52.55 52.57 52.58 52.59 52.60 52.61 52.62 52.63 52.64 52.65 52.66 52.67 52.68 52.69 52.70 52.71 52.72 52.72 52.73 52.74 52.74 52.75 52.75 52.76 52.76 52.77 52.77 52.77 52.78 52.78 52.78 52.78 52.78 52.78 52.78 52.78 52.78 52.78 52.77 52.77 52.77 52.77 52.76 52.76 52.75 52.75 52.74 52.73 52.73 52.72 52.71 52.70 52.69 52.68 52.67 52.66 52.65 52.64 52.63 52.62 52.61 52.59 52.58 52.57 52.55 52.54 52.52 52.51 52.49 52.48 52.46 52.45 52.43 52.41 52.40 52.38 52.36 52.35 52.33 52.31 52.29 52.28 52.26 52.24 52.22 52.20 52.19 52.17 52.15 52.13 52.11 52.10 52.08 52.06 52.04 52.02 52.01 51.99 51.97 51.95 51.94 51.92 51.90 51.89 51.87 51.85 51.84 51.82 51.81 51.79 51.78 51.76 51.75 51.73 51.72 51.71 51.69 51.68 51.67 51.66 51.65 51.64 51.63 51.62 51.61 51.60 51.59 51.58 51.57 51.57 51.56 51.55 51.55 51.54 51.54 51.53 51.53 51.53 51.52 51.52 51.52 51.52 51.52 51.52 51.52 51.52 51.52 51.52 51.52 51.53 51.53 51.53 51.54 51.54 51.55 51.55 51.56 51.56 51.57 51.58 51.58 51.59 51.60 51.61 51.62 51.63 51.64 51.65 51.66 51.67 51.68 51.69 51.70 51.71 51.72 51.73 51.75 51.76 51.77 51.78 51.80 51.81 51.82 51.83 51.85 51.86 51.87 51.89 51.90 51.91 51.93 51.94 51.95 51.97 51.98 51.99 52.00 52.02 52.03 52.04 52.05 52.07 52.08 52.09 52.10 52.11 52.12 52.13 52.14 52.15 52.16 52.17 52.18 52.19 52.20 52.21 52.22 52.22 52.23 52.24 52.24 52.25 52.25 52.26 52.26 52.27 52.27 52.27 52.28 52.28 52.28 52.28 52.28 52.28 52.28 52.28 52.28 52.28 52.27 52.27 52.27 52.27 52.26 52.26 52.25 52.25 52.24 52.23 52.23 52.22 52.21 52.20 52.19 52.18 52.17 52.16 52.15 52.14 52.13 52.12 52.11 52.09 52.08 52.07 52.05 52.04 52.02 52.01 51.99 51.98 51.96 51.95 51.93 51.91 51.90 51.88 51.86 51.85 51.83 51.81 51.79 51.78 51.76 51.74 51.72 51.70 51.69 51.67 51.65 51.63 51.61 51.60 51.58 51.56 51.54 51.52 51.51 51.49 51.47 51.45 51.44 51.42 51.40 51.39 51.37 51.35 51.34 51.32 51.31 51.29 51.28 51.26 51.25 51.23 51.22 51.21 51.19 51.18 51.17 51.16 51.15 51.14 51.13 51.12 51.11 51.10 51.09 51.08 51.07 51.07 51.06 51.05 51.05 51.04 51.04 51.03 51.03 51.03 51.02 51.02 51.02 51.02 51.02 51.02 51.02 51.02 51.02 51.02 51.02 51.03 51.03 51.03 51.04 51.04 51.05 51.05 51.06 51.06 51.07 51.08 51.08 51.09 51.10 51.11 51.12 51.13 51.14 51.15 51.16 51.17 51.18 51.19 51.20 51.21 51.22 51.23 51.25 51.26 51.27 51.28 51.30 51.31 51.32 51.33 51.35 51.36 51.37 51.39 51.40 51.41 51.43 51.44 51.45 51.47 51.48 51.49 51.50 51.52 51.53 51.54 51.55 51.57 51.58 51.59 51.60 51.61 51.62 51.63 51.64 51.65 51.66 51.67 51.68 51.69 51.70 51.71 51.72 51.72 51.73 51.74 51.74 51.75 51.75 51.76 51.76 51.77 51.77 51.77 51.78 51.78 51.78 51.78 51.78 51.78 51.78 51.78 51.78 51.78 51.77 51.77 51.77 51.77 51.76 51.76 51.75 51.75 51.74 51.73 51.73 51.72 51.71 51.70 51.69 51.68 51.67 51.66 51.65 51.64 51.63 51.62 51.61 51.59 51.58 51.57 51.55 51.54 51.52 51.51 51.49 51.48 51.46 51.45 51.43 51.41 51.40 51.38 51.36 51.35 51.33 51.31 51.29 51.28 51.26 51.24 51.22 51.20 51.19 51.17 51.15 51.13 51.11 51.10 51.08 51.06 51.04 51.02 51.01 50.99 50.97 50.95 50.94 50.92 50.90 50.89 50.87 50.85 50.84 50.82 50.81 50.79 50.78 50.76 50.75 50.73 50.72 50.71 50.69 50.68 50.67 50.66 50.65 50.64 50.63 50.62 50.61 50.60 50.59 50.58 50.57 50.57 50.56 50.55 50.55 50.54 50.54 50.53 50.53 50.53 50.52 50.52 50.52 50.52 50.52 50.52 50.52 50.52 50.52 50.52 50.52 50.53 50.53 50.53 50.54 50.54 50.55 50.55 50.56 50.56 50.57 50.58 50.58 50.59 50.60 50.61 50.62 50.63 50.64 50.65 50.66 50.67 50.68 50.69 50.70 50.71 50.72 50.73 50.75 50.76 50.77 50.78 50.80 50.81 50.82 50.83 50.85 50.86 50.87 50.89
52.45 52.46 52.48 52.49 52.50 52.52 52.53 52.54 52.55 52.57 52.58 52.59 52.60 52.62 52.63 52.64 52.65 52.66 52.67 52.68 52.69 52.70 52.71 52.72 52.73 52.74 52.75 52.76 52.77 52.77 52.78 52.79 52.79 52.80 52.80 52.81 52.81 52.82 52.82 52.82 52.83 52.83 52.83 52.83 52.83 52.83 52.83 52.83 52.83 52.83 52.83 52.82 52.82 52.82 52.81 52.81 52.80 52.80 52.79 52.78 52.78 52.77 52.76 52.75 52.74 52.73 52.72 52.71 52.70 52.69 52.68 52.67 52.66 52.64 52.63 52.62 52.60 52.59 52.57 52.56 52.54 52.53 52.51 52.50 52.48 52.46 52.45 52.43 52.41 52.40 52.38 52.36 52.34 52.33 52.31 52.29 52.27 52.25 52.24 52.22 52.20 52.18 52.16 52.15 52.13 52.11 52.09 52.07 52.06 52.04 52.02 52.00 51.99 51.97 51.95 51.94 51.92 51.90 51.89 51.87 51.86 51.84 51.83 51.81 51.80 51.78 51.77 51.76 51.74 51.73 51.72 51.71 51.70 51.69 51.68 51.67 51.66 51.65 51.64 51.63 51.62 51.62 51.61 51.60 51.60 51.59 51.59 51.58 51.58 51.58 51.58 51.57 51.57 51.57 51.57 51.57 51.57 51.57 51.57 51.57 51.57 51.58 51.58 51.58 51.59 51.59 51.60 51.60 51.61 51.61 51.62 51.63 51.63 51.64 51.65 51.66 51.67 51.68 51.69 51.70 51.71 51.72 51.73 51.74 51.75 51.76 51.77 51.78 51.80 51.81 51.82 51.83 51.85 51.86 51.87 51.88 51.90 51.91 51.92 51.94 51.95 51.96 51.98 51.99 52.00 52.02 52.03 52.04 52.05 52.07 52.08 52.09 52.10 52.12 52.13 52.14 52.15 52.16 52.17 52.18 52.19 52.20 52.21 52.22 52.23 52.24 52.25 52.26 52.27 52.27 52.28 52.29 52.29 52.30 52.30 52.31 52.31 52.32 52.32 52.32 52.33 52.33 52.33 52.33 52.33 52.33 52.33 52.33 52.33 52.33 52.33 52.32 52.32 52.32 52.31 52.31 52.30 52.30 52.29 52.28 52.28 52.27 52.26 52.25 52.24 52.23 52.22 52.21 52.20 52.19 52.18 52.17 52.16 52.14 52.13 52.12 52.10 52.09 52.07 52.06 52.04 52.03 52.01 52.00 51.98 51.96 51.95 51.93 51.91 51.90 51.88 51.86 51.84 51.83 51.81 51.79 51.77 51.75 51.74 51.72 51.70 51.68 51.66 51.65 51.63 51.61 51.59 51.57 51.56 51.54 51.52 51.50 51.49 51.47 51.45 51.44 51.42 51.40 51.39 51.37 51.36 51.34 51.33 51.31 51.30 51.28 51.27 51.26 51.24 51.23 51.22 51.21 51.20 51.19 51.18 51.17 51.16 51.15 51.14 51.13 51.12 51.12 51.11 51.10 51.10 51.09 51.09 51.08 51.08 51.08 51.08 51.07 51.07 51.07 51.07 51.07 51.07 51.07 51.07 51.07 51.07 51.08 51.08 51.08 51.09 51.09 51.10 51.10 51.11 51.11 51.12 51.13 51.13 51.14 51.15 51.16 51.17 51.18 51.19 51.20 51.21 51.22 51.23 51.24 51.25 51.26 51.27 51.28 51.30 51.31 51.32 51.33 51.35 51.36 51.37 51.38 51.40 51.41 51.42 51.44 51.45 51.46 51.48 51.49 51.50 51.52 51.53 51.54 51.55 51.57 51.58 51.59 51.60 51.62 51.63 51.64 51.65 51.66 51.67 51.68 51.69 51.70 51.71 51.72 51.73 51.74 51.75 51.76 51.77 51.77 51.78 51.79 51.79 51.80 51.80 51.81 51.81 51.82 51.82 51.82 51.83 51.83 51.83 51.83 51.83 51.83 51.83 51.83 51.83 51.83 51.83 51.82 51.82 51.82 51.81 51.81 51.80 51.80 51.79 51.78 51.78 51.77 51.76 51.75 51.74 51.73 51.72 51.71 51.70 51.69 51.68 51.67 51.66 51.64 51.63 51.62 51.60 51.59 51.57 51.56 51.54 51.53 51.51 51.50 51.48 51.46 51.45 51.43 51.41 51.40 51.38 51.36 51.34 51.33 51.31 51.29 51.27 51.25 51.24 51.22 51.20 51.18 51.16 51.15 51.13 51.11 51.09 51.07 51.06 51.04 51.02 51.00 50.99 50.97 50.95 50.94 50.92 50.90 50.89 50.87 50.86 50.84 50.83 50.81 50.80 50.78 50.77 50.76 50.74 50.73 50.72 50.71 50.70 50.69 50.68 50.67 50.66 50.65 50.64 50.63 50.62 50.62 50.61 50.60 50.60 50.59 50.59 50.58 50.58 50.58 50.58 50.57 50.57 50.57 50.57 50.57 50.57 50.57 50.57 50.57 50.57 50.58 50.58 50.58 50.59 50.59 50.60 50.60 50.61 50.61 50.62 50.63 50.63 50.64 50.65 50.66 50.67 50.68 50.69 50.70 50.71 50.72 50.73 50.74 50.75 50.76 50.77 50.78 50.80 50.81 50.82 50.83 50.85 50.86 50.87 50.88 50.90 50.91 50.92 50.94
52.50 52.51 52.53 52.54 52.55 52.57 52.58 52.59 52.60 52.62 52.63 52.64 52.65 52.67 52.68 52.69 52.70 52.71 52.72 52.73 52.74 52.75 52.76 52.77 52.78 52.79 52.80 52.81 52.82 52.82 52.83 52.84 52.84 52.85 52.85 52.86 52.86 52.87 52.87 52.87 52.88 52.88 52.88 52.88 52.88 52.88 52.88 52.88 52.88 52.88 52.88 52.87 52.87 52.87 52.86 52.86 52.85 52.85 52.84 52.83 52.83 52.82 52.81 52.80 52.79 52.78 52.77 52.76 52.75 52.74 52.73 52.72 52.71 52.69 52.68 52.67 52.65 52.64 52.62 52.61 52.59 52.58 52.56 52.55 52.53 52.51 52.50 52.48 52.46 52.45 52.43 52.41 52.39 52.38 52.36 52.34 52.32 52.30 52.29 52.27 52.25 52.23 52.21 52.20 52.18 52.16 52.14 52.12 52.11 52.09 52.07 52.05 52.04 52.02 52.00 51.99 51.97 51.95 51.94 51.92 51.91 51.89 51.88 51.86 51.85 51.83 51.82 51.81 51.79 51.78 51.77 51.76 51.75 51.74 51.73 51.72 51.71 51.70 51.69 51.68 51.67 51.67 51.66 51.65 51.65 51.64 51.64 51.63 51.63 51.63 51.62 51.62 51.62 51.62 51.62 51.62 51.62 51.62 51.62 51.62 51.62 51.63 51.63 51.63 51.64 51.64 51.65 51.65 51.66 51.66 51.67 51.68 51.68 51.69 51.70 51.71 51.72 51.73 51.74 51.75 51.76 51.77 51.78 51.79 51.80 51.81 51.82 51.83 51.85 51.86 51.87 51.88 51.90 51.91 51.92 51.93 51.95 51.96 51.97 51.99 52.00 52.01 52.03 52.04 52.05 52.07 52.08 52.09 52.10 52.12 52.13 52.14 52.15 52.17 52.18 52.19 52.20 52.21 52.22 52.23 52.24 52.25 52.26 52.27 52.28 52.29 52.30 52.31 52.32 52.32 52.33 52.34 52.34 52.35 52.35 52.36 52.36 52.37 52.37 52.37 52.38 52.38 52.38 52.38 52.38 52.38 52.38 52.38 52.38 52.38 52.38 52.37 52.37 52.37 52.36 52.36 52.35 52.35 52.34 52.33 52.33 52.32 52.31 52.30 52.29 52.28 52.27 52.26 52.25 52.24 52.23 52.22 52.21 52.19 52.18 52.17 52.15 52.14 52.12 52.11 52.09 52.08 52.06 52.05 52.03 52.01 52.00 51.98 51.96 51.95 51.93 51.91 51.89 51.88 51.86 51.84 51.82 51.80 51.79 51.77 51.75 51.73 51.71 51.70 51.68 51.66 51.64 51.62 51.61 51.59 51.57 51.55 51.54 51.52 51.50 51.49 51.47 51.45 51.44 51.42 51.41 51.39 51.38 51.36 51.35 51.33 51.32 51.31 51.29 51.28 51.27 51.26 51.25 51.24 51.23 51.22 51.21 51.20 51.19 51.18 51.17 51.17 51.16 51.15 51.15 51.14 51.14 51.13 51.13 51.13 51.12 51.12 51.12 51.12 51.12 51.12 51.12 51.12 51.12 51.12 51.12 51.13 51.13 51.13 51.14 51.14 51.15 51.15 51.16 51.16 51.17 51.18 51.18 51.19 51.20 51.21 51.22 51.23 51.24 51.25 51.26 51.27 51.28 51.29 51.30 51.31 51.32 51.33 51.35 51.36 51.37 51.38 51.40 51.41 51.42 51.43 51.45 51.46 51.47 51.49 51.50 51.51 51.53 51.54 51.55 51.57 51.58 51.59 51.60 51.62 51.63 51.64 51.65 51.67 51.68 51.69 51.70 51.71 51.72 51.73 51.74 51.75 51.76 51.77 51.78 51.79 51.80 51.81 51.82 51.82 51.83 51.84 51.84 51.85 51.85 51.86 51.86 51.87 51.87 51.87 51.88 51.88 51.88 51.88 51.88 51.88 51.88 51.88 51.88 51.88 51.88 51.87 51.87 51.87 51.86 51.86 51.85 51.85 51.84 51.83 51.83 51.82 51.81 51.80 51.79 51.78 51.77 51.76 51.75 51.74 51.73 51.72 51.71 51.69 51.68 51.67 51.65 51.64 51.62 51.61 51.59 51.58 51.56 51.55 51.53 51.51 51.50 51.48 51.46 51.45 51.43 51.41 51.39 51.38 51.36 51.34 51.32 51.30 51.29 51.27 51.25 51.23 51.21 51.20 51.18 51.16 51.14 51.12 51.11 51.09 51.07 51.05 51.04 51.02 51.00 50.99 50.97 50.95 50.94 50.92 50.91 50.89 50.88 50.86 50.85 50.83 50.82 50.81 50.79 50.78 50.77 50.76 50.75 50.74 50.73 50.72 50.71 50.70 50.69 50.68 50.67 50.67 50.66 50.65 50.65 50.64 50.64 50.63 50.63 50.63 50.62 50.62 50.62 50.62 50.62 50.62 50.62 50.62 50.62 50.62 50.62 50.63 50.63 50.63 50.64 50.64 50.65 50.65 50.66 50.66 50.67 50.68 50.68 50.69 50.70 50.71 50.72 50.73 50.74 50.75 50.76 50.77 50.78 50.79 50.80 50.81 50.82 50.83 50.85 50.86 50.87 50.88 50.90 50.91 50.92 50.93 50.95 50.96 50.97 50.99
52.55 52.56 52.58 52.59 52.60 52.62 52.63 52.64 52.65 52.67 52.68 52.69 52.70 52.72 52.73 52.74 52.75 52.76 52.77 52.78 52.79 52.80 52.81 52.82 52.83 52.84 52.85 52.86 52.87 52.87 52.88 52.89 52.89 52.90 52.90 52.91 52.91 52.92 52.92 52.92 52.93 52.93 52.93 52.93 52.93 52.93 52.93 52.93 52.93 52.93 52.92 52.92 52.92 52.92 52.91 52.91 52.90 52.90 52.89 52.88 52.88 52.87 52.86 52.85 52.84 52.83 52.82 52.81 52.80 52.79 52.78 52.77 52.76 52.74 52.73 52.72 52.70 52.69 52.67 52.66 52.64 52.63 52.61 52.60 52.58 52.56 52.55 52.53 52.51 52.50 52.48 52.46 52.44 52.43 52.41 52.39 52.37 52.35 52.34 52.32 52.30 52.28 52.26 52.25 52.23 52.21 52.19 52.17 52.16 52.14 52.12 52.10 52.09 52.07 52.05 52.04 52.02 52.00 51.99 51.97 51.96 51.94 51.93 51.91 51.90 51.88 51.87 51.86 51.84 51.83 51.82 51.81 51.80 51.79 51.78 51.77 51.76 51.75 51.74 51.73 51.72 51.72 51.71 51.70 51.70 51.69 51.69 51.68 51.68 51.68 51.67 51.67 51.67 51.67 51.67 51.67 51.67 51.67 51.67 51.67 51.67 51.68 51.68 51.68 51.69 51.69 51.70 51.70 51.71 51.71 51.72 51.73 51.73 51.74 51.75 51.76 51.77 51.78 51.79 51.80 51.81 51.82 51.83 51.84 51.85 51.86 51.87 51.88 51.90 51.91 51.92 51.93 51.95 51.96 51.97 51.98 52.00 52.01 52.02 52.04 52.05 52.06 52.08 52.09 52.10 52.12 52.13 52.14 52.15 52.17 52.18 52.19 52.20 52.22 52.23 52.24 52.25 52.26 52.27 52.28 52.29 52.30 52.31 52.32 52.33 52.34 52.35 52.36 52.37 52.37 52.38 52.39 52.39 52.40 52.40 52.41 52.41 52.42 52.42 52.42 52.43 52.43 52.43 52.43 52.43 52.43 52.43 52.43 52.43 52.43 52.42 52.42 52.42 52.42 52.41 52.41 52.40 52.40 52.39 52.38 52.38 52.37 52.36 52.35 52.34 52.33 52.32 52.31 52.30 52.29 52.28 52.27 52.26 52.24 52.23 52.22 52.20 52.19 52.17 52.16 52.14 52.13 52.11 52.10 52.08 52.06 52.05 52.03 52.01 52.00 51.98 51.96 51.94 51.93 51.91 51.89 51.87 51.85 51.84 51.82 51.80 51.78 51.76 51.75 51.73 51.71 51.69 51.67 51.66 51.64 51.62 51.60 51.59 51.57 51.55 51.54 51.52 51.50 51.49 51.47 51.46 51.44 51.43 51.41 51.40 51.38 51.37 51.36 51.34 51.33 51.32 51.31 51.30 51.29 51.28 51.27 51.26 51.25 51.24 51.23 51.22 51.22 51.21 51.20 51.20 51.19 51.19 51.18 51.18 51.18 51.17 51.17 51.17 51.17 51.17 51.17 51.17 51.17 51.17 51.17 51.17 51.18 51.18 51.18 51.19 51.19 51.20 51.20 51.21 51.21 51.22 51.23 51.23 51.24 51.25 51.26 51.27 51.28 51.29 51.30 51.31 51.32 51.33 51.34 51.35 51.36 51.37 51.38 51.40 51.41 51.42 51.43 51.45 51.46 51.47 51.48 51.50 51.51 51.52 51.54 51.55 51.56 51.58 51.59 51.60 51.62 51.63 51.64 51.65 51.67 51.68 51.69 51.70 51.72 51.73 51.74 51.75 51.76 51.77 51.78 51.79 51.80 51.81 51.82 51.83 51.84 51.85 51.86 51.87 51.87 51.88 51.89 51.89 51.90 51.90 51.91 51.91 51.92 51.92 51.92 51.93 51.93 51.93 51.93 51.93 51.93 51.93 51.93 51.93 51.93 51.92 51.92 51.92 51.92 51.91 51.91 51.90 51.90 51.89 51.88 51.88 51.87 51.86 51.85 51.84 51.83 51.82 51.81 51.80 51.79 51.78 51.77 51.76 51.74 51.73 51.72 51.70 51.69 51.67 51.66 51.64 51.63 51.61 51.60 51.58 51.56 51.55 51.53 51.51 51.50 51.48 51.46 51.44 51.43 51.41 51.39 51.37 51.35 51.34 51.32 51.30 51.28 51.26 51.25 51.23 51.21 51.19 51.17 51.16 51.14 51.12 51.10 51.09 51.07 51.05 51.04 51.02 51.00 50.99 50.97 50.96 50.94 50.93 50.91 50.90 50.88 50.87 50.86 50.84 50.83 50.82 50.81 50.80 50.79 50.78 50.77 50.76 50.75 50.74 50.73 50.72 50.72 50.71 50.70 50.70 50.69 50.69 50.68 50.68 50.68 50.67 50.67 50.67 50.67 50.67 50.67 50.67 50.67 50.67 50.67 50.67 50.68 50.68 50.68 50.69 50.69 50.70 50.70 50.71 50.71 50.72 50.73 50.73 50.74 50.75 50.76 50.77 50.78 50.79 50.80 50.81 50.82 50.83 50.84 50.85 50.86 50.87 50.88 50.90 50.91 50.92 50.93 50.95 50.96 50.97 50.98 51.00 51.01 51.02 51.04
52.60 52.61 52.63 52.64 52.65 52.67 52.68 52.69 52.70 52.72 52.73 52.74 52.75 52.77 52.78 52.79 52.80 52.81 52.82 52.83 52.84 52.85 52.86 52.87 52.88 52.89 52.90 52.91 52.92 52.92 52.93 52.94 52.94 52.95 52.95 52.96 52.96 52.97 52.97 52.97 52.98 52.98 52.98 52.98 52.98 52.98 52.98 52.98 52.98 52.98 52.98 52.97 52.97 52.97 52.96 52.96 52.95 52.95 52.94 52.93 52.93 52.92 52.91 52.90 52.89 52.88 52.87 52.86 52.85 52.84 52.83 52.82 52.81 52.79 52.78 52.77 52.75 52.74 52.72 52.71 52.69 52.68 52.66 52.65 52.63 52.61 52.60 52.58 52.56 52.55 52.53 52.51 52.49 52.48 52.46 52.44 52.42 52.40 52.39 52.37 52.35 52.33 52.31 52.30 52.28 52.26 52.24 52.22 52.21 52.19 52.17 52.15 52.14 52.12 52.10 52.09 52.07 52.05 52.04 52.02 52.01 51.99 51.98 51.96 51.95 51.93 51.92 51.91 51.89 51.88 51.87 51.86 51.85 51.84 51.83 51.82 51.81 51.80 51.79 51.78 51.77 51.77 51.76 51.75 51.75 51.74 51.74 51.73 51.73 51.73 51.73 51.72 51.72 51.72 51.72 51.72 51.72 51.72 51.72 51.72 51.72 51.73 51.73 51.73 51.74 51.74 51.75 51.75 51.76 51.76 51.77 51.78 51.78 51.79 51.80 51.81 51.82 51.83 51.84 51.85 51.86 51.87 51.88 51.89 51.90 51.91 51.92 51.93 51.95 51.96 51.97 51.98 52.00 52.01 52.02 52.03 52.05 52.06 52.07 52.09 52.10 52.11 52.13 52.14 52.15 52.17 52.18 52.19 52.20 52.22 52.23 52.24 52.25 52.27 52.28 52.29 52.30 52.31 52.32 52.33 52.34 52.35 52.36 52.37 52.38 52.39 52.40 52.41 52.42 52.42 52.43 52.44 52.44 52.45 52.45 52.46 52.46 52.47 52.47 52.47 52.48 52.48 52.48 52.48 52.48 52.48 52.48 52.48 52.48 52.48 52.48 52.47 52.47 52.47 52.46 52.46 52.45 52.45 52.44 52.43 52.43 52.42 52.41 52.40 52.39 52.38 52.37 52.36 52.35 52.34 52.33 52.32 52.31 52.29 52.28 52.27 52.25 52.24 52.22 52.21 52.19 52.18 52.16 52.15 52.13 52.11 52.10 52.08 52.06 52.05 52.03 52.01 51.99 51.98 51.96 51.94 51.92 51.90 51.89 51.87 51.85 51.83 51.81 51.80 51.78 51.76 51.74 51.72 51.71 51.69 51.67 51.65 51.64 51.62 51.60 51.59 51.57 51.55 51.54 51.52 51.51 51.49 51.48 51.46 51.45 51.43 51.42 51.41 51.39 51.38 51.37 51.36 51.35 51.34 51.33 51.32 51.31 51.30 51.29 51.28 51.27 51.27 51.26 51.25 51.25 51.24 51.24 51.23 51.23 51.23 51.23 51.22 51.22 51.22 51.22 51.22 51.22 51.22 51.22 51.22 51.22 51.23 51.23 51.23 51.24 51.24 51.25 51.25 51.26 51.26 51.27 51.28 51.28 51.29 51.30 51.31 51.32 51.33 51.34 51.35 51.36 51.37 51.38 51.39 51.40 51.41 51.42 51.43 51.45 51.46 51.47 51.48 51.50 51.51 51.52 51.53 51.55 51.56 51.57 51.59 51.60 51.61 51.63 51.64 51.65 51.67 51.68 51.69 51.70 51.72 51.73 51.74 51.75 51.77 51.78 51.79 51.80 51.81 51.82 51.83 51.84 51.85 51.86 51.87 51.88 51.89 51.90 51.91 51.92 51.92 51.93 51.94 51.94 51.95 51.95 51.96 51.96 51.97 51.97 51.97 51.98 51.98 51.98 51.98 51.98 51.98 51.98 51.98 51.98 51.98 51.98 51.97 51.97 51.97 51.96 51.96 51.95 51.95 51.94 51.93 51.93 51.92 51.91 51.90 51.89 51.88 51.87 51.86 51.85 51.84 51.83 51.82 51.81 51.79 51.78 51.77 51.75 51.74 51.72 51.71 51.69 51.68 51.66 51.65 51.63 51.61 51.60 51.58 51.56 51.55 51.53 51.51 51.49 51.48 51.46 51.44 51.42 51.40 51.39 51.37 51.35 51.33 51.31 51.30 51.28 51.26 51.24 51.22 51.21 51.19 51.17 51.15 51.14 51.12 51.10 51.09 51.07 51.05 51.04 51.02 51.01 50.99 50.98 50.96 50.95 50.93 50.92 50.91 50.89 50.88 50.87 50.86 50.85 50.84 50.83 50.82 50.81 50.80 50.79 50.78 50.77 50.77 50.76 50.75 50.75 50.74 50.74 50.73 50.73 50.73 50.73 50.72 50.72 50.72 50.72 50.72 50.72 50.72 50.72 50.72 50.72 50.73 50.73 50.73 50.74 50.74 50.75 50.75 50.76 50.76 50.77 50.78 50.78 50.79 50.80 50.81 50.82 50.83 50.84 50.85 50.86 50.87 50.88 50.89 50.90 50.91 50.92 50.93 50.95 50.96 50.97 50.98 51.00 51.01 51.02 51.03 51.05 51.06 51.07 51.09
52.65 52.66 52.68 52.69 52.70 52.72 52.73 52.74 52.75 52.77 52.78 52.79 52.80 52.82 52.83 52.84 52.85 52.86 52.87 52.88 52.89 52.90 52.91 52.92 52.93 52.94 52.95 52.96 52.97 52.97 52.98 52.99 52.99 53.00 53.00 53.01 53.01 53.02 53.02 53.02 53.03 53.03 53.03 53.03 53.03 53.03 53.03 53.03 53.03 53.03 53.02 53.02 53.02 53.02 53.01 53.01 53.00 53.00 52.99 52.98 52.98 52.97 52.96 52.95 52.94 52.93 52.92 52.91 52.90 52.89 52.88 52.87 52.86 52.84 52.83 52.82 52.80 52.79 52.77 52.76 52.74 52.73 52.71 52.70 52.68 52.66 52.65 52.63 52.61 52.60 52.58 52.56 52.54 52.53 52.51 52.49 52.47 52.45 52.44 52.42 52.40 52.38 52.36 52.35 52.33 52.31 52.29 52.27 52.26 52.24 52.22 52.20 52.19 52.17 52.15 52.14 52.12 52.10 52.09 52.07 52.06 52.04 52.03 52.01 52.00 51.98 51.97 51.96 51.94 51.93 51.92 51.91 51.90 51.89 51.88 51.87 51.86 51.85 51.84 51.83 51.82 51.82 51.81 51.80 51.80 51.79 51.79 51.78 51.78 51.78 51.77 51.77 51.77 51.77 51.77 51.77 51.77 51.77 51.77 51.77 51.77 51.78 51.78 51.78 51.79 51.79 51.80 51.80 51.81 51.81 51.82 51.83 51.83 51.84 51.85 51.86 51.87 51.88 51.89 51.90 51.91 51.92 51.93 51.94 51.95 51.96 51.97 51.98 52.00 52.01 52.02 52.03 52.05 52.06 52.07 52.08 52.10 52.11 52.12 52.14 52.15 52.16 52.18 52.19 52.20 52.22 52.23 52.24 52.25 52.27 52.28 52.29 52.30 52.32 52.33 52.34 52.35 52.36 52.37 52.38 52.39 52.40 52.41 52.42 52.43 52.44 52.45 52.46 52.47 52.47 52.48 52.49 52.49 52.50 52.50 52.51 52.51 52.52 52.52 52.52 52.53 52.53 52.53 52.53 52.53 52.53 52.53 52.53 52.53 52.53 52.52 52.52 52.52 52.52 52.51 52.51 52.50 52.50 52.49 52.48 52.48 52.47 52.46 52.45 52.44 52.43 52.42 52.41 52.40 52.39 52.38 52.37 52.36 52.34 52.33 52.32 52.30 52.29 52.27 52.26 52.24 52.23 52.21 52.20 52.18 52.16 52.15 52.13 52.11 52.10 52.08 52.06 52.04 52.03 52.01 51.99 51.97 51.95 51.94 51.92 51.90 51.88 51.86 51.85 51.83 51.81 51.79 51.77 51.76 51.74 51.72 51.70 51.69 51.67 51.65 51.64 51.62 51.60 51.59 51.57 51.56 51.54 51.53 51.51 51.50 51.48 51.47 51.46 51.44 51.43 51.42 51.41 51.40 51.39 51.38 51.37 51.36 51.35 51.34 51.33 51.32 51.32 51.31 51.30 51.30 51.29 51.29 51.28 51.28 51.28 51.27 51.27 51.27 51.27 51.27 51.27 51.27 51.27 51.27 51.27 51.27 51.28 51.28 51.28 51.29 51.29 51.30 51.30 51.31 51.31 51.32 51.33 51.33 51.34 51.35 51.36 51.37 51.38 51.39 51.40 51.41 51.42 51.43 51.44 51.45 51.46 51.47 51.48 51.50 51.51 51.52 51.53 51.55 51.56 51.57 51.58 51.60 51.61 51.62 51.64 51.65 51.66 51.68 51.69 51.70 51.72 51.73 51.74 51.75 51.77 51.78 51.79 51.80 51.82 51.83 51.84 51.85 51.86 51.87 51.88 51.89 51.90 51.91 51.92 51.93 51.94 51.95 51.96 51.97 51.97 51.98 51.99 51.99 52.00 52.00 52.01 52.01 52.02 52.02 52.02 52.03 52.03 52.03 52.03 52.03 52.03 52.03 52.03 52.03 52.03 52.02 52.02 52.02 52.02 52.01 52.01 52.00 52.00 51.99 51.98 51.98 51.97 51.96 51.95 51.94 51.93 51.92 51.91 51.90 51.89 51.88 51.87 51.86 51.84 51.83 51.82 51.80 51.79 51.77 51.76 51.74 51.73 51.71 51.70 51.68 51.66 51.65 51.63 51.61 51.60 51.58 51.56 51.54 51.53 51.51 51.49 51.47 51.45 51.44 51.42 51.40 51.38 51.36 51.35 51.33 51.31 51.29 51.27 51.26 51.24 51.22 51.20 51.19 51.17 51.15 51.14 51.12 51.10 51.09 51.07 51.06 51.04 51.03 51.01 51.00 50.98 50.97 50.96 50.94 50.93 50.92 50.91 50.90 50.89 50.88 50.87 50.86 50.85 50.84 50.83 50.82 50.82 50.81 50.80 50.80 50.79 50.79 50.78 50.78 50.78 50.77 50.77 50.77 50.77 50.77 50.77 50.77 50.77 50.77 50.77 50.77 50.78 50.78 50.78 50.79 50.79 50.80 50.80 50.81 50.81 50.82 50.83 50.83 50.84 50.85 50.86 50.87 50.88 50.89 50.90 50.91 50.92 50.93 50.94 50.95 50.96 50.97 50.98 51.00 51.01 51.02 51.03 51.05 51.06 51.07 51.08 51.10 51.11 51.12 51.14
52.70 52.71 52.73 52.74 52.75 52.77 52.78 52.79 52.80 52.82 52.83 52.84 52.85 52.87 52.88 52.89 52.90 52.91 52.92 52.93 52.94 52.95 52.96 52.97 52.98 52.99 53.00 53.01 53.02 53.02 53.03 53.04 53.04 53.05 53.05 53.06 53.06 53.07 53.07 53.07 53.08 53.08 53.08 53.08 53.08 53.08 53.08 53.08 53.08 53.08 53.08 53.07 53.07 53.07 53.06 53.06 53.05 53.05 53.04 53.03 53.03 53.02 53.01 53.00 52.99 52.98 52.97 52.96 52.95 52.94 52.93 52.92 52.91 52.89 52.88 52.87 52.85 52.84 52.82 52.81 52.79 52.78 52.76 52.75 52.73 52.71 52.70 52.68 52.66 52.65 52.63 52.61 52.59 52.58 52.56 52.54 52.52 52.50 52.49 52.47 52.45 52.43 52.41 52.40 52.38 52.36 52.34 52.32 52.31 52.29 52.27 52.25 52.24 52.22 52.20 52.19 52.17 52.15 52.14 52.12 52.11 52.09 52.08 52.06 52.05 52.03 52.02 52.01 51.99 51.98 51.97 51.96 51.95 51.94 51.93 51.92 51.91 51.90 51.89 51.88 51.87 51.87 51.86 51.85 51.85 51.84 51.84 51.83 51.83 51.83 51.83 51.82 51.82 51.82 51.82 51.82 51.82 51.82 51.82 51.82 51.82 51.83 51.83 51.83 51.84 51.84 51.85 51.85 51.86 51.86 51.87 51.88 51.88 51.89 51.90 51.91 51.92 51.93 51.94 51.95 51.96 51.97 51.98 51.99 52.00 52.01 52.02 52.03 52.05 52.06 52.07 52.08 52.10 52.11 52.12 52.13 52.15 52.16 52.17 52.19 52.20 52.21 52.23 52.24 52.25 52.27 52.28 52.29 52.30 52.32 52.33 52.34 52.35 52.37 52.38 52.39 52.40 52.41 52.42 52.43 52.44 52.45 52.46 52.47 52.48 52.49 52.50 52.51 52.52 52.52 52.53 52.54 52.54 52.55 52.55 52.56 52.56 52.57 52.57 52.57 52.58 52.58 52.58 52.58 52.58 52.58 52.58 52.58 52.58 52.58 52.58 52.57 52.57 52.57 52.56 52.56 52.55 52.55 52.54 52.53 52.53 52.52 52.51 52.50 52.49 52.48 52.47 52.46 52.45 52.44 52.43 52.42 52.41 52.39 52.38 52.37 52.35 52.34 52.32 52.31 52.29 52.28 52.26 52.25 52.23 52.21 52.20 52.18 52.16 52.15 52.13 52.11 52.09 52.08 52.06 52.04 52.02 52.00 51.99 51.97 51.95 51.93 51.91 51.90 51.88 51.86 51.84 51.82 51.81 51.79 51.77 51.75 51.74 51.72 51.70 51.69 51.67 51.65 51.64 51.62 51.61 51.59 51.58 51.56 51.55 51.53 51.52 51.51 51.49 51.48 51.47 51.46 51.45 51.44 51.43 51.42 51.41 51.40 51.39 51.38 51.37 51.37 51.36 51.35 51.35 51.34 51.34 51.33 51.33 51.33 51.33 51.32 51.32 51.32 51.32 51.32 51.32 51.32 51.32 51.32 51.32 51.33 51.33 51.33 51.34 51.34 51.35 51.35 51.36 51.36 51.37 51.38 51.38 51.39 51.40 51.41 51.42 51.43 51.44 51.45 51.46 51.47 51.48 51.49 51.50 51.51 51.52 51.53 51.55 51.56 51.57 51.58 51.60 51.61 51.62 51.63 51.65 51.66 51.67 51.69 51.70 51.71 51.73 51.74 51.75 51.77 51.78 51.79 51.80 51.82 51.83 51.84 51.85 51.87 51.88 51.89 51.90 51.91 51.92 51.93 51.94 51.95 51.96 51.97 51.98 51.99 52.00 52.01 52.02 52.02 52.03 52.04 52.04 52.05 52.05 52.06 52.06 52.07 52.07 52.07 52.08 52.08 52.08 52.08 52.08 52.08 52.08 52.08 52.08 52.08 52.08 52.07 52.07 52.07 52.06 52.06 52.05 52.05 52.04 52.03 52.03 52.02 52.01 52.00 51.99 51.98 51.97 51.96 51.95 51.94 51.93 51.92 51.91 51.89 51.88 51.87 51.85 51.84 51.82 51.81 51.79 51.78 51.76 51.75 51.73 51.71 51.70 51.68 51.66 51.65 51.63 51.61 51.59 51.58 51.56 51.54 51.52 51.50 51.49 51.47 51.45 51.43 51.41 51.40 51.38 51.36 51.34 51.32 51.31 51.29 51.27 51.25 51.24 51.22 51.20 51.19 51.17 51.15 51.14 51.12 51.11 51.09 51.08 51.06 51.05 51.03 51.02 51.01 50.99 50.98 50.97 50.96 50.95 50.94 50.93 50.92 50.91 50.90 50.89 50.88 50.87 50.87 50.86 50.85 50.85 50.84 50.84 50.83 50.83 50.83 50.83 50.82 50.82 50.82 50.82 50.82 50.82 50.82 50.82 50.82 50.82 50.83 50.83 50.83 50.84 50.84 50.85 50.85 50.86 50.86 50.87 50.88 50.88 50.89 50.90 50.91 50.92 50.93 50.94 50.95 50.96 50.97 50.98 50.99 51.00 51.01 51.02 51.03 51.05 51.06 51.07 51.08 51.10 51.11 51.12 51.13 51.15 51.16 51.17 51.19
52.75 52.76 52.78 52.79 52.80 52.82 52.83 52.84 52.85 52.87 52.88 52.89 52.90 52.92 52.93 52.94 52.95 52.96 52.97 52.98 52.99 53.00 53.01 53.02 53.03 53.04 53.05 53.06 53.07 53.07 53.08 53.09 53.09 53.10 53.10 53.11 53.11 53.12 53.12 53.12 53.13 53.13 53.13 53.13 53.13 53.13 53.13 53.13 53.13 53.13 53.12 53.12 53.12 53.12 53.11 53.11 53.10 53.10 53.09 53.08 53.08 53.07 53.06 53.05 53.04 53.03 53.02 53.01 53.00 52.99 52.98 52.97 52.96 52.94 52.93 52.92 52.90 52.89 52.87 52.86 52.84 52.83 52.81 52.80 52.78 52.76 52.75 52.73 52.71 52.70 52.68 52.66 52.64 52.63 52.61 52.59 52.57 52.55 52.54 52.52 52.50 52.48 52.46 52.45 52.43 52.41 52.39 52.37 52.36 52.34 52.32 52.30 52.29 52.27 52.25 52.24 52.22 52.20 52.19 52.17 52.16 52.14 52.13 52.11 52.10 52.08 52.07 52.06 52.04 52.03 52.02 52.01 52.00 51.99 51.98 51.97 51.96 51.95 51.94 51.93 51.92 51.92 51.91 51.90 51.90 51.89 51.89 51.88 51.88 51.88 51.88 51.87 51.87 51.87 51.87 51.87 51.87 51.87 51.87 51.87 51.87 51.88 51.88 51.88 51.89 51.89 51.90 51.90 51.91 51.91 51.92 51.93 51.93 51.94 51.95 51.96 51.97 51.98 51.99 52.00 52.01 52.02 52.03 52.04 52.05 52.06 52.07 52.08 52.10 52.11 52.12 52.13 52.15 52.16 52.17 52.18 52.20 52.21 52.22 52.24 52.25 52.26 52.28 52.29 52.30 52.32 52.33 52.34 52.35 52.37 52.38 52.39 52.40 52.42 52.43 52.44 52.45 52.46 52.47 52.48 52.49 52.50 52.51 52.52 52.53 52.54 52.55 52.56 52.57 52.57 52.58 52.59 52.59 52.60 52.60 52.61 52.61 52.62 52.62 52.62 52.63 52.63 52.63 52.63 52.63 52.63 52.63 52.63 52.63 52.63 52.62 52.62 52.62 52.62 52.61 52.61 52.60 52.60 52.59 52.58 52.58 52.57 52.56 52.55 52.54 52.53 52.52 52.51 52.50 52.49 52.48 52.47 52.46 52.44 52.43 52.42 52.40 52.39 52.37 52.36 52.34 52.33 52.31 52.30 52.28 52.26 52.25 52.23 52.21 52.20 52.18 52.16 52.14 52.13 52.11 52.09 52.07 52.05 52.04 52.02 52.00 51.98 51.96 51.95 51.93 51.91 51.89 51.87 51.86 51.84 51.82 51.80 51.79 51.77 51.75 51.74 51.72 51.70 51.69 51.67 51.66 51.64 51.63 51.61 51.60 51.58 51.57 51.56 51.54 51.53 51.52 51.51 51.50 51.49 51.48 51.47 51.46 51.45 51.44 51.43 51.42 51.42 51.41 51.40 51.40 51.39 51.39 51.38 51.38 51.38 51.38 51.37 51.37 51.37 51.37 51.37 51.37 51.37 51.37 51.37 51.37 51.38 51.38 51.38 51.39 51.39 51.40 51.40 51.41 51.41 51.42 51.43 51.43 51.44 51.45 51.46 51.47 51.48 51.49 51.50 51.51 51.52 51.53 51.54 51.55 51.56 51.57 51.58 51.60 51.61 51.62 51.63 51.65 51.66 51.67 51.68 51.70 51.71 51.72 51.74 51.75 51.76 51.78 51.79 51.80 51.82 51.83 51.84 51.85 51.87 51.88 51.89 51.90 51.92 51.93 51.94 51.95 51.96 51.97 51.98 51.99 52.00 52.01 52.02 52.03 52.04 52.05 52.06 52.07 52.07 52.08 52.09 52.09 52.10 52.10 52.11 52.11 52.12 52.12 52.12 52.13 52.13 52.13 52.13 52.13 52.13 52.13 52.13 52.13 52.13 52.12 52.12 52.12 52.12 52.11 52.11 52.10 52.10 52.09 52.08 52.08 52.07 52.06 52.05 52.04 52.03 52.02 52.01 52.00 51.99 51.98 51.97 51.96 51.94 51.93 51.92 51.90 51.89 51.87 51.86 51.84 51.83 51.81 51.80 51.78 51.76 51.75 51.73 51.71 51.70 51.68 51.66 51.64 51.63 51.61 51.59 51.57 51.55 51.54 51.52 51.50 51.48 51.46 51.45 51.43 51.41 51.39 51.37 51.36 51.34 51.32 51.30 51.29 51.27 51.25 51.24 51.22 51.20 51.19 51.17 51.16 51.14 51.13 51.11 51.10 51.08 51.07 51.06 51.04 51.03 51.02 51.01 51.00 50.99 50.98 50.97 50.96 50.95 50.94 50.93 50.92 50.92 50.91 50.90 50.90 50.89 50.89 50.88 50.88 50.88 50.88 50.87 50.87 50.87 50.87 50.87 50.87 50.87 50.87 50.87 50.87 50.88 50.88 50.88 50.89 50.89 50.90 50.90 50.91 50.91 50.92 50.93 50.93 50.94 50.95 50.96 50.97 50.98 50.99 51.00 51.01 51.02 51.03 51.04 51.05 51.06 51.07 51.08 51.10 51.11 51.12 51.13 51.15 51.16 51.17 51.18 51.20 51.21 51.22 51.24
52.80 52.81 52.83 52.84 52.85 52.87 52.88 52.89 52.90 52.92 52.93 52.94 52.95 52.97 52.98 52.99 53.00 53.01 53.02 53.03 53.04 53.05 53.06 53.07 53.08 53.09 53.10 53.11 53.12 53.12 53.13 53.14 53.14 53.15 53.15 53.16 53.16 53.17 53.17 53.17 53.18 53.18 53.18 53.18 53.18 53.18 53.18 53.18 53.18 53.18 53.17 53.17 53.17 53.17 53.16 53.16 53.15 53.15 53.14 53.13 53.13 53.12 53.11 53.10 53.09 53.08 53.07 53.06 53.05 53.04 53.03 53.02 53.01 52.99 52.98 52.97 52.95 52.94 52.92 52.91 52.89 52.88 52.86 52.85 52.83 52.81 52.80 52.78 52.76 52.75 52.73 52.71 52.69 52.68 52.66 52.64 52.62 52.60 52.59 52.57 52.55 52.53 52.51 52.50 52.48 52.46 52.44 52.42 52.41 52.39 52.37 52.35 52.34 52.32 52.30 52.29 52.27 52.25 52.24 52.22 52.21 52.19 52.18 52.16 52.15 52.13 52.12 52.11 52.09 52.08 52.07 52.06 52.05 52.04 52.03 52.02 52.01 52.00 51.99 51.98 51.97 51.97 51.96 51.95 51.95 51.94 51.94 51.93 51.93 51.93 51.92 51.92 51.92 51.92 51.92 51.92 51.92 51.92 51.92 51.92 51.92 51.93 51.93 51.93 51.94 51.94 51.95 51.95 51.96 51.96 51.97 51.98 51.98 51.99 52.00 52.01 52.02 52.03 52.04 52.05 52.06 52.07 52.08 52.09 52.10 52.11 52.12 52.13 52.15 52.16 52.17 52.18 52.20 52.21 52.22 52.23 52.25 52.26 52.27 52.29 52.30 52.31 52.33 52.34 52.35 52.37 52.38 52.39 52.40 52.42 52.43 52.44 52.45 52.47 52.48 52.49 52.50 52.51 52.52 52.53 52.54 52.55 52.56 52.57 52.58 52.59 52.60 52.61 52.62 52.62 52.63 52.64 52.64 52.65 52.65 52.66 52.66 52.67 52.67 52.67 52.68 52.68 52.68 52.68 52.68 52.68 52.68 52.68 52.68 52.68 52.67 52.67 52.67 52.67 52.66 52.66 52.65 52.65 52.64 52.63 52.63 52.62 52.61 52.60 52.59 52.58 52.57 52.56 52.55 52.54 52.53 52.52 52.51 52.49 52.48 52.47 52.45 52.44 52.42 52.41 52.39 52.38 52.36 52.35 52.33 52.31 52.30 52.28 52.26 52.25 52.23 52.21 52.19 52.18 52.16 52.14 52.12 52.10 52.09 52.07 52.05 52.03 52.01 52.00 51.98 51.96 51.94 51.92 51.91 51.89 51.87 51.85 51.84 51.82 51.80 51.79 51.77 51.75 51.74 51.72 51.71 51.69 51.68 51.66 51.65 51.63 51.62 51.61 51.59 51.58 51.57 51.56 51.55 51.54 51.53 51.52 51.51 51.50 51.49 51.48 51.47 51.47 51.46 51.45 51.45 51.44 51.44 51.43 51.43 51.43 51.42 51.42 51.42 51.42 51.42 51.42 51.42 51.42 51.42 51.42 51.42 51.43 51.43 51.43 51.44 51.44 51.45 51.45 51.46 51.46 51.47 51.48 51.48 51.49 51.50 51.51 51.52 51.53 51.54 51.55 51.56 51.57 51.58 51.59 51.60 51.61 51.62 51.63 51.65 51.66 51.67 51.68 51.70 51.71 51.72 51.73 51.75 51.76 51.77 51.79 51.80 51.81 51.83 51.84 51.85 51.87 51.88 51.89 51.90 51.92 51.93 51.94 51.95 51.97 51.98 51.99 52.00 52.01 52.02 52.03 52.04 52.05 52.06 52.07 52.08 52.09 52.10 52.11 52.12 52.12 52.13 52.14 52.14 52.15 52.15 52.16 52.16 52.17 52.17 52.17 52.18 52.18 52.18 52.18 52.18 52.18 52.18 52.18 52.18 52.18 52.17 52.17 52.17 52.17 52.16 52.16 52.15 52.15 52.14 52.13 52.13 52.12 52.11 52.10 52.09 52.08 52.07 52.06 52.05 52.04 52.03 52.02 52.01 51.99 51.98 51.97 51.95 51.94 51.92 51.91 51.89 51.88 51.86 51.85 51.83 51.81 51.80 51.78 51.76 51.75 51.73 51.71 51.69 51.68 51.66 51.64 51.62 51.60 51.59 51.57 51.55 51.53 51.51 51.50 51.48 51.46 51.44 51.42 51.41 51.39 51.37 51.35 51.34 51.32 51.30 51.29 51.27 51.25 51.24 51.22 51.21 51.19 51.18 51.16 51.15 51.13 51.12 51.11 51.09 51.08 51.07 51.06 51.05 51.04 51.03 51.02 51.01 51.00 50.99 50.98 50.97 50.97 50.96 50.95 50.95 50.94 50.94 50.93 50.93 50.93 50.92 50.92 50.92 50.92 50.92 50.92 50.92 50.92 50.92 50.92 50.92 50.93 50.93 50.93 50.94 50.94 50.95 50.95 50.96 50.96 50.97 50.98 50.98 50.99 51.00 51.01 51.02 51.03 51.04 51.05 51.06 51.07 51.08 51.09 51.10 51.11 51.12 51.13 51.15 51.16 51.17 51.18 51.20 51.21 51.22 51.23 51.25 51.26 51.27 51.29
52.85 52.86 52.88 52.89 52.90 52.92 52.93 52.94 52.95 52.97 52.98 52.99 53.00 53.02 53.03 53.04 53.05 53.06 53.07 53.08 53.09 53.10 53.11 53.12 53.13 53.14 53.15 53.16 53.17 53.17 53.18 53.19 53.19 53.20 53.20 53.21 53.21 53.22 53.22 53.22 53.23 53.23 53.23 53.23 53.23 53.23 53.23 53.23 53.23 53.23 53.23 53.22 53.22 53.22 53.21 53.21 53.20 53.20 53.19 53.18 53.18 53.17 53.16 53.15 53.14 53.13 53.12 53.11 53.10 53.09 53.08 53.07 53.06 53.04 53.03 53.02 53.00 52.99 52.97 52.96 52.94 52.93 52.91 52.90 52.88 52.86 52.85 52.83 52.81 52.80 52.78 52.76 52.74 52.73 52.71 52.69 52.67 52.65 52.64 52.62 52.60 52.58 52.56 52.55 52.53 52.51 52.49 52.47 52.46 52.44 52.42 52.40 52.39 52.37 52.35 52.34 52.32 52.30 52.29 52.27 52.26 52.24 52.23 52.21 52.20 52.18 52.17 52.16 52.14 52.13 52.12 52.11 52.10 52.09 52.08 52.07 52.06 52.05 52.04 52.03 52.02 52.02 52.01 52.00 52.00 51.99 51.99 51.98 51.98 51.98 51.98 51.97 51.97 51.97 51.97 51.97 51.97 51.97 51.97 51.97 51.97 51.98 51.98 51.98 51.99 51.99 52.00 52.00 52.01 52.01 52.02 52.03 52.03 52.04 52.05 52.06 52.07 52.08 52.09 52.10 52.11 52.12 52.13 52.14 52.15 52.16 52.17 52.18 52.20 52.21 52.22 52.23 52.25 52.26 52.27 52.28 52.30 52.31 52.32 52.34 52.35 52.36 52.38 52.39 52.40 52.42 52.43 52.44 52.45 52.47 52.48 52.49 52.50 52.52 52.53 52.54 52.55 52.56 52.57 52.58 52.59 52.60 52.61 52.62 52.63 52.64 52.65 52.66 52.67 52.67 52.68 52.69 52.69 52.70 52.70 52.71 52.71 52.72 52.72 52.72 52.73 52.73 52.73 52.73 52.73 52.73 52.73 52.73 52.73 52.73 52.73 52.72 52.72 52.72 52.71 52.71 52.70 52.70 52.69 52.68 52.68 52.67 52.66 52.65 52.64 52.63 52.62 52.61 52.60 52.59 52.58 52.57 52.56 52.54 52.53 52.52 52.50 52.49 52.47 52.46 52.44 52.43 52.41 52.40 52.38 52.36 52.35 52.33 52.31 52.30 52.28 52.26 52.24 52.23 52.21 52.19 52.17 52.15 52.14 52.12 52.10 52.08 52.06 52.05 52.03 52.01 51.99 51.97 51.96 51.94 51.92 51.90 51.89 51.87 51.85 51.84 51.82 51.80 51.79 51.77 51.76 51.74 51.73 51.71 51.70 51.68 51.67 51.66 51.64 51.63 51.62 51.61 51.60 51.59 51.58 51.57 51.56 51.55 51.54 51.53 51.52 51.52 51.51 51.50 51.50 51.49 51.49 51.48 51.48 51.48 51.48 51.47 51.47 51.47 51.47 51.47 51.47 51.47 51.47 51.47 51.47 51.48 51.48 51.48 51.49 51.49 51.50 51.50 51.51 51.51 51.52 51.53 51.53 51.54 51.55 51.56 51.57 51.58 51.59 51.60 51.61 51.62 51.63 51.64 51.65 51.66 51.67 51.68 51.70 51.71 51.72 51.73 51.75 51.76 51.77 51.78 51.80 51.81 51.82 51.84 51.85 51.86 51.88 51.89 51.90 51.92 51.93 51.94 51.95 51.97 51.98 51.99 52.00 52.02 52.03 52.04 52.05 52.06 52.07 52.08 52.09 52.10 52.11 52.12 52.13 52.14 52.15 52.16 52.17 52.17 52.18 52.19 52.19 52.20 52.20 52.21 52.21 52.22 52.22 52.22 52.23 52.23 52.23 52.23 52.23 52.23 52.23 52.23 52.23 52.23 52.23 52.22 52.22 52.22 52.21 52.21 52.20 52.20 52.19 52.18 52.18 52.17 52.16 52.15 52.14 52.13 52.12 52.11 52.10 52.09 52.08 52.07 52.06 52.04 52.03 52.02 52.00 51.99 51.97 51.96 51.94 51.93 51.91 51.90 51.88 51.86 51.85 51.83 51.81 51.80 51.78 51.76 51.74 51.73 51.71 51.69 51.67 51.65 51.64 51.62 51.60 51.58 51.56 51.55 51.53 51.51 51.49 51.47 51.46 51.44 51.42 51.40 51.39 51.37 51.35 51.34 51.32 51.30 51.29 51.27 51.26 51.24 51.23 51.21 51.20 51.18 51.17 51.16 51.14 51.13 51.12 51.11 51.10 51.09 51.08 51.07 51.06 51.05 51.04 51.03 51.02 51.02 51.01 51.00 51.00 50.99 50.99 50.98 50.98 50.98 50.98 50.97 50.97 50.97 50.97 50.97 50.97 50.97 50.97 50.97 50.97 50.98 50.98 50.98 50.99 50.99 51.00 51.00 51.01 51.01 51.02 51.03 51.03 51.04 51.05 51.06 51.07 51.08 51.09 51.10 51.11 51.12 51.13 51.14 51.15 51.16 51.17 51.18 51.20 51.21 51.22 51.23 51.25 51.26 51.27 51.28 51.30 51.31 51.32 51.34
52.90 52.91 52.93 52.94 52.95 52.97 52.98 52.99 53.00 53.02 53.03 53.04 53.05 53.07 53.08 53.09 53.10 53.11 53.12 53.13 53.14 53.15 53.16 53.17 53.18 53.19 53.20 53.21 53.22 53.22 53.23 53.24 53.24 53.25 53.25 53.26 53.26 53.27 53.27 53.27 53.28 53.28 53.28 53.28 53.28 53.28 53.28 53.28 53.28 53.28 53.27 53.27 53.27 53.27 53.26 53.26 53.25 53.25 53.24 53.23 53.23 53.22 53.21 53.20 53.19 53.18 53.17 53.16 53.15 53.14 53.13 53.12 53.11 53.09 53.08 53.07 53.05 53.04 53.02 53.01 52.99 52.98 52.96 52.95 52.93 52.91 52.90 52.88 52.86 52.85 52.83 52.81 52.79 52.78 52.76 52.74 52.72 52.70 52.69 52.67 52.65 52.63 52.61 52.60 52.58 52.56 52.54 52.52 52.51 52.49 52.47 52.45 52.44 52.42 52.40 52.39 52.37 52.35 52.34 52.32 52.31 52.29 52.28 52.26 52.25 52.23 52.22 52.21 52.19 52.18 52.17 52.16 52.15 52.14 52.13 52.12 52.11 52.10 52.09 52.08 52.07 52.07 52.06 52.05 52.05 52.04 52.04 52.03 52.03 52.03 52.02 52.02 52.02 52.02 52.02 52.02 52.02 52.02 52.02 52.02 52.02 52.03 52.03 52.03 52.04 52.04 52.05 52.05 52.06 52.06 52.07 52.08 52.08 52.09 52.10 52.11 52.12 52.13 52.14 52.15 52.16 52.17 52.18 52.19 52.20 52.21 52.22 52.23 52.25 52.26 52.27 52.28 52.30 52.31 52.32 52.33 52.35 52.36 52.37 52.39 52.40 52.41 52.43 52.44 52.45 52.47 52.48 52.49 52.50 52.52 52.53 52.54 52.55 52.57 52.58 52.59 52.60 52.61 52.62 52.63 52.64 52.65 52.66 52.67 52.68 52.69 52.70 52.71 52.72 52.72 52.73 52.74 52.74 52.75 52.75 52.76 52.76 52.77 52.77 52.77 52.78 52.78 52.78 52.78 52.78 52.78 52.78 52.78 52.78 52.78 52.77 52.77 52.77 52.77 52.76 52.76 52.75 52.75 52.74 52.73 52.73 52.72 52.71 52.70 52.69 52.68 52.67 52.66 52.65 52.64 52.63 52.62 52.61 52.59 52.58 52.57 52.55 52.54 52.52 52.51 52.49 52.48 52.46 52.45 52.43 52.41 52.40 52.38 52.36 52.35 52.33 52.31 52.29 52.28 52.26 52.24 52.22 52.20 52.19 52.17 52.15 52.13 52.11 52.10 52.08 52.06 52.04 52.02 52.01 51.99 51.97 51.95 51.94 51.92 51.90 51.89 51.87 51.85 51.84 51.82 51.81 51.79 51.78 51.76 51.75 51.73 51.72 51.71 51.69 51.68 51.67 51.66 51.65 51.64 51.63 51.62 51.61 51.60 51.59 51.58 51.57 51.57 51.56 51.55 51.55 51.54 51.54 51.53 51.53 51.53 51.52 51.52 51.52 51.52 51.52 51.52 51.52 51.52 51.52 51.52 51.52 51.53 51.53 51.53 51.54 51.54 51.55 51.55 51.56 51.56 51.57 51.58 51.58 51.59 51.60 51.61 51.62 51.63 51.64 51.65 51.66 51.67 51.68 51.69 51.70 51.71 51.72 51.73 51.75 51.76 51.77 51.78 51.80 51.81 51.82 51.83 51.85 51.86 51.87 51.89 51.90 51.91 51.93 51.94 51.95 51.97 51.98 51.99 52.00 52.02 52.03 52.04 52.05 52.07 52.08 52.09 52.10 52.11 52.12 52.13 52.14 52.15 52.16 52.17 52.18 52.19 52.20 52.21 52.22 52.22 52.23 52.24 52.24 52.25 52.25 52.26 52.26 52.27 52.27 52.27 52.28 52.28 52.28 52.28 52.28 52.28 52.28 52.28 52.28 52.28 52.27 52.27 52.27 52.27 52.26 52.26 52.25 52.25 52.24 52.23 52.23 52.22 52.21 52.20 52.19 52.18 52.17 52.16 52.15 52.14 52.13 52.12 52.11 52.09 52.08 52.07 52.05 52.04 52.02 52.01 51.99 51.98 51.96 51.95 51.93 51.91 51.90 51.88 51.86 51.85 51.83 51.81 51.79 51.78 51.76 51.74 51.72 51.70 51.69 51.67 51.65 51.63 51.61 51.60 51.58 51.56 51.54 51.52 51.51 51.49 51.47 51.45 51.44 51.42 51.40 51.39 51.37 51.35 51.34 51.32 51.31 51.29 51.28 51.26 51.25 51.23 51.22 51.21 51.19 51.18 51.17 51.16 51.15 51.14 51.13 51.12 51.11 51.10 51.09 51.08 51.07 51.07 51.06 51.05 51.05 51.04 51.04 51.03 51.03 51.03 51.02 51.02 51.02 51.02 51.02 51.02 51.02 51.02 51.02 51.02 51.02 51.03 51.03 51.03 51.04 51.04 51.05 51.05 51.06 51.06 51.07 51.08 51.08 51.09 51.10 51.11 51.12 51.13 51.14 51.15 51.16 51.17 51.18 51.19 51.20 51.21 51.22 51.23 51.25 51.26 51.27 51.28 51.30 51.31 51.32 51.33 51.35 51.36 51.37 51.39
52.95 52.96 52.98 52.99 53.00 53.02 53.03 53.04 53.05 53.07 53.08 53.09 53.10 53.12 53.13 53.14 53.15 53.16 53.17 53.18 53.19 53.20 53.21 53.22 53.23 53.24 53.25 53.26 53.27 53.27 53.28 53.29 53.29 53.30 53.30 53.31 53.31 53.32 53.32 53.32 53.33 53.33 53.33 53.33 53.33 53.33 53.33 53.33 53.33 53.33 53.33 53.32 53.32 53.32 53.31 53.31 53.30 53.30 53.29 53.28 53.28 53.27 53.26 53.25 53.24 53.23 53.22 53.21 53.20 53.19 53.18 53.17 53.16 53.14 53.13 53.12 53.10 53.09 53.07 53.06 53.04 53.03 53.01 53.00 52.98 52.96 52.95 52.93 52.91 52.90 52.88 52.86 52.84 52.83 52.81 52.79 52.77 52.75 52.74 52.72 52.70 52.68 52.66 52.65 52.63 52.61 52.59 52.57 52.56 52.54 52.52 52.50 52.49 52.47 52.45 52.44 52.42 52.40 52.39 52.37 52.36 52.34 52.33 52.31 52.30 52.28 52.27 52.26 52.24 52.23 52.22 52.21 52.20 52.19 52.18 52.17 52.16 52.15 52.14 52.13 52.12 52.12 52.11 52.10 52.10 52.09 52.09 52.08 52.08 52.08 52.08 52.07 52.07 52.07 52.07 52.07 52.07 52.07 52.07 52.07 52.07 52.08 52.08 52.08 52.09 52.09 52.10 52.10 52.11 52.11 52.12 52.13 52.13 52.14 52.15 52.16 52.17 52.18 52.19 52.20 52.21 52.22 52.23 52.24 52.25 52.26 52.27 52.28 52.30 52.31 52.32 52.33 52.35 52.36 52.37 52.38 52.40 52.41 52.42 52.44 52.45 52.46 52.48 52.49 52.50 52.52 52.53 52.54 52.55 52.57 52.58 52.59 52.60 52.62 52.63 52.64 52.65 52.66 52.67 52.68 52.69 52.70 52.71 52.72 52.73 52.74 52.75 52.76 52.77 52.77 52.78 52.79 52.79 52.80 52.80 52.81 52.81 52.82 52.82 52.82 52.83 52.83 52.83 52.83 52.83 52.83 52.83 52.83 52.83 52.83 52.83 52.82 52.82 52.82 52.81 52.81 52.80 52.80 52.79 52.78 52.78 52.77 52.76 52.75 52.74 52.73 52.72 52.71 52.70 52.69 52.68 52.67 52.66 52.64 52.63 52.62 52.60 52.59 52.57 52.56 52.54 52.53 52.51 52.50 52.48 52.46 52.45 52.43 52.41 52.40 52.38 52.36 52.34 52.33 52.31 52.29 52.27 52.25 52.24 52.22 52.20 52.18 52.16 52.15 52.13 52.11 52.09 52.07 52.06 52.04 52.02 52.00 51.99 51.97 51.95 51.94 51.92 51.90 51.89 51.87 51.86 51.84 51.83 51.81 51.80 51.78 51.77 51.76 51.74 51.73 51.72 51.71 51.70 51.69 51.68 51.67 51.66 51.65 51.64 51.63 51.62 51.62 51.61 51.60 51.60 51.59 51.59 51.58 51.58 51.58 51.58 51.57 51.57 51.57 51.57 51.57 51.57 51.57 51.57 51.57 51.57 51.58 51.58 51.58 51.59 51.59 51.60 51.60 51.61 51.61 51.62 51.63 51.63 51.64 51.65 51.66 51.67 51.68 51.69 51.70 51.71 51.72 51.73 51.74 51.75 51.76 51.77 51.78 51.80 51.81 51.82 51.83 51.85 51.86 51.87 51.88 51.90 51.91 51.92 51.94 51.95 51.96 51.98 51.99 52.00 52.02 52.03 52.04 52.05 52.07 52.08 52.09 52.10 52.12 52.13 52.14 52.15 52.16 52.17 52.18 52.19 52.20 52.21 52.22 52.23 52.24 52.25 52.26 52.27 52.27 52.28 52.29 52.29 52.30 52.30 52.31 52.31 52.32 52.32 52.32 52.33 52.33 52.33 52.33 52.33 52.33 52.33 52.33 52.33 52.33 52.33 52.32 52.32 52.32 52.31 52.31 52.30 52.30 52.29 52.28 52.28 52.27 52.26 52.25 52.24 52.23 52.22 52.21 52.20 52.19 52.18 52.17 52.16 52.14 52.13 52.12 52.10 52.09 52.07 52.06 52.04 52.03 52.01 52.00 51.98 51.96 51.95 51.93 51.91 51.90 51.88 51.86 51.84 51.83 51.81 51.79 51.77 51.75 51.74 51.72 51.70 51.68 51.66 51.65 51.63 51.61 51.59 51.57 51.56 51.54 51.52 51.50 51.49 51.47 51.45 51.44 51.42 51.40 51.39 51.37 51.36 51.34 51.33 51.31 51.30 51.28 51.27 51.26 51.24 51.23 51.22 51.21 51.20 51.19 51.18 51.17 51.16 51.15 51.14 51.13 51.12 51.12 51.11 51.10 51.10 51.09 51.09 51.08 51.08 51.08 51.08 51.07 51.07 51.07 51.07 51.07 51.07 51.07 51.07 51.07 51.07 51.08 51.08 51.08 51.09 51.09 51.10 51.10 51.11 51.11 51.12 51.13 51.13 51.14 51.15 51.16 51.17 51.18 51.19 51.20 51.21 51.22 51.23 51.24 51.25 51.26 51.27 51.28 51.30 51.31 51.32 51.33 51.35 51.36 51.37 51.38 51.40 51.41 51.42 51.44
53.00 53.01 53.03 53.04 53.05 53.07 53.08 53.09 53.10 53.12 53.13 53.14 53.15 53.17 53.18 53.19 53.20 53.21 53.22 53.23 53.24 53.25 53.26 53.27 53.28 53.29 53.30 53.31 53.32 53.32 53.33 53.34 53.34 53.35 53.35 53.36 53.36 53.37 53.37 53.37 53.38 53.38 53.38 53.38 53.38 53.38 53.38 53.38 53.38 53.38 53.38 53.37 53.37 53.37 53.36 53.36 53.35 53.35 53.34 53.33 53.33 53.32 53.31 53.30 53.29 53.28 53.27 53.26 53.25 53.24 53.23 53.22 53.21 53.19 53.18 53.17 53.15 53.14 53.12 53.11 53.09 53.08 53.06 53.05 53.03 53.01 53.00 52.98 52.96 52.95 52.93 52.91 52.89 52.88 52.86 52.84 52.82 52.80 52.79 52.77 52.75 52.73 52.71 52.70 52.68 52.66 52.64 52.62 52.61 52.59 52.57 52.55 52.54 52.52 52.50 52.49 52.47 52.45 52.44 52.42 52.41 52.39 52.38 52.36 52.35 52.33 52.32 52.31 52.29 52.28 52.27 52.26 52.25 52.24 52.23 52.22 52.21 52.20 52.19 52.18 52.17 52.17 52.16 52.15 52.15 52.14 52.14 52.13 52.13 52.13 52.12 52.12 52.12 52.12 52.12 52.12 52.12 52.12 52.12 52.12 52.12 52.13 52.13 52.13 52.14 52.14 52.15 52.15 52.16 52.16 52.17 52.18 52.18 52.19 52.20 52.21 52.22 52.23 52.24 52.25 52.26 52.27 52.28 52.29 52.30 52.31 52.32 52.33 52.35 52.36 52.37 52.38 52.40 52.41 52.42 52.43 52.45 52.46 52.47 52.49 52.50 52.51 52.53 52.54 52.55 52.57 52.58 52.59 52.60 52.62 52.63 52.64 52.65 52.67 52.68 52.69 52.70 52.71 52.72 52.73 52.74 52.75 52.76 52.77 52.78 52.79 52.80 52.81 52.82 52.82 52.83 52.84 52.84 52.85 52.85 52.86 52.86 52.87 52.87 52.87 52.88 52.88 52.88 52.88 52.88 52.88 52.88 52.88 52.88 52.88 52.88 52.87 52.87 52.87 52.86 52.86 52.85 52.85 52.84 52.83 52.83 52.82 52.81 52.80 52.79 52.78 52.77 52.76 52.75 52.74 52.73 52.72 52.71 52.69 52.68 52.67 52.65 52.64 52.62 52.61 52.59 52.58 52.56 52.55 52.53 52.51 52.50 52.48 52.46 52.45 52.43 52.41 52.39 52.38 52.36 52.34 52.32 52.30 52.29 52.27 52.25 52.23 52.21 52.20 52.18 52.16 52.14 52.12 52.11 52.09 52.07 52.05 52.04 52.02 52.00 51.99 51.97 51.95 51.94 51.92 51.91 51.89 51.88 51.86 51.85 51.83 51.82 51.81 51.79 51.78 51.77 51.76 51.75 51.74 51.73 51.72 51.71 51.70 51.69 51.68 51.67 51.67 51.66 51.65 51.65 51.64 51.64 51.63 51.63 51.63 51.62 51.62 51.62 51.62 51.62 51.62 51.62 51.62 51.62 51.62 51.62 51.63 51.63 51.63 51.64 51.64 51.65 51.65 51.66 51.66 51.67 51.68 51.68 51.69 51.70 51.71 51.72 51.73 51.74 51.75 51.76 51.77 51.78 51.79 51.80 51.81 51.82 51.83 51.85 51.86 51.87 51.88 51.90 51.91 51.92 51.93 51.95 51.96 51.97 51.99 52.00 52.01 52.03 52.04 52.05 52.07 52.08 52.09 52.10 52.12 52.13 52.14 52.15 52.17 52.18 52.19 52.20 52.21 52.22 52.23 52.24 52.25 52.26 52.27 52.28 52.29 52.30 52.31 52.32 52.32 52.33 52.34 52.34 52.35 52.35 52.36 52.36 52.37 52.37 52.37 52.38 52.38 52.38 52.38 52.38 52.38 52.38 52.38 52.38 52.38 52.38 52.37 52.37 52.37 52.36 52.36 52.35 52.35 52.34 52.33 52.33 52.32 52.31 52.30 52.29 52.28 52.27 52.26 52.25 52.24 52.23 52.22 52.21 52.19 52.18 52.17 52.15 52.14 52.12 52.11 52.09 52.08 52.06 52.05 52.03 52.01 52.00 51.98 51.96 51.95 51.93 51.91 51.89 51.88 51.86 51.84 51.82 51.80 51.79 51.77 51.75 51.73 51.71 51.70 51.68 51.66 51.64 51.62 51.61 51.59 51.57 51.55 51.54 51.52 51.50 51.49 51.47 51.45 51.44 51.42 51.41 51.39 51.38 51.36 51.35 51.33 51.32 51.31 51.29 51.28 51.27 51.26 51.25 51.24 51.23 51.22 51.21 51.20 51.19 51.18 51.17 51.17 51.16 51.15 51.15 51.14 51.14 51.13 51.13 51.13 51.12 51.12 51.12 51.12 51.12 51.12 51.12 51.12 51.12 51.12 51.12 51.13 51.13 51.13 51.14 51.14 51.15 51.15 51.16 51.16 51.17 51.18 51.18 51.19 51.20 51.21 51.22 51.23 51.24 51.25 51.26 51.27 51.28 51.29 51.30 51.31 51.32 51.33 51.35 51.36 51.37 51.38 51.40 51.41 51.42 51.43 51.45 51.46 51.47 51.49
53.05 53.06 53.08 53.09 53.10 53.12 53.13 53.14 53.15 53.17 53.18 53.19 53.20 53.22 53.23 53.24 53.25 53.26 53.27 53.28 53.29 53.30 53.31 53.32 53.33 53.34 53.35 53.36 53.37 53.37 53.38 53.39 53.39 53.40 53.40 53.41 53.41 53.42 53.42 53.42 53.43 53.43 53.43 53.43 53.43 53.43 53.43 53.43 53.43 53.43 53.42 53.42 53.42 53.42 53.41 53.41 53.40 53.40 53.39 53.38 53.38 53.37 53.36 53.35 53.34 53.33 53.32 53.31 53.30 53.29 53.28 53.27 53.26 53.24 53.23 53.22 53.20 53.19 53.17 53.16 53.14 53.13 53.11 53.10 53.08 53.06 53.05 53.03 53.01 53.00 52.98 52.96 52.94 52.93 52.91 52.89 52.87 52.85 52.84 52.82 52.80 52.78 52.76 52.75 52.73 52.71 52.69 52.67 52.66 52.64 52.62 52.60 52.59 52.57 52.55 52.54 52.52 52.50 52.49 52.47 52.46 52.44 52.43 52.41 52.40 52.38 52.37 52.36 52.34 52.33 52.32 52.31 52.30 52.29 52.28 52.27 52.26 52.25 52.24 52.23 52.22 52.22 52.21 52.20 52.20 52.19 52.19 52.18 52.18 52.18 52.17 52.17 52.17 52.17 52.17 52.17 52.17 52.17 52.17 52.17 52.17 52.18 52.18 52.18 52.19 52.19 52.20 52.20 52.21 52.21 52.22 52.23 52.23 52.24 52.25 52.26 52.27 52.28 52.29 52.30 52.31 52.32 52.33 52.34 52.35 52.36 52.37 52.38 52.40 52.41 52.42 52.43 52.45 52.46 52.47 52.48 52.50 52.51 52.52 52.54 52.55 52.56 52.58 52.59 52.60 52.62 52.63 52.64 52.65 52.67 52.68 52.69 52.70 52.72 52.73 52.74 52.75 52.76 52.77 52.78 52.79 52.80 52.81 52.82 52.83 52.84 52.85 52.86 52.87 52.87 52.88 52.89 52.89 52.90 52.90 52.91 52.91 52.92 52.92 52.92 52.93 52.93 52.93 52.93 52.93 52.93 52.93 52.93 52.93 52.93 52.92 52.92 52.92 52.92 52.91 52.91 52.90 52.90 52.89 52.88 52.88 52.87 52.86 52.85 52.84 52.83 52.82 52.81 52.80 52.79 52.78 52.77 52.76 52.74 52.73 52.72 52.70 52.69 52.67 52.66 52.64 52.63 52.61 52.60 52.58 52.56 52.55 52.53 52.51 52.50 52.48 52.46 52.44 52.43 52.41 52.39 52.37 52.35 52.34 52.32 52.30 52.28 52.26 52.25 52.23 52.21 52.19 52.17 52.16 52.14 52.12 52.10 52.09 52.07 52.05 52.04 52.02 52.00 51.99 51.97 51.96 51.94 51.93 51.91 51.90 51.88 51.87 51.86 51.84 51.83 51.82 51.81 51.80 51.79 51.78 51.77 51.76 51.75 51.74 51.73 51.72 51.72 51.71 51.70 51.70 51.69 51.69 51.68 51.68 51.68 51.67 51.67 51.67 51.67 51.67 51.67 51.67 51.67 51.67 51.67 51.67 51.68 51.68 51.68 51.69 51.69 51.70 51.70 51.71 51.71 51.72 51.73 51.73 51.74 51.75 51.76 51.77 51.78 51.79 51.80 51.81 51.82 51.83 51.84 51.85 51.86 51.87 51.88 51.90 51.91 51.92 51.93 51.95 51.96 51.97 51.98 52.00 52.01 52.02 52.04 52.05 52.06 52.08 52.09 52.10 52.12 52.13 52.14 52.15 52.17 52.18 52.19 52.20 52.22 52.23 52.24 52.25 52.26 52.27 52.28 52.29 52.30 52.31 52.32 52.33 52.34 52.35 52.36 52.37 52.37 52.38 52.39 52.39 52.40 52.40 52.41 52.41 52.42 52.42 52.42 52.43 52.43 52.43 52.43 52.43 52.43 52.43 52.43 52.43 52.43 52.42 52.42 52.42 52.42 52.41 52.41 52.40 52.40 52.39 52.38 52.38 52.37 52.36 52.35 52.34 52.33 52.32 52.31 52.30 52.29 52.28 52.27 52.26 52.24 52.23 52.22 52.20 52.19 52.17 52.16 52.14 52.13 52.11 52.10 52.08 52.06 52.05 52.03 52.01 52.00 51.98 51.96 51.94 51.93 51.91 51.89 51.87 51.85 51.84 51.82 51.80 51.78 51.76 51.75 51.73 51.71 51.69 51.67 51.66 51.64 51.62 51.60 51.59 51.57 51.55 51.54 51.52 51.50 51.49 51.47 51.46 51.44 51.43 51.41 51.40 51.38 51.37 51.36 51.34 51.33 51.32 51.31 51.30 51.29 51.28 51.27 51.26 51.25 51.24 51.23 51.22 51.22 51.21 51.20 51.20 51.19 51.19 51.18 51.18 51.18 51.17 51.17 51.17 51.17 51.17 51.17 51.17 51.17 51.17 51.17 51.17 51.18 51.18 51.18 51.19 51.19 51.20 51.20 51.21 51.21 51.22 51.23 51.23 51.24 51.25 51.26 51.27 51.28 51.29 51.30 51.31 51.32 51.33 51.34 51.35 51.36 51.37 51.38 51.40 51.41 51.42 51.43 51.45 51.46 51.47 51.48 51.50 51.51 51.52 51.54
53.10 53.11 53.13 53.14 53.15 53.17 53.18 53.19 53.20 53.22 53.23 53.24 53.25 53.27 53.28 53.29 53.30 53.31 53.32 53.33 53.34 53.35 53.36 53.37 53.38 53.39 53.40 53.41 53.42 53.42 53.43 53.44 53.44 53.45 53.45 53.46 53.46 53.47 53.47 53.47 53.48 53.48 53.48 53.48 53.48 53.48 53.48 53.48 53.48 53.48 53.48 53.47 53.47 53.47 53.46 53.46 53.45 53.45 53.44 53.43 53.43 53.42 53.41 53.40 53.39 53.38 53.37 53.36 53.35 53.34 53.33 53.32 53.31 53.29 53.28 53.27 53.25 53.24 53.22 53.21 53.19 53.18 53.16 53.15 53.13 53.11 53.10 53.08 53.06 53.05 53.03 53.01 52.99 52.98 52.96 52.94 52.92 52.90 52.89 52.87 52.85 52.83 52.81 52.80 52.78 52.76 52.74 52.72 52.71 52.69 52.67 52.65 52.64 52.62 52.60 52.59 52.57 52.55 52.54 52.52 52.51 52.49 52.48 52.46 52.45 52.43 52.42 52.41 52.39 52.38 52.37 52.36 52.35 52.34 52.33 52.32 52.31 52.30 52.29 52.28 52.27 52.27 52.26 52.25 52.25 52.24 52.24 52.23 52.23 52.23 52.23 52.22 52.22 52.22 52.22 52.22 52.22 52.22 52.22 52.22 52.22 52.23 52.23 52.23 52.24 52.24 52.25 52.25 52.26 52.26 52.27 52.28 52.28 52.29 52.30 52.31 52.32 52.33 52.34 52.35 52.36 52.37 52.38 52.39 52.40 52.41 52.42 52.43 52.45 52.46 52.47 52.48 52.50 52.51 52.52 52.53 52.55 52.56 52.57 52.59 52.60 52.61 52.63 52.64 52.65 52.67 52.68 52.69 52.70 52.72 52.73 52.74 52.75 52.77 52.78 52.79 52.80 52.81 52.82 52.83 52.84 52.85 52.86 52.87 52.88 52.89 52.90 52.91 52.92 52.92 52.93 52.94 52.94 52.95 52.95 52.96 52.96 52.97 52.97 52.97 52.98 52.98 52.98 52.98 52.98 52.98 52.98 52.98 52.98 52.98 52.98 52.97 52.97 52.97 52.96 52.96 52.95 52.95 52.94 52.93 52.93 52.92 52.91 52.90 52.89 52.88 52.87 52.86 52.85 52.84 52.83 52.82 52.81 52.79 52.78 52.77 52.75 52.74 52.72 52.71 52.69 52.68 52.66 52.65 52.63 52.61 52.60 52.58 52.56 52.55 52.53 52.51 52.49 52.48 52.46 52.44 52.42 52.40 52.39 52.37 52.35 52.33 52.31 52.30 52.28 52.26 52.24 52.22 52.21 52.19 52.17 52.15 52.14 52.12 52.10 52.09 52.07 52.05 52.04 52.02 52.01 51.99 51.98 51.96 51.95 51.93 51.92 51.91 51.89 51.88 51.87 51.86 51.85 51.84 51.83 51.82 51.81 51.80 51.79 51.78 51.77 51.77 51.76 51.75 51.75 51.74 51.74 51.73 51.73 51.73 51.73 51.72 51.72 51.72 51.72 51.72 51.72 51.72 51.72 51.72 51.72 51.73 51.73 51.73 51.74 51.74 51.75 51.75 51.76 51.76 51.77 51.78 51.78 51.79 51.80 51.81 51.82 51.83 51.84 51.85 51.86 51.87 51.88 51.89 51.90 51.91 51.92 51.93 51.95 51.96 51.97 51.98 52.00 52.01 52.02 52.03 52.05 52.06 52.07 52.09 52.10 52.11 52.13 52.14 52.15 52.17 52.18 52.19 52.20 52.22 52.23 52.24 52.25 52.27 52.28 52.29 52.30 52.31 52.32 52.33 52.34 52.35 52.36 52.37 52.38 52.39 52.40 52.41 52.42 52.42 52.43 52.44 52.44 52.45 52.45 52.46 52.46 52.47 52.47 52.47 52.48 52.48 52.48 52.48 52.48 52.48 52.48 52.48 52.48 52.48 52.48 52.47 52.47 52.47 52.46 52.46 52.45 52.45 52.44 52.43 52.43 52.42 52.41 52.40 52.39 52.38 52.37 52.36 52.35 52.34 52.33 52.32 52.31 52.29 52.28 52.27 52.25 52.24 52.22 52.21 52.19 52.18 52.16 52.15 52.13 52.11 52.10 52.08 52.06 52.05 52.03 52.01 51.99 51.98 51.96 51.94 51.92 51.90 51.89 51.87 51.85 51.83 51.81 51.80 51.78 51.76 51.74 51.72 51.71 51.69 51.67 51.65 51.64 51.62 51.60 51.59 51.57 51.55 51.54 51.52 51.51 51.49 51.48 51.46 51.45 51.43 51.42 51.41 51.39 51.38 51.37 51.36 51.35 51.34 51.33 51.32 51.31 51.30 51.29 51.28 51.27 51.27 51.26 51.25 51.25 51.24 51.24 51.23 51.23 51.23 51.23 51.22 51.22 51.22 51.22 51.22 51.22 51.22 51.22 51.22 51.22 51.23 51.23 51.23 51.24 51.24 51.25 51.25 51.26 51.26 51.27 51.28 51.28 51.29 51.30 51.31 51.32 51.33 51.34 51.35 51.36 51.37 51.38 51.39 51.40 51.41 51.42 51.43 51.45 51.46 51.47 51.48 51.50 51.51 51.52 51.53 51.55 51.56 51.57 51.59
53.15 53.16 53.18 53.19 53.20 53.22 53.23 53.24 53.25 53.27 53.28 53.29 53.30 53.32 53.33 53.34 53.35 53.36 53.37 53.38 53.39 53.40 53.41 53.42 53.43 53.44 53.45 53.46 53.47 53.47 53.48 53.49 53.49 53.50 53.50 53.51 53.51 53.52 53.52 53.52 53.53 53.53 53.53 53.53 53.53 53.53 53.53 53.53 53.53 53.53 53.52 53.52 53.52 53.52 53.51 53.51 53.50 53.50 53.49 53.48 53.48 53.47 53.46 53.45 53.44 53.43 53.42 53.41 53.40 53.39 53.38 53.37 53.36 53.34 53.33 53.32 53.30 53.29 53.27 53.26 53.24 53.23 53.21 53.20 53.18 53.16 53.15 53.13 53.11 53.10 53.08 53.06 53.04 53.03 53.01 52.99 52.97 52.95 52.94 52.92 52.90 52.88 52.86 52.85 52.83 52.81 52.79 52.77 52.76 52.74 52.72 52.70 52.69 52.67 52.65 52.64 52.62 52.60 52.59 52.57 52.56 52.54 52.53 52.51 52.50 52.48 52.47 52.46 52.44 52.43 52.42 52.41 52.40 52.39 52.38 52.37 52.36 52.35 52.34 52.33 52.32 52.32 52.31 52.30 52.30 52.29 52.29 52.28 52.28 52.28 52.27 52.27 52.27 52.27 52.27 52.27 52.27 52.27 52.27 52.27 52.27 52.28 52.28 52.28 52.29 52.29 52.30 52.30 52.31 52.31 52.32 52.33 52.33 52.34 52.35 52.36 52.37 52.38 52.39 52.40 52.41 52.42 52.43 52.44 52.45 52.46 52.47 52.48 52.50 52.51 52.52 52.53 52.55 52.56 52.57 52.58 52.60 52.61 52.62 52.64 52.65 52.66 52.68 52.69 52.70 52.72 52.73 52.74 52.75 52.77 52.78 52.79 52.80 52.82 52.83 52.84 52.85 52.86 52.87 52.88 52.89 52.90 52.91 52.92 52.93 52.94 52.95 52.96 52.97 52.97 52.98 52.99 52.99 53.00 53.00 53.01 53.01 53.02 53.02 53.02 53.03 53.03 53.03 53.03 53.03 53.03 53.03 53.03 53.03 53.03 53.02 53.02 53.02 53.02 53.01 53.01 53.00 53.00 52.99 52.98 52.98 52.97 52.96 52.95 52.94 52.93 52.92 52.91 52.90 52.89 52.88 52.87 52.86 52.84 52.83 52.82 52.80 52.79 52.77 52.76 52.74 52.73 52.71 52.70 52.68 52.66 52.65 52.63 52.61 52.60 52.58 52.56 52.54 52.53 52.51 52.49 52.47 52.45 52.44 52.42 52.40 52.38 52.36 52.35 52.33 52.31 52.29 52.27 52.26 52.24 52.22 52.20 52.19 52.17 52.15 52.14 52.12 52.10 52.09 52.07 52.06 52.04 52.03 52.01 52.00 51.98 51.97 51.96 51.94 51.93 51.92 51.91 51.90 51.89 51.88 51.87 51.86 51.85 51.84 51.83 51.82 51.82 51.81 51.80 51.80 51.79 51.79 51.78 51.78 51.78 51.77 51.77 51.77 51.77 51.77 51.77 51.77 51.77 51.77 51.77 51.77 51.78 51.78 51.78 51.79 51.79 51.80 51.80 51.81 51.81 51.82 51.83 51.83 51.84 51.85 51.86 51.87 51.88 51.89 51.90 51.91 51.92 51.93 51.94 51.95 51.96 51.97 51.98 52.00 52.01 52.02 52.03 52.05 52.06 52.07 52.08 52.10 52.11 52.12 52.14 52.15 52.16 52.18 52.19 52.20 52.22 52.23 52.24 52.25 52.27 52.28 52.29 52.30 52.32 52.33 52.34 52.35 52.36 52.37 52.38 52.39 52.40 52.41 52.42 52.43 52.44 52.45 52.46 52.47 52.47 52.48 52.49 52.49 52.50 52.50 52.51 52.51 52.52 52.52 52.52 52.53 52.53 52.53 52.53 52.53 52.53 52.53 52.53 52.53 52.53 52.52 52.52 52.52 52.52 52.51 52.51 52.50 52.50 52.49 52.48 52.48 52.47 52.46 52.45 52.44 52.43 52.42 52.41 52.40 52.39 52.38 52.37 52.36 52.34 52.33 52.32 52.30 52.29 52.27 52.26 52.24 52.23 52.21 52.20 52.18 52.16 52.15 52.13 52.11 52.10 52.08 52.06 52.04 52.03 52.01 51.99 51.97 51.95 51.94 51.92 51.90 51.88 51.86 51.85 51.83 51.81 51.79 51.77 51.76 51.74 51.72 51.70 51.69 51.67 51.65 51.64 51.62 51.60 51.59 51.57 51.56 51.54 51.53 51.51 51.50 51.48 51.47 51.46 51.44 51.43 51.42 51.41 51.40 51.39 51.38 51.37 51.36 51.35 51.34 51.33 51.32 51.32 51.31 51.30 51.30 51.29 51.29 51.28 51.28 51.28 51.27 51.27 51.27 51.27 51.27 51.27 51.27 51.27 51.27 51.27 51.27 51.28 51.28 51.28 51.29 51.29 51.30 51.30 51.31 51.31 51.32 51.33 51.33 51.34 51.35 51.36 51.37 51.38 51.39 51.40 51.41 51.42 51.43 51.44 51.45 51.46 51.47 51.48 51.50 51.51 51.52 51.53 51.55 51.56 51.57 51.58 51.60 51.61 51.62 51.64
53.20 53.21 53.23 53.24 53.25 53.27 53.28 53.29 53.30 53.32 53.33 53.34 53.35 53.37 53.38 53.39 53.40 53.41 53.42 53.43 53.44 53.45 53.46 53.47 53.48 53.49 53.50 53.51 53.52 53.52 53.53 53.54 53.54 53.55 53.55 53.56 53.56 53.57 53.57 53.57 53.58 53.58 53.58 53.58 53.58 53.58 53.58 53.58 53.58 53.58 53.58 53.57 53.57 53.57 53.56 53.56 53.55 53.55 53.54 53.53 53.53 53.52 53.51 53.50 53.49 53.48 53.47 53.46 53.45 53.44 53.43 53.42 53.41 53.39 53.38 53.37 53.35 53.34 53.32 53.31 53.29 53.28 53.26 53.25 53.23 53.21 53.20 53.18 53.16 53.15 53.13 53.11 53.09 53.08 53.06 53.04 53.02 53.00 52.99 52.97 52.95 52.93 52.91 52.90 52.88 52.86 52.84 52.82 52.81 52.79 52.77 52.75 52.74 52.72 52.70 52.69 52.67 52.65 52.64 52.62 52.61 52.59 52.58 52.56 52.55 52.53 52.52 52.51 52.49 52.48 52.47 52.46 52.45 52.44 52.43 52.42 52.41 52.40 52.39 52.38 52.37 52.37 52.36 52.35 52.35 52.34 52.34 52.33 52.33 52.33 52.33 52.32 52.32 52.32 52.32 52.32 52.32 52.32 52.32 52.32 52.32 52.33 52.33 52.33 52.34 52.34 52.35 52.35 52.36 52.36 52.37 52.38 52.38 52.39 52.40 52.41 52.42 52.43 52.44 52.45 52.46 52.47 52.48 52.49 52.50 52.51 52.52 52.53 52.55 52.56 52.57 52.58 52.60 52.61 52.62 52.63 52.65 52.66 52.67 52.69 52.70 52.71 52.73 52.74 52.75 52.77 52.78 52.79 52.80 52.82 52.83 52.84 52.85 52.87 52.88 52.89 52.90 52.91 52.92 52.93 52.94 52.95 52.96 52.97 52.98 52.99 53.00 53.01 53.02 53.02 53.03 53.04 53.04 53.05 53.05 53.06 53.06 53.07 53.07 53.07 53.08 53.08 53.08 53.08 53.08 53.08 53.08 53.08 53.08 53.08 53.08 53.07 53.07 53.07 53.06 53.06 53.05 53.05 53.04 53.03 53.03 53.02 53.01 53.00 52.99 52.98 52.97 52.96 52.95 52.94 52.93 52.92 52.91 52.89 52.88 52.87 52.85 52.84 52.82 52.81 52.79 52.78 52.76 52.75 52.73 52.71 52.70 52.68 52.66 52.65 52.63 52.61 52.59 52.58 52.56 52.54 52.52 52.50 52.49 52.47 52.45 52.43 52.41 52.40 52.38 52.36 52.34 52.32 52.31 52.29 52.27 52.25 52.24 52.22 52.20 52.19 52.17 52.15 52.14 52.12 52.11 52.09 52.08 52.06 52.05 52.03 52.02 52.01 51.99 51.98 51.97 51.96 51.95 51.94 51.93 51.92 51.91 51.90 51.89 51.88 51.87 51.87 51.86 51.85 51.85 51.84 51.84 51.83 51.83 51.83 51.83 51.82 51.82 51.82 51.82 51.82 51.82 51.82 51.82 51.82 51.82 51.83 51.83 51.83 51.84 51.84 51.85 51.85 51.86 51.86 51.87 51.88 51.88 51.89 51.90 51.91 51.92 51.93 51.94 51.95 51.96 51.97 51.98 51.99 52.00 52.01 52.02 52.03 52.05 52.06 52.07 52.08 52.10 52.11 52.12 52.13 52.15 52.16 52.17 52.19 52.20 52.21 52.23 52.24 52.25 52.27 52.28 52.29 52.30 52.32 52.33 52.34 52.35 52.37 52.38 52.39 52.40 52.41 52.42 52.43 52.44 52.45 52.46 52.47 52.48 52.49 52.50 52.51 52.52 52.52 52.53 52.54 52.54 52.55 52.55 52.56 52.56 52.57 52.57 52.57 52.58 52.58 52.58 52.58 52.58 52.58 52.58 52.58 52.58 52.58 52.58 52.57 52.57 52.57 52.56 52.56 52.55 52.55 52.54 52.53 52.53 52.52 52.51 52.50 52.49 52.48 52.47 52.46 52.45 52.44 52.43 52.42 52.41 52.39 52.38 52.37 52.35 52.34 52.32 52.31 52.29 52.28 52.26 52.25 52.23 52.21 52.20 52.18 52.16 52.15 52.13 52.11 52.09 52.08 52.06 52.04 52.02 52.00 51.99 51.97 51.95 51.93 51.91 51.90 51.88 51.86 51.84 51.82 51.81 51.79 51.77 51.75 51.74 51.72 51.70 51.69 51.67 51.65 51.64 51.62 51.61 51.59 51.58 51.56 51.55 51.53 51.52 51.51 51.49 51.48 51.47 51.46 51.45 51.44 51.43 51.42 51.41 51.40 51.39 51.38 51.37 51.37 51.36 51.35 51.35 51.34 51.34 51.33 51.33 51.33 51.33 51.32 51.32 51.32 51.32 51.32 51.32 51.32 51.32 51.32 51.32 51.33 51.33 51.33 51.34 51.34 51.35 51.35 51.36 51.36 51.37 51.38 51.38 51.39 51.40 51.41 51.42 51.43 51.44 51.45 51.46 51.47 51.48 51.49 51.50 51.51 51.52 51.53 51.55 51.56 51.57 51.58 51.60 51.61 51.62 51.63 51.65 51.66 51.67 51.69
53.25 53.26 53.28 53.29 53.30 53.32 53.33 53.34 53.35 53.37 53.38 53.39 53.40 53.42 53.43 53.44 53.45 53.46 53.47 53.48 53.49 53.50 53.51 53.52 53.53 53.54 53.55 53.56 53.57 53.57 53.58 53.59 53.59 53.60 53.60 53.61 53.61 53.62 53.62 53.62 53.63 53.63 53.63 53.63 53.63 53.63 53.63 53.63 53.63 53.63 53.62 53.62 53.62 53.62 53.61 53.61 53.60 53.60 53.59 53.58 53.58 53.57 53.56 53.55 53.54 53.53 53.52 53.51 53.50 53.49 53.48 53.47 53.46 53.44 53.43 53.42 53.40 53.39 53.37 53.36 53.34 53.33 53.31 53.30 53.28 53.26 53.25 53.23 53.21 53.20 53.18 53.16 53.14 53.13 53.11 53.09 53.07 53.05 53.04 53.02 53.00 52.98 52.96 52.95 52.93 52.91 52.89 52.87 52.86 52.84 52.82 52.80 52.79 52.77 52.75 52.74 52.72 52.70 52.69 52.67 52.66 52.64 52.63 52.61 52.60 52.58 52.57 52.56 52.54 52.53 52.52 52.51 52.50 52.49 52.48 52.47 52.46 52.45 52.44 52.43 52.42 52.42 52.41 52.40 52.40 52.39 52.39 52.38 52.38 52.38 52.38 52.37 52.37 52.37 52.37 52.37 52.37 52.37 52.37 52.37 52.37 52.38 52.38 52.38 52.39 52.39 52.40 52.40 52.41 52.41 52.42 52.43 52.43 52.44 52.45 52.46 52.47 52.48 52.49 52.50 52.51 52.52 52.53 52.54 52.55 52.56 52.57 52.58 52.60 52.61 52.62 52.63 52.65 52.66 52.67 52.68 52.70 52.71 52.72 52.74 52.75 52.76 52.78 52.79 52.80 52.82 52.83 52.84 52.85 52.87 52.88 52.89 52.90 52.92 52.93 52.94 52.95 52.96 52.97 52.98 52.99 53.00 53.01 53.02 53.03 53.04 53.05 53.06 53.07 53.07 53.08 53.09 53.09 53.10 53.10 53.11 53.11 53.12 53.12 53.12 53.13 53.13 53.13 53.13 53.13 53.13 53.13 53.13 53.13 53.13 53.12 53.12 53.12 53.12 53.11 53.11 53.10 53.10 53.09 53.08 53.08 53.07 53.06 53.05 53.04 53.03 53.02 53.01 53.00 52.99 52.98 52.97 52.96 52.94 52.93 52.92 52.90 52.89 52.87 52.86 52.84 52.83 52.81 52.80 52.78 52.76 52.75 52.73 52.71 52.70 52.68 52.66 52.64 52.63 52.61 52.59 52.57 52.55 52.54 52.52 52.50 52.48 52.46 52.45 52.43 52.41 52.39 52.37 52.36 52.34 52.32 52.30 52.29 52.27 52.25 52.24 52.22 52.20 52.19 52.17 52.16 52.14 52.13 52.11 52.10 52.08 52.07 52.06 52.04 52.03 52.02 52.01 52.00 51.99 51.98 51.97 51.96 51.95 51.94 51.93 51.92 51.92 51.91 51.90 51.90 51.89 51.89 51.88 51.88 51.88 51.88 51.87 51.87 51.87 51.87 51.87 51.87 51.87 51.87 51.87 51.87 51.88 51.88 51.88 51.89 51.89 51.90 51.90 51.91 51.91 51.92 51.93 51.93 51.94 51.95 51.96 51.97 51.98 51.99 52.00 52.01 52.02 52.03 52.04 52.05 52.06 52.07 52.08 52.10 52.11 52.12 52.13 52.15 52.16 52.17 52.18 52.20 52.21 52.22 52.24 52.25 52.26 52.28 52.29 52.30 52.32 52.33 52.34 52.35 52.37 52.38 52.39 52.40 52.42 52.43 52.44 52.45 52.46 52.47 52.48 52.49 52.50 52.51 52.52 52.53 52.54 52.55 52.56 52.57 52.57 52.58 52.59 52.59 52.60 52.60 52.61 52.61 52.62 52.62 52.62 52.63 52.63 52.63 52.63 52.63 52.63 52.63 52.63 52.63 52.63 52.62 52.62 52.62 52.62 52.61 52.61 52.60 52.60 52.59 52.58 52.58 52.57 52.56 52.55 52.54 52.53 52.52 52.51 52.50 52.49 52.48 52.47 52.46 52.44 52.43 52.42 52.40 52.39 52.37 52.36 52.34 52.33 52.31 52.30 52.28 52.26 52.25 52.23 52.21 52.20 52.18 52.16 52.14 52.13 52.11 52.09 52.07 52.05 52.04 52.02 52.00 51.98 51.96 51.95 51.93 51.91 51.89 51.87 51.86 51.84 51.82 51.80 51.79 51.77 51.75 51.74 51.72 51.70 51.69 51.67 51.66 51.64 51.63 51.61 51.60 51.58 51.57 51.56 51.54 51.53 51.52 51.51 51.50 51.49 51.48 51.47 51.46 51.45 51.44 51.43 51.42 51.42 51.41 51.40 51.40 51.39 51.39 51.38 51.38 51.38 51.38 51.37 51.37 51.37 51.37 51.37 51.37 51.37 51.37 51.37 51.37 51.38 51.38 51.38 51.39 51.39 51.40 51.40 51.41 51.41 51.42 51.43 51.43 51.44 51.45 51.46 51.47 51.48 51.49 51.50 51.51 51.52 51.53 51.54 51.55 51.56 51.57 51.58 51.60 51.61 51.62 51.63 51.65 51.66 51.67 51.68 51.70 51.71 51.72 51.74
53.30 53.31 53.33 53.34 53.35 53.37 53.38 53.39 53.40 53.42 53.43 53.44 53.45 53.47 53.48 53.49 53.50 53.51 53.52 53.53 53.54 53.55 53.56 53.57 53.58 53.59 53.60 53.61 53.62 53.62 53.63 53.64 53.64 53.65 53.65 53.66 53.66 53.67 53.67 53.67 53.68 53.68 53.68 53.68 53.68 53.68 53.68 53.68 53.68 53.68 53.67 53.67 53.67 53.67 53.66 53.66 53.65 53.65 53.64 53.63 53.63 53.62 53.61 53.60 53.59 53.58 53.57 53.56 53.55 53.54 53.53 53.52 53.51 53.49 53.48 53.47 53.45 53.44 53.42 53.41 53.39 53.38 53.36 53.35 53.33 53.31 53.30 53.28 53.26 53.25 53.23 53.21 53.19 53.18 53.16 53.14 53.12 53.10 53.09 53.07 53.05 53.03 53.01 53.00 52.98 52.96 52.94 52.92 52.91 52.89 52.87 52.85 52.84 52.82 52.80 52.79 52.77 52.75 52.74 52.72 52.71 52.69 52.68 52.66 52.65 52.63 52.62 52.61 52.59 52.58 52.57 52.56 52.55 52.54 52.53 52.52 52.51 52.50 52.49 52.48 52.47 52.47 52.46 52.45 52.45 52.44 52.44 52.43 52.43 52.43 52.42 52.42 52.42 52.42 52.42 52.42 52.42 52.42 52.42 52.42 52.42 52.43 52.43 52.43 52.44 52.44 52.45 52.45 52.46 52.46 52.47 52.48 52.48 52.49 52.50 52.51 52.52 52.53 52.54 52.55 52.56 52.57 52.58 52.59 52.60 52.61 52.62 52.63 52.65 52.66 52.67 52.68 52.70 52.71 52.72 52.73 52.75 52.76 52.77 52.79 52.80 52.81 52.83 52.84 52.85 52.87 52.88 52.89 52.90 52.92 52.93 52.94 52.95 52.97 52.98 52.99 53.00 53.01 53.02 53.03 53.04 53.05 53.06 53.07 53.08 53.09 53.10 53.11 53.12 53.12 53.13 53.14 53.14 53.15 53.15 53.16 53.16 53.17 53.17 53.17 53.18 53.18 53.18 53.18 53.18 53.18 53.18 53.18 53.18 53.18 53.17 53.17 53.17 53.17 53.16 53.16 53.15 53.15 53.14 53.13 53.13 53.12 53.11 53.10 53.09 53.08 53.07 53.06 53.05 53.04 53.03 53.02 53.01 52.99 52.98 52.97 52.95 52.94 52.92 52.91 52.89 52.88 52.86 52.85 52.83 52.81 52.80 52.78 52.76 52.75 52.73 52.71 52.69 52.68 52.66 52.64 52.62 52.60 52.59 52.57 52.55 52.53 52.51 52.50 52.48 52.46 52.44 52.42 52.41 52.39 52.37 52.35 52.34 52.32 52.30 52.29 52.27 52.25 52.24 52.22 52.21 52.19 52.18 52.16 52.15 52.13 52.12 52.11 52.09 52.08 52.07 52.06 52.05 52.04 52.03 52.02 52.01 52.00 51.99 51.98 51.97 51.97 51.96 51.95 51.95 51.94 51.94 51.93 51.93 51.93 51.92 51.92 51.92 51.92 51.92 51.92 51.92 51.92 51.92 51.92 51.92 51.93 51.93 51.93 51.94 51.94 51.95 51.95 51.96 51.96 51.97 51.98 51.98 51.99 52.00 52.01 52.02 52.03 52.04 52.05 52.06 52.07 52.08 52.09 52.10 52.11 52.12 52.13 52.15 52.16 52.17 52.18 52.20 52.21 52.22 52.23 52.25 52.26 52.27 52.29 52.30 52.31 52.33 52.34 52.35 52.37 52.38 52.39 52.40 52.42 52.43 52.44 52.45 52.47 52.48 52.49 52.50 52.51 52.52 52.53 52.54 52.55 52.56 52.57 52.58 52.59 52.60 52.61 52.62 52.62 52.63 52.64 52.64 52.65 52.65 52.66 52.66 52.67 52.67 52.67 52.68 52.68 52.68 52.68 52.68 52.68 52.68 52.68 52.68 52.68 52.67 52.67 52.67 52.67 52.66 52.66 52.65 52.65 52.64 52.63 52.63 52.62 52.61 52.60 52.59 52.58 52.57 52.56 52.55 52.54 52.53 52.52 52.51 52.49 52.48 52.47 52.45 52.44 52.42 52.41 52.39 52.38 52.36 52.35 52.33 52.31 52.30 52.28 52.26 52.25 52.23 52.21 52.19 52.18 52.16 52.14 52.12 52.10 52.09 52.07 52.05 52.03 52.01 52.00 51.98 51.96 51.94 51.92 51.91 51.89 51.87 51.85 51.84 51.82 51.80 51.79 51.77 51.75 51.74 51.72 51.71 51.69 51.68 51.66 51.65 51.63 51.62 51.61 51.59 51.58 51.57 51.56 51.55 51.54 51.53 51.52 51.51 51.50 51.49 51.48 51.47 51.47 51.46 51.45 51.45 51.44 51.44 51.43 51.43 51.43 51.42 51.42 51.42 51.42 51.42 51.42 51.42 51.42 51.42 51.42 51.42 51.43 51.43 51.43 51.44 51.44 51.45 51.45 51.46 51.46 51.47 51.48 51.48 51.49 51.50 51.51 51.52 51.53 51.54 51.55 51.56 51.57 51.58 51.59 51.60 51.61 51.62 51.63 51.65 51.66 51.67 51.68 51.70 51.71 51.72 51.73 51.75 51.76 51.77 51.79
53.35 53.36 53.38 53.39 53.40 53.42 53.43 53.44 53.45 53.47 53.48 53.49 53.50 53.52 53.53 53.54 53.55 53.56 53.57 53.58 53.59 53.60 53.61 53.62 53.63 53.64 53.65 53.66 53.67 53.67 53.68 53.69 53.69 53.70 53.70 53.71 53.71 53.72 53.72 53.72 53.73 53.73 53.73 53.73 53.73 53.73 53.73 53.73 53.73 53.73 53.73 53.72 53.72 53.72 53.71 53.71 53.70 53.70 53.69 53.68 53.68 53.67 53.66 53.65 53.64 53.63 53.62 53.61 53.60 53.59 53.58 53.57 53.56 53.54 53.53 53.52 53.50 53.49 53.47 53.46 53.44 53.43 53.41 53.40 53.38 53.36 53.35 53.33 53.31 53.30 53.28 53.26 53.24 53.23 53.21 53.19 53.17 53.15 53.14 53.12 53.10 53.08 53.06 53.05 53.03 53.01 52.99 52.97 52.96 52.94 52.92 52.90 52.89 52.87 52.85 52.84 52.82 52.80 52.79 52.77 52.76 52.74 52.73 52.71 52.70 52.68 52.67 52.66 52.64 52.63 52.62 52.61 52.60 52.59 52.58 52.57 52.56 52.55 52.54 52.53 52.52 52.52 52.51 52.50 52.50 52.49 52.49 52.48 52.48 52.48 52.48 52.47 52.47 52.47 52.47 52.47 52.47 52.47 52.47 52.47 52.47 52.48 52.48 52.48 52.49 52.49 52.50 52.50 52.51 52.51 52.52 52.53 52.53 52.54 52.55 52.56 52.57 52.58 52.59 52.60 52.61 52.62 52.63 52.64 52.65 52.66 52.67 52.68 52.70 52.71 52.72 52.73 52.75 52.76 52.77 52.78 52.80 52.81 52.82 52.84 52.85 52.86 52.88 52.89 52.90 52.92 52.93 52.94 52.95 52.97 52.98 52.99 53.00 53.02 53.03 53.04 53.05 53.06 53.07 53.08 53.09 53.10 53.11 53.12 53.13 53.14 53.15 53.16 53.17 53.17 53.18 53.19 53.19 53.20 53.20 53.21 53.21 53.22 53.22 53.22 53.23 53.23 53.23 53.23 53.23 53.23 53.23 53.23 53.23 53.23 53.23 53.22 53.22 53.22 53.21 53.21 53.20 53.20 53.19 53.18 53.18 53.17 53.16 53.15 53.14 53.13 53.12 53.11 53.10 53.09 53.08 53.07 53.06 53.04 53.03 53.02 53.00 52.99 52.97 52.96 52.94 52.93 52.91 52.90 52.88 52.86 52.85 52.83 52.81 52.80 52.78 52.76 52.74 52.73 52.71 52.69 52.67 52.65 52.64 52.62 52.60 52.58 52.56 52.55 52.53 52.51 52.49 52.47 52.46 52.44 52.42 52.40 52.39 52.37 52.35 52.34 52.32 52.30 52.29 52.27 52.26 52.24 52.23 52.21 52.20 52.18 52.17 52.16 52.14 52.13 52.12 52.11 52.10 52.09 52.08 52.07 52.06 52.05 52.04 52.03 52.02 52.02 52.01 52.00 52.00 51.99 51.99 51.98 51.98 51.98 51.98 51.97 51.97 51.97 51.97 51.97 51.97 51.97 51.97 51.97 51.97 51.98 51.98 51.98 51.99 51.99 52.00 52.00 52.01 52.01 52.02 52.03 52.03 52.04 52.05 52.06 52.07 52.08 52.09 52.10 52.11 52.12 52.13 52.14 52.15 52.16 52.17 52.18 52.20 52.21 52.22 52.23 52.25 52.26 52.27 52.28 52.30 52.31 52.32 52.34 52.35 52.36 52.38 52.39 52.40 52.42 52.43 52.44 52.45 52.47 52.48 52.49 52.50 52.52 52.53 52.54 52.55 52.56 52.57 52.58 52.59 52.60 52.61 52.62 52.63 52.64 52.65 52.66 52.67 52.67 52.68 52.69 52.69 52.70 52.70 52.71 52.71 52.72 52.72 52.72 52.73 52.73 52.73 52.73 52.73 52.73 52.73 52.73 52.73 52.73 52.73 52.72 52.72 52.72 52.71 52.71 52.70 52.70 52.69 52.68 52.68 52.67 52.66 52.65 52.64 52.63 52.62 52.61 52.60 52.59 52.58 52.57 52.56 52.54 52.53 52.52 52.50 52.49 52.47 52.46 52.44 52.43 52.41 52.40 52.38 52.36 52.35 52.33 52.31 52.30 52.28 52.26 52.24 52.23 52.21 52.19 52.17 52.15 52.14 52.12 52.10 52.08 52.06 52.05 52.03 52.01 51.99 51.97 51.96 51.94 51.92 51.90 51.89 51.87 51.85 51.84 51.82 51.80 51.79 51.77 51.76 51.74 51.73 51.71 51.70 51.68 51.67 51.66 51.64 51.63 51.62 51.61 51.60 51.59 51.58 51.57 51.56 51.55 51.54 51.53 51.52 51.52 51.51 51.50 51.50 51.49 51.49 51.48 51.48 51.48 51.48 51.47 51.47 51.47 51.47 51.47 51.47 51.47 51.47 51.47 51.47 51.48 51.48 51.48 51.49 51.49 51.50 51.50 51.51 51.51 51.52 51.53 51.53 51.54 51.55 51.56 51.57 51.58 51.59 51.60 51.61 51.62 51.63 51.64 51.65 51.66 51.67 51.68 51.70 51.71 51.72 51.73 51.75 51.76 51.77 51.78 51.80 51.81 51.82 51.84
53.40 53.41 53.43 53.44 53.45 53.47 53.48 53.49 53.50 53.52 53.53 53.54 53.55 53.57 53.58 53.59 53.60 53.61 53.62 53.63 53.64 53.65 53.66 53.67 53.68 53.69 53.70 53.71 53.72 53.72 53.73 53.74 53.74 53.75 53.75 53.76 53.76 53.77 53.77 53.77 53.78 53.78 53.78 53.78 53.78 53.78 53.78 53.78 53.78 53.78 53.77 53.77 53.77 53.77 53.76 53.76 53.75 53.75 53.74 53.73 53.73 53.72 53.71 53.70 53.69 53.68 53.67 53.66 53.65 53.64 53.63 53.62 53.61 53.59 53.58 53.57 53.55 53.54 53.52 53.51 53.49 53.48 53.46 53.45 53.43 53.41 53.40 53.38 53.36 53.35 53.33 53.31 53.29 53.28 53.26 53.24 53.22 53.20 53.19 53.17 53.15 53.13 53.11 53.10 53.08 53.06 53.04 53.02 53.01 52.99 52.97 52.95 52.94 52.92 52.90 52.89 52.87 52.85 52.84 52.82 52.81 52.79 52.78 52.76 52.75 52.73 52.72 52.71 52.69 52.68 52.67 52.66 52.65 52.64 52.63 52.62 52.61 52.60 52.59 52.58 52.57 52.57 52.56 52.55 52.55 52.54 52.54 52.53 52.53 52.53 52.52 52.52 52.52 52.52 52.52 52.52 52.52 52.52 52.52 52.52 52.52 52.53 52.53 52.53 52.54 52.54 52.55 52.55 52.56 52.56 52.57 52.58 52.58 52.59 52.60 52.61 52.62 52.63 52.64 52.65 52.66 52.67 52.68 52.69 52.70 52.71 52.72 52.73 52.75 52.76 52.77 52.78 52.80 52.81 52.82 52.83 52.85 52.86 52.87 52.89 52.90 52.91 52.93 52.94 52.95 52.97 52.98 52.99 53.00 53.02 53.03 53.04 53.05 53.07 53.08 53.09 53.10 53.11 53.12 53.13 53.14 53.15 53.16 53.17 53.18 53.19 53.20 53.21 53.22 53.22 53.23 53.24 53.24 53.25 53.25 53.26 53.26 53.27 53.27 53.27 53.28 53.28 53.28 53.28 53.28 53.28 53.28 53.28 53.28 53.28 53.27 53.27 53.27 53.27 53.26 53.26 53.25 53.25 53.24 53.23 53.23 53.22 53.21 53.20 53.19 53.18 53.17 53.16 53.15 53.14 53.13 53.12 53.11 53.09 53.08 53.07 53.05 53.04 53.02 53.01 52.99 52.98 52.96 52.95 52.93 52.91 52.90 52.88 52.86 52.85 52.83 52.81 52.79 52.78 52.76 52.74 52.72 52.70 52.69 52.67 52.65 52.63 52.61 52.60 52.58 52.56 52.54 52.52 52.51 52.49 52.47 52.45 52.44 52.42 52.40 52.39 52.37 52.35 52.34 52.32 52.31 52.29 52.28 52.26 52.25 52.23 52.22 52.21 52.19 52.18 52.17 52.16 52.15 52.14 52.13 52.12 52.11 52.10 52.09 52.08 52.07 52.07 52.06 52.05 52.05 52.04 52.04 52.03 52.03 52.03 52.02 52.02 52.02 52.02 52.02 52.02 52.02 52.02 52.02 52.02 52.02 52.03 52.03 52.03 52.04 52.04 52.05 52.05 52.06 52.06 52.07 52.08 52.08 52.09 52.10 52.11 52.12 52.13 52.14 52.15 52.16 52.17 52.18 52.19 52.20 52.21 52.22 52.23 52.25 52.26 52.27 52.28 52.30 52.31 52.32 52.33 52.35 52.36 52.37 52.39 52.40 52.41 52.43 52.44 52.45 52.47 52.48 52.49 52.50 52.52 52.53 52.54 52.55 52.57 52.58 52.59 52.60 52.61 52.62 52.63 52.64 52.65 52.66 52.67 52.68 52.69 52.70 52.71 52.72 52.72 52.73 52.74 52.74 52.75 52.75 52.76 52.76 52.77 52.77 52.77 52.78 52.78 52.78 52.78 52.78 52.78 52.78 52.78 52.78 52.78 52.77 52.77 52.77 52.77 52.76 52.76 52.75 52.75 52.74 52.73 52.73 52.72 52.71 52.70 52.69 52.68 52.67 52.66 52.65 52.64 52.63 52.62 52.61 52.59 52.58 52.57 52.55 52.54 52.52 52.51 52.49 52.48 52.46 52.45 52.43 52.41 52.40 52.38 52.36 52.35 52.33 52.31 52.29 52.28 52.26 52.24 52.22 52.20 52.19 52.17 52.15 52.13 52.11 52.10 52.08 52.06 52.04 52.02 52.01 51.99 51.97 51.95 51.94 51.92 51.90 51.89 51.87 51.85 51.84 51.82 51.81 51.79 51.78 51.76 51.75 51.73 51.72 51.71 51.69 51.68 51.67 51.66 51.65 51.64 51.63 51.62 51.61 51.60 51.59 51.58 51.57 51.57 51.56 51.55 51.55 51.54 51.54 51.53 51.53 51.53 51.52 51.52 51.52 51.52 51.52 51.52 51.52 51.52 51.52 51.52 51.52 51.53 51.53 51.53 51.54 51.54 51.55 51.55 51.56 51.56 51.57 51.58 51.58 51.59 51.60 51.61 51.62 51.63 51.64 51.65 51.66 51.67 51.68 51.69 51.70 51.71 51.72 51.73 51.75 51.76 51.77 51.78 51.80 51.81 51.82 51.83 51.85 51.86 51.87 51.89
53.45 53.46 53.48 53.49 53.50 53.52 53.53 53.54 53.55 53.57 53.58 53.59 53.60 53.62 53.63 53.64 53.65 53.66 53.67 53.68 53.69 53.70 53.71 53.72 53.73 53.74 53.75 53.76 53.77 53.77 53.78 53.79 53.79 53.80 53.80 53.81 53.81 53.82 53.82 53.82 53.83 53.83 53.83 53.83 53.83 53.83 53.83 53.83 53.83 53.83 53.83 53.82 53.82 53.82 53.81 53.81 53.80 53.80 53.79 53.78 53.78 53.77 53.76 53.75 53.74 53.73 53.72 53.71 53.70 53.69 53.68 53.67 53.66 53.64 53.63 53.62 53.60 53.59 53.57 53.56 53.54 53.53 53.51 53.50 53.48 53.46 53.45 53.43 53.41 53.40 53.38 53.36 53.34 53.33 53.31 53.29 53.27 53.25 53.24 53.22 53.20 53.18 53.16 53.15 53.13 53.11 53.09 53.07 53.06 53.04 53.02 53.00 52.99 52.97 52.95 52.94 52.92 52.90 52.89 52.87 52.86 52.84 52.83 52.81 52.80 52.78 52.77 52.76 52.74 52.73 52.72 52.71 52.70 52.69 52.68 52.67 52.66 52.65 52.64 52.63 52.62 52.62 52.61 52.60 52.60 52.59 52.59 52.58 52.58 52.58 52.58 52.57 52.57 52.57 52.57 52.57 52.57 52.57 52.57 52.57 52.57 52.58 52.58 52.58 52.59 52.59 52.60 52.60 52.61 52.61 52.62 52.63 52.63 52.64 52.65 52.66 52.67 52.68 52.69 52.70 52.71 52.72 52.73 52.74 52.75 52.76 52.77 52.78 52.80 52.81 52.82 52.83 52.85 52.86 52.87 52.88 52.90 52.91 52.92 52.94 52.95 52.96 52.98 52.99 53.00 53.02 53.03 53.04 53.05 53.07 53.08 53.09 53.10 53.12 53.13 53.14 53.15 53.16 53.17 53.18 53.19 53.20 53.21 53.22 53.23 53.24 53.25 53.26 53.27 53.27 53.28 53.29 53.29 53.30 53.30 53.31 53.31 53.32 53.32 53.32 53.33 53.33 53.33 53.33 53.33 53.33 53.33 53.33 53.33 53.33 53.33 53.32 53.32 53.32 53.31 53.31 53.30 53.30 53.29 53.28 53.28 53.27 53.26 53.25 53.24 53.23 53.22 53.21 53.20 53.19 53.18 53.17 53.16 53.14 53.13 53.12 53.10 53.09 53.07 53.06 53.04 53.03 53.01 53.00 52.98 52.96 52.95 52.93 52.91 52.90 52.88 52.86 52.84 52.83 52.81 52.79 52.77 52.75 52.74 52.72 52.70 52.68 52.66 52.65 52.63 52.61 52.59 52.57 52.56 52.54 52.52 52.50 52.49 52.47 52.45 52.44 52.42 52.40 52.39 52.37 52.36 52.34 52.33 52.31 52.30 52.28 52.27 52.26 52.24 52.23 52.22 52.21 52.20 52.19 52.18 52.17 52.16 52.15 52.14 52.13 52.12 52.12 52.11 52.10 52.10 52.09 52.09 52.08 52.08 52.08 52.08 52.07 52.07 52.07 52.07 52.07 52.07 52.07 52.07 52.07 52.07 52.08 52.08 52.08 52.09 52.09 52.10 52.10 52.11 52.11 52.12 52.13 52.13 52.14 52.15 52.16 52.17 52.18 52.19 52.20 52.21 52.22 52.23 52.24 52.25 52.26 52.27 52.28 52.30 52.31 52.32 52.33 52.35 52.36 52.37 52.38 52.40 52.41 52.42 52.44 52.45 52.46 52.48 52.49 52.50 52.52 52.53 52.54 52.55 52.57 52.58 52.59 52.60 52.62 52.63 52.64 52.65 52.66 52.67 52.68 52.69 52.70 52.71 52.72 52.73 52.74 52.75 52.76 52.77 52.77 52.78 52.79 52.79 52.80 52.80 52.81 52.81 52.82 52.82 52.82 52.83 52.83 52.83 52.83 52.83 52.83 52.83 52.83 52.83 52.83 52.83 52.82 52.82 52.82 52.81 52.81 52.80 52.80 52.79 52.78 52.78 52.77 52.76 52.75 52.74 52.73 52.72 52.71 52.70 52.69 52.68 52.67 52.66 52.64 52.63 52.62 52.60 52.59 52.57 52.56 52.54 52.53 52.51 52.50 52.48 52.46 52.45 52.43 52.41 52.40 52.38 52.36 52.34 52.33 52.31 52.29 52.27 52.25 52.24 52.22 52.20 52.18 52.16 52.15 52.13 52.11 52.09 52.07 52.06 52.04 52.02 52.00 51.99 51.97 51.95 51.94 51.92 51.90 51.89 51.87 51.86 51.84 51.83 51.81 51.80 51.78 51.77 51.76 51.74 51.73 51.72 51.71 51.70 51.69 51.68 51.67 51.66 51.65 51.64 51.63 51.62 51.62 51.61 51.60 51.60 51.59 51.59 51.58 51.58 51.58 51.58 51.57 51.57 51.57 51.57 51.57 51.57 51.57 51.57 51.57 51.57 51.58 51.58 51.58 51.59 51.59 51.60 51.60 51.61 51.61 51.62 51.63 51.63 51.64 51.65 51.66 51.67 51.68 51.69 51.70 51.71 51.72 51.73 51.74 51.75 51.76 51.77 51.78 51.80 51.81 51.82 51.83 51.85 51.86 51.87 51.88 51.90 51.91 51.92 51.94
53.50 53.51 53.53 53.54 53.55 53.57 53.58 53.59 53.60 53.62 53.63 53.64 53.65 53.67 53.68 53.69 53.70 53.71 53.72 53.73 53.74 53.75 53.76 53.77 53.78 53.79 53.80 53.81 53.82 53.82 53.83 53.84 53.84 53.85 53.85 53.86 53.86 53.87 53.87 53.87 53.88 53.88 53.88 53.88 53.88 53.88 53.88 53.88 53.88 53.88 53.88 53.87 53.87 53.87 53.86 53.86 53.85 53.85 53.84 53.83 53.83 53.82 53.81 53.80 53.79 53.78 53.77 53.76 53.75 53.74 53.73 53.72 53.71 53.69 53.68 53.67 53.65 53.64 53.62 53.61 53.59 53.58 53.56 53.55 53.53 53.51 53.50 53.48 53.46 53.45 53.43 53.41 53.39 53.38 53.36 53.34 53.32 53.30 53.29 53.27 53.25 53.23 53.21 53.20 53.18 53.16 53.14 53.12 53.11 53.09 53.07 53.05 53.04 53.02 53.00 52.99 52.97 52.95 52.94 52.92 52.91 52.89 52.88 52.86 52.85 52.83 52.82 52.81 52.79 52.78 52.77 52.76 52.75 52.74 52.73 52.72 52.71 52.70 52.69 52.68 52.67 52.67 52.66 52.65 52.65 52.64 52.64 52.63 52.63 52.63 52.62 52.62 52.62 52.62 52.62 52.62 52.62 52.62 52.62 52.62 52.62 52.63 52.63 52.63 52.64 52.64 52.65 52.65 52.66 52.66 52.67 52.68 52.68 52.69 52.70 52.71 52.72 52.73 52.74 52.75 52.76 52.77 52.78 52.79 52.80 52.81 52.82 52.83 52.85 52.86 52.87 52.88 52.90 52.91 52.92 52.93 52.95 52.96 52.97 52.99 53.00 53.01 53.03 53.04 53.05 53.07 53.08 53.09 53.10 53.12 53.13 53.14 53.15 53.17 53.18 53.19 53.20 53.21 53.22 53.23 53.24 53.25 53.26 53.27 53.28 53.29 53.30 53.31 53.32 53.32 53.33 53.34 53.34 53.35 53.35 53.36 53.36 53.37 53.37 53.37 53.38 53.38 53.38 53.38 53.38 53.38 53.38 53.38 53.38 53.38 53.38 53.37 53.37 53.37 53.36 53.36 53.35 53.35 53.34 53.33 53.33 53.32 53.31 53.30 53.29 53.28 53.27 53.26 53.25 53.24 53.23 53.22 53.21 53.19 53.18 53.17 53.15 53.14 53.12 53.11 53.09 53.08 53.06 53.05 53.03 53.01 53.00 52.98 52.96 52.95 52.93 52.91 52.89 52.88 52.86 52.84 52.82 52.80 52.79 52.77 52.75 52.73 52.71 52.70 52.68 52.66 52.64 52.62 52.61 52.59 52.57 52.55 52.54 52.52 52.50 52.49 52.47 52.45 52.44 52.42 52.41 52.39 52.38 52.36 52.35 52.33 52.32 52.31 52.29 52.28 52.27 52.26 52.25 52.24 52.23 52.22 52.21 52.20 52.19 52.18 52.17 52.17 52.16 52.15 52.15 52.14 52.14 52.13 52.13 52.13 52.12 52.12 52.12 52.12 52.12 52.12 52.12 52.12 52.12 52.12 52.12 52.13 52.13 52.13 52.14 52.14 52.15 52.15 52.16 52.16 52.17 52.18 52.18 52.19 52.20 52.21 52.22 52.23 52.24 52.25 52.26 52.27 52.28 52.29 52.30 52.31 52.32 52.33 52.35 52.36 52.37 52.38 52.40 52.41 52.42 52.43 52.45 52.46 52.47 52.49 52.50 52.51 52.53 52.54 52.55 52.57 52.58 52.59 52.60 52.62 52.63 52.64 52.65 52.67 52.68 52.69 52.70 52.71 52.72 52.73 52.74 52.75 52.76 52.77 52.78 52.79 52.80 52.81 52.82 52.82 52.83 52.84 52.84 52.85 52.85 52.86 52.86 52.87 52.87 52.87 52.88 52.88 52.88 52.88 52.88 52.88 52.88 52.88 52.88 52.88 52.88 52.87 52.87 52.87 52.86 52.86 52.85 52.85 52.84 52.83 52.83 52.82 52.81 52.80 52.79 52.78 52.77 52.76 52.75 52.74 52.73 52.72 52.71 52.69 52.68 52.67 52.65 52.64 52.62 52.61 52.59 52.58 52.56 52.55 52.53 52.51 52.50 52.48 52.46 52.45 52.43 52.41 52.39 52.38 52.36 52.34 52.32 52.30 52.29 52.27 52.25 52.23 52.21 52.20 52.18 52.16 52.14 52.12 52.11 52.09 52.07 52.05 52.04 52.02 52.00 51.99 51.97 51.95 51.94 51.92 51.91 51.89 51.88 51.86 51.85 51.83 51.82 51.81 51.79 51.78 51.77 51.76 51.75 51.74 51.73 51.72 51.71 51.70 51.69 51.68 51.67 51.67 51.66 51.65 51.65 51.64 51.64 51.63 51.63 51.63 51.62 51.62 51.62 51.62 51.62 51.62 51.62 51.62 51.62 51.62 51.62 51.63 51.63 51.63 51.64 51.64 51.65 51.65 51.66 51.66 51.67 51.68 51.68 51.69 51.70 51.71 51.72 51.73 51.74 51.75 51.76 51.77 51.78 51.79 51.80 51.81 51.82 51.83 51.85 51.86 51.87 51.88 51.90 51.91 51.92 51.93 51.95 51.96 51.97 51.99
53.55 53.56 53.58 53.59 53.60 53.62 53.63 53.64 53.65 53.67 53.68 53.69 53.70 53.72 53.73 53.74 53.75 53.76 53.77 53.78 53.79 53.80 53.81 53.82 53.83 53.84 53.85 53.86 53.87 53.87 53.88 53.89 53.89 53.90 53.90 53.91 53.91 53.92 53.92 53.92 53.93 53.93 53.93 53.93 53.93 53.93 53.93 53.93 53.93 53.93 53.92 53.92 53.92 53.92 53.91 53.91 53.90 53.90 53.89 53.88 53.88 53.87 53.86 53.85 53.84 53.83 53.82 53.81 53.80 53.79 53.78 53.77 53.76 53.74 53.73 53.72 53.70 53.69 53.67 53.66 53.64 53.63 53.61 53.60 53.58 53.56 53.55 53.53 53.51 53.50 53.48 53.46 53.44 53.43 53.41 53.39 53.37 53.35 53.34 53.32 53.30 53.28 53.26 53.25 53.23 53.21 53.19 53.17 53.16 53.14 53.12 53.10 53.09 53.07 53.05 53.04 53.02 53.00 52.99 52.97 52.96 52.94 52.93 52.91 52.90 52.88 52.87 52.86 52.84 52.83 52.82 52.81 52.80 52.79 52.78 52.77 52.76 52.75 52.74 52.73 52.72 52.72 52.71 52.70 52.70 52.69 52.69 52.68 52.68 52.68 52.67 52.67 52.67 52.67 52.67 52.67 52.67 52.67 52.67 52.67 52.67 52.68 52.68 52.68 52.69 52.69 52.70 52.70 52.71 52.71 52.72 52.73 52.73 52.74 52.75 52.76 52.77 52.78 52.79 52.80 52.81 52.82 52.83 52.84 52.85 52.86 52.87 52.88 52.90 52.91 52.92 52.93 52.95 52.96 52.97 52.98 53.00 53.01 53.02 53.04 53.05 53.06 53.08 53.09 53.10 53.12 53.13 53.14 53.15 53.17 53.18 53.19 53.20 53.22 53.23 53.24 53.25 53.26 53.27 53.28 53.29 53.30 53.31 53.32 53.33 53.34 53.35 53.36 53.37 53.37 53.38 53.39 53.39 53.40 53.40 53.41 53.41 53.42 53.42 53.42 53.43 53.43 53.43 53.43 53.43 53.43 53.43 53.43 53.43 53.43 53.42 53.42 53.42 53.42 53.41 53.41 53.40 53.40 53.39 53.38 53.38 53.37 53.36 53.35 53.34 53.33 53.32 53.31 53.30 53.29 53.28 53.27 53.26 53.24 53.23 53.22 53.20 53.19 53.17 53.16 53.14 53.13 53.11 53.10 53.08 53.06 53.05 53.03 53.01 53.00 52.98 52.96 52.94 52.93 52.91 52.89 52.87 52.85 52.84 52.82 52.80 52.78 52.76 52.75 52.73 52.71 52.69 52.67 52.66 52.64 52.62 52.60 52.59 52.57 52.55 52.54 52.52 52.50 52.49 52.47 52.46 52.44 52.43 52.41 52.40 52.38 52.37 52.36 52.34 52.33 52.32 52.31 52.30 52.29 52.28 52.27 52.26 52.25 52.24 52.23 52.22 52.22 52.21 52.20 52.20 52.19 52.19 52.18 52.18 52.18 52.17 52.17 52.17 52.17 52.17 52.17 52.17 52.17 52.17 52.17 52.17 52.18 52.18 52.18 52.19 52.19 52.20 52.20 52.21 52.21 52.22 52.23 52.23 52.24 52.25 52.26 52.27 52.28 52.29 52.30 52.31 52.32 52.33 52.34 52.35 52.36 52.37 52.38 52.40 52.41 52.42 52.43 52.45 52.46 52.47 52.48 52.50 52.51 52.52 52.54 52.55 52.56 52.58 52.59 52.60 52.62 52.63 52.64 52.65 52.67 52.68 52.69 52.70 52.72 52.73 52.74 52.75 52.76 52.77 52.78 52.79 52.80 52.81 52.82 52.83 52.84 52.85 52.86 52.87 52.87 52.88 52.89 52.89 52.90 52.90 52.91 52.91 52.92 52.92 52.92 52.93 52.93 52.93 52.93 52.93 52.93 52.93 52.93 52.93 52.93 52.92 52.92 52.92 52.92 52.91 52.91 52.90 52.90 52.89 52.88 52.88 52.87 52.86 52.85 52.84 52.83 52.82 52.81 52.80 52.79 52.78 52.77 52.76 52.74 52.73 52.72 52.70 52.69 52.67 52.66 52.64 52.63 52.61 52.60 52.58 52.56 52.55 52.53 52.51 52.50 52.48 52.46 52.44 52.43 52.41 52.39 52.37 52.35 52.34 52.32 52.30 52.28 52.26 52.25 52.23 52.21 52.19 52.17 52.16 52.14 52.12 52.10 52.09 52.07 52.05 52.04 52.02 52.00 51.99 51.97 51.96 51.94 51.93 51.91 51.90 51.88 51.87 51.86 51.84 51.83 51.82 51.81 51.80 51.79 51.78 51.77 51.76 51.75 51.74 51.73 51.72 51.72 51.71 51.70 51.70 51.69 51.69 51.68 51.68 51.68 51.67 51.67 51.67 51.67 51.67 51.67 51.67 51.67 51.67 51.67 51.67 51.68 51.68 51.68 51.69 51.69 51.70 51.70 51.71 51.71 51.72 51.73 51.73 51.74 51.75 51.76 51.77 51.78 51.79 51.80 51.81 51.82 51.83 51.84 51.85 51.86 51.87 51.88 51.90 51.91 51.92 51.93 51.95 51.96 51.97 51.98 52.00 52.01 52.02 52.04
53.60 53.61 53.63 53.64 53.65 53.67 53.68 53.69 53.70 53.72 53.73 53.74 53.75 53.77 53.78 53.79 53.80 53.81 53.82 53.83 53.84 53.85 53.86 53.87 53.88 53.89 53.90 53.91 53.92 53.92 53.93 53.94 53.94 53.95 53.95 53.96 53.96 53.97 53.97 53.97 53.98 53.98 53.98 53.98 53.98 53.98 53.98 53.98 53.98 53.98 53.98 53.97 53.97 53.97 53.96 53.96 53.95 53.95 53.94 53.93 53.93 53.92 53.91 53.90 53.89 53.88 53.87 53.86 53.85 53.84 53.83 53.82 53.81 53.79 53.78 53.77 53.75 53.74 53.72 53.71 53.69 53.68 53.66 53.65 53.63 53.61 53.60 53.58 53.56 53.55 53.53 53.51 53.49 53.48 53.46 53.44 53.42 53.40 53.39 53.37 53.35 53.33 53.31 53.30 53.28 53.26 53.24 53.22 53.21 53.19 53.17 53.15 53.14 53.12 53.10 53.09 53.07 53.05 53.04 53.02 53.01 52.99 52.98 52.96 52.95 52.93 52.92 52.91 52.89 52.88 52.87 52.86 52.85 52.84 52.83 52.82 52.81 52.80 52.79 52.78 52.77 52.77 52.76 52.75 52.75 52.74 52.74 52.73 52.73 52.73 52.73 52.72 52.72 52.72 52.72 52.72 52.72 52.72 52.72 52.72 52.72 52.73 52.73 52.73 52.74 52.74 52.75 52.75 52.76 52.76 52.77 52.78 52.78 52.79 52.80 52.81 52.82 52.83 52.84 52.85 52.86 52.87 52.88 52.89 52.90 52.91 52.92 52.93 52.95 52.96 52.97 52.98 53.00 53.01 53.02 53.03 53.05 53.06 53.07 53.09 53.10 53.11 53.13 53.14 53.15 53.17 53.18 53.19 53.20 53.22 53.23 53.24 53.25 53.27 53.28 53.29 53.30 53.31 53.32 53.33 53.34 53.35 53.36 53.37 53.38 53.39 53.40 53.41 53.42 53.42 53.43 53.44 53.44 53.45 53.45 53.46 53.46 53.47 53.47 53.47 53.48 53.48 53.48 53.48 53.48 53.48 53.48 53.48 53.48 53.48 53.48 53.47 53.47 53.47 53.46 53.46 53.45 53.45 53.44 53.43 53.43 53.42 53.41 53.40 53.39 53.38 53.37 53.36 53.35 53.34 53.33 53.32 53.31 53.29 53.28 53.27 53.25 53.24 53.22 53.21 53.19 53.18 53.16 53.15 53.13 53.11 53.10 53.08 53.06 53.05 53.03 53.01 52.99 52.98 52.96 52.94 52.92 52.90 52.89 52.87 52.85 52.83 52.81 52.80 52.78 52.76 52.74 52.72 52.71 52.69 52.67 52.65 52.64 52.62 52.60 52.59 52.57 52.55 52.54 52.52 52.51 52.49 52.48 52.46 52.45 52.43 52.42 52.41 52.39 52.38 52.37 52.36 52.35 52.34 52.33 52.32 52.31 52.30 52.29 52.28 52.27 52.27 52.26 52.25 52.25 52.24 52.24 52.23 52.23 52.23 52.23 52.22 52.22 52.22 52.22 52.22 52.22 52.22 52.22 52.22 52.22 52.23 52.23 52.23 52.24 52.24 52.25 52.25 52.26 52.26 52.27 52.28 52.28 52.29 52.30 52.31 52.32 52.33 52.34 52.35 52.36 52.37 52.38 52.39 52.40 52.41 52.42 52.43 52.45 52.46 52.47 52.48 52.50 52.51 52.52 52.53 52.55 52.56 52.57 52.59 52.60 52.61 52.63 52.64 52.65 52.67 52.68 52.69 52.70 52.72 52.73 52.74 52.75 52.77 52.78 52.79 52.80 52.81 52.82 52.83 52.84 52.85 52.86 52.87 52.88 52.89 52.90 52.91 52.92 52.92 52.93 52.94 52.94 52.95 52.95 52.96 52.96 52.97 52.97 52.97 52.98 52.98 52.98 52.98 52.98 52.98 52.98 52.98 52.98 52.98 52.98 52.97 52.97 52.97 52.96 52.96 52.95 52.95 52.94 52.93 52.93 52.92 52.91 52.90 52.89 52.88 52.87 52.86 52.85 52.84 52.83 52.82 52.81 52.79 52.78 52.77 52.75 52.74 52.72 52.71 52.69 52.68 52.66 52.65 52.63 52.61 52.60 52.58 52.56 52.55 52.53 52.51 52.49 52.48 52.46 52.44 52.42 52.40 52.39 52.37 52.35 52.33 52.31 52.30 52.28 52.26 52.24 52.22 52.21 52.19 52.17 52.15 52.14 52.12 52.10 52.09 52.07 52.05 52.04 52.02 52.01 51.99 51.98 51.96 51.95 51.93 51.92 51.91 51.89 51.88 51.87 51.86 51.85 51.84 51.83 51.82 51.81 51.80 51.79 51.78 51.77 51.77 51.76 51.75 51.75 51.74 51.74 51.73 51.73 51.73 51.73 51.72 51.72 51.72 51.72 51.72 51.72 51.72 51.72 51.72 51.72 51.73 51.73 51.73 51.74 51.74 51.75 51.75 51.76 51.76 51.77 51.78 51.78 51.79 51.80 51.81 51.82 51.83 51.84 51.85 51.86 51.87 51.88 51.89 51.90 51.91 51.92 51.93 51.95 51.96 51.97 51.98 52.00 52.01 52.02 52.03 52.05 52.06 52.07 52.09
53.65 53.66 53.68 53.69 53.70 53.72 53.73 53.74 53.75 53.77 53.78 53.79 53.80 53.82 53.83 53.84 53.85 53.86 53.87 53.88 53.89 53.90 53.91 53.92 53.93 53.94 53.95 53.96 53.97 53.97 53.98 53.99 53.99 54.00 54.00 54.01 54.01 54.02 54.02 54.02 54.03 54.03 54.03 54.03 54.03 54.03 54.03 54.03 54.03 54.03 54.02 54.02 54.02 54.02 54.01 54.01 54.00 54.00 53.99 53.98 53.98 53.97 53.96 53.95 53.94 53.93 53.92 53.91 53.90 53.89 53.88 53.87 53.86 53.84 53.83 53.82 53.80 53.79 53.77 53.76 53.74 53.73 53.71 53.70 53.68 53.66 53.65 53.63 53.61 53.60 53.58 53.56 53.54 53.53 53.51 53.49 53.47 53.45 53.44 53.42 53.40 53.38 53.36 53.35 53.33 53.31 53.29 53.27 53.26 53.24 53.22 53.20 53.19 53.17 53.15 53.14 53.12 53.10 53.09 53.07 53.06 53.04 53.03 53.01 53.00 52.98 52.97 52.96 52.94 52.93 52.92 52.91 52.90 52.89 52.88 52.87 52.86 52.85 52.84 52.83 52.82 52.82 52.81 52.80 52.80 52.79 52.79 52.78 52.78 52.78 52.77 52.77 52.77 52.77 52.77 52.77 52.77 52.77 52.77 52.77 52.77 52.78 52.78 52.78 52.79 52.79 52.80 52.80 52.81 52.81 52.82 52.83 52.83 52.84 52.85 52.86 52.87 52.88 52.89 52.90 52.91 52.92 52.93 52.94 52.95 52.96 52.97 52.98 53.00 53.01 53.02 53.03 53.05 53.06 53.07 53.08 53.10 53.11 53.12 53.14 53.15 53.16 53.18 53.19 53.20 53.22 53.23 53.24 53.25 53.27 53.28 53.29 53.30 53.32 53.33 53.34 53.35 53.36 53.37 53.38 53.39 53.40 53.41 53.42 53.43 53.44 53.45 53.46 53.47 53.47 53.48 53.49 53.49 53.50 53.50 53.51 53.51 53.52 53.52 53.52 53.53 53.53 53.53 53.53 53.53 53.53 53.53 53.53 53.53 53.53 53.52 53.52 53.52 53.52 53.51 53.51 53.50 53.50 53.49 53.48 53.48 53.47 53.46 53.45 53.44 53.43 53.42 53.41 53.40 53.39 53.38 53.37 53.36 53.34 53.33 53.32 53.30 53.29 53.27 53.26 53.24 53.23 53.21 53.20 53.18 53.16 53.15 53.13 53.11 53.10 53.08 53.06 53.04 53.03 53.01 52.99 52.97 52.95 52.94 52.92 52.90 52.88 52.86 52.85 52.83 52.81 52.79 52.77 52.76 52.74 52.72 52.70 52.69 52.67 52.65 52.64 52.62 52.60 52.59 52.57 52.56 52.54 52.53 52.51 52.50 52.48 52.47 52.46 52.44 52.43 52.42 52.41 52.40 52.39 52.38 52.37 52.36 52.35 52.34 52.33 52.32 52.32 52.31 52.30 52.30 52.29 52.29 52.28 52.28 52.28 52.27 52.27 52.27 52.27 52.27 52.27 52.27 52.27 52.27 52.27 52.27 52.28 52.28 52.28 52.29 52.29 52.30 52.30 52.31 52.31 52.32 52.33 52.33 52.34 52.35 52.36 52.37 52.38 52.39 52.40 52.41 52.42 52.43 52.44 52.45 52.46 52.47 52.48 52.50 52.51 52.52 52.53 52.55 52.56 52.57 52.58 52.60 52.61 52.62 52.64 52.65 52.66 52.68 52.69 52.70 52.72 52.73 52.74 52.75 52.77 52.78 52.79 52.80 52.82 52.83 52.84 52.85 52.86 52.87 52.88 52.89 52.90 52.91 52.92 52.93 52.94 52.95 52.96 52.97 52.97 52.98 52.99 52.99 53.00 53.00 53.01 53.01 53.02 53.02 53.02 53.03 53.03 53.03 53.03 53.03 53.03 53.03 53.03 53.03 53.03 53.02 53.02 53.02 53.02 53.01 53.01 53.00 53.00 52.99 52.98 52.98 52.97 52.96 52.95 52.94 52.93 52.92 52.91 52.90 52.89 52.88 52.87 52.86 52.84 52.83 52.82 52.80 52.79 52.77 52.76 52.74 52.73 52.71 52.70 52.68 52.66 52.65 52.63 52.61 52.60 52.58 52.56 52.54 52.53 52.51 52.49 52.47 52.45 52.44 52.42 52.40 52.38 52.36 52.35 52.33 52.31 52.29 52.27 52.26 52.24 52.22 52.20 52.19 52.17 52.15 52.14 52.12 52.10 52.09 52.07 52.06 52.04 52.03 52.01 52.00 51.98 51.97 51.96 51.94 51.93 51.92 51.91 51.90 51.89 51.88 51.87 51.86 51.85 51.84 51.83 51.82 51.82 51.81 51.80 51.80 51.79 51.79 51.78 51.78 51.78 51.77 51.77 51.77 51.77 51.77 51.77 51.77 51.77 51.77 51.77 51.77 51.78 51.78 51.78 51.79 51.79 51.80 51.80 51.81 51.81 51.82 51.83 51.83 51.84 51.85 51.86 51.87 51.88 51.89 51.90 51.91 51.92 51.93 51.94 51.95 51.96 51.97 51.98 52.00 52.01 52.02 52.03 52.05 52.06 52.07 52.08 52.10 52.11 52.12 52.14
53.70 53.71 53.73 53.74 53.75 53.77 53.78 53.79 53.80 53.82 53.83 53.84 53.85 53.87 53.88 53.89 53.90 53.91 53.92 53.93 53.94 53.95 53.96 53.97 53.98 53.99 54.00 54.01 54.02 54.02 54.03 54.04 54.04 54.05 54.05 54.06 54.06 54.07 54.07 54.07 54.08 54.08 54.08 54.08 54.08 54.08 54.08 54.08 54.08 54.08 54.08 54.07 54.07 54.07 54.06 54.06 54.05 54.05 54.04 54.03 54.03 54.02 54.01 54.00 53.99 53.98 53.97 53.96 53.95 53.94 53.93 53.92 53.91 53.89 53.88 53.87 53.85 53.84 53.82 53.81 53.79 53.78 53.76 53.75 53.73 53.71 53.70 53.68 53.66 53.65 53.63 53.61 53.59 53.58 53.56 53.54 53.52 53.50 53.49 53.47 53.45 53.43 53.41 53.40 53.38 53.36 53.34 53.32 53.31 53.29 53.27 53.25 53.24 53.22 53.20 53.19 53.17 53.15 53.14 53.12 53.11 53.09 53.08 53.06 53.05 53.03 53.02 53.01 52.99 52.98 52.97 52.96 52.95 52.94 52.93 52.92 52.91 52.90 52.89 52.88 52.87 52.87 52.86 52.85 52.85 52.84 52.84 52.83 52.83 52.83 52.83 52.82 52.82 52.82 52.82 52.82 52.82 52.82 52.82 52.82 52.82 52.83 52.83 52.83 52.84 52.84 52.85 52.85 52.86 52.86 52.87 52.88 52.88 52.89 52.90 52.91 52.92 52.93 52.94 52.95 52.96 52.97 52.98 52.99 53.00 53.01 53.02 53.03 53.05 53.06 53.07 53.08 53.10 53.11 53.12 53.13 53.15 53.16 53.17 53.19 53.20 53.21 53.23 53.24 53.25 53.27 53.28 53.29 53.30 53.32 53.33 53.34 53.35 53.37 53.38 53.39 53.40 53.41 53.42 53.43 53.44 53.45 53.46 53.47 53.48 53.49 53.50 53.51 53.52 53.52 53.53 53.54 53.54 53.55 53.55 53.56 53.56 53.57 53.57 53.57 53.58 53.58 53.58 53.58 53.58 53.58 53.58 53.58 53.58 53.58 53.58 53.57 53.57 53.57 53.56 53.56 53.55 53.55 53.54 53.53 53.53 53.52 53.51 53.50 53.49 53.48 53.47 53.46 53.45 53.44 53.43 53.42 53.41 53.39 53.38 53.37 53.35 53.34 53.32 53.31 53.29 53.28 53.26 53.25 53.23 53.21 53.20 53.18 53.16 53.15 53.13 53.11 53.09 53.08 53.06 53.04 53.02 53.00 52.99 52.97 52.95 52.93 52.91 52.90 52.88 52.86 52.84 52.82 52.81 52.79 52.77 52.75 52.74 52.72 52.70 52.69 52.67 52.65 52.64 52.62 52.61 52.59 52.58 52.56 52.55 52.53 52.52 52.51 52.49 52.48 52.47 52.46 52.45 52.44 52.43 52.42 52.41 52.40 52.39 52.38 52.37 52.37 52.36 52.35 52.35 52.34 52.34 52.33 52.33 52.33 52.33 52.32 52.32 52.32 52.32 52.32 52.32 52.32 52.32 52.32 52.32 52.33 52.33 52.33 52.34 52.34 52.35 52.35 52.36 52.36 52.37 52.38 52.38 52.39 52.40 52.41 52.42 52.43 52.44 52.45 52.46 52.47 52.48 52.49 52.50 52.51 52.52 52.53 52.55 52.56 52.57 52.58 52.60 52.61 52.62 52.63 52.65 52.66 52.67 52.69 52.70 52.71 52.73 52.74 52.75 52.77 52.78 52.79 52.80 52.82 52.83 52.84 52.85 52.87 52.88 52.89 52.90 52.91 52.92 52.93 52.94 52.95 52.96 52.97 52.98 52.99 53.00 53.01 53.02 53.02 53.03 53.04 53.04 53.05 53.05 53.06 53.06 53.07 53.07 53.07 53.08 53.08 53.08 53.08 53.08 53.08 53.08 53.08 53.08 53.08 53.08 53.07 53.07 53.07 53.06 53.06 53.05 53.05 53.04 53.03 53.03 53.02 53.01 53.00 52.99 52.98 52.97 52.96 52.95 52.94 52.93 52.92 52.91 52.89 52.88 52.87 52.85 52.84 52.82 52.81 52.79 52.78 52.76 52.75 52.73 52.71 52.70 52.68 52.66 52.65 52.63 52.61 52.59 52.58 52.56 52.54 52.52 52.50 52.49 52.47 52.45 52.43 52.41 52.40 52.38 52.36 52.34 52.32 52.31 52.29 52.27 52.25 52.24 52.22 52.20 52.19 52.17 52.15 52.14 52.12 52.11 52.09 52.08 52.06 52.05 52.03 52.02 52.01 51.99 51.98 51.97 51.96 51.95 51.94 51.93 51.92 51.91 51.90 51.89 51.88 51.87 51.87 51.86 51.85 51.85 51.84 51.84 51.83 51.83 51.83 51.83 51.82 51.82 51.82 51.82 51.82 51.82 51.82 51.82 51.82 51.82 51.83 51.83 51.83 51.84 51.84 51.85 51.85 51.86 51.86 51.87 51.88 51.88 51.89 51.90 51.91 51.92 51.93 51.94 51.95 51.96 51.97 51.98 51.99 52.00 52.01 52.02 52.03 52.05 52.06 52.07 52.08 52.10 52.11 52.12 52.13 52.15 52.16 52.17 52.19
53.75 53.76 53.78 53.79 53.80 53.82 53.83 53.84 53.85 53.87 53.88 53.89 53.90 53.92 53.93 53.94 53.95 53.96 53.97 53.98 53.99 54.00 54.01 54.02 54.03 54.04 54.05 54.06 54.07 54.07 54.08 54.09 54.09 54.10 54.10 54.11 54.11 54.12 54.12 54.12 54.13 54.13 54.13 54.13 54.13 54.13 54.13 54.13 54.13 54.13 54.12 54.12 54.12 54.12 54.11 54.11 54.10 54.10 54.09 54.08 54.08 54.07 54.06 54.05 54.04 54.03 54.02 54.01 54.00 53.99 53.98 53.97 53.96 53.94 53.93 53.92 53.90 53.89 53.87 53.86 53.84 53.83 53.81 53.80 53.78 53.76 53.75 53.73 53.71 53.70 53.68 53.66 53.64 53.63 53.61 53.59 53.57 53.55 53.54 53.52 53.50 53.48 53.46 53.45 53.43 53.41 53.39 53.37 53.36 53.34 53.32 53.30 53.29 53.27 53.25 53.24 53.22 53.20 53.19 53.17 53.16 53.14 53.13 53.11 53.10 53.08 53.07 53.06 53.04 53.03 53.02 53.01 53.00 52.99 52.98 52.97 52.96 52.95 52.94 52.93 52.92 52.92 52.91 52.90 52.90 52.89 52.89 52.88 52.88 52.88 52.88 52.87 52.87 52.87 52.87 52.87 52.87 52.87 52.87 52.87 52.87 52.88 52.88 52.88 52.89 52.89 52.90 52.90 52.91 52.91 52.92 52.93 52.93 52.94 52.95 52.96 52.97 52.98 52.99 53.00 53.01 53.02 53.03 53.04 53.05 53.06 53.07 53.08 53.10 53.11 53.12 53.13 53.15 53.16 53.17 53.18 53.20 53.21 53.22 53.24 53.25 53.26 53.28 53.29 53.30 53.32 53.33 53.34 53.35 53.37 53.38 53.39 53.40 53.42 53.43 53.44 53.45 53.46 53.47 53.48 53.49 53.50 53.51 53.52 53.53 53.54 53.55 53.56 53.57 53.57 53.58 53.59 53.59 53.60 53.60 53.61 53.61 53.62 53.62 53.62 53.63 53.63 53.63 53.63 53.63 53.63 53.63 53.63 53.63 53.63 53.62 53.62 53.62 53.62 53.61 53.61 53.60 53.60 53.59 53.58 53.58 53.57 53.56 53.55 53.54 53.53 53.52 53.51 53.50 53.49 53.48 53.47 53.46 53.44 53.43 53.42 53.40 53.39 53.37 53.36 53.34 53.33 53.31 53.30 53.28 53.26 53.25 53.23 53.21 53.20 53.18 53.16 53.14 53.13 53.11 53.09 53.07 53.05 53.04 53.02 53.00 52.98 52.96 52.95 52.93 52.91 52.89 52.87 52.86 52.84 52.82 52.80 52.79 52.77 52.75 52.74 52.72 52.70 52.69 52.67 52.66 52.64 52.63 52.61 52.60 52.58 52.57 52.56 52.54 52.53 52.52 52.51 52.50 52.49 52.48 52.47 52.46 52.45 52.44 52.43 52.42 52.42 52.41 52.40 52.40 52.39 52.39 52.38 52.38 52.38 52.38 52.37 52.37 52.37 52.37 52.37 52.37 52.37 52.37 52.37 52.37 52.38 52.38 52.38 52.39 52.39 52.40 52.40 52.41 52.41 52.42 52.43 52.43 52.44 52.45 52.46 52.47 52.48 52.49 52.50 52.51 52.52 52.53 52.54 52.55 52.56 52.57 52.58 52.60 52.61 52.62 52.63 52.65 52.66 52.67 52.68 52.70 52.71 52.72 52.74 52.75 52.76 52.78 52.79 52.80 52.82 52.83 52.84 52.85 52.87 52.88 52.89 52.90 52.92 52.93 52.94 52.95 52.96 52.97 52.98 52.99 53.00 53.01 53.02 53.03 53.04 53.05 53.06 53.07 53.07 53.08 53.09 53.09 53.10 53.10 53.11 53.11 53.12 53.12 53.12 53.13 53.13 53.13 53.13 53.13 53.13 53.13 53.13 53.13 53.13 53.12 53.12 53.12 53.12 53.11 53.11 53.10 53.10 53.09 53.08 53.08 53.07 53.06 53.05 53.04 53.03 53.02 53.01 53.00 52.99 52.98 52.97 52.96 52.94 52.93 52.92 52.90 52.89 52.87 52.86 52.84 52.83 52.81 52.80 52.78 52.76 52.75 52.73 52.71 52.70 52.68 52.66 52.64 52.63 52.61 52.59 52.57 52.55 52.54 52.52 52.50 52.48 52.46 52.45 52.43 52.41 52.39 52.37 52.36 52.34 52.32 52.30 52.29 52.27 52.25 52.24 52.22 52.20 52.19 52.17 52.16 52.14 52.13 52.11 52.10 52.08 52.07 52.06 52.04 52.03 52.02 52.01 52.00 51.99 51.98 51.97 51.96 51.95 51.94 51.93 51.92 51.92 51.91 51.90 51.90 51.89 51.89 51.88 51.88 51.88 51.88 51.87 51.87 51.87 51.87 51.87 51.87 51.87 51.87 51.87 51.87 51.88 51.88 51.88 51.89 51.89 51.90 51.90 51.91 51.91 51.92 51.93 51.93 51.94 51.95 51.96 51.97 51.98 51.99 52.00 52.01 52.02 52.03 52.04 52.05 52.06 52.07 52.08 52.10 52.11 52.12 52.13 52.15 52.16 52.17 52.18 52.20 52.21 52.22 52.24
53.80 53.81 53.83 53.84 53.85 53.87 53.88 53.89 53.90 53.92 53.93 53.94 53.95 53.97 53.98 53.99 54.00 54.01 54.02 54.03 54.04 54.05 54.06 54.07 54.08 54.09 54.10 54.11 54.12 54.12 54.13 54.14 54.14 54.15 54.15 54.16 54.16 54.17 54.17 54.17 54.18 54.18 54.18 54.18 54.18 54.18 54.18 54.18 54.18 54.18 54.17 54.17 54.17 54.17 54.16 54.16 54.15 54.15 54.14 54.13 54.13 54.12 54.11 54.10 54.09 54.08 54.07 54.06 54.05 54.04 54.03 54.02 54.01 53.99 53.98 53.97 53.95 53.94 53.92 53.91 53.89 53.88 53.86 53.85 53.83 53.81 53.80 53.78 53.76 53.75 53.73 53.71 53.69 53.68 53.66 53.64 53.62 53.60 53.59 53.57 53.55 53.53 53.51 53.50 53.48 53.46 53.44 53.42 53.41 53.39 53.37 53.35 53.34 53.32 53.30 53.29 53.27 53.25 53.24 53.22 53.21 53.19 53.18 53.16 53.15 53.13 53.12 53.11 53.09 53.08 53.07 53.06 53.05 53.04 53.03 53.02 53.01 53.00 52.99 52.98 52.97 52.97 52.96 52.95 52.95 52.94 52.94 52.93 52.93 52.93 52.92 52.92 52.92 52.92 52.92 52.92 52.92 52.92 52.92 52.92 52.92 52.93 52.93 52.93 52.94 52.94 52.95 52.95 52.96 52.96 52.97 52.98 52.98 52.99 53.00 53.01 53.02 53.03 53.04 53.05 53.06 53.07 53.08 53.09 53.10 53.11 53.12 53.13 53.15 53.16 53.17 53.18 53.20 53.21 53.22 53.23 53.25 53.26 53.27 53.29 53.30 53.31 53.33 53.34 53.35 53.37 53.38 53.39 53.40 53.42 53.43 53.44 53.45 53.47 53.48 53.49 53.50 53.51 53.52 53.53 53.54 53.55 53.56 53.57 53.58 53.59 53.60 53.61 53.62 53.62 53.63 53.64 53.64 53.65 53.65 53.66 53.66 53.67 53.67 53.67 53.68 53.68 53.68 53.68 53.68 53.68 53.68 53.68 53.68 53.68 53.67 53.67 53.67 53.67 53.66 53.66 53.65 53.65 53.64 53.63 53.63 53.62 53.61 53.60 53.59 53.58 53.57 53.56 53.55 53.54 53.53 53.52 53.51 53.49 53.48 53.47 53.45 53.44 53.42 53.41 53.39 53.38 53.36 53.35 53.33 53.31 53.30 53.28 53.26 53.25 53.23 53.21 53.19 53.18 53.16 53.14 53.12 53.10 53.09 53.07 53.05 53.03 53.01 53.00 52.98 52.96 52.94 52.92 52.91 52.89 52.87 52.85 52.84 52.82 52.80 52.79 52.77 52.75 52.74 52.72 52.71 52.69 52.68 52.66 52.65 52.63 52.62 52.61 52.59 52.58 52.57 52.56 52.55 52.54 52.53 52.52 52.51 52.50 52.49 52.48 52.47 52.47 52.46 52.45 52.45 52.44 52.44 52.43 52.43 52.43 52.42 52.42 52.42 52.42 52.42 52.42 52.42 52.42 52.42 52.42 52.42 52.43 52.43 52.43 52.44 52.44 52.45 52.45 52.46 52.46 52.47 52.48 52.48 52.49 52.50 52.51 52.52 52.53 52.54 52.55 52.56 52.57 52.58 52.59 52.60 52.61 52.62 52.63 52.65 52.66 52.67 52.68 52.70 52.71 52.72 52.73 52.75 52.76 52.77 52.79 52.80 52.81 52.83 52.84 52.85 52.87 52.88 52.89 52.90 52.92 52.93 52.94 52.95 52.97 52.98 52.99 53.00 53.01 53.02 53.03 53.04 53.05 53.06 53.07 53.08 53.09 53.10 53.11 53.12 53.12 53.13 53.14 53.14 53.15 53.15 53.16 53.16 53.17 53.17 53.17 53.18 53.18 53.18 53.18 53.18 53.18 53.18 53.18 53.18 53.18 53.17 53.17 53.17 53.17 53.16 53.16 53.15 53.15 53.14 53.13 53.13 53.12 53.11 53.10 53.09 53.08 53.07 53.06 53.05 53.04 53.03 53.02 53.01 52.99 52.98 52.97 52.95 52.94 52.92 52.91 52.89 52.88 52.86 52.85 52.83 52.81 52.80 52.78 52.76 52.75 52.73 52.71 52.69 52.68 52.66 52.64 52.62 52.60 52.59 52.57 52.55 52.53 52.51 52.50 52.48 52.46 52.44 52.42 52.41 52.39 52.37 52.35 52.34 52.32 52.30 52.29 52.27 52.25 52.24 52.22 52.21 52.19 52.18 52.16 52.15 52.13 52.12 52.11 52.09 52.08 52.07 52.06 52.05 52.04 52.03 52.02 52.01 52.00 51.99 51.98 51.97 51.97 51.96 51.95 51.95 51.94 51.94 51.93 51.93 51.93 51.92 51.92 51.92 51.92 51.92 51.92 51.92 51.92 51.92 51.92 51.92 51.93 51.93 51.93 51.94 51.94 51.95 51.95 51.96 51.96 51.97 51.98 51.98 51.99 52.00 52.01 52.02 52.03 52.04 52.05 52.06 52.07 52.08 52.09 52.10 52.11 52.12 52.13 52.15 52.16 52.17 52.18 52.20 52.21 52.22 52.23 52.25 52.26 52.27 52.29
53.85 53.86 53.88 53.89 53.90 53.92 53.93 53.94 53.95 53.97 53.98 53.99 54.00 54.02 54.03 54.04 54.05 54.06 54.07 54.08 54.09 54.10 54.11 54.12 54.13 54.14 54.15 54.16 54.17 54.17 54.18 54.19 54.19 54.20 54.20 54.21 54.21 54.22 54.22 54.22 54.23 54.23 54.23 54.23 54.23 54.23 54.23 54.23 54.23 54.23 54.23 54.22 54.22 54.22 54.21 54.21 54.20 54.20 54.19 54.18 54.18 54.17 54.16 54.15 54.14 54.13 54.12 54.11 54.10 54.09 54.08 54.07 54.06 54.04 54.03 54.02 54.00 53.99 53.97 53.96 53.94 53.93 53.91 53.90 53.88 53.86 53.85 53.83 53.81 53.80 53.78 53.76 53.74 53.73 53.71 53.69 53.67 53.65 53.64 53.62 53.60 53.58 53.56 53.55 53.53 53.51 53.49 53.47 53.46 53.44 53.42 53.40 53.39 53.37 53.35 53.34 53.32 53.30 53.29 53.27 53.26 53.24 53.23 53.21 53.20 53.18 53.17 53.16 53.14 53.13 53.12 53.11 53.10 53.09 53.08 53.07 53.06 53.05 53.04 53.03 53.02 53.02 53.01 53.00 53.00 52.99 52.99 52.98 52.98 52.98 52.98 52.97 52.97 52.97 52.97 52.97 52.97 52.97 52.97 52.97 52.97 52.98 52.98 52.98 52.99 52.99 53.00 53.00 53.01 53.01 53.02 53.03 53.03 53.04 53.05 53.06 53.07 53.08 53.09 53.10 53.11 53.12 53.13 53.14 53.15 53.16 53.17 53.18 53.20 53.21 53.22 53.23 53.25 53.26 53.27 53.28 53.30 53.31 53.32 53.34 53.35 53.36 53.38 53.39 53.40 53.42 53.43 53.44 53.45 53.47 53.48 53.49 53.50 53.52 53.53 53.54 53.55 53.56 53.57 53.58 53.59 53.60 53.61 53.62 53.63 53.64 53.65 53.66 53.67 53.67 53.68 53.69 53.69 53.70 53.70 53.71 53.71 53.72 53.72 53.72 53.73 53.73 53.73 53.73 53.73 53.73 53.73 53.73 53.73 53.73 53.73 53.72 53.72 53.72 53.71 53.71 53.70 53.70 53.69 53.68 53.68 53.67 53.66 53.65 53.64 53.63 53.62 53.61 53.60 53.59 53.58 53.57 53.56 53.54 53.53 53.52 53.50 53.49 53.47 53.46 53.44 53.43 53.41 53.40 53.38 53.36 53.35 53.33 53.31 53.30 53.28 53.26 53.24 53.23 53.21 53.19 53.17 53.15 53.14 53.12 53.10 53.08 53.06 53.05 53.03 53.01 52.99 52.97 52.96 52.94 52.92 52.90 52.89 52.87 52.85 52.84 52.82 52.80 52.79 52.77 52.76 52.74 52.73 52.71 52.70 52.68 52.67 52.66 52.64 52.63 52.62 52.61 52.60 52.59 52.58 52.57 52.56 52.55 52.54 52.53 52.52 52.52 52.51 52.50 52.50 52.49 52.49 52.48 52.48 52.48 52.48 52.47 52.47 52.47 52.47 52.47 52.47 52.47 52.47 52.47 52.47 52.48 52.48 52.48 52.49 52.49 52.50 52.50 52.51 52.51 52.52 52.53 52.53 52.54 52.55 52.56 52.57 52.58 52.59 52.60 52.61 52.62 52.63 52.64 52.65 52.66 52.67 52.68 52.70 52.71 52.72 52.73 52.75 52.76 52.77 52.78 52.80 52.81 52.82 52.84 52.85 52.86 52.88 52.89 52.90 52.92 52.93 52.94 52.95 52.97 52.98 52.99 53.00 53.02 53.03 53.04 53.05 53.06 53.07 53.08 53.09 53.10 53.11 53.12 53.13 53.14 53.15 53.16 53.17 53.17 53.18 53.19 53.19 53.20 53.20 53.21 53.21 53.22 53.22 53.22 53.23 53.23 53.23 53.23 53.23 53.23 53.23 53.23 53.23 53.23 53.23 53.22 53.22 53.22 53.21 53.21 53.20 53.20 53.19 53.18 53.18 53.17 53.16 53.15 53.14 53.13 53.12 53.11 53.10 53.09 53.08 53.07 53.06 53.04 53.03 53.02 53.00 52.99 52.97 52.96 52.94 52.93 52.91 52.90 52.88 52.86 52.85 52.83 52.81 52.80 52.78 52.76 52.74 52.73 52.71 52.69 52.67 52.65 52.64 52.62 52.60 52.58 52.56 52.55 52.53 52.51 52.49 52.47 52.46 52.44 52.42 52.40 52.39 52.37 52.35 52.34 52.32 52.30 52.29 52.27 52.26 52.24 52.23 52.21 52.20 52.18 52.17 52.16 52.14 52.13 52.12 52.11 52.10 52.09 52.08 52.07 52.06 52.05 52.04 52.03 52.02 52.02 52.01 52.00 52.00 51.99 51.99 51.98 51.98 51.98 51.98 51.97 51.97 51.97 51.97 51.97 51.97 51.97 51.97 51.97 51.97 51.98 51.98 51.98 51.99 51.99 52.00 52.00 52.01 52.01 52.02 52.03 52.03 52.04 52.05 52.06 52.07 52.08 52.09 52.10 52.11 52.12 52.13 52.14 52.15 52.16 52.17 52.18 52.20 52.21 52.22 52.23 52.25 52.26 52.27 52.28 52.30 52.31 52.32 52.34
53.90 53.91 53.93 53.94 53.95 53.97 53.98 53.99 54.00 54.02 54.03 54.04 54.05 54.07 54.08 54.09 54.10 54.11 54.12 54.13 54.14 54.15 54.16 54.17 54.18 54.19 54.20 54.21 54.22 54.22 54.23 54.24 54.24 54.25 54.25 54.26 54.26 54.27 54.27 54.27 54.28 54.28 54.28 54.28 54.28 54.28 54.28 54.28 54.28 54.28 54.27 54.27 54.27 54.27 54.26 54.26 54.25 54.25 54.24 54.23 54.23 54.22 54.21 54.20 54.19 54.18 54.17 54.16 54.15 54.14 54.13 54.12 54.11 54.09 54.08 54.07 54.05 54.04 54.02 54.01 53.99 53.98 53.96 53.95 53.93 53.91 53.90 53.88 53.86 53.85 53.83 53.81 53.79 53.78 53.76 53.74 53.72 53.70 53.69 53.67 53.65 53.63 53.61 53.60 53.58 53.56 53.54 53.52 53.51 53.49 53.47 53.45 53.44 53.42 53.40 53.39 53.37 53.35 53.34 53.32 53.31 53.29 53.28 53.26 53.25 53.23 53.22 53.21 53.19 53.18 53.17 53.16 53.15 53.14 53.13 53.12 53.11 53.10 53.09 53.08 53.07 53.07 53.06 53.05 53.05 53.04 53.04 53.03 53.03 53.03 53.02 53.02 53.02 53.02 53.02 53.02 53.02 53.02 53.02 53.02 53.02 53.03 53.03 53.03 53.04 53.04 53.05 53.05 53.06 53.06 53.07 53.08 53.08 53.09 53.10 53.11 53.12 53.13 53.14 53.15 53.16 53.17 53.18 53.19 53.20 53.21 53.22 53.23 53.25 53.26 53.27 53.28 53.30 53.31 53.32 53.33 53.35 53.36 53.37 53.39 53.40 53.41 53.43 53.44 53.45 53.47 53.48 53.49 53.50 53.52 53.53 53.54 53.55 53.57 53.58 53.59 53.60 53.61 53.62 53.63 53.64 53.65 53.66 53.67 53.68 53.69 53.70 53.71 53.72 53.72 53.73 53.74 53.74 53.75 53.75 53.76 53.76 53.77 53.77 53.77 53.78 53.78 53.78 53.78 53.78 53.78 53.78 53.78 53.78 53.78 53.77 53.77 53.77 53.77 53.76 53.76 53.75 53.75 53.74 53.73 53.73 53.72 53.71 53.70 53.69 53.68 53.67 53.66 53.65 53.64 53.63 53.62 53.61 53.59 53.58 53.57 53.55 53.54 53.52 53.51 53.49 53.48 53.46 53.45 53.43 53.41 53.40 53.38 53.36 53.35 53.33 53.31 53.29 53.28 53.26 53.24 53.22 53.20 53.19 53.17 53.15 53.13 53.11 53.10 53.08 53.06 53.04 53.02 53.01 52.99 52.97 52.95 52.94 52.92 52.90 52.89 52.87 52.85 52.84 52.82 52.81 52.79 52.78 52.76 52.75 52.73 52.72 52.71 52.69 52.68 52.67 52.66 52.65 52.64 52.63 52.62 52.61 52.60 52.59 52.58 52.57 52.57 52.56 52.55 52.55 52.54 52.54 52.53 52.53 52.53 52.52 52.52 52.52 52.52 52.52 52.52 52.52 52.52 52.52 52.52 52.52 52.53 52.53 52.53 52.54 52.54 52.55 52.55 52.56 52.56 52.57 52.58 52.58 52.59 52.60 52.61 52.62 52.63 52.64 52.65 52.66 52.67 52.68 52.69 52.70 52.71 52.72 52.73 52.75 52.76 52.77 52.78 52.80 52.81 52.82 52.83 52.85 52.86 52.87 52.89 52.90 52.91 52.93 52.94 52.95 52.97 52.98 52.99 53.00 53.02 53.03 53.04 53.05 53.07 53.08 53.09 53.10 53.11 53.12 53.13 53.14 53.15 53.16 53.17 53.18 53.19 53.20 53.21 53.22 53.22 53.23 53.24 53.24 53.25 53.25 53.26 53.26 53.27 53.27 53.27 53.28 53.28 53.28 53.28 53.28 53.28 53.28 53.28 53.28 53.28 53.27 53.27 53.27 53.27 53.26 53.26 53.25 53.25 53.24 53.23 53.23 53.22 53.21 53.20 53.19 53.18 53.17 53.16 53.15 53.14 53.13 53.12 53.11 53.09 53.08 53.07 53.05 53.04 53.02 53.01 52.99 52.98 52.96 52.95 52.93 52.91 52.90 52.88 52.86 52.85 52.83 52.81 52.79 52.78 52.76 52.74 52.72 52.70 52.69 52.67 52.65 52.63 52.61 52.60 52.58 52.56 52.54 52.52 52.51 52.49 52.47 52.45 52.44 52.42 52.40 52.39 52.37 52.35 52.34 52.32 52.31 52.29 52.28 52.26 52.25 52.23 52.22 52.21 52.19 52.18 52.17 52.16 52.15 52.14 52.13 52.12 52.11 52.10 52.09 52.08 52.07 52.07 52.06 52.05 52.05 52.04 52.04 52.03 52.03 52.03 52.02 52.02 52.02 52.02 52.02 52.02 52.02 52.02 52.02 52.02 52.02 52.03 52.03 52.03 52.04 52.04 52.05 52.05 52.06 52.06 52.07 52.08 52.08 52.09 52.10 52.11 52.12 52.13 52.14 52.15 52.16 52.17 52.18 52.19 52.20 52.21 52.22 52.23 52.25 52.26 52.27 52.28 52.30 52.31 52.32 52.33 52.35 52.36 52.37 52.39
53.95 53.96 53.98 53.99 54.00 54.02 54.03 54.04 54.05 54.07 54.08 54.09 54.10 54.12 54.13 54.14 54.15 54.16 54.17 54.18 54.19 54.20 54.21 54.22 54.23 54.24 54.25 54.26 54.27 54.27 54.28 54.29 54.29 54.30 54.30 54.31 54.31 54.32 54.32 54.32 54.33 54.33 54.33 54.33 54.33 54.33 54.33 54.33 54.33 54.33 54.33 54.32 54.32 54.32 54.31 54.31 54.30 54.30 54.29 54.28 54.28 54.27 54.26 54.25 54.24 54.23 54.22 54.21 54.20 54.19 54.18 54.17 54.16 54.14 54.13 54.12 54.10 54.09 54.07 54.06 54.04 54.03 54.01 54.00 53.98 53.96 53.95 53.93 53.91 53.90 53.88 53.86 53.84 53.83 53.81 53.79 53.77 53.75 53.74 53.72 53.70 53.68 53.66 53.65 53.63 53.61 53.59 53.57 53.56 53.54 53.52 53.50 53.49 53.47 53.45 53.44 53.42 53.40 53.39 53.37 53.36 53.34 53.33 53.31 53.30 53.28 53.27 53.26 53.24 53.23 53.22 53.21 53.20 53.19 53.18 53.17 53.16 53.15 53.14 53.13 53.12 53.12 53.11 53.10 53.10 53.09 53.09 53.08 53.08 53.08 53.08 53.07 53.07 53.07 53.07 53.07 53.07 53.07 53.07 53.07 53.07 53.08 53.08 53.08 53.09 53.09 53.10 53.10 53.11 53.11 53.12 53.13 53.13 53.14 53.15 53.16 53.17 53.18 53.19 53.20 53.21 53.22 53.23 53.24 53.25 53.26 53.27 53.28 53.30 53.31 53.32 53.33 53.35 53.36 53.37 53.38 53.40 53.41 53.42 53.44 53.45 53.46 53.48 53.49 53.50 53.52 53.53 53.54 53.55 53.57 53.58 53.59 53.60 53.62 53.63 53.64 53.65 53.66 53.67 53.68 53.69 53.70 53.71 53.72 53.73 53.74 53.75 53.76 53.77 53.77 53.78 53.79 53.79 53.80 53.80 53.81 53.81 53.82 53.82 53.82 53.83 53.83 53.83 53.83 53.83 53.83 53.83 53.83 53.83 53.83 53.83 53.82 53.82 53.82 53.81 53.81 53.80 53.80 53.79 53.78 53.78 53.77 53.76 53.75 53.74 53.73 53.72 53.71 53.70 53.69 53.68 53.67 53.66 53.64 53.63 53.62 53.60 53.59 53.57 53.56 53.54 53.53 53.51 53.50 53.48 53.46 53.45 53.43 53.41 53.40 53.38 53.36 53.34 53.33 53.31 53.29 53.27 53.25 53.24 53.22 53.20 53.18 53.16 53.15 53.13 53.11 53.09 53.07 53.06 53.04 53.02 53.00 52.99 52.97 52.95 52.94 52.92 52.90 52.89 52.87 52.86 52.84 52.83 52.81 52.80 52.78 52.77 52.76 52.74 52.73 52.72 52.71 52.70 52.69 52.68 52.67 52.66 52.65 52.64 52.63 52.62 52.62 52.61 52.60 52.60 52.59 52.59 52.58 52.58 52.58 52.58 52.57 52.57 52.57 52.57 52.57 52.57 52.57 52.57 52.57 52.57 52.58 52.58 52.58 52.59 52.59 52.60 52.60 52.61 52.61 52.62 52.63 52.63 52.64 52.65 52.66 52.67 52.68 52.69 52.70 52.71 52.72 52.73 52.74 52.75 52.76 52.77 52.78 52.80 52.81 52.82 52.83 52.85 52.86 52.87 52.88 52.90 52.91 52.92 52.94 52.95 52.96 52.98 52.99 53.00 53.02 53.03 53.04 53.05 53.07 53.08 53.09 53.10 53.12 53.13 53.14 53.15 53.16 53.17 53.18 53.19 53.20 53.21 53.22 53.23 53.24 53.25 53.26 53.27 53.27 53.28 53.29 53.29 53.30 53.30 53.31 53.31 53.32 53.32 53.32 53.33 53.33 53.33 53.33 53.33 53.33 53.33 53.33 53.33 53.33 53.33 53.32 53.32 53.32 53.31 53.31 53.30 53.30 53.29 53.28 53.28 53.27 53.26 53.25 53.24 53.23 53.22 53.21 53.20 53.19 53.18 53.17 53.16 53.14 53.13 53.12 53.10 53.09 53.07 53.06 53.04 53.03 53.01 53.00 52.98 52.96 52.95 52.93 52.91 52.90 52.88 52.86 52.84 52.83 52.81 52.79 52.77 52.75 52.74 52.72 52.70 52.68 52.66 52.65 52.63 52.61 52.59 52.57 52.56 52.54 52.52 52.50 52.49 52.47 52.45 52.44 52.42 52.40 52.39 52.37 52.36 52.34 52.33 52.31 52.30 52.28 52.27 52.26 52.24 52.23 52.22 52.21 52.20 52.19 52.18 52.17 52.16 52.15 52.14 52.13 52.12 52.12 52.11 52.10 52.10 52.09 52.09 52.08 52.08 52.08 52.08 52.07 52.07 52.07 52.07 52.07 52.07 52.07 52.07 52.07 52.07 52.08 52.08 52.08 52.09 52.09 52.10 52.10 52.11 52.11 52.12 52.13 52.13 52.14 52.15 52.16 52.17 52.18 52.19 52.20 52.21 52.22 52.23 52.24 52.25 52.26 52.27 52.28 52.30 52.31 52.32 52.33 52.35 52.36 52.37 52.38 52.40 52.41 52.42 52.44
54.00 54.01 54.03 54.04 54.05 54.07 54.08 54.09 54.10 54.12 54.13 54.14 54.15 54.17 54.18 54.19 54.20 54.21 54.22 54.23 54.24 54.25 54.26 54.27 54.28 54.29 54.30 54.31 54.32 54.32 54.33 54.34 54.34 54.35 54.35 54.36 54.36 54.37 54.37 54.37 54.38 54.38 54.38 54.38 54.38 54.38 54.38 54.38 54.38 54.38 54.38 54.37 54.37 54.37 54.36 54.36 54.35 54.35 54.34 54.33 54.33 54.32 54.31 54.30 54.29 54.28 54.27 54.26 54.25 54.24 54.23 54.22 54.21 54.19 54.18 54.17 54.15 54.14 54.12 54.11 54.09 54.08 54.06 54.05 54.03 54.01 54.00 53.98 53.96 53.95 53.93 53.91 53.89 53.88 53.86 53.84 53.82 53.80 53.79 53.77 53.75 53.73 53.71 53.70 53.68 53.66 53.64 53.62 53.61 53.59 53.57 53.55 53.54 53.52 53.50 53.49 53.47 53.45 53.44 53.42 53.41 53.39 53.38 53.36 53.35 53.33 53.32 53.31 53.29 53.28 53.27 53.26 53.25 53.24 53.23 53.22 53.21 53.20 53.19 53.18 53.17 53.17 53.16 53.15 53.15 53.14 53.14 53.13 53.13 53.13 53.12 53.12 53.12 53.12 53.12 53.12 53.12 53.12 53.12 53.12 53.12 53.13 53.13 53.13 53.14 53.14 53.15 53.15 53.16 53.16 53.17 53.18 53.18 53.19 53.20 53.21 53.22 53.23 53.24 53.25 53.26 53.27 53.28 53.29 53.30 53.31 53.32 53.33 53.35 53.36 53.37 53.38 53.40 53.41 53.42 53.43 53.45 53.46 53.47 53.49 53.50 53.51 53.53 53.54 53.55 53.57 53.58 53.59 53.60 53.62 53.63 53.64 53.65 53.67 53.68 53.69 53.70 53.71 53.72 53.73 53.74 53.75 53.76 53.77 53.78 53.79 53.80 53.81 53.82 53.82 53.83 53.84 53.84 53.85 53.85 53.86 53.86 53.87 53.87 53.87 53.88 53.88 53.88 53.88 53.88 53.88 53.88 53.88 53.88 53.88 53.88 53.87 53.87 53.87 53.86 53.86 53.85 53.85 53.84 53.83 53.83 53.82 53.81 53.80 53.79 53.78 53.77 53.76 53.75 53.74 53.73 53.72 53.71 53.69 53.68 53.67 53.65 53.64 53.62 53.61 53.59 53.58 53.56 53.55 53.53 53.51 53.50 53.48 53.46 53.45 53.43 53.41 53.39 53.38 53.36 53.34 53.32 53.30 53.29 53.27 53.25 53.23 53.21 53.20 53.18 53.16 53.14 53.12 53.11 53.09 53.07 53.05 53.04 53.02 53.00 52.99 52.97 52.95 52.94 52.92 52.91 52.89 52.88 52.86 52.85 52.83 52.82 52.81 52.79 52.78 52.77 52.76 52.75 52.74 52.73 52.72 52.71 52.70 52.69 52.68 52.67 52.67 52.66 52.65 52.65 52.64 52.64 52.63 52.63 52.63 52.62 52.62 52.62 52.62 52.62 52.62 52.62 52.62 52.62 52.62 52.62 52.63 52.63 52.63 52.64 52.64 52.65 52.65 52.66 52.66 52.67 52.68 52.68 52.69 52.70 52.71 52.72 52.73 52.74 52.75 52.76 52.77 52.78 52.79 52.80 52.81 52.82 52.83 52.85 52.86 52.87 52.88 52.90 52.91 52.92 52.93 52.95 52.96 52.97 52.99 53.00 53.01 53.03 53.04 53.05 53.07 53.08 53.09 53.10 53.12 53.13 53.14 53.15 53.17 53.18 53.19 53.20 53.21 53.22 53.23 53.24 53.25 53.26 53.27 53.28 53.29 53.30 53.31 53.32 53.32 53.33 53.34 53.34 53.35 53.35 53.36 53.36 53.37 53.37 53.37 53.38 53.38 53.38 53.38 53.38 53.38 53.38 53.38 53.38 53.38 53.38 53.37 53.37 53.37 53.36 53.36 53.35 53.35 53.34 53.33 53.33 53.32 53.31 53.30 53.29 53.28 53.27 53.26 53.25 53.24 53.23 53.22 53.21 53.19 53.18 53.17 53.15 53.14 53.12 53.11 53.09 53.08 53.06 53.05 53.03 53.01 53.00 52.98 52.96 52.95 52.93 52.91 52.89 52.88 52.86 52.84 52.82 52.80 52.79 52.77 52.75 52.73 52.71 52.70 52.68 52.66 52.64 52.62 52.61 52.59 52.57 52.55 52.54 52.52 52.50 52.49 52.47 52.45 52.44 52.42 52.41 52.39 52.38 52.36 52.35 52.33 52.32 52.31 52.29 52.28 52.27 52.26 52.25 52.24 52.23 52.22 52.21 52.20 52.19 52.18 52.17 52.17 52.16 52.15 52.15 52.14 52.14 52.13 52.13 52.13 52.12 52.12 52.12 52.12 52.12 52.12 52.12 52.12 52.12 52.12 52.12 52.13 52.13 52.13 52.14 52.14 52.15 52.15 52.16 52.16 52.17 52.18 52.18 52.19 52.20 52.21 52.22 52.23 52.24 52.25 52.26 52.27 52.28 52.29 52.30 52.31 52.32 52.33 52.35 52.36 52.37 52.38 52.40 52.41 52.42 52.43 52.45 52.46 52.47 52.49
54.05 54.06 54.08 54.09 54.10 54.12 54.13 54.14 54.15 54.17 54.18 54.19 54.20 54.22 54.23 54.24 54.25 54.26 54.27 54.28 54.29 54.30 54.31 54.32 54.33 54.34 54.35 54.36 54.37 54.37 54.38 54.39 54.39 54.40 54.40 54.41 54.41 54.42 54.42 54.42 54.43 54.43 54.43 54.43 54.43 54.43 54.43 54.43 54.43 54.43 54.42 54.42 54.42 54.42 54.41 54.41 54.40 54.40 54.39 54.38 54.38 54.37 54.36 54.35 54.34 54.33 54.32 54.31 54.30 54.29 54.28 54.27 54.26 54.24 54.23 54.22 54.20 54.19 54.17 54.16 54.14 54.13 54.11 54.10 54.08 54.06 54.05 54.03 54.01 54.00 53.98 53.96 53.94 53.93 53.91 53.89 53.87 53.85 53.84 53.82 53.80 53.78 53.76 53.75 53.73 53.71 53.69 53.67 53.66 53.64 53.62 53.60 53.59 53.57 53.55 53.54 53.52 53.50 53.49 53.47 53.46 53.44 53.43 53.41 53.40 53.38 53.37 53.36 53.34 53.33 53.32 53.31 53.30 53.29 53.28 53.27 53.26 53.25 53.24 53.23 53.22 53.22 53.21 53.20 53.20 53.19 53.19 53.18 53.18 53.18 53.17 53.17 53.17 53.17 53.17 53.17 53.17 53.17 53.17 53.17 53.17 53.18 53.18 53.18 53.19 53.19 53.20 53.20 53.21 53.21 53.22 53.23 53.23 53.24 53.25 53.26 53.27 53.28 53.29 53.30 53.31 53.32 53.33 53.34 53.35 53.36 53.37 53.38 53.40 53.41 53.42 53.43 53.45 53.46 53.47 53.48 53.50 53.51 53.52 53.54 53.55 53.56 53.58 53.59 53.60 53.62 53.63 53.64 53.65 53.67 53.68 53.69 53.70 53.72 53.73 53.74 53.75 53.76 53.77 53.78 53.79 53.80 53.81 53.82 53.83 53.84 53.85 53.86 53.87 53.87 53.88 53.89 53.89 53.90 53.90 53.91 53.91 53.92 53.92 53.92 53.93 53.93 53.93 53.93 53.93 53.93 53.93 53.93 53.93 53.93 53.92 53.92 53.92 53.92 53.91 53.91 53.90 53.90 53.89 53.88 53.88 53.87 53.86 53.85 53.84 53.83 53.82 53.81 53.80 53.79 53.78 53.77 53.76 53.74 53.73 53.72 53.70 53.69 53.67 53.66 53.64 53.63 53.61 53.60 53.58 53.56 53.55 53.53 53.51 53.50 53.48 53.46 53.44 53.43 53.41 53.39 53.37 53.35 53.34 53.32 53.30 53.28 53.26 53.25 53.23 53.21 53.19 53.17 53.16 53.14 53.12 53.10 53.09 53.07 53.05 53.04 53.02 53.00 52.99 52.97 52.96 52.94 52.93 52.91 52.90 52.88 52.87 52.86 52.84 52.83 52.82 52.81 52.80 52.79 52.78 52.77 52.76 52.75 52.74 52.73 52.72 52.72 52.71 52.70 52.70 52.69 52.69 52.68 52.68 52.68 52.67 52.67 52.67 52.67 52.67 52.67 52.67 52.67 52.67 52.67 52.67 52.68 52.68 52.68 52.69 52.69 52.70 52.70 52.71 52.71 52.72 52.73 52.73 52.74 52.75 52.76 52.77 52.78 52.79 52.80 52.81 52.82 52.83 52.84 52.85 52.86 52.87 52.88 52.90 52.91 52.92 52.93 52.95 52.96 52.97 52.98 53.00 53.01 53.02 53.04 53.05 53.06 53.08 53.09 53.10 53.12 53.13 53.14 53.15 53.17 53.18 53.19 53.20 53.22 53.23 53.24 53.25 53.26 53.27 53.28 53.29 53.30 53.31 53.32 53.33 53.34 53.35 53.36 53.37 53.37 53.38 53.39 53.39 53.40 53.40 53.41 53.41 53.42 53.42 53.42 53.43 53.43 53.43 53.43 53.43 53.43 53.43 53.43 53.43 53.43 53.42 53.42 53.42 53.42 53.41 53.41 53.40 53.40 53.39 53.38 53.38 53.37 53.36 53.35 53.34 53.33 53.32 53.31 53.30 53.29 53.28 53.27 53.26 53.24 53.23 53.22 53.20 53.19 53.17 53.16 53.14 53.13 53.11 53.10 53.08 53.06 53.05 53.03 53.01 53.00 52.98 52.96 52.94 52.93 52.91 52.89 52.87 52.85 52.84 52.82 52.80 52.78 52.76 52.75 52.73 52.71 52.69 52.67 52.66 52.64 52.62 52.60 52.59 52.57 52.55 52.54 52.52 52.50 52.49 52.47 52.46 52.44 52.43 52.41 52.40 52.38 52.37 52.36 52.34 52.33 52.32 52.31 52.30 52.29 52.28 52.27 52.26 52.25 52.24 52.23 52.22 52.22 52.21 52.20 52.20 52.19 52.19 52.18 52.18 52.18 52.17 52.17 52.17 52.17 52.17 52.17 52.17 52.17 52.17 52.17 52.17 52.18 52.18 52.18 52.19 52.19 52.20 52.20 52.21 52.21 52.22 52.23 52.23 52.24 52.25 52.26 52.27 52.28 52.29 52.30 52.31 52.32 52.33 52.34 52.35 52.36 52.37 52.38 52.40 52.41 52.42 52.43 52.45 52.46 52.47 52.48 52.50 52.51 52.52 52.54
54.10 54.11 54.13 54.14 54.15 54.17 54.18 54.19 54.20 54.22 54.23 54.24 54.25 54.27 54.28 54.29 54.30 54.31 54.32 54.33 54.34 54.35 54.36 54.37 54.38 54.39 54.40 54.41 54.42 54.42 54.43 54.44 54.44 54.45 54.45 54.46 54.46 54.47 54.47 54.47 54.48 54.48 54.48 54.48 54.48 54.48 54.48 54.48 54.48 54.48 54.48 54.47 54.47 54.47 54.46 54.46 54.45 54.45 54.44 54.43 54.43 54.42 54.41 54.40 54.39 54.38 54.37 54.36 54.35 54.34 54.33 54.32 54.31 54.29 54.28 54.27 54.25 54.24 54.22 54.21 54.19 54.18 54.16 54.15 54.13 54.11 54.10 54.08 54.06 54.05 54.03 54.01 53.99 53.98 53.96 53.94 53.92 53.90 53.89 53.87 53.85 53.83 53.81 53.80 53.78 53.76 53.74 53.72 53.71 53.69 53.67 53.65 53.64 53.62 53.60 53.59 53.57 53.55 53.54 53.52 53.51 53.49 53.48 53.46 53.45 53.43 53.42 53.41 53.39 53.38 53.37 53.36 53.35 53.34 53.33 53.32 53.31 53.30 53.29 53.28 53.27 53.27 53.26 53.25 53.25 53.24 53.24 53.23 53.23 53.23 53.23 53.22 53.22 53.22 53.22 53.22 53.22 53.22 53.22 53.22 53.22 53.23 53.23 53.23 53.24 53.24 53.25 53.25 53.26 53.26 53.27 53.28 53.28 53.29 53.30 53.31 53.32 53.33 53.34 53.35 53.36 53.37 53.38 53.39 53.40 53.41 53.42 53.43 53.45 53.46 53.47 53.48 53.50 53.51 53.52 53.53 53.55 53.56 53.57 53.59 53.60 53.61 53.63 53.64 53.65 53.67 53.68 53.69 53.70 53.72 53.73 53.74 53.75 53.77 53.78 53.79 53.80 53.81 53.82 53.83 53.84 53.85 53.86 53.87 53.88 53.89 53.90 53.91 53.92 53.92 53.93 53.94 53.94 53.95 53.95 53.96 53.96 53.97 53.97 53.97 53.98 53.98 53.98 53.98 53.98 53.98 53.98 53.98 53.98 53.98 53.98 53.97 53.97 53.97 53.96 53.96 53.95 53.95 53.94 53.93 53.93 53.92 53.91 53.90 53.89 53.88 53.87 53.86 53.85 53.84 53.83 53.82 53.81 53.79 53.78 53.77 53.75 53.74 53.72 53.71 53.69 53.68 53.66 53.65 53.63 53.61 53.60 53.58 53.56 53.55 53.53 53.51 53.49 53.48 53.46 53.44 53.42 53.40 53.39 53.37 53.35 53.33 53.31 53.30 53.28 53.26 53.24 53.22 53.21 53.19 53.17 53.15 53.14 53.12 53.10 53.09 53.07 53.05 53.04 53.02 53.01 52.99 52.98 52.96 52.95 52.93 52.92 52.91 52.89 52.88 52.87 52.86 52.85 52.84 52.83 52.82 52.81 52.80 52.79 52.78 52.77 52.77 52.76 52.75 52.75 52.74 52.74 52.73 52.73 52.73 52.73 52.72 52.72 52.72 52.72 52.72 52.72 52.72 52.72 52.72 52.72 52.73 52.73 52.73 52.74 52.74 52.75 52.75 52.76 52.76 52.77 52.78 52.78 52.79 52.80 52.81 52.82 52.83 52.84 52.85 52.86 52.87 52.88 52.89 52.90 52.91 52.92 52.93 52.95 52.96 52.97 52.98 53.00 53.01 53.02 53.03 53.05 53.06 53.07 53.09 53.10 53.11 53.13 53.14 53.15 53.17 53.18 53.19 53.20 53.22 53.23 53.24 53.25 53.27 53.28 53.29 53.30 53.31 53.32 53.33 53.34 53.35 53.36 53.37 53.38 53.39 53.40 53.41 53.42 53.42 53.43 53.44 53.44 53.45 53.45 53.46 53.46 53.47 53.47 53.47 53.48 53.48 53.48 53.48 53.48 53.48 53.48 53.48 53.48 53.48 53.48 53.47 53.47 53.47 53.46 53.46 53.45 53.45 53.44 53.43 53.43 53.42 53.41 53.40 53.39 53.38 53.37 53.36 53.35 53.34 53.33 53.32 53.31 53.29 53.28 53.27 53.25 53.24 53.22 53.21 53.19 53.18 53.16 53.15 53.13 53.11 53.10 53.08 53.06 53.05 53.03 53.01 52.99 52.98 52.96 52.94 52.92 52.90 52.89 52.87 52.85 52.83 52.81 52.80 52.78 52.76 52.74 52.72 52.71 52.69 52.67 52.65 52.64 52.62 52.60 52.59 52.57 52.55 52.54 52.52 52.51 52.49 52.48 52.46 52.45 52.43 52.42 52.41 52.39 52.38 52.37 52.36 52.35 52.34 52.33 52.32 52.31 52.30 52.29 52.28 52.27 52.27 52.26 52.25 52.25 52.24 52.24 52.23 52.23 52.23 52.23 52.22 52.22 52.22 52.22 52.22 52.22 52.22 52.22 52.22 52.22 52.23 52.23 52.23 52.24 52.24 52.25 52.25 52.26 52.26 52.27 52.28 52.28 52.29 52.30 52.31 52.32 52.33 52.34 52.35 52.36 52.37 52.38 52.39 52.40 52.41 52.42 52.43 52.45 52.46 52.47 52.48 52.50 52.51 52.52 52.53 52.55 52.56 52.57 52.59
54.15 54.16 54.18 54.19 54.20 54.22 54.23 54.24 54.25 54.27 54.28 54.29 54.30 54.32 54.33 54.34 54.35 54.36 54.37 54.38 54.39 54.40 54.41 54.42 54.43 54.44 54.45 54.46 54.47 54.47 54.48 54.49 54.49 54.50 54.50 54.51 54.51 54.52 54.52 54.52 54.53 54.53 54.53 54.53 54.53 54.53 54.53 54.53 54.53 54.53 54.52 54.52 54.52 54.52 54.51 54.51 54.50 54.50 54.49 54.48 54.48 54.47 54.46 54.45 54.44 54.43 54.42 54.41 54.40 54.39 54.38 54.37 54.36 54.34 54.33 54.32 54.30 54.29 54.27 54.26 54.24 54.23 54.21 54.20 54.18 54.16 54.15 54.13 54.11 54.10 54.08 54.06 54.04 54.03 54.01 53.99 53.97 53.95 53.94 53.92 53.90 53.88 53.86 53.85 53.83 53.81 53.79 53.77 53.76 53.74 53.72 53.70 53.69 53.67 53.65 53.64 53.62 53.60 53.59 53.57 53.56 53.54 53.53 53.51 53.50 53.48 53.47 53.46 53.44 53.43 53.42 53.41 53.40 53.39 53.38 53.37 53.36 53.35 53.34 53.33 53.32 53.32 53.31 53.30 53.30 53.29 53.29 53.28 53.28 53.28 53.27 53.27 53.27 53.27 53.27 53.27 53.27 53.27 53.27 53.27 53.27 53.28 53.28 53.28 53.29 53.29 53.30 53.30 53.31 53.31 53.32 53.33 53.33 53.34 53.35 53.36 53.37 53.38 53.39 53.40 53.41 53.42 53.43 53.44 53.45 53.46 53.47 53.48 53.50 53.51 53.52 53.53 53.55 53.56 53.57 53.58 53.60 53.61 53.62 53.64 53.65 53.66 53.68 53.69 53.70 53.72 53.73 53.74 53.75 53.77 53.78 53.79 53.80 53.82 53.83 53.84 53.85 53.86 53.87 53.88 53.89 53.90 53.91 53.92 53.93 53.94 53.95 53.96 53.97 53.97 53.98 53.99 53.99 54.00 54.00 54.01 54.01 54.02 54.02 54.02 54.03 54.03 54.03 54.03 54.03 54.03 54.03 54.03 54.03 54.03 54.02 54.02 54.02 54.02 54.01 54.01 54.00 54.00 53.99 53.98 53.98 53.97 53.96 53.95 53.94 53.93 53.92 53.91 53.90 53.89 53.88 53.87 53.86 53.84 53.83 53.82 53.80 53.79 53.77 53.76 53.74 53.73 53.71 53.70 53.68 53.66 53.65 53.63 53.61 53.60 53.58 53.56 53.54 53.53 53.51 53.49 53.47 53.45 53.44 53.42 53.40 53.38 53.36 53.35 53.33 53.31 53.29 53.27 53.26 53.24 53.22 53.20 53.19 53.17 53.15 53.14 53.12 53.10 53.09 53.07 53.06 53.04 53.03 53.01 53.00 52.98 52.97 52.96 52.94 52.93 52.92 52.91 52.90 52.89 52.88 52.87 52.86 52.85 52.84 52.83 52.82 52.82 52.81 52.80 52.80 52.79 52.79 52.78 52.78 52.78 52.77 52.77 52.77 52.77 52.77 52.77 52.77 52.77 52.77 52.77 52.77 52.78 52.78 52.78 52.79 52.79 52.80 52.80 52.81 52.81 52.82 52.83 52.83 52.84 52.85 52.86 52.87 52.88 52.89 52.90 52.91 52.92 52.93 52.94 52.95 52.96 52.97 52.98 53.00 53.01 53.02 53.03 53.05 53.06 53.07 53.08 53.10 53.11 53.12 53.14 53.15 53.16 53.18 53.19 53.20 53.22 53.23 53.24 53.25 53.27 53.28 53.29 53.30 53.32 53.33 53.34 53.35 53.36 53.37 53.38 53.39 53.40 53.41 53.42 53.43 53.44 53.45 53.46 53.47 53.47 53.48 53.49 53.49 53.50 53.50 53.51 53.51 53.52 53.52 53.52 53.53 53.53 53.53 53.53 53.53 53.53 53.53 53.53 53.53 53.53 53.52 53.52 53.52 53.52 53.51 53.51 53.50 53.50 53.49 53.48 53.48 53.47 53.46 53.45 53.44 53.43 53.42 53.41 53.40 53.39 53.38 53.37 53.36 53.34 53.33 53.32 53.30 53.29 53.27 53.26 53.24 53.23 53.21 53.20 53.18 53.16 53.15 53.13 53.11 53.10 53.08 53.06 53.04 53.03 53.01 52.99 52.97 52.95 52.94 52.92 52.90 52.88 52.86 52.85 52.83 52.81 52.79 52.77 52.76 52.74 52.72 52.70 52.69 52.67 52.65 52.64 52.62 52.60 52.59 52.57 52.56 52.54 52.53 52.51 52.50 52.48 52.47 52.46 52.44 52.43 52.42 52.41 52.40 52.39 52.38 52.37 52.36 52.35 52.34 52.33 52.32 52.32 52.31 52.30 52.30 52.29 52.29 52.28 52.28 52.28 52.27 52.27 52.27 52.27 52.27 52.27 52.27 52.27 52.27 52.27 52.27 52.28 52.28 52.28 52.29 52.29 52.30 52.30 52.31 52.31 52.32 52.33 52.33 52.34 52.35 52.36 52.37 52.38 52.39 52.40 52.41 52.42 52.43 52.44 52.45 52.46 52.47 52.48 52.50 52.51 52.52 52.53 52.55 52.56 52.57 52.58 52.60 52.61 52.62 52.64
54.20 54.21 54.23 54.24 54.25 54.27 54.28 54.29 54.30 54.32 54.33 54.34 54.35 54.37 54.38 54.39 54.40 54.41 54.42 54.43 54.44 54.45 54.46 54.47 54.48 54.49 54.50 54.51 54.52 54.52 54.53 54.54 54.54 54.55 54.55 54.56 54.56 54.57 54.57 54.57 54.58 54.58 54.58 54.58 54.58 54.58 54.58 54.58 54.58 54.58 54.58 54.57 54.57 54.57 54.56 54.56 54.55 54.55 54.54 54.53 54.53 54.52 54.51 54.50 54.49 54.48 54.47 54.46 54.45 54.44 54.43 54.42 54.41 54.39 54.38 54.37 54.35 54.34 54.32 54.31 54.29 54.28 54.26 54.25 54.23 54.21 54.20 54.18 54.16 54.15 54.13 54.11 54.09 54.08 54.06 54.04 54.02 54.00 53.99 53.97 53.95 53.93 53.91 53.90 53.88 53.86 53.84 53.82 53.81 53.79 53.77 53.75 53.74 53.72 53.70 53.69 53.67 53.65 53.64 53.62 53.61 53.59 53.58 53.56 53.55 53.53 53.52 53.51 53.49 53.48 53.47 53.46 53.45 53.44 53.43 53.42 53.41 53.40 53.39 53.38 53.37 53.37 53.36 53.35 53.35 53.34 53.34 53.33 53.33 53.33 53.33 53.32 53.32 53.32 53.32 53.32 53.32 53.32 53.32 53.32 53.32 53.33 53.33 53.33 53.34 53.34 53.35 53.35 53.36 53.36 53.37 53.38 53.38 53.39 53.40 53.41 53.42 53.43 53.44 53.45 53.46 53.47 53.48 53.49 53.50 53.51 53.52 53.53 53.55 53.56 53.57 53.58 53.60 53.61 53.62 53.63 53.65 53.66 53.67 53.69 53.70 53.71 53.73 53.74 53.75 53.77 53.78 53.79 53.80 53.82 53.83 53.84 53.85 53.87 53.88 53.89 53.90 53.91 53.92 53.93 53.94 53.95 53.96 53.97 53.98 53.99 54.00 54.01 54.02 54.02 54.03 54.04 54.04 54.05 54.05 54.06 54.06 54.07 54.07 54.07 54.08 54.08 54.08 54.08 54.08 54.08 54.08 54.08 54.08 54.08 54.08 54.07 54.07 54.07 54.06 54.06 54.05 54.05 54.04 54.03 54.03 54.02 54.01 54.00 53.99 53.98 53.97 53.96 53.95 53.94 53.93 53.92 53.91 53.89 53.88 53.87 53.85 53.84 53.82 53.81 53.79 53.78 53.76 53.75 53.73 53.71 53.70 53.68 53.66 53.65 53.63 53.61 53.59 53.58 53.56 53.54 53.52 53.50 53.49 53.47 53.45 53.43 53.41 53.40 53.38 53.36 53.34 53.32 53.31 53.29 53.27 53.25 53.24 53.22 53.20 53.19 53.17 53.15 53.14 53.12 53.11 53.09 53.08 53.06 53.05 53.03 53.02 53.01 52.99 52.98 52.97 52.96 52.95 52.94 52.93 52.92 52.91 52.90 52.89 52.88 52.87 52.87 52.86 52.85 52.85 52.84 52.84 52.83 52.83 52.83 52.83 52.82 52.82 52.82 52.82 52.82 52.82 52.82 52.82 52.82 52.82 52.83 52.83 52.83 52.84 52.84 52.85 52.85 52.86 52.86 52.87 52.88 52.88 52.89 52.90 52.91 52.92 52.93 52.94 52.95 52.96 52.97 52.98 52.99 53.00 53.01 53.02 53.03 53.05 53.06 53.07 53.08 53.10 53.11 53.12 53.13 53.15 53.16 53.17 53.19 53.20 53.21 53.23 53.24 53.25 53.27 53.28 53.29 53.30 53.32 53.33 53.34 53.35 53.37 53.38 53.39 53.40 53.41 53.42 53.43 53.44 53.45 53.46 53.47 53.48 53.49 53.50 53.51 53.52 53.52 53.53 53.54 53.54 53.55 53.55 53.56 53.56 53.57 53.57 53.57 53.58 53.58 53.58 53.58 53.58 53.58 53.58 53.58 53.58 53.58 53.58 53.57 53.57 53.57 53.56 53.56 53.55 53.55 53.54 53.53 53.53 53.52 53.51 53.50 53.49 53.48 53.47 53.46 53.45 53.44 53.43 53.42 53.41 53.39 53.38 53.37 53.35 53.34 53.32 53.31 53.29 53.28 53.26 53.25 53.23 53.21 53.20 53.18 53.16 53.15 53.13 53.11 53.09 53.08 53.06 53.04 53.02 53.00 52.99 52.97 52.95 52.93 52.91 52.90 52.88 52.86 52.84 52.82 52.81 52.79 52.77 52.75 52.74 52.72 52.70 52.69 52.67 52.65 52.64 52.62 52.61 52.59 52.58 52.56 52.55 52.53 52.52 52.51 52.49 52.48 52.47 52.46 52.45 52.44 52.43 52.42 52.41 52.40 52.39 52.38 52.37 52.37 52.36 52.35 52.35 52.34 52.34 52.33 52.33 52.33 52.33 52.32 52.32 52.32 52.32 52.32 52.32 52.32 52.32 52.32 52.32 52.33 52.33 52.33 52.34 52.34 52.35 52.35 52.36 52.36 52.37 52.38 52.38 52.39 52.40 52.41 52.42 52.43 52.44 52.45 52.46 52.47 52.48 52.49 52.50 52.51 52.52 52.53 52.55 52.56 52.57 52.58 52.60 52.61 52.62 52.63 52.65 52.66 52.67 52.69
54.25 54.26 54.28 54.29 54.30 54.32 54.33 54.34 54.35 54.37 54.38 54.39 54.40 54.42 54.43 54.44 54.45 54.46 54.47 54.48 54.49 54.50 54.51 54.52 54.53 54.54 54.55 54.56 54.57 54.57 54.58 54.59 54.59 54.60 54.60 54.61 54.61 54.62 54.62 54.62 54.63 54.63 54.63 54.63 54.63 54.63 54.63 54.63 54.63 54.63 54.62 54.62 54.62 54.62 54.61 54.61 54.60 54.60 54.59 54.58 54.58 54.57 54.56 54.55 54.54 54.53 54.52 54.51 54.50 54.49 54.48 54.47 54.46 54.44 54.43 54.42 54.40 54.39 54.37 54.36 54.34 54.33 54.31 54.30 54.28 54.26 54.25 54.23 54.21 54.20 54.18 54.16 54.14 54.13 54.11 54.09 54.07 54.05 54.04 54.02 54.00 53.98 53.96 53.95 53.93 53.91 53.89 53.87 53.86 53.84 53.82 53.80 53.79 53.77 53.75 53.74 53.72 53.70 53.69 53.67 53.66 53.64 53.63 53.61 53.60 53.58 53.57 53.56 53.54 53.53 53.52 53.51 53.50 53.49 53.48 53.47 53.46 53.45 53.44 53.43 53.42 53.42 53.41 53.40 53.40 53.39 53.39 53.38 53.38 53.38 53.38 53.37 53.37 53.37 53.37 53.37 53.37 53.37 53.37 53.37 53.37 53.38 53.38 53.38 53.39 53.39 53.40 53.40 53.41 53.41 53.42 53.43 53.43 53.44 53.45 53.46 53.47 53.48 53.49 53.50 53.51 53.52 53.53 53.54 53.55 53.56 53.57 53.58 53.60 53.61 53.62 53.63 53.65 53.66 53.67 53.68 53.70 53.71 53.72 53.74 53.75 53.76 53.78 53.79 53.80 53.82 53.83 53.84 53.85 53.87 53.88 53.89 53.90 53.92 53.93 53.94 53.95 53.96 53.97 53.98 53.99 54.00 54.01 54.02 54.03 54.04 54.05 54.06 54.07 54.07 54.08 54.09 54.09 54.10 54.10 54.11 54.11 54.12 54.12 54.12 54.13 54.13 54.13 54.13 54.13 54.13 54.13 54.13 54.13 54.13 54.12 54.12 54.12 54.12 54.11 54.11 54.10 54.10 54.09 54.08 54.08 54.07 54.06 54.05 54.04 54.03 54.02 54.01 54.00 53.99 53.98 53.97 53.96 53.94 53.93 53.92 53.90 53.89 53.87 53.86 53.84 53.83 53.81 53.80 53.78 53.76 53.75 53.73 53.71 53.70 53.68 53.66 53.64 53.63 53.61 53.59 53.57 53.55 53.54 53.52 53.50 53.48 53.46 53.45 53.43 53.41 53.39 53.37 53.36 53.34 53.32 53.30 53.29 53.27 53.25 53.24 53.22 53.20 53.19 53.17 53.16 53.14 53.13 53.11 53.10 53.08 53.07 53.06 53.04 53.03 53.02 53.01 53.00 52.99 52.98 52.97 52.96 52.95 52.94 52.93 52.92 52.92 52.91 52.90 52.90 52.89 52.89 52.88 52.88 52.88 52.88 52.87 52.87 52.87 52.87 52.87 52.87 52.87 52.87 52.87 52.87 52.88 52.88 52.88 52.89 52.89 52.90 52.90 52.91 52.91 52.92 52.93 52.93 52.94 52.95 52.96 52.97 52.98 52.99 53.00 53.01 53.02 53.03 53.04 53.05 53.06 53.07 53.08 53.10 53.11 53.12 53.13 53.15 53.16 53.17 53.18 53.20 53.21 53.22 53.24 53.25 53.26 53.28 53.29 53.30 53.32 53.33 53.34 53.35 53.37 53.38 53.39 53.40 53.42 53.43 53.44 53.45 53.46 53.47 53.48 53.49 53.50 53.51 53.52 53.53 53.54 53.55 53.56 53.57 53.57 53.58 53.59 53.59 53.60 53.60 53.61 53.61 53.62 53.62 53.62 53.63 53.63 53.63 53.63 53.63 53.63 53.63 53.63 53.63 53.63 53.62 53.62 53.62 53.62 53.61 53.61 53.60 53.60 53.59 53.58 53.58 53.57 53.56 53.55 53.54 53.53 53.52 53.51 53.50 53.49 53.48 53.47 53.46 53.44 53.43 53.42 53.40 53.39 53.37 53.36 53.34 53.33 53.31 53.30 53.28 53.26 53.25 53.23 53.21 53.20 53.18 53.16 53.14 53.13 53.11 53.09 53.07 53.05 53.04 53.02 53.00 52.98 52.96 52.95 52.93 52.91 52.89 52.87 52.86 52.84 52.82 52.80 52.79 52.77 52.75 52.74 52.72 52.70 52.69 52.67 52.66 52.64 52.63 52.61 52.60 52.58 52.57 52.56 52.54 52.53 52.52 52.51 52.50 52.49 52.48 52.47 52.46 52.45 52.44 52.43 52.42 52.42 52.41 52.40 52.40 52.39 52.39 52.38 52.38 52.38 52.38 52.37 52.37 52.37 52.37 52.37 52.37 52.37 52.37 52.37 52.37 52.38 52.38 52.38 52.39 52.39 52.40 52.40 52.41 52.41 52.42 52.43 52.43 52.44 52.45 52.46 52.47 52.48 52.49 52.50 52.51 52.52 52.53 52.54 52.55 52.56 52.57 52.58 52.60 52.61 52.62 52.63 52.65 52.66 52.67 52.68 52.70 52.71 52.72 52.74
54.30 54.31 54.33 54.34 54.35 54.37 54.38 54.39 54.40 54.42 54.43 54.44 54.45 54.47 54.48 54.49 54.50 54.51 54.52 54.53 54.54 54.55 54.56 54.57 54.58 54.59 54.60 54.61 54.62 54.62 54.63 54.64 54.64 54.65 54.65 54.66 54.66 54.67 54.67 54.67 54.68 54.68 54.68 54.68 54.68 54.68 54.68 54.68 54.68 54.68 54.67 54.67 54.67 54.67 54.66 54.66 54.65 54.65 54.64 54.63 54.63 54.62 54.61 54.60 54.59 54.58 54.57 54.56 54.55 54.54 54.53 54.52 54.51 54.49 54.48 54.47 54.45 54.44 54.42 54.41 54.39 54.38 54.36 54.35 54.33 54.31 54.30 54.28 54.26 54.25 54.23 54.21 54.19 54.18 54.16 54.14 54.12 54.10 54.09 54.07 54.05 54.03 54.01 54.00 53.98 53.96 53.94 53.92 53.91 53.89 53.87 53.85 53.84 53.82 53.80 53.79 53.77 53.75 53.74 53.72 53.71 53.69 53.68 53.66 53.65 53.63 53.62 53.61 53.59 53.58 53.57 53.56 53.55 53.54 53.53 53.52 53.51 53.50 53.49 53.48 53.47 53.47 53.46 53.45 53.45 53.44 53.44 53.43 53.43 53.43 53.42 53.42 53.42 53.42 53.42 53.42 53.42 53.42 53.42 53.42 53.42 53.43 53.43 53.43 53.44 53.44 53.45 53.45 53.46 53.46 53.47 53.48 53.48 53.49 53.50 53.51 53.52 53.53 53.54 53.55 53.56 53.57 53.58 53.59 53.60 53.61 53.62 53.63 53.65 53.66 53.67 53.68 53.70 53.71 53.72 53.73 53.75 53.76 53.77 53.79 53.80 53.81 53.83 53.84 53.85 53.87 53.88 53.89 53.90 53.92 53.93 53.94 53.95 53.97 53.98 53.99 54.00 54.01 54.02 54.03 54.04 54.05 54.06 54.07 54.08 54.09 54.10 54.11 54.12 54.12 54.13 54.14 54.14 54.15 54.15 54.16 54.16 54.17 54.17 54.17 54.18 54.18 54.18 54.18 54.18 54.18 54.18 54.18 54.18 54.18 54.17 54.17 54.17 54.17 54.16 54.16 54.15 54.15 54.14 54.13 54.13 54.12 54.11 54.10 54.09 54.08 54.07 54.06 54.05 54.04 54.03 54.02 54.01 53.99 53.98 53.97 53.95 53.94 53.92 53.91 53.89 53.88 53.86 53.85 53.83 53.81 53.80 53.78 53.76 53.75 53.73 53.71 53.69 53.68 53.66 53.64 53.62 53.60 53.59 53.57 53.55 53.53 53.51 53.50 53.48 53.46 53.44 53.42 53.41 53.39 53.37 53.35 53.34 53.32 53.30 53.29 53.27 53.25 53.24 53.22 53.21 53.19 53.18 53.16 53.15 53.13 53.12 53.11 53.09 53.08 53.07 53.06 53.05 53.04 53.03 53.02 53.01 53.00 52.99 52.98 52.97 52.97 52.96 52.95 52.95 52.94 52.94 52.93 52.93 52.93 52.92 52.92 52.92 52.92 52.92 52.92 52.92 52.92 52.92 52.92 52.92 52.93 52.93 52.93 52.94 52.94 52.95 52.95 52.96 52.96 52.97 52.98 52.98 52.99 53.00 53.01 53.02 53.03 53.04 53.05 53.06 53.07 53.08 53.09 53.10 53.11 53.12 53.13 53.15 53.16 53.17 53.18 53.20 53.21 53.22 53.23 53.25 53.26 53.27 53.29 53.30 53.31 53.33 53.34 53.35 53.37 53.38 53.39 53.40 53.42 53.43 53.44 53.45 53.47 53.48 53.49 53.50 53.51 53.52 53.53 53.54 53.55 53.56 53.57 53.58 53.59 53.60 53.61 53.62 53.62 53.63 53.64 53.64 53.65 53.65 53.66 53.66 53.67 53.67 53.67 53.68 53.68 53.68 53.68 53.68 53.68 53.68 53.68 53.68 53.68 53.67 53.67 53.67 53.67 53.66 53.66 53.65 53.65 53.64 53.63 53.63 53.62 53.61 53.60 53.59 53.58 53.57 53.56 53.55 53.54 53.53 53.52 53.51 53.49 53.48 53.47 53.45 53.44 53.42 53.41 53.39 53.38 53.36 53.35 53.33 53.31 53.30 53.28 53.26 53.25 53.23 53.21 53.19 53.18 53.16 53.14 53.12 53.10 53.09 53.07 53.05 53.03 53.01 53.00 52.98 52.96 52.94 52.92 52.91 52.89 52.87 52.85 52.84 52.82 52.80 52.79 52.77 52.75 52.74 52.72 52.71 52.69 52.68 52.66 52.65 52.63 52.62 52.61 52.59 52.58 52.57 52.56 52.55 52.54 52.53 52.52 52.51 52.50 52.49 52.48 52.47 52.47 52.46 52.45 52.45 52.44 52.44 52.43 52.43 52.43 52.42 52.42 52.42 52.42 52.42 52.42 52.42 52.42 52.42 52.42 52.42 52.43 52.43 52.43 52.44 52.44 52.45 52.45 52.46 52.46 52.47 52.48 52.48 52.49 52.50 52.51 52.52 52.53 52.54 52.55 52.56 52.57 52.58 52.59 52.60 52.61 52.62 52.63 52.65 52.66 52.67 52.68 52.70 52.71 52.72 52.73 52.75 52.76 52.77 52.79
54.35 54.36 54.38 54.39 54.40 54.42 54.43 54.44 54.45 54.47 54.48 54.49 54.50 54.52 54.53 54.54 54.55 54.56 54.57 54.58 54.59 54.60 54.61 54.62 54.63 54.64 54.65 54.66 54.67 54.67 54.68 54.69 54.69 54.70 54.70 54.71 54.71 54.72 54.72 54.72 54.73 54.73 54.73 54.73 54.73 54.73 54.73 54.73 54.73 54.73 54.73 54.72 54.72 54.72 54.71 54.71 54.70 54.70 54.69 54.68 54.68 54.67 54.66 54.65 54.64 54.63 54.62 54.61 54.60 54.59 54.58 54.57 54.56 54.54 54.53 54.52 54.50 54.49 54.47 54.46 54.44 54.43 54.41 54.40 54.38 54.36 54.35 54.33 54.31 54.30 54.28 54.26 54.24 54.23 54.21 54.19 54.17 54.15 54.14 54.12 54.10 54.08 54.06 54.05 54.03 54.01 53.99 53.97 53.96 53.94 53.92 53.90 53.89 53.87 53.85 53.84 53.82 53.80 53.79 53.77 53.76 53.74 53.73 53.71 53.70 53.68 53.67 53.66 53.64 53.63 53.62 53.61 53.60 53.59 53.58 53.57 53.56 53.55 53.54 53.53 53.52 53.52 53.51 53.50 53.50 53.49 53.49 53.48 53.48 53.48 53.48 53.47 53.47 53.47 53.47 53.47 53.47 53.47 53.47 53.47 53.47 53.48 53.48 53.48 53.49 53.49 53.50 53.50 53.51 53.51 53.52 53.53 53.53 53.54 53.55 53.56 53.57 53.58 53.59 53.60 53.61 53.62 53.63 53.64 53.65 53.66 53.67 53.68 53.70 53.71 53.72 53.73 53.75 53.76 53.77 53.78 53.80 53.81 53.82 53.84 53.85 53.86 53.88 53.89 53.90 53.92 53.93 53.94 53.95 53.97 53.98 53.99 54.00 54.02 54.03 54.04 54.05 54.06 54.07 54.08 54.09 54.10 54.11 54.12 54.13 54.14 54.15 54.16 54.17 54.17 54.18 54.19 54.19 54.20 54.20 54.21 54.21 54.22 54.22 54.22 54.23 54.23 54.23 54.23 54.23 54.23 54.23 54.23 54.23 54.23 54.23 54.22 54.22 54.22 54.21 54.21 54.20 54.20 54.19 54.18 54.18 54.17 54.16 54.15 54.14 54.13 54.12 54.11 54.10 54.09 54.08 54.07 54.06 54.04 54.03 54.02 54.00 53.99 53.97 53.96 53.94 53.93 53.91 53.90 53.88 53.86 53.85 53.83 53.81 53.80 53.78 53.76 53.74 53.73 53.71 53.69 53.67 53.65 53.64 53.62 53.60 53.58 53.56 53.55 53.53 53.51 53.49 53.47 53.46 53.44 53.42 53.40 53.39 53.37 53.35 53.34 53.32 53.30 53.29 53.27 53.26 53.24 53.23 53.21 53.20 53.18 53.17 53.16 53.14 53.13 53.12 53.11 53.10 53.09 53.08 53.07 53.06 53.05 53.04 53.03 53.02 53.02 53.01 53.00 53.00 52.99 52.99 52.98 52.98 52.98 52.98 52.97 52.97 52.97 52.97 52.97 52.97 52.97 52.97 52.97 52.97 52.98 52.98 52.98 52.99 52.99 53.00 53.00 53.01 53.01 53.02 53.03 53.03 53.04 53.05 53.06 53.07 53.08 53.09 53.10 53.11 53.12 53.13 53.14 53.15 53.16 53.17 53.18 53.20 53.21 53.22 53.23 53.25 53.26 53.27 53.28 53.30 53.31 53.32 53.34 53.35 53.36 53.38 53.39 53.40 53.42 53.43 53.44 53.45 53.47 53.48 53.49 53.50 53.52 53.53 53.54 53.55 53.56 53.57 53.58 53.59 53.60 53.61 53.62 53.63 53.64 53.65 53.66 53.67 53.67 53.68 53.69 53.69 53.70 53.70 53.71 53.71 53.72 53.72 53.72 53.73 53.73 53.73 53.73 53.73 53.73 53.73 53.73 53.73 53.73 53.73 53.72 53.72 53.72 53.71 53.71 53.70 53.70 53.69 53.68 53.68 53.67 53.66 53.65 53.64 53.63 53.62 53.61 53.60 53.59 53.58 53.57 53.56 53.54 53.53 53.52 53.50 53.49 53.47 53.46 53.44 53.43 53.41 53.40 53.38 53.36 53.35 53.33 53.31 53.30 53.28 53.26 53.24 53.23 53.21 53.19 53.17 53.15 53.14 53.12 53.10 53.08 53.06 53.05 53.03 53.01 52.99 52.97 52.96 52.94 52.92 52.90 52.89 52.87 52.85 52.84 52.82 52.80 52.79 52.77 52.76 52.74 52.73 52.71 52.70 52.68 52.67 52.66 52.64 52.63 52.62 52.61 52.60 52.59 52.58 52.57 52.56 52.55 52.54 52.53 52.52 52.52 52.51 52.50 52.50 52.49 52.49 52.48 52.48 52.48 52.48 52.47 52.47 52.47 52.47 52.47 52.47 52.47 52.47 52.47 52.47 52.48 52.48 52.48 52.49 52.49 52.50 52.50 52.51 52.51 52.52 52.53 52.53 52.54 52.55 52.56 52.57 52.58 52.59 52.60 52.61 52.62 52.63 52.64 52.65 52.66 52.67 52.68 52.70 52.71 52.72 52.73 52.75 52.76 52.77 52.78 52.80 52.81 52.82 52.84
54.40 54.41 54.43 54.44 54.45 54.47 54.48 54.49 54.50 54.52 54.53 54.54 54.55 54.57 54.58 54.59 54.60 54.61 54.62 54.63 54.64 54.65 54.66 54.67 54.68 54.69 54.70 54.71 54.72 54.72 54.73 54.74 54.74 54.75 54.75 54.76 54.76 54.77 54.77 54.77 54.78 54.78 54.78 54.78 54.78 54.78 54.78 54.78 54.78 54.78 54.77 54.77 54.77 54.77 54.76 54.76 54.75 54.75 54.74 54.73 54.73 54.72 54.71 54.70 54.69 54.68 54.67 54.66 54.65 54.64 54.63 54.62 54.61 54.59 54.58 54.57 54.55 54.54 54.52 54.51 54.49 54.48 54.46 54.45 54.43 54.41 54.40 54.38 54.36 54.35 54.33 54.31 54.29 54.28 54.26 54.24 54.22 54.20 54.19 54.17 54.15 54.13 54.11 54.10 54.08 54.06 54.04 54.02 54.01 53.99 53.97 53.95 53.94 53.92 53.90 53.89 53.87 53.85 53.84 53.82 53.81 53.79 53.78 53.76 53.75 53.73 53.72 53.71 53.69 53.68 53.67 53.66 53.65 53.64 53.63 53.62 53.61 53.60 53.59 53.58 53.57 53.57 53.56 53.55 53.55 53.54 53.54 53.53 53.53 53.53 53.52 53.52 53.52 53.52 53.52 53.52 53.52 53.52 53.52 53.52 53.52 53.53 53.53 53.53 53.54 53.54 53.55 53.55 53.56 53.56 53.57 53.58 53.58 53.59 53.60 53.61 53.62 53.63 53.64 53.65 53.66 53.67 53.68 53.69 53.70 53.71 53.72 53.73 53.75 53.76 53.77 53.78 53.80 53.81 53.82 53.83 53.85 53.86 53.87 53.89 53.90 53.91 53.93 53.94 53.95 53.97 53.98 53.99 54.00 54.02 54.03 54.04 54.05 54.07 54.08 54.09 54.10 54.11 54.12 54.13 54.14 54.15 54.16 54.17 54.18 54.19 54.20 54.21 54.22 54.22 54.23 54.24 54.24 54.25 54.25 54.26 54.26 54.27 54.27 54.27 54.28 54.28 54.28 54.28 54.28 54.28 54.28 54.28 54.28 54.28 54.27 54.27 54.27 54.27 54.26 54.26 54.25 54.25 54.24 54.23 54.23 54.22 54.21 54.20 54.19 54.18 54.17 54.16 54.15 54.14 54.13 54.12 54.11 54.09 54.08 54.07 54.05 54.04 54.02 54.01 53.99 53.98 53.96 53.95 53.93 53.91 53.90 53.88 53.86 53.85 53.83 53.81 53.79 53.78 53.76 53.74 53.72 53.70 53.69 53.67 53.65 53.63 53.61 53.60 53.58 53.56 53.54 53.52 53.51 53.49 53.47 53.45 53.44 53.42 53.40 53.39 53.37 53.35 53.34 53.32 53.31 53.29 53.28 53.26 53.25 53.23 53.22 53.21 53.19 53.18 53.17 53.16 53.15 53.14 53.13 53.12 53.11 53.10 53.09 53.08 53.07 53.07 53.06 53.05 53.05 53.04 53.04 53.03 53.03 53.03 53.02 53.02 53.02 53.02 53.02 53.02 53.02 53.02 53.02 53.02 53.02 53.03 53.03 53.03 53.04 53.04 53.05 53.05 53.06 53.06 53.07 53.08 53.08 53.09 53.10 53.11 53.12 53.13 53.14 53.15 53.16 53.17 53.18 53.19 53.20 53.21 53.22 53.23 53.25 53.26 53.27 53.28 53.30 53.31 53.32 53.33 53.35 53.36 53.37 53.39 53.40 53.41 53.43 53.44 53.45 53.47 53.48 53.49 53.50 53.52 53.53 53.54 53.55 53.57 53.58 53.59 53.60 53.61 53.62 53.63 53.64 53.65 53.66 53.67 53.68 53.69 53.70 53.71 53.72 53.72 53.73 53.74 53.74 53.75 53.75 53.76 53.76 53.77 53.77 53.77 53.78 53.78 53.78 53.78 53.78 53.78 53.78 53.78 53.78 53.78 53.77 53.77 53.77 53.77 53.76 53.76 53.75 53.75 53.74 53.73 53.73 53.72 53.71 53.70 53.69 53.68 53.67 53.66 53.65 53.64 53.63 53.62 53.61 53.59 53.58 53.57 53.55 53.54 53.52 53.51 53.49 53.48 53.46 53.45 53.43 53.41 53.40 53.38 53.36 53.35 53.33 53.31 53.29 53.28 53.26 53.24 53.22 53.20 53.19 53.17 53.15 53.13 53.11 53.10 53.08 53.06 53.04 53.02 53.01 52.99 52.97 52.95 52.94 52.92 52.90 52.89 52.87 52.85 52.84 52.82 52.81 52.79 52.78 52.76 52.75 52.73 52.72 52.71 52.69 52.68 52.67 52.66 52.65 52.64 52.63 52.62 52.61 52.60 52.59 52.58 52.57 52.57 52.56 52.55 52.55 52.54 52.54 52.53 52.53 52.53 52.52 52.52 52.52 52.52 52.52 52.52 52.52 52.52 52.52 52.52 52.52 52.53 52.53 52.53 52.54 52.54 52.55 52.55 52.56 52.56 52.57 52.58 52.58 52.59 52.60 52.61 52.62 52.63 52.64 52.65 52.66 52.67 52.68 52.69 52.70 52.71 52.72 52.73 52.75 52.76 52.77 52.78 52.80 52.81 52.82 52.83 52.85 52.86 52.87 52.89
54.45 54.46 54.48 54.49 54.50 54.52 54.53 54.54 54.55 54.57 54.58 54.59 54.60 54.62 54.63 54.64 54.65 54.66 54.67 54.68 54.69 54.70 54.71 54.72 54.73 54.74 54.75 54.76 54.77 54.77 54.78 54.79 54.79 54.80 54.80 54.81 54.81 54.82 54.82 54.82 54.83 54.83 54.83 54.83 54.83 54.83 54.83 54.83 54.83 54.83 54.83 54.82 54.82 54.82 54.81 54.81 54.80 54.80 54.79 54.78 54.78 54.77 54.76 54.75 54.74 54.73 54.72 54.71 54.70 54.69 54.68 54.67 54.66 54.64 54.63 54.62 54.60 54.59 54.57 54.56 54.54 54.53 54.51 54.50 54.48 54.46 54.45 54.43 54.41 54.40 54.38 54.36 54.34 54.33 54.31 54.29 54.27 54.25 54.24 54.22 54.20 54.18 54.16 54.15 54.13 54.11 54.09 54.07 54.06 54.04 54.02 54.00 53.99 53.97 53.95 53.94 53.92 53.90 53.89 53.87 53.86 53.84 53.83 53.81 53.80 53.78 53.77 53.76 53.74 53.73 53.72 53.71 53.70 53.69 53.68 53.67 53.66 53.65 53.64 53.63 53.62 53.62 53.61 53.60 53.60 53.59 53.59 53.58 53.58 53.58 53.58 53.57 53.57 53.57 53.57 53.57 53.57 53.57 53.57 53.57 53.57 53.58 53.58 53.58 53.59 53.59 53.60 53.60 53.61 53.61 53.62 53.63 53.63 53.64 53.65 53.66 53.67 53.68 53.69 53.70 53.71 53.72 53.73 53.74 53.75 53.76 53.77 53.78 53.80 53.81 53.82 53.83 53.85 53.86 53.87 53.88 53.90 53.91 53.92 53.94 53.95 53.96 53.98 53.99 54.00 54.02 54.03 54.04 54.05 54.07 54.08 54.09 54.10 54.12 54.13 54.14 54.15 54.16 54.17 54.18 54.19 54.20 54.21 54.22 54.23 54.24 54.25 54.26 54.27 54.27 54.28 54.29 54.29 54.30 54.30 54.31 54.31 54.32 54.32 54.32 54.33 54.33 54.33 54.33 54.33 54.33 54.33 54.33 54.33 54.33 54.33 54.32 54.32 54.32 54.31 54.31 54.30 54.30 54.29 54.28 54.28 54.27 54.26 54.25 54.24 54.23 54.22 54.21 54.20 54.19 54.18 54.17 54.16 54.14 54.13 54.12 54.10 54.09 54.07 54.06 54.04 54.03 54.01 54.00 53.98 53.96 53.95 53.93 53.91 53.90 53.88 53.86 53.84 53.83 53.81 53.79 53.77 53.75 53.74 53.72 53.70 53.68 53.66 53.65 53.63 53.61 53.59 53.57 53.56 53.54 53.52 53.50 53.49 53.47 53.45 53.44 53.42 53.40 53.39 53.37 53.36 53.34 53.33 53.31 53.30 53.28 53.27 53.26 53.24 53.23 53.22 53.21 53.20 53.19 53.18 53.17 53.16 53.15 53.14 53.13 53.12 53.12 53.11 53.10 53.10 53.09 53.09 53.08 53.08 53.08 53.08 53.07 53.07 53.07 53.07 53.07 53.07 53.07 53.07 53.07 53.07 53.08 53.08 53.08 53.09 53.09 53.10 53.10 53.11 53.11 53.12 53.13 53.13 53.14 53.15 53.16 53.17 53.18 53.19 53.20 53.21 53.22 53.23 53.24 53.25 53.26 53.27 53.28 53.30 53.31 53.32 53.33 53.35 53.36 53.37 53.38 53.40 53.41 53.42 53.44 53.45 53.46 53.48 53.49 53.50 53.52 53.53 53.54 53.55 53.57 53.58 53.59 53.60 53.62 53.63 53.64 53.65 53.66 53.67 53.68 53.69 53.70 53.71 53.72 53.73 53.74 53.75 53.76 53.77 53.77 53.78 53.79 53.79 53.80 53.80 53.81 53.81 53.82 53.82 53.82 53.83 53.83 53.83 53.83 53.83 53.83 53.83 53.83 53.83 53.83 53.83 53.82 53.82 53.82 53.81 53.81 53.80 53.80 53.79 53.78 53.78 53.77 53.76 53.75 53.74 53.73 53.72 53.71 53.70 53.69 53.68 53.67 53.66 53.64 53.63 53.62 53.60 53.59 53.57 53.56 53.54 53.53 53.51 53.50 53.48 53.46 53.45 53.43 53.41 53.40 53.38 53.36 53.34 53.33 53.31 53.29 53.27 53.25 53.24 53.22 53.20 53.18 53.16 53.15 53.13 53.11 53.09 53.07 53.06 53.04 53.02 53.00 52.99 52.97 52.95 52.94 52.92 52.90 52.89 52.87 52.86 52.84 52.83 52.81 52.80 52.78 52.77 52.76 52.74 52.73 52.72 52.71 52.70 52.69 52.68 52.67 52.66 52.65 52.64 52.63 52.62 52.62 52.61 52.60 52.60 52.59 52.59 52.58 52.58 52.58 52.58 52.57 52.57 52.57 52.57 52.57 52.57 52.57 52.57 52.57 52.57 52.58 52.58 52.58 52.59 52.59 52.60 52.60 52.61 52.61 52.62 52.63 52.63 52.64 52.65 52.66 52.67 52.68 52.69 52.70 52.71 52.72 52.73 52.74 52.75 52.76 52.77 52.78 52.80 52.81 52.82 52.83 52.85 52.86 52.87 52.88 52.90 52.91 52.92 52.94
54.50 54.51 54.53 54.54 54.55 54.57 54.58 54.59 54.60 54.62 54.63 54.64 54.65 54.67 54.68 54.69 54.70 54.71 54.72 54.73 54.74 54.75 54.76 54.77 54.78 54.79 54.80 54.81 54.82 54.82 54.83 54.84 54.84 54.85 54.85 54.86 54.86 54.87 54.87 54.87 54.88 54.88 54.88 54.88 54.88 54.88 54.88 54.88 54.88 54.88 54.88 54.87 54.87 54.87 54.86 54.86 54.85 54.85 54.84 54.83 54.83 54.82 54.81 54.80 54.79 54.78 54.77 54.76 54.75 54.74 54.73 54.72 54.71 54.69 54.68 54.67 54.65 54.64 54.62 54.61 54.59 54.58 54.56 54.55 54.53 54.51 54.50 54.48 54.46 54.45 54.43 54.41 54.39 54.38 54.36 54.34 54.32 54.30 54.29 54.27 54.25 54.23 54.21 54.20 54.18 54.16 54.14 54.12 54.11 54.09 54.07 54.05 54.04 54.02 54.00 53.99 53.97 53.95 53.94 53.92 53.91 53.89 53.88 53.86 53.85 53.83 53.82 53.81 53.79 53.78 53.77 53.76 53.75 53.74 53.73 53.72 53.71 53.70 53.69 53.68 53.67 53.67 53.66 53.65 53.65 53.64 53.64 53.63 53.63 53.63 53.62 53.62 53.62 53.62 53.62 53.62 53.62 53.62 53.62 53.62 53.62 53.63 53.63 53.63 53.64 53.64 53.65 53.65 53.66 53.66 53.67 53.68 53.68 53.69 53.70 53.71 53.72 53.73 53.74 53.75 53.76 53.77 53.78 53.79 53.80 53.81 53.82 53.83 53.85 53.86 53.87 53.88 53.90 53.91 53.92 53.93 53.95 53.96 53.97 53.99 54.00 54.01 54.03 54.04 54.05 54.07 54.08 54.09 54.10 54.12 54.13 54.14 54.15 54.17 54.18 54.19 54.20 54.21 54.22 54.23 54.24 54.25 54.26 54.27 54.28 54.29 54.30 54.31 54.32 54.32 54.33 54.34 54.34 54.35 54.35 54.36 54.36 54.37 54.37 54.37 54.38 54.38 54.38 54.38 54.38 54.38 54.38 54.38 54.38 54.38 54.38 54.37 54.37 54.37 54.36 54.36 54.35 54.35 54.34 54.33 54.33 54.32 54.31 54.30 54.29 54.28 54.27 54.26 54.25 54.24 54.23 54.22 54.21 54.19 54.18 54.17 54.15 54.14 54.12 54.11 54.09 54.08 54.06 54.05 54.03 54.01 54.00 53.98 53.96 53.95 53.93 53.91 53.89 53.88 53.86 53.84 53.82 53.80 53.79 53.77 53.75 53.73 53.71 53.70 53.68 53.66 53.64 53.62 53.61 53.59 53.57 53.55 53.54 53.52 53.50 53.49 53.47 53.45 53.44 53.42 53.41 53.39 53.38 53.36 53.35 53.33 53.32 53.31 53.29 53.28 53.27 53.26 53.25 53.24 53.23 53.22 53.21 53.20 53.19 53.18 53.17 53.17 53.16 53.15 53.15 53.14 53.14 53.13 53.13 53.13 53.12 53.12 53.12 53.12 53.12 53.12 53.12 53.12 53.12 53.12 53.12 53.13 53.13 53.13 53.14 53.14 53.15 53.15 53.16 53.16 53.17 53.18 53.18 53.19 53.20 53.21 53.22 53.23 53.24 53.25 53.26 53.27 53.28 53.29 53.30 53.31 53.32 53.33 53.35 53.36 53.37 53.38 53.40 53.41 53.42 53.43 53.45 53.46 53.47 53.49 53.50 53.51 53.53 53.54 53.55 53.57 53.58 53.59 53.60 53.62 53.63 53.64 53.65 53.67 53.68 53.69 53.70 53.71 53.72 53.73 53.74 53.75 53.76 53.77 53.78 53.79 53.80 53.81 53.82 53.82 53.83 53.84 53.84 53.85 53.85 53.86 53.86 53.87 53.87 53.87 53.88 53.88 53.88 53.88 53.88 53.88 53.88 53.88 53.88 53.88 53.88 53.87 53.87 53.87 53.86 53.86 53.85 53.85 53.84 53.83 53.83 53.82 53.81 53.80 53.79 53.78 53.77 53.76 53.75 53.74 53.73 53.72 53.71 53.69 53.68 53.67 53.65 53.64 53.62 53.61 53.59 53.58 53.56 53.55 53.53 53.51 53.50 53.48 53.46 53.45 53.43 53.41 53.39 53.38 53.36 53.34 53.32 53.30 53.29 53.27 53.25 53.23 53.21 53.20 53.18 53.16 53.14 53.12 53.11 53.09 53.07 53.05 53.04 53.02 53.00 52.99 52.97 52.95 52.94 52.92 52.91 52.89 52.88 52.86 52.85 52.83 52.82 52.81 52.79 52.78 52.77 52.76 52.75 52.74 52.73 52.72 52.71 52.70 52.69 52.68 52.67 52.67 52.66 52.65 52.65 52.64 52.64 52.63 52.63 52.63 52.62 52.62 52.62 52.62 52.62 52.62 52.62 52.62 52.62 52.62 52.62 52.63 52.63 52.63 52.64 52.64 52.65 52.65 52.66 52.66 52.67 52.68 52.68 52.69 52.70 52.71 52.72 52.73 52.74 52.75 52.76 52.77 52.78 52.79 52.80 52.81 52.82 52.83 52.85 52.86 52.87 52.88 52.90 52.91 52.92 52.93 52.95 52.96 52.97 52.99
