ncols         200
nrows         200
xllcorner     0.0
yllcorner     0.0
cellsize      5.0
NODATA_value  -9999
100.50 100.50 100.50 100.50 100.51 100.51 100.51 100.52 100.52 100.52 100.52 100.53 100.53 100.53 100.53 100.53 100.54 100.54 100.54 100.55 100.55 100.55 100.55 100.56 100.56 100.56 100.56 100.56 100.57 100.57 100.57 100.58 100.58 100.58 100.58 100.58 100.59 100.59 100.59 100.59 100.60 100.60 100.60 100.61 100.61 100.61 100.61 100.61 100.62 100.62 100.62 100.62 100.63 100.63 100.63 100.64 100.64 100.64 100.64 100.64 100.65 100.65 100.65 100.66 100.66 100.66 100.66 100.67 100.67 100.67 100.67 100.67 100.68 100.68 100.68 100.69 100.69 100.69 100.69 100.69 100.70 100.70 100.70 100.70 100.71 100.71 100.71 100.72 100.72 100.72 100.72 100.72 100.73 100.73 100.73 100.73 100.74 100.74 100.74 100.75 100.75 100.75 100.75 100.75 100.76 100.76 100.76 100.77 100.77 100.77 100.77 100.78 100.78 100.78 100.78 100.78 100.79 100.79 100.79 100.80 100.80 100.80 100.80 100.81 100.81 100.81 100.81 100.81 100.82 100.82 100.82 100.83 100.83 100.83 100.83 100.83 100.84 100.84 100.84 100.84 100.85 100.85 100.85 100.86 100.86 100.86 100.86 100.86 100.87 100.87 100.87 100.88 100.88 100.88 100.88 100.89 100.89 100.89 100.89 100.89 100.90 100.90 100.90 100.91 100.91 100.91 100.91 100.92 100.92 100.92 100.92 100.92 100.93 100.93 100.93 100.94 100.94 100.94 100.94 100.94 100.95 100.95 100.95 100.95 100.96 100.96 100.96 100.97 100.97 100.97 100.97 100.97 100.98 100.98 100.98 100.98 100.99 100.99 100.99 101.00
100.50 100.50 100.50 100.50 100.50 100.51 100.51 100.51 100.52 100.52 100.52 100.52 100.53 100.53 100.53 100.53 100.53 100.54 100.54 100.54 100.55 100.55 100.55 100.55 100.56 100.56 100.56 100.56 100.56 100.57 100.57 100.57 100.58 100.58 100.58 100.58 100.58 100.59 100.59 100.59 100.59 100.60 100.60 100.60 100.61 100.61 100.61 100.61 100.61 100.62 100.62 100.62 100.62 100.63 100.63 100.63 100.64 100.64 100.64 100.64 100.64 100.65 100.65 100.65 100.66 100.66 100.66 100.66 100.67 100.67 100.67 100.67 100.67 100.68 100.68 100.68 100.69 100.69 100.69 100.69 100.69 100.70 100.70 100.70 100.70 100.71 100.71 100.71 100.72 100.72 100.72 100.72 100.72 100.73 100.73 100.73 100.73 100.74 100.74 100.74 100.75 100.75 100.75 100.75 100.75 100.76 100.76 100.76 100.77 100.77 100.77 100.77 100.78 100.78 100.78 100.78 100.78 100.79 100.79 100.79 100.80 100.80 100.80 100.80 100.81 100.81 100.81 100.81 100.81 100.82 100.82 100.82 100.83 100.83 100.83 100.83 100.83 100.84 100.84 100.84 100.84 100.85 100.85 100.85 100.86 100.86 100.86 100.86 100.86 100.87 100.87 100.87 100.88 100.88 100.88 100.88 100.89 100.89 100.89 100.89 100.89 100.90 100.90 100.90 100.91 100.91 100.91 100.91 100.92 100.92 100.92 100.92 100.92 100.93 100.93 100.93 100.94 100.94 100.94 100.94 100.94 100.95 100.95 100.95 100.95 100.96 100.96 100.96 100.97 100.97 100.97 100.97 100.97 100.98 100.98 100.98 100.98 100.99 100.99 100.99
100.49 100.50 100.50 100.50 100.50 100.50 100.51 100.51 100.51 100.52 100.52 100.52 100.52 100.53 100.53 100.53 100.53 100.53 100.54 100.54 100.54 100.55 100.55 100.55 100.55 100.56 100.56 100.56 100.56 100.56 100.57 100.57 100.57 100.58 100.58 100.58 100.58 100.58 100.59 100.59 100.59 100.59 100.60 100.60 100.60 100.61 100.61 100.61 100.61 100.61 100.62 100.62 100.62 100.62 100.63 100.63 100.63 100.64 100.64 100.64 100.64 100.64 100.65 100.65 100.65 100.66 100.66 100.66 100.66 100.67 100.67 100.67 100.67 100.67 100.68 100.68 100.68 100.69 100.69 100.69 100.69 100.69 100.70 100.70 100.70 100.70 100.71 100.71 100.71 100.72 100.72 100.72 100.72 100.72 100.73 100.73 100.73 100.73 100.74 100.74 100.74 100.75 100.75 100.75 100.75 100.75 100.76 100.76 100.76 100.77 100.77 100.77 100.77 100.78 100.78 100.78 100.78 100.78 100.79 100.79 100.79 100.80 100.80 100.80 100.80 100.81 100.81 100.81 100.81 100.81 100.82 100.82 100.82 100.83 100.83 100.83 100.83 100.83 100.84 100.84 100.84 100.84 100.85 100.85 100.85 100.86 100.86 100.86 100.86 100.86 100.87 100.87 100.87 100.88 100.88 100.88 100.88 100.89 100.89 100.89 100.89 100.89 100.90 100.90 100.90 100.91 100.91 100.91 100.91 100.92 100.92 100.92 100.92 100.92 100.93 100.93 100.93 100.94 100.94 100.94 100.94 100.94 100.95 100.95 100.95 100.95 100.96 100.96 100.96 100.97 100.97 100.97 100.97 100.97 100.98 100.98 100.98 100.98 100.99 100.99
100.49 100.49 100.50 100.50 100.50 100.50 100.50 100.51 100.51 100.51 100.52 100.52 100.52 100.52 100.53 100.53 100.53 100.53 100.53 100.54 100.54 100.54 100.55 100.55 100.55 100.55 100.56 100.56 100.56 100.56 100.56 100.57 100.57 100.57 100.58 100.58 100.58 100.58 100.58 100.59 100.59 100.59 100.59 100.60 100.60 100.60 100.61 100.61 100.61 100.61 100.61 100.62 100.62 100.62 100.62 100.63 100.63 100.63 100.64 100.64 100.64 100.64 100.64 100.65 100.65 100.65 100.66 100.66 100.66 100.66 100.67 100.67 100.67 100.67 100.67 100.68 100.68 100.68 100.69 100.69 100.69 100.69 100.69 100.70 100.70 100.70 100.70 100.71 100.71 100.71 100.72 100.72 100.72 100.72 100.72 100.73 100.73 100.73 100.73 100.74 100.74 100.74 100.75 100.75 100.75 100.75 100.75 100.76 100.76 100.76 100.77 100.77 100.77 100.77 100.78 100.78 100.78 100.78 100.78 100.79 100.79 100.79 100.80 100.80 100.80 100.80 100.81 100.81 100.81 100.81 100.81 100.82 100.82 100.82 100.83 100.83 100.83 100.83 100.83 100.84 100.84 100.84 100.84 100.85 100.85 100.85 100.86 100.86 100.86 100.86 100.86 100.87 100.87 100.87 100.88 100.88 100.88 100.88 100.89 100.89 100.89 100.89 100.89 100.90 100.90 100.90 100.91 100.91 100.91 100.91 100.92 100.92 100.92 100.92 100.92 100.93 100.93 100.93 100.94 100.94 100.94 100.94 100.94 100.95 100.95 100.95 100.95 100.96 100.96 100.96 100.97 100.97 100.97 100.97 100.97 100.98 100.98 100.98 100.98 100.99
100.49 100.49 100.49 100.50 100.50 100.50 100.50 100.50 100.51 100.51 100.51 100.52 100.52 100.52 100.52 100.53 100.53 100.53 100.53 100.53 100.54 100.54 100.54 100.55 100.55 100.55 100.55 100.56 100.56 100.56 100.56 100.56 100.57 100.57 100.57 100.58 100.58 100.58 100.58 100.58 100.59 100.59 100.59 100.59 100.60 100.60 100.60 100.61 100.61 100.61 100.61 100.61 100.62 100.62 100.62 100.62 100.63 100.63 100.63 100.64 100.64 100.64 100.64 100.64 100.65 100.65 100.65 100.66 100.66 100.66 100.66 100.67 100.67 100.67 100.67 100.67 100.68 100.68 100.68 100.69 100.69 100.69 100.69 100.69 100.70 100.70 100.70 100.70 100.71 100.71 100.71 100.72 100.72 100.72 100.72 100.72 100.73 100.73 100.73 100.73 100.74 100.74 100.74 100.75 100.75 100.75 100.75 100.75 100.76 100.76 100.76 100.77 100.77 100.77 100.77 100.78 100.78 100.78 100.78 100.78 100.79 100.79 100.79 100.80 100.80 100.80 100.80 100.81 100.81 100.81 100.81 100.81 100.82 100.82 100.82 100.83 100.83 100.83 100.83 100.83 100.84 100.84 100.84 100.84 100.85 100.85 100.85 100.86 100.86 100.86 100.86 100.86 100.87 100.87 100.87 100.88 100.88 100.88 100.88 100.89 100.89 100.89 100.89 100.89 100.90 100.90 100.90 100.91 100.91 100.91 100.91 100.92 100.92 100.92 100.92 100.92 100.93 100.93 100.93 100.94 100.94 100.94 100.94 100.94 100.95 100.95 100.95 100.95 100.96 100.96 100.96 100.97 100.97 100.97 100.97 100.97 100.98 100.98 100.98 100.98
100.48 100.49 100.49 100.49 100.50 100.50 100.50 100.50 100.50 100.51 100.51 100.51 100.52 100.52 100.52 100.52 100.53 100.53 100.53 100.53 100.53 100.54 100.54 100.54 100.55 100.55 100.55 100.55 100.56 100.56 100.56 100.56 100.56 100.57 100.57 100.57 100.58 100.58 100.58 100.58 100.58 100.59 100.59 100.59 100.59 100.60 100.60 100.60 100.61 100.61 100.61 100.61 100.61 100.62 100.62 100.62 100.62 100.63 100.63 100.63 100.64 100.64 100.64 100.64 100.64 100.65 100.65 100.65 100.66 100.66 100.66 100.66 100.67 100.67 100.67 100.67 100.67 100.68 100.68 100.68 100.69 100.69 100.69 100.69 100.69 100.70 100.70 100.70 100.70 100.71 100.71 100.71 100.72 100.72 100.72 100.72 100.72 100.73 100.73 100.73 100.73 100.74 100.74 100.74 100.75 100.75 100.75 100.75 100.75 100.76 100.76 100.76 100.77 100.77 100.77 100.77 100.78 100.78 100.78 100.78 100.78 100.79 100.79 100.79 100.80 100.80 100.80 100.80 100.81 100.81 100.81 100.81 100.81 100.82 100.82 100.82 100.83 100.83 100.83 100.83 100.83 100.84 100.84 100.84 100.84 100.85 100.85 100.85 100.86 100.86 100.86 100.86 100.86 100.87 100.87 100.87 100.88 100.88 100.88 100.88 100.89 100.89 100.89 100.89 100.89 100.90 100.90 100.90 100.91 100.91 100.91 100.91 100.92 100.92 100.92 100.92 100.92 100.93 100.93 100.93 100.94 100.94 100.94 100.94 100.94 100.95 100.95 100.95 100.95 100.96 100.96 100.96 100.97 100.97 100.97 100.97 100.97 100.98 100.98 100.98
100.48 100.48 100.49 100.49 100.49 100.50 100.50 100.50 100.50 100.50 100.51 100.51 100.51 100.52 100.52 100.52 100.52 100.53 100.53 100.53 100.53 100.53 100.54 100.54 100.54 100.55 100.55 100.55 100.55 100.56 100.56 100.56 100.56 100.56 100.57 100.57 100.57 100.58 100.58 100.58 100.58 100.58 100.59 100.59 100.59 100.59 100.60 100.60 100.60 100.61 100.61 100.61 100.61 100.61 100.62 100.62 100.62 100.62 100.63 100.63 100.63 100.64 100.64 100.64 100.64 100.64 100.65 100.65 100.65 100.66 100.66 100.66 100.66 100.67 100.67 100.67 100.67 100.67 100.68 100.68 100.68 100.69 100.69 100.69 100.69 100.69 100.70 100.70 100.70 100.70 100.71 100.71 100.71 100.72 100.72 100.72 100.72 100.72 100.73 100.73 100.73 100.73 100.74 100.74 100.74 100.75 100.75 100.75 100.75 100.75 100.76 100.76 100.76 100.77 100.77 100.77 100.77 100.78 100.78 100.78 100.78 100.78 100.79 100.79 100.79 100.80 100.80 100.80 100.80 100.81 100.81 100.81 100.81 100.81 100.82 100.82 100.82 100.83 100.83 100.83 100.83 100.83 100.84 100.84 100.84 100.84 100.85 100.85 100.85 100.86 100.86 100.86 100.86 100.86 100.87 100.87 100.87 100.88 100.88 100.88 100.88 100.89 100.89 100.89 100.89 100.89 100.90 100.90 100.90 100.91 100.91 100.91 100.91 100.92 100.92 100.92 100.92 100.92 100.93 100.93 100.93 100.94 100.94 100.94 100.94 100.94 100.95 100.95 100.95 100.95 100.96 100.96 100.96 100.97 100.97 100.97 100.97 100.97 100.98 100.98
100.48 100.48 100.48 100.49 100.49 100.49 100.50 100.50 100.50 100.50 100.50 100.51 100.51 100.51 100.52 100.52 100.52 100.52 100.53 100.53 100.53 100.53 100.53 100.54 100.54 100.54 100.55 100.55 100.55 100.55 100.56 100.56 100.56 100.56 100.56 100.57 100.57 100.57 100.58 100.58 100.58 100.58 100.58 100.59 100.59 100.59 100.59 100.60 100.60 100.60 100.61 100.61 100.61 100.61 100.61 100.62 100.62 100.62 100.62 100.63 100.63 100.63 100.64 100.64 100.64 100.64 100.64 100.65 100.65 100.65 100.66 100.66 100.66 100.66 100.67 100.67 100.67 100.67 100.67 100.68 100.68 100.68 100.69 100.69 100.69 100.69 100.69 100.70 100.70 100.70 100.70 100.71 100.71 100.71 100.72 100.72 100.72 100.72 100.72 100.73 100.73 100.73 100.73 100.74 100.74 100.74 100.75 100.75 100.75 100.75 100.75 100.76 100.76 100.76 100.77 100.77 100.77 100.77 100.78 100.78 100.78 100.78 100.78 100.79 100.79 100.79 100.80 100.80 100.80 100.80 100.81 100.81 100.81 100.81 100.81 100.82 100.82 100.82 100.83 100.83 100.83 100.83 100.83 100.84 100.84 100.84 100.84 100.85 100.85 100.85 100.86 100.86 100.86 100.86 100.86 100.87 100.87 100.87 100.88 100.88 100.88 100.88 100.89 100.89 100.89 100.89 100.89 100.90 100.90 100.90 100.91 100.91 100.91 100.91 100.92 100.92 100.92 100.92 100.92 100.93 100.93 100.93 100.94 100.94 100.94 100.94 100.94 100.95 100.95 100.95 100.95 100.96 100.96 100.96 100.97 100.97 100.97 100.97 100.97 100.98
100.48 100.48 100.48 100.48 100.49 100.49 100.49 100.50 100.50 100.50 100.50 100.50 100.51 100.51 100.51 100.52 100.52 100.52 100.52 100.53 100.53 100.53 100.53 100.53 100.54 100.54 100.54 100.55 100.55 100.55 100.55 100.56 100.56 100.56 100.56 100.56 100.57 100.57 100.57 100.58 100.58 100.58 100.58 100.58 100.59 100.59 100.59 100.59 100.60 100.60 100.60 100.61 100.61 100.61 100.61 100.61 100.62 100.62 100.62 100.62 100.63 100.63 100.63 100.64 100.64 100.64 100.64 100.64 100.65 100.65 100.65 100.66 100.66 100.66 100.66 100.67 100.67 100.67 100.67 100.67 100.68 100.68 100.68 100.69 100.69 100.69 100.69 100.69 100.70 100.70 100.70 100.70 100.71 100.71 100.71 100.72 100.72 100.72 100.72 100.72 100.73 100.73 100.73 100.73 100.74 100.74 100.74 100.75 100.75 100.75 100.75 100.75 100.76 100.76 100.76 100.77 100.77 100.77 100.77 100.78 100.78 100.78 100.78 100.78 100.79 100.79 100.79 100.80 100.80 100.80 100.80 100.81 100.81 100.81 100.81 100.81 100.82 100.82 100.82 100.83 100.83 100.83 100.83 100.83 100.84 100.84 100.84 100.84 100.85 100.85 100.85 100.86 100.86 100.86 100.86 100.86 100.87 100.87 100.87 100.88 100.88 100.88 100.88 100.89 100.89 100.89 100.89 100.89 100.90 100.90 100.90 100.91 100.91 100.91 100.91 100.92 100.92 100.92 100.92 100.92 100.93 100.93 100.93 100.94 100.94 100.94 100.94 100.94 100.95 100.95 100.95 100.95 100.96 100.96 100.96 100.97 100.97 100.97 100.97 100.97
100.47 100.48 100.48 100.48 100.48 100.49 100.49 100.49 100.50 100.50 110.50 110.50 110.50 110.51 110.51 110.51 110.52 110.52 110.52 110.52 110.53 110.53 110.53 110.53 110.53 110.54 110.54 110.54 110.55 110.55 110.55 100.55 100.56 100.56 100.56 100.56 100.56 100.57 100.57 100.57 100.58 100.58 100.58 100.58 100.58 100.59 100.59 100.59 100.59 100.60 110.60 110.60 110.61 110.61 110.61 110.61 110.61 110.62 110.62 110.62 110.62 110.63 110.63 110.63 110.64 110.64 110.64 110.64 110.64 110.65 110.65 100.65 100.66 100.66 100.66 100.66 100.67 100.67 100.67 100.67 100.67 100.68 100.68 100.68 100.69 100.69 100.69 100.69 100.69 100.70 110.70 110.70 110.70 110.71 110.71 110.71 110.72 110.72 110.72 110.72 110.72 110.73 110.73 110.73 110.73 110.74 110.74 110.74 110.75 110.75 110.75 100.75 100.75 100.76 100.76 100.76 100.77 100.77 100.77 100.77 100.78 100.78 100.78 100.78 100.78 100.79 100.79 100.79 100.80 100.80 110.80 110.80 110.81 110.81 110.81 110.81 110.81 110.82 110.82 110.82 110.83 110.83 110.83 110.83 110.83 110.84 110.84 110.84 110.84 110.85 110.85 100.85 100.86 100.86 100.86 100.86 100.86 100.87 100.87 100.87 100.88 100.88 100.88 100.88 100.89 100.89 100.89 100.89 100.89 100.90 110.90 110.90 110.91 110.91 110.91 110.91 110.92 110.92 110.92 110.92 110.92 110.93 110.93 110.93 110.94 110.94 110.94 110.94 110.94 110.95 110.95 100.95 100.95 100.96 100.96 100.96 100.97 100.97 100.97 100.97
100.47 100.47 100.48 100.48 100.48 100.48 100.49 100.49 100.49 100.50 110.50 110.50 110.50 110.50 110.51 110.51 110.51 110.52 110.52 110.52 110.52 110.53 110.53 110.53 110.53 110.53 110.54 110.54 110.54 110.55 110.55 100.55 100.55 100.56 100.56 100.56 100.56 100.56 100.57 100.57 100.57 100.58 100.58 100.58 100.58 100.58 100.59 100.59 100.59 100.59 110.60 110.60 110.60 110.61 110.61 110.61 110.61 110.61 110.62 110.62 110.62 110.62 110.63 110.63 110.63 110.64 110.64 110.64 110.64 110.64 110.65 100.65 100.65 100.66 100.66 100.66 100.66 100.67 100.67 100.67 100.67 100.67 100.68 100.68 100.68 100.69 100.69 100.69 100.69 100.69 110.70 110.70 110.70 110.70 110.71 110.71 110.71 110.72 110.72 110.72 110.72 110.72 110.73 110.73 110.73 110.73 110.74 110.74 110.74 110.75 110.75 100.75 100.75 100.75 100.76 100.76 100.76 100.77 100.77 100.77 100.77 100.78 100.78 100.78 100.78 100.78 100.79 100.79 100.79 100.80 110.80 110.80 110.80 110.81 110.81 110.81 110.81 110.81 110.82 110.82 110.82 110.83 110.83 110.83 110.83 110.83 110.84 110.84 110.84 110.84 110.85 100.85 100.85 100.86 100.86 100.86 100.86 100.86 100.87 100.87 100.87 100.88 100.88 100.88 100.88 100.89 100.89 100.89 100.89 100.89 110.90 110.90 110.90 110.91 110.91 110.91 110.91 110.92 110.92 110.92 110.92 110.92 110.93 110.93 110.93 110.94 110.94 110.94 110.94 110.94 110.95 100.95 100.95 100.95 100.96 100.96 100.96 100.97 100.97 100.97
100.47 100.47 100.47 100.48 100.48 100.48 100.48 100.49 100.49 100.49 110.50 110.50 110.50 110.50 110.50 110.51 110.51 110.51 110.52 110.52 110.52 110.52 110.53 110.53 110.53 110.53 110.53 110.54 110.54 110.54 110.55 100.55 100.55 100.55 100.56 100.56 100.56 100.56 100.56 100.57 100.57 100.57 100.58 100.58 100.58 100.58 100.58 100.59 100.59 100.59 110.59 110.60 110.60 110.60 110.61 110.61 110.61 110.61 110.61 110.62 110.62 110.62 110.62 110.63 110.63 110.63 110.64 110.64 110.64 110.64 110.64 100.65 100.65 100.65 100.66 100.66 100.66 100.66 100.67 100.67 100.67 100.67 100.67 100.68 100.68 100.68 100.69 100.69 100.69 100.69 110.69 110.70 110.70 110.70 110.70 110.71 110.71 110.71 110.72 110.72 110.72 110.72 110.72 110.73 110.73 110.73 110.73 110.74 110.74 110.74 110.75 100.75 100.75 100.75 100.75 100.76 100.76 100.76 100.77 100.77 100.77 100.77 100.78 100.78 100.78 100.78 100.78 100.79 100.79 100.79 110.80 110.80 110.80 110.80 110.81 110.81 110.81 110.81 110.81 110.82 110.82 110.82 110.83 110.83 110.83 110.83 110.83 110.84 110.84 110.84 110.84 100.85 100.85 100.85 100.86 100.86 100.86 100.86 100.86 100.87 100.87 100.87 100.88 100.88 100.88 100.88 100.89 100.89 100.89 100.89 110.89 110.90 110.90 110.90 110.91 110.91 110.91 110.91 110.92 110.92 110.92 110.92 110.92 110.93 110.93 110.93 110.94 110.94 110.94 110.94 110.94 100.95 100.95 100.95 100.95 100.96 100.96 100.96 100.97 100.97
100.47 100.47 100.47 100.47 100.48 100.48 100.48 100.48 100.49 100.49 110.49 110.50 110.50 110.50 110.50 110.50 110.51 110.51 110.51 110.52 110.52 110.52 110.52 110.53 110.53 110.53 110.53 110.53 110.54 110.54 110.54 100.55 100.55 100.55 100.55 100.56 100.56 100.56 100.56 100.56 100.57 100.57 100.57 100.58 100.58 100.58 100.58 100.58 100.59 100.59 110.59 110.59 110.60 110.60 110.60 110.61 110.61 110.61 110.61 110.61 110.62 110.62 110.62 110.62 110.63 110.63 110.63 110.64 110.64 110.64 110.64 100.64 100.65 100.65 100.65 100.66 100.66 100.66 100.66 100.67 100.67 100.67 100.67 100.67 100.68 100.68 100.68 100.69 100.69 100.69 110.69 110.69 110.70 110.70 110.70 110.70 110.71 110.71 110.71 110.72 110.72 110.72 110.72 110.72 110.73 110.73 110.73 110.73 110.74 110.74 110.74 100.75 100.75 100.75 100.75 100.75 100.76 100.76 100.76 100.77 100.77 100.77 100.77 100.78 100.78 100.78 100.78 100.78 100.79 100.79 110.79 110.80 110.80 110.80 110.80 110.81 110.81 110.81 110.81 110.81 110.82 110.82 110.82 110.83 110.83 110.83 110.83 110.83 110.84 110.84 110.84 100.84 100.85 100.85 100.85 100.86 100.86 100.86 100.86 100.86 100.87 100.87 100.87 100.88 100.88 100.88 100.88 100.89 100.89 100.89 110.89 110.89 110.90 110.90 110.90 110.91 110.91 110.91 110.91 110.92 110.92 110.92 110.92 110.92 110.93 110.93 110.93 110.94 110.94 110.94 110.94 100.94 100.95 100.95 100.95 100.95 100.96 100.96 100.96 100.97
100.47 100.47 100.47 100.47 100.47 100.48 100.48 100.48 100.48 100.49 110.49 110.49 110.50 110.50 110.50 110.50 110.50 110.51 110.51 110.51 110.52 110.52 110.52 110.52 110.53 110.53 110.53 110.53 110.53 110.54 110.54 100.54 100.55 100.55 100.55 100.55 100.56 100.56 100.56 100.56 100.56 100.57 100.57 100.57 100.58 100.58 100.58 100.58 100.58 100.59 110.59 110.59 110.59 110.60 110.60 110.60 110.61 110.61 110.61 110.61 110.61 110.62 110.62 110.62 110.62 110.63 110.63 110.63 110.64 110.64 110.64 100.64 100.64 100.65 100.65 100.65 100.66 100.66 100.66 100.66 100.67 100.67 100.67 100.67 100.67 100.68 100.68 100.68 100.69 100.69 110.69 110.69 110.69 110.70 110.70 110.70 110.70 110.71 110.71 110.71 110.72 110.72 110.72 110.72 110.72 110.73 110.73 110.73 110.73 110.74 110.74 100.74 100.75 100.75 100.75 100.75 100.75 100.76 100.76 100.76 100.77 100.77 100.77 100.77 100.78 100.78 100.78 100.78 100.78 100.79 110.79 110.79 110.80 110.80 110.80 110.80 110.81 110.81 110.81 110.81 110.81 110.82 110.82 110.82 110.83 110.83 110.83 110.83 110.83 110.84 110.84 100.84 100.84 100.85 100.85 100.85 100.86 100.86 100.86 100.86 100.86 100.87 100.87 100.87 100.88 100.88 100.88 100.88 100.89 100.89 110.89 110.89 110.89 110.90 110.90 110.90 110.91 110.91 110.91 110.91 110.92 110.92 110.92 110.92 110.92 110.93 110.93 110.93 110.94 110.94 110.94 100.94 100.94 100.95 100.95 100.95 100.95 100.96 100.96 100.96
100.46 100.47 100.47 100.47 100.47 100.47 100.48 100.48 100.48 100.48 110.49 110.49 110.49 110.50 110.50 110.50 110.50 110.50 110.51 110.51 110.51 110.52 110.52 110.52 110.52 110.53 110.53 110.53 110.53 110.53 110.54 100.54 100.54 100.55 100.55 100.55 100.55 100.56 100.56 100.56 100.56 100.56 100.57 100.57 100.57 100.58 100.58 100.58 100.58 100.58 110.59 110.59 110.59 110.59 110.60 110.60 110.60 110.61 110.61 110.61 110.61 110.61 110.62 110.62 110.62 110.62 110.63 110.63 110.63 110.64 110.64 100.64 100.64 100.64 100.65 100.65 100.65 100.66 100.66 100.66 100.66 100.67 100.67 100.67 100.67 100.67 100.68 100.68 100.68 100.69 110.69 110.69 110.69 110.69 110.70 110.70 110.70 110.70 110.71 110.71 110.71 110.72 110.72 110.72 110.72 110.72 110.73 110.73 110.73 110.73 110.74 100.74 100.74 100.75 100.75 100.75 100.75 100.75 100.76 100.76 100.76 100.77 100.77 100.77 100.77 100.78 100.78 100.78 100.78 100.78 110.79 110.79 110.79 110.80 110.80 110.80 110.80 110.81 110.81 110.81 110.81 110.81 110.82 110.82 110.82 110.83 110.83 110.83 110.83 110.83 110.84 100.84 100.84 100.84 100.85 100.85 100.85 100.86 100.86 100.86 100.86 100.86 100.87 100.87 100.87 100.88 100.88 100.88 100.88 100.89 110.89 110.89 110.89 110.89 110.90 110.90 110.90 110.91 110.91 110.91 110.91 110.92 110.92 110.92 110.92 110.92 110.93 110.93 110.93 110.94 110.94 100.94 100.94 100.94 100.95 100.95 100.95 100.95 100.96 100.96
100.46 100.46 100.47 100.47 100.47 100.47 100.47 100.48 100.48 100.48 110.48 110.49 110.49 110.49 110.50 110.50 110.50 110.50 110.50 110.51 110.51 110.51 110.52 110.52 110.52 110.52 110.53 110.53 110.53 110.53 110.53 100.54 100.54 100.54 100.55 100.55 100.55 100.55 100.56 100.56 100.56 100.56 100.56 100.57 100.57 100.57 100.58 100.58 100.58 100.58 110.58 110.59 110.59 110.59 110.59 110.60 110.60 110.60 110.61 110.61 110.61 110.61 110.61 110.62 110.62 110.62 110.62 110.63 110.63 110.63 110.64 100.64 100.64 100.64 100.64 100.65 100.65 100.65 100.66 100.66 100.66 100.66 100.67 100.67 100.67 100.67 100.67 100.68 100.68 100.68 110.69 110.69 110.69 110.69 110.69 110.70 110.70 110.70 110.70 110.71 110.71 110.71 110.72 110.72 110.72 110.72 110.72 110.73 110.73 110.73 110.73 100.74 100.74 100.74 100.75 100.75 100.75 100.75 100.75 100.76 100.76 100.76 100.77 100.77 100.77 100.77 100.78 100.78 100.78 100.78 110.78 110.79 110.79 110.79 110.80 110.80 110.80 110.80 110.81 110.81 110.81 110.81 110.81 110.82 110.82 110.82 110.83 110.83 110.83 110.83 110.83 100.84 100.84 100.84 100.84 100.85 100.85 100.85 100.86 100.86 100.86 100.86 100.86 100.87 100.87 100.87 100.88 100.88 100.88 100.88 110.89 110.89 110.89 110.89 110.89 110.90 110.90 110.90 110.91 110.91 110.91 110.91 110.92 110.92 110.92 110.92 110.92 110.93 110.93 110.93 110.94 100.94 100.94 100.94 100.94 100.95 100.95 100.95 100.95 100.96
100.46 100.46 100.46 100.47 100.47 100.47 100.47 100.47 100.48 100.48 110.48 110.48 110.49 110.49 110.49 110.50 110.50 110.50 110.50 110.50 110.51 110.51 110.51 110.52 110.52 110.52 110.52 110.53 110.53 110.53 110.53 100.53 100.54 100.54 100.54 100.55 100.55 100.55 100.55 100.56 100.56 100.56 100.56 100.56 100.57 100.57 100.57 100.58 100.58 100.58 110.58 110.58 110.59 110.59 110.59 110.59 110.60 110.60 110.60 110.61 110.61 110.61 110.61 110.61 110.62 110.62 110.62 110.62 110.63 110.63 110.63 100.64 100.64 100.64 100.64 100.64 100.65 100.65 100.65 100.66 100.66 100.66 100.66 100.67 100.67 100.67 100.67 100.67 100.68 100.68 110.68 110.69 110.69 110.69 110.69 110.69 110.70 110.70 110.70 110.70 110.71 110.71 110.71 110.72 110.72 110.72 110.72 110.72 110.73 110.73 110.73 100.73 100.74 100.74 100.74 100.75 100.75 100.75 100.75 100.75 100.76 100.76 100.76 100.77 100.77 100.77 100.77 100.78 100.78 100.78 110.78 110.78 110.79 110.79 110.79 110.80 110.80 110.80 110.80 110.81 110.81 110.81 110.81 110.81 110.82 110.82 110.82 110.83 110.83 110.83 110.83 100.83 100.84 100.84 100.84 100.84 100.85 100.85 100.85 100.86 100.86 100.86 100.86 100.86 100.87 100.87 100.87 100.88 100.88 100.88 110.88 110.89 110.89 110.89 110.89 110.89 110.90 110.90 110.90 110.91 110.91 110.91 110.91 110.92 110.92 110.92 110.92 110.92 110.93 110.93 110.93 100.94 100.94 100.94 100.94 100.94 100.95 100.95 100.95 100.95
100.45 100.46 100.46 100.46 100.47 100.47 100.47 100.47 100.47 100.48 110.48 110.48 110.48 110.49 110.49 110.49 110.50 110.50 110.50 110.50 110.50 110.51 110.51 110.51 110.52 110.52 110.52 110.52 110.53 110.53 110.53 100.53 100.53 100.54 100.54 100.54 100.55 100.55 100.55 100.55 100.56 100.56 100.56 100.56 100.56 100.57 100.57 100.57 100.58 100.58 110.58 110.58 110.58 110.59 110.59 110.59 110.59 110.60 110.60 110.60 110.61 110.61 110.61 110.61 110.61 110.62 110.62 110.62 110.62 110.63 110.63 100.63 100.64 100.64 100.64 100.64 100.64 100.65 100.65 100.65 100.66 100.66 100.66 100.66 100.67 100.67 100.67 100.67 100.67 100.68 110.68 110.68 110.69 110.69 110.69 110.69 110.69 110.70 110.70 110.70 110.70 110.71 110.71 110.71 110.72 110.72 110.72 110.72 110.72 110.73 110.73 100.73 100.73 100.74 100.74 100.74 100.75 100.75 100.75 100.75 100.75 100.76 100.76 100.76 100.77 100.77 100.77 100.77 100.78 100.78 110.78 110.78 110.78 110.79 110.79 110.79 110.80 110.80 110.80 110.80 110.81 110.81 110.81 110.81 110.81 110.82 110.82 110.82 110.83 110.83 110.83 100.83 100.83 100.84 100.84 100.84 100.84 100.85 100.85 100.85 100.86 100.86 100.86 100.86 100.86 100.87 100.87 100.87 100.88 100.88 110.88 110.88 110.89 110.89 110.89 110.89 110.89 110.90 110.90 110.90 110.91 110.91 110.91 110.91 110.92 110.92 110.92 110.92 110.92 110.93 110.93 100.93 100.94 100.94 100.94 100.94 100.94 100.95 100.95 100.95
100.45 100.45 100.46 100.46 100.46 100.47 100.47 100.47 100.47 100.47 110.48 110.48 110.48 110.48 110.49 110.49 110.49 110.50 110.50 110.50 110.50 110.50 110.51 110.51 110.51 110.52 110.52 110.52 110.52 110.53 110.53 100.53 100.53 100.53 100.54 100.54 100.54 100.55 100.55 100.55 100.55 100.56 100.56 100.56 100.56 100.56 100.57 100.57 100.57 100.58 110.58 110.58 110.58 110.58 110.59 110.59 110.59 110.59 110.60 110.60 110.60 110.61 110.61 110.61 110.61 110.61 110.62 110.62 110.62 110.62 110.63 100.63 100.63 100.64 100.64 100.64 100.64 100.64 100.65 100.65 100.65 100.66 100.66 100.66 100.66 100.67 100.67 100.67 100.67 100.67 110.68 110.68 110.68 110.69 110.69 110.69 110.69 110.69 110.70 110.70 110.70 110.70 110.71 110.71 110.71 110.72 110.72 110.72 110.72 110.72 110.73 100.73 100.73 100.73 100.74 100.74 100.74 100.75 100.75 100.75 100.75 100.75 100.76 100.76 100.76 100.77 100.77 100.77 100.77 100.78 110.78 110.78 110.78 110.78 110.79 110.79 110.79 110.80 110.80 110.80 110.80 110.81 110.81 110.81 110.81 110.81 110.82 110.82 110.82 110.83 110.83 100.83 100.83 100.83 100.84 100.84 100.84 100.84 100.85 100.85 100.85 100.86 100.86 100.86 100.86 100.86 100.87 100.87 100.87 100.88 110.88 110.88 110.88 110.89 110.89 110.89 110.89 110.89 110.90 110.90 110.90 110.91 110.91 110.91 110.91 110.92 110.92 110.92 110.92 110.92 110.93 100.93 100.93 100.94 100.94 100.94 100.94 100.94 100.95 100.95
100.45 100.45 100.45 100.46 100.46 100.46 100.47 100.47 100.47 100.47 110.47 110.48 110.48 110.48 110.48 110.49 110.49 110.49 110.50 110.50 110.50 110.50 110.50 110.51 110.51 110.51 110.52 110.52 110.52 110.52 110.53 100.53 100.53 100.53 100.53 100.54 100.54 100.54 100.55 100.55 100.55 100.55 100.56 100.56 100.56 100.56 100.56 100.57 100.57 100.57 110.58 110.58 110.58 110.58 110.58 110.59 110.59 110.59 110.59 110.60 110.60 110.60 110.61 110.61 110.61 110.61 110.61 110.62 110.62 110.62 110.62 100.63 100.63 100.63 100.64 100.64 100.64 100.64 100.64 100.65 100.65 100.65 100.66 100.66 100.66 100.66 100.67 100.67 100.67 100.67 110.67 110.68 110.68 110.68 110.69 110.69 110.69 110.69 110.69 110.70 110.70 110.70 110.70 110.71 110.71 110.71 110.72 110.72 110.72 110.72 110.72 100.73 100.73 100.73 100.73 100.74 100.74 100.74 100.75 100.75 100.75 100.75 100.75 100.76 100.76 100.76 100.77 100.77 100.77 100.77 110.78 110.78 110.78 110.78 110.78 110.79 110.79 110.79 110.80 110.80 110.80 110.80 110.81 110.81 110.81 110.81 110.81 110.82 110.82 110.82 110.83 100.83 100.83 100.83 100.83 100.84 100.84 100.84 100.84 100.85 100.85 100.85 100.86 100.86 100.86 100.86 100.86 100.87 100.87 100.87 110.88 110.88 110.88 110.88 110.89 110.89 110.89 110.89 110.89 110.90 110.90 110.90 110.91 110.91 110.91 110.91 110.92 110.92 110.92 110.92 110.92 100.93 100.93 100.93 100.94 100.94 100.94 100.94 100.94 100.95
100.45 100.45 100.45 100.45 100.46 100.46 100.46 100.47 100.47 100.47 110.47 110.47 110.48 110.48 110.48 110.48 110.49 110.49 110.49 110.50 110.50 110.50 110.50 110.50 110.51 110.51 110.51 110.52 110.52 110.52 110.52 100.53 100.53 100.53 100.53 100.53 100.54 100.54 100.54 100.55 100.55 100.55 100.55 100.56 100.56 100.56 100.56 100.56 100.57 100.57 110.57 110.58 110.58 110.58 110.58 110.58 110.59 110.59 110.59 110.59 110.60 110.60 110.60 110.61 110.61 110.61 110.61 110.61 110.62 110.62 110.62 100.62 100.63 100.63 100.63 100.64 100.64 100.64 100.64 100.64 100.65 100.65 100.65 100.66 100.66 100.66 100.66 100.67 100.67 100.67 110.67 110.67 110.68 110.68 110.68 110.69 110.69 110.69 110.69 110.69 110.70 110.70 110.70 110.70 110.71 110.71 110.71 110.72 110.72 110.72 110.72 100.72 100.73 100.73 100.73 100.73 100.74 100.74 100.74 100.75 100.75 100.75 100.75 100.75 100.76 100.76 100.76 100.77 100.77 100.77 110.77 110.78 110.78 110.78 110.78 110.78 110.79 110.79 110.79 110.80 110.80 110.80 110.80 110.81 110.81 110.81 110.81 110.81 110.82 110.82 110.82 100.83 100.83 100.83 100.83 100.83 100.84 100.84 100.84 100.84 100.85 100.85 100.85 100.86 100.86 100.86 100.86 100.86 100.87 100.87 110.87 110.88 110.88 110.88 110.88 110.89 110.89 110.89 110.89 110.89 110.90 110.90 110.90 110.91 110.91 110.91 110.91 110.92 110.92 110.92 110.92 100.92 100.93 100.93 100.93 100.94 100.94 100.94 100.94 100.94
100.44 100.45 100.45 100.45 100.45 100.46 100.46 100.46 100.47 100.47 110.47 110.47 110.47 110.48 110.48 110.48 110.48 110.49 110.49 110.49 110.50 110.50 110.50 110.50 110.50 110.51 110.51 110.51 110.52 110.52 110.52 100.52 100.53 100.53 100.53 100.53 100.53 100.54 100.54 100.54 100.55 100.55 100.55 100.55 100.56 100.56 100.56 100.56 100.56 100.57 110.57 110.57 110.58 110.58 110.58 110.58 110.58 110.59 110.59 110.59 110.59 110.60 110.60 110.60 110.61 110.61 110.61 110.61 110.61 110.62 110.62 100.62 100.62 100.63 100.63 100.63 100.64 100.64 100.64 100.64 100.64 100.65 100.65 100.65 100.66 100.66 100.66 100.66 100.67 100.67 110.67 110.67 110.67 110.68 110.68 110.68 110.69 110.69 110.69 110.69 110.69 110.70 110.70 110.70 110.70 110.71 110.71 110.71 110.72 110.72 110.72 100.72 100.72 100.73 100.73 100.73 100.73 100.74 100.74 100.74 100.75 100.75 100.75 100.75 100.75 100.76 100.76 100.76 100.77 100.77 110.77 110.77 110.78 110.78 110.78 110.78 110.78 110.79 110.79 110.79 110.80 110.80 110.80 110.80 110.81 110.81 110.81 110.81 110.81 110.82 110.82 100.82 100.83 100.83 100.83 100.83 100.83 100.84 100.84 100.84 100.84 100.85 100.85 100.85 100.86 100.86 100.86 100.86 100.86 100.87 110.87 110.87 110.88 110.88 110.88 110.88 110.89 110.89 110.89 110.89 110.89 110.90 110.90 110.90 110.91 110.91 110.91 110.91 110.92 110.92 110.92 100.92 100.92 100.93 100.93 100.93 100.94 100.94 100.94 100.94
100.44 100.44 100.45 100.45 100.45 100.45 100.46 100.46 100.46 100.47 110.47 110.47 110.47 110.47 110.48 110.48 110.48 110.48 110.49 110.49 110.49 110.50 110.50 110.50 110.50 110.50 110.51 110.51 110.51 110.52 110.52 100.52 100.52 100.53 100.53 100.53 100.53 100.53 100.54 100.54 100.54 100.55 100.55 100.55 100.55 100.56 100.56 100.56 100.56 100.56 110.57 110.57 110.57 110.58 110.58 110.58 110.58 110.58 110.59 110.59 110.59 110.59 110.60 110.60 110.60 110.61 110.61 110.61 110.61 110.61 110.62 100.62 100.62 100.62 100.63 100.63 100.63 100.64 100.64 100.64 100.64 100.64 100.65 100.65 100.65 100.66 100.66 100.66 100.66 100.67 110.67 110.67 110.67 110.67 110.68 110.68 110.68 110.69 110.69 110.69 110.69 110.69 110.70 110.70 110.70 110.70 110.71 110.71 110.71 110.72 110.72 100.72 100.72 100.72 100.73 100.73 100.73 100.73 100.74 100.74 100.74 100.75 100.75 100.75 100.75 100.75 100.76 100.76 100.76 100.77 110.77 110.77 110.77 110.78 110.78 110.78 110.78 110.78 110.79 110.79 110.79 110.80 110.80 110.80 110.80 110.81 110.81 110.81 110.81 110.81 110.82 100.82 100.82 100.83 100.83 100.83 100.83 100.83 100.84 100.84 100.84 100.84 100.85 100.85 100.85 100.86 100.86 100.86 100.86 100.86 110.87 110.87 110.87 110.88 110.88 110.88 110.88 110.89 110.89 110.89 110.89 110.89 110.90 110.90 110.90 110.91 110.91 110.91 110.91 110.92 110.92 100.92 100.92 100.92 100.93 100.93 100.93 100.94 100.94 100.94
100.44 100.44 100.44 100.45 100.45 100.45 100.45 100.46 100.46 100.46 110.47 110.47 110.47 110.47 110.47 110.48 110.48 110.48 110.48 110.49 110.49 110.49 110.50 110.50 110.50 110.50 110.50 110.51 110.51 110.51 110.52 100.52 100.52 100.52 100.53 100.53 100.53 100.53 100.53 100.54 100.54 100.54 100.55 100.55 100.55 100.55 100.56 100.56 100.56 100.56 110.56 110.57 110.57 110.57 110.58 110.58 110.58 110.58 110.58 110.59 110.59 110.59 110.59 110.60 110.60 110.60 110.61 110.61 110.61 110.61 110.61 100.62 100.62 100.62 100.62 100.63 100.63 100.63 100.64 100.64 100.64 100.64 100.64 100.65 100.65 100.65 100.66 100.66 100.66 100.66 110.67 110.67 110.67 110.67 110.67 110.68 110.68 110.68 110.69 110.69 110.69 110.69 110.69 110.70 110.70 110.70 110.70 110.71 110.71 110.71 110.72 100.72 100.72 100.72 100.72 100.73 100.73 100.73 100.73 100.74 100.74 100.74 100.75 100.75 100.75 100.75 100.75 100.76 100.76 100.76 110.77 110.77 110.77 110.77 110.78 110.78 110.78 110.78 110.78 110.79 110.79 110.79 110.80 110.80 110.80 110.80 110.81 110.81 110.81 110.81 110.81 100.82 100.82 100.82 100.83 100.83 100.83 100.83 100.83 100.84 100.84 100.84 100.84 100.85 100.85 100.85 100.86 100.86 100.86 100.86 110.86 110.87 110.87 110.87 110.88 110.88 110.88 110.88 110.89 110.89 110.89 110.89 110.89 110.90 110.90 110.90 110.91 110.91 110.91 110.91 110.92 100.92 100.92 100.92 100.92 100.93 100.93 100.93 100.94 100.94
100.44 100.44 100.44 100.44 100.45 100.45 100.45 100.45 100.46 100.46 110.46 110.47 110.47 110.47 110.47 110.47 110.48 110.48 110.48 110.48 110.49 110.49 110.49 110.50 110.50 110.50 110.50 110.50 110.51 110.51 110.51 100.52 100.52 100.52 100.52 100.53 100.53 100.53 100.53 100.53 100.54 100.54 100.54 100.55 100.55 100.55 100.55 100.56 100.56 100.56 110.56 110.56 110.57 110.57 110.57 110.58 110.58 110.58 110.58 110.58 110.59 110.59 110.59 110.59 110.60 110.60 110.60 110.61 110.61 110.61 110.61 100.61 100.62 100.62 100.62 100.62 100.63 100.63 100.63 100.64 100.64 100.64 100.64 100.64 100.65 100.65 100.65 100.66 100.66 100.66 110.66 110.67 110.67 110.67 110.67 110.67 110.68 110.68 110.68 110.69 110.69 110.69 110.69 110.69 110.70 110.70 110.70 110.70 110.71 110.71 110.71 100.72 100.72 100.72 100.72 100.72 100.73 100.73 100.73 100.73 100.74 100.74 100.74 100.75 100.75 100.75 100.75 100.75 100.76 100.76 110.76 110.77 110.77 110.77 110.77 110.78 110.78 110.78 110.78 110.78 110.79 110.79 110.79 110.80 110.80 110.80 110.80 110.81 110.81 110.81 110.81 100.81 100.82 100.82 100.82 100.83 100.83 100.83 100.83 100.83 100.84 100.84 100.84 100.84 100.85 100.85 100.85 100.86 100.86 100.86 110.86 110.86 110.87 110.87 110.87 110.88 110.88 110.88 110.88 110.89 110.89 110.89 110.89 110.89 110.90 110.90 110.90 110.91 110.91 110.91 110.91 100.92 100.92 100.92 100.92 100.92 100.93 100.93 100.93 100.94
100.44 100.44 100.44 100.44 100.44 100.45 100.45 100.45 100.45 100.46 110.46 110.46 110.47 110.47 110.47 110.47 110.47 110.48 110.48 110.48 110.48 110.49 110.49 110.49 110.50 110.50 110.50 110.50 110.50 110.51 110.51 100.51 100.52 100.52 100.52 100.52 100.53 100.53 100.53 100.53 100.53 100.54 100.54 100.54 100.55 100.55 100.55 100.55 100.56 100.56 110.56 110.56 110.56 110.57 110.57 110.57 110.58 110.58 110.58 110.58 110.58 110.59 110.59 110.59 110.59 110.60 110.60 110.60 110.61 110.61 110.61 100.61 100.61 100.62 100.62 100.62 100.62 100.63 100.63 100.63 100.64 100.64 100.64 100.64 100.64 100.65 100.65 100.65 100.66 100.66 110.66 110.66 110.67 110.67 110.67 110.67 110.67 110.68 110.68 110.68 110.69 110.69 110.69 110.69 110.69 110.70 110.70 110.70 110.70 110.71 110.71 100.71 100.72 100.72 100.72 100.72 100.72 100.73 100.73 100.73 100.73 100.74 100.74 100.74 100.75 100.75 100.75 100.75 100.75 100.76 110.76 110.76 110.77 110.77 110.77 110.77 110.78 110.78 110.78 110.78 110.78 110.79 110.79 110.79 110.80 110.80 110.80 110.80 110.81 110.81 110.81 100.81 100.81 100.82 100.82 100.82 100.83 100.83 100.83 100.83 100.83 100.84 100.84 100.84 100.84 100.85 100.85 100.85 100.86 100.86 110.86 110.86 110.86 110.87 110.87 110.87 110.88 110.88 110.88 110.88 110.89 110.89 110.89 110.89 110.89 110.90 110.90 110.90 110.91 110.91 110.91 100.91 100.92 100.92 100.92 100.92 100.92 100.93 100.93 100.93
100.43 100.44 100.44 100.44 100.44 100.44 100.45 100.45 100.45 100.45 110.46 110.46 110.46 110.47 110.47 110.47 110.47 110.47 110.48 110.48 110.48 110.48 110.49 110.49 110.49 110.50 110.50 110.50 110.50 110.50 110.51 100.51 100.51 100.52 100.52 100.52 100.52 100.53 100.53 100.53 100.53 100.53 100.54 100.54 100.54 100.55 100.55 100.55 100.55 100.56 110.56 110.56 110.56 110.56 110.57 110.57 110.57 110.58 110.58 110.58 110.58 110.58 110.59 110.59 110.59 110.59 110.60 110.60 110.60 110.61 110.61 100.61 100.61 100.61 100.62 100.62 100.62 100.62 100.63 100.63 100.63 100.64 100.64 100.64 100.64 100.64 100.65 100.65 100.65 100.66 110.66 110.66 110.66 110.67 110.67 110.67 110.67 110.67 110.68 110.68 110.68 110.69 110.69 110.69 110.69 110.69 110.70 110.70 110.70 110.70 110.71 100.71 100.71 100.72 100.72 100.72 100.72 100.72 100.73 100.73 100.73 100.73 100.74 100.74 100.74 100.75 100.75 100.75 100.75 100.75 110.76 110.76 110.76 110.77 110.77 110.77 110.77 110.78 110.78 110.78 110.78 110.78 110.79 110.79 110.79 110.80 110.80 110.80 110.80 110.81 110.81 100.81 100.81 100.81 100.82 100.82 100.82 100.83 100.83 100.83 100.83 100.83 100.84 100.84 100.84 100.84 100.85 100.85 100.85 100.86 110.86 110.86 110.86 110.86 110.87 110.87 110.87 110.88 110.88 110.88 110.88 110.89 110.89 110.89 110.89 110.89 110.90 110.90 110.90 110.91 110.91 100.91 100.91 100.92 100.92 100.92 100.92 100.92 100.93 100.93
100.43 100.43 100.44 100.44 100.44 100.44 100.44 100.45 100.45 100.45 110.45 110.46 110.46 110.46 110.47 110.47 110.47 110.47 110.47 110.48 110.48 110.48 110.48 110.49 110.49 110.49 110.50 110.50 110.50 110.50 110.50 100.51 100.51 100.51 100.52 100.52 100.52 100.52 100.53 100.53 100.53 100.53 100.53 100.54 100.54 100.54 100.55 100.55 100.55 100.55 110.56 110.56 110.56 110.56 110.56 110.57 110.57 110.57 110.58 110.58 110.58 110.58 110.58 110.59 110.59 110.59 110.59 110.60 110.60 110.60 110.61 100.61 100.61 100.61 100.61 100.62 100.62 100.62 100.62 100.63 100.63 100.63 100.64 100.64 100.64 100.64 100.64 100.65 100.65 100.65 110.66 110.66 110.66 110.66 110.67 110.67 110.67 110.67 110.67 110.68 110.68 110.68 110.69 110.69 110.69 110.69 110.69 110.70 110.70 110.70 110.70 100.71 100.71 100.71 100.72 100.72 100.72 100.72 100.72 100.73 100.73 100.73 100.73 100.74 100.74 100.74 100.75 100.75 100.75 100.75 110.75 110.76 110.76 110.76 110.77 110.77 110.77 110.77 110.78 110.78 110.78 110.78 110.78 110.79 110.79 110.79 110.80 110.80 110.80 110.80 110.81 100.81 100.81 100.81 100.81 100.82 100.82 100.82 100.83 100.83 100.83 100.83 100.83 100.84 100.84 100.84 100.84 100.85 100.85 100.85 110.86 110.86 110.86 110.86 110.86 110.87 110.87 110.87 110.88 110.88 110.88 110.88 110.89 110.89 110.89 110.89 110.89 110.90 110.90 110.90 110.91 100.91 100.91 100.91 100.92 100.92 100.92 100.92 100.92 100.93
100.43 100.43 100.43 100.44 100.44 100.44 100.44 100.44 100.45 100.45 110.45 110.45 110.46 110.46 110.46 110.47 110.47 110.47 110.47 110.47 110.48 110.48 110.48 110.48 110.49 110.49 110.49 110.50 110.50 110.50 110.50 100.50 100.51 100.51 100.51 100.52 100.52 100.52 100.52 100.53 100.53 100.53 100.53 100.53 100.54 100.54 100.54 100.55 100.55 100.55 110.55 110.56 110.56 110.56 110.56 110.56 110.57 110.57 110.57 110.58 110.58 110.58 110.58 110.58 110.59 110.59 110.59 110.59 110.60 110.60 110.60 100.61 100.61 100.61 100.61 100.61 100.62 100.62 100.62 100.62 100.63 100.63 100.63 100.64 100.64 100.64 100.64 100.64 100.65 100.65 110.65 110.66 110.66 110.66 110.66 110.67 110.67 110.67 110.67 110.67 110.68 110.68 110.68 110.69 110.69 110.69 110.69 110.69 110.70 110.70 110.70 100.70 100.71 100.71 100.71 100.72 100.72 100.72 100.72 100.72 100.73 100.73 100.73 100.73 100.74 100.74 100.74 100.75 100.75 100.75 110.75 110.75 110.76 110.76 110.76 110.77 110.77 110.77 110.77 110.78 110.78 110.78 110.78 110.78 110.79 110.79 110.79 110.80 110.80 110.80 110.80 100.81 100.81 100.81 100.81 100.81 100.82 100.82 100.82 100.83 100.83 100.83 100.83 100.83 100.84 100.84 100.84 100.84 100.85 100.85 110.85 110.86 110.86 110.86 110.86 110.86 110.87 110.87 110.87 110.88 110.88 110.88 110.88 110.89 110.89 110.89 110.89 110.89 110.90 110.90 110.90 100.91 100.91 100.91 100.91 100.92 100.92 100.92 100.92 100.92
100.42 100.43 100.43 100.43 100.44 100.44 100.44 100.44 100.44 100.45 110.45 110.45 110.45 110.46 110.46 110.46 110.47 110.47 110.47 110.47 110.47 110.48 110.48 110.48 110.48 110.49 110.49 110.49 110.50 110.50 110.50 100.50 100.50 100.51 100.51 100.51 100.52 100.52 100.52 100.52 100.53 100.53 100.53 100.53 100.53 100.54 100.54 100.54 100.55 100.55 110.55 110.55 110.56 110.56 110.56 110.56 110.56 110.57 110.57 110.57 110.58 110.58 110.58 110.58 110.58 110.59 110.59 110.59 110.59 110.60 110.60 100.60 100.61 100.61 100.61 100.61 100.61 100.62 100.62 100.62 100.62 100.63 100.63 100.63 100.64 100.64 100.64 100.64 100.64 100.65 110.65 110.65 110.66 110.66 110.66 110.66 110.67 110.67 110.67 110.67 110.67 110.68 110.68 110.68 110.69 110.69 110.69 110.69 110.69 110.70 110.70 100.70 100.70 100.71 100.71 100.71 100.72 100.72 100.72 100.72 100.72 100.73 100.73 100.73 100.73 100.74 100.74 100.74 100.75 100.75 110.75 110.75 110.75 110.76 110.76 110.76 110.77 110.77 110.77 110.77 110.78 110.78 110.78 110.78 110.78 110.79 110.79 110.79 110.80 110.80 110.80 100.80 100.81 100.81 100.81 100.81 100.81 100.82 100.82 100.82 100.83 100.83 100.83 100.83 100.83 100.84 100.84 100.84 100.84 100.85 110.85 110.85 110.86 110.86 110.86 110.86 110.86 110.87 110.87 110.87 110.88 110.88 110.88 110.88 110.89 110.89 110.89 110.89 110.89 110.90 110.90 100.90 100.91 100.91 100.91 100.91 100.92 100.92 100.92 100.92
100.42 100.42 100.43 100.43 100.43 100.44 100.44 100.44 100.44 100.44 100.45 100.45 100.45 100.45 100.46 100.46 100.46 100.47 100.47 100.47 100.47 100.47 100.48 100.48 100.48 100.48 100.49 100.49 100.49 100.50 100.50 100.50 100.50 100.50 100.51 100.51 100.51 100.52 100.52 100.52 100.52 100.53 100.53 100.53 100.53 100.53 100.54 100.54 100.54 100.55 100.55 100.55 100.55 100.56 100.56 100.56 100.56 100.56 100.57 100.57 100.57 100.58 100.58 100.58 100.58 100.58 100.59 100.59 100.59 100.59 100.60 100.60 100.60 100.61 100.61 100.61 100.61 100.61 100.62 100.62 100.62 100.62 100.63 100.63 100.63 100.64 100.64 100.64 100.64 100.64 100.65 100.65 100.65 100.66 100.66 100.66 100.66 100.67 100.67 100.67 100.67 100.67 100.68 100.68 100.68 100.69 100.69 100.69 100.69 100.69 100.70 100.70 100.70 100.70 100.71 100.71 100.71 100.72 100.72 100.72 100.72 100.72 100.73 100.73 100.73 100.73 100.74 100.74 100.74 100.75 100.75 100.75 100.75 100.75 100.76 100.76 100.76 100.77 100.77 100.77 100.77 100.78 100.78 100.78 100.78 100.78 100.79 100.79 100.79 100.80 100.80 100.80 100.80 100.81 100.81 100.81 100.81 100.81 100.82 100.82 100.82 100.83 100.83 100.83 100.83 100.83 100.84 100.84 100.84 100.84 100.85 100.85 100.85 100.86 100.86 100.86 100.86 100.86 100.87 100.87 100.87 100.88 100.88 100.88 100.88 100.89 100.89 100.89 100.89 100.89 100.90 100.90 100.90 100.91 100.91 100.91 100.91 100.92 100.92 100.92
100.42 100.42 100.42 100.43 100.43 100.43 100.44 100.44 100.44 100.44 100.44 100.45 100.45 100.45 100.45 100.46 100.46 100.46 100.47 100.47 100.47 100.47 100.47 100.48 100.48 100.48 100.48 100.49 100.49 100.49 100.50 100.50 100.50 100.50 100.50 100.51 100.51 100.51 100.52 100.52 100.52 100.52 100.53 100.53 100.53 100.53 100.53 100.54 100.54 100.54 100.55 100.55 100.55 100.55 100.56 100.56 100.56 100.56 100.56 100.57 100.57 100.57 100.58 100.58 100.58 100.58 100.58 100.59 100.59 100.59 100.59 100.60 100.60 100.60 100.61 100.61 100.61 100.61 100.61 100.62 100.62 100.62 100.62 100.63 100.63 100.63 100.64 100.64 100.64 100.64 100.64 100.65 100.65 100.65 100.66 100.66 100.66 100.66 100.67 100.67 100.67 100.67 100.67 100.68 100.68 100.68 100.69 100.69 100.69 100.69 100.69 100.70 100.70 100.70 100.70 100.71 100.71 100.71 100.72 100.72 100.72 100.72 100.72 100.73 100.73 100.73 100.73 100.74 100.74 100.74 100.75 100.75 100.75 100.75 100.75 100.76 100.76 100.76 100.77 100.77 100.77 100.77 100.78 100.78 100.78 100.78 100.78 100.79 100.79 100.79 100.80 100.80 100.80 100.80 100.81 100.81 100.81 100.81 100.81 100.82 100.82 100.82 100.83 100.83 100.83 100.83 100.83 100.84 100.84 100.84 100.84 100.85 100.85 100.85 100.86 100.86 100.86 100.86 100.86 100.87 100.87 100.87 100.88 100.88 100.88 100.88 100.89 100.89 100.89 100.89 100.89 100.90 100.90 100.90 100.91 100.91 100.91 100.91 100.92 100.92
100.42 100.42 100.42 100.42 100.43 100.43 100.43 100.44 100.44 100.44 100.44 100.44 100.45 100.45 100.45 100.45 100.46 100.46 100.46 100.47 100.47 100.47 100.47 100.47 100.48 100.48 100.48 100.48 100.49 100.49 100.49 100.50 100.50 100.50 100.50 100.50 100.51 100.51 100.51 100.52 100.52 100.52 100.52 100.53 100.53 100.53 100.53 100.53 100.54 100.54 100.54 100.55 100.55 100.55 100.55 100.56 100.56 100.56 100.56 100.56 100.57 100.57 100.57 100.58 100.58 100.58 100.58 100.58 100.59 100.59 100.59 100.59 100.60 100.60 100.60 100.61 100.61 100.61 100.61 100.61 100.62 100.62 100.62 100.62 100.63 100.63 100.63 100.64 100.64 100.64 100.64 100.64 100.65 100.65 100.65 100.66 100.66 100.66 100.66 100.67 100.67 100.67 100.67 100.67 100.68 100.68 100.68 100.69 100.69 100.69 100.69 100.69 100.70 100.70 100.70 100.70 100.71 100.71 100.71 100.72 100.72 100.72 100.72 100.72 100.73 100.73 100.73 100.73 100.74 100.74 100.74 100.75 100.75 100.75 100.75 100.75 100.76 100.76 100.76 100.77 100.77 100.77 100.77 100.78 100.78 100.78 100.78 100.78 100.79 100.79 100.79 100.80 100.80 100.80 100.80 100.81 100.81 100.81 100.81 100.81 100.82 100.82 100.82 100.83 100.83 100.83 100.83 100.83 100.84 100.84 100.84 100.84 100.85 100.85 100.85 100.86 100.86 100.86 100.86 100.86 100.87 100.87 100.87 100.88 100.88 100.88 100.88 100.89 100.89 100.89 100.89 100.89 100.90 100.90 100.90 100.91 100.91 100.91 100.91 100.92
100.42 100.42 100.42 100.42 100.42 100.43 100.43 100.43 100.44 100.44 100.44 100.44 100.44 100.45 100.45 100.45 100.45 100.46 100.46 100.46 100.47 100.47 100.47 100.47 100.47 100.48 100.48 100.48 100.48 100.49 100.49 100.49 100.50 100.50 100.50 100.50 100.50 100.51 100.51 100.51 100.52 100.52 100.52 100.52 100.53 100.53 100.53 100.53 100.53 100.54 100.54 100.54 100.55 100.55 100.55 100.55 100.56 100.56 100.56 100.56 100.56 100.57 100.57 100.57 100.58 100.58 100.58 100.58 100.58 100.59 100.59 100.59 100.59 100.60 100.60 100.60 100.61 100.61 100.61 100.61 100.61 100.62 100.62 100.62 100.62 100.63 100.63 100.63 100.64 100.64 100.64 100.64 100.64 100.65 100.65 100.65 100.66 100.66 100.66 100.66 100.67 100.67 100.67 100.67 100.67 100.68 100.68 100.68 100.69 100.69 100.69 100.69 100.69 100.70 100.70 100.70 100.70 100.71 100.71 100.71 100.72 100.72 100.72 100.72 100.72 100.73 100.73 100.73 100.73 100.74 100.74 100.74 100.75 100.75 100.75 100.75 100.75 100.76 100.76 100.76 100.77 100.77 100.77 100.77 100.78 100.78 100.78 100.78 100.78 100.79 100.79 100.79 100.80 100.80 100.80 100.80 100.81 100.81 100.81 100.81 100.81 100.82 100.82 100.82 100.83 100.83 100.83 100.83 100.83 100.84 100.84 100.84 100.84 100.85 100.85 100.85 100.86 100.86 100.86 100.86 100.86 100.87 100.87 100.87 100.88 100.88 100.88 100.88 100.89 100.89 100.89 100.89 100.89 100.90 100.90 100.90 100.91 100.91 100.91 100.91
100.41 100.42 100.42 100.42 100.42 100.42 100.43 100.43 100.43 100.44 100.44 100.44 100.44 100.44 100.45 100.45 100.45 100.45 100.46 100.46 100.46 100.47 100.47 100.47 100.47 100.47 100.48 100.48 100.48 100.48 100.49 100.49 100.49 100.50 100.50 100.50 100.50 100.50 100.51 100.51 100.51 100.52 100.52 100.52 100.52 100.53 100.53 100.53 100.53 100.53 100.54 100.54 100.54 100.55 100.55 100.55 100.55 100.56 100.56 100.56 100.56 100.56 100.57 100.57 100.57 100.58 100.58 100.58 100.58 100.58 100.59 100.59 100.59 100.59 100.60 100.60 100.60 100.61 100.61 100.61 100.61 100.61 100.62 100.62 100.62 100.62 100.63 100.63 100.63 100.64 100.64 100.64 100.64 100.64 100.65 100.65 100.65 100.66 100.66 100.66 100.66 100.67 100.67 100.67 100.67 100.67 100.68 100.68 100.68 100.69 100.69 100.69 100.69 100.69 100.70 100.70 100.70 100.70 100.71 100.71 100.71 100.72 100.72 100.72 100.72 100.72 100.73 100.73 100.73 100.73 100.74 100.74 100.74 100.75 100.75 100.75 100.75 100.75 100.76 100.76 100.76 100.77 100.77 100.77 100.77 100.78 100.78 100.78 100.78 100.78 100.79 100.79 100.79 100.80 100.80 100.80 100.80 100.81 100.81 100.81 100.81 100.81 100.82 100.82 100.82 100.83 100.83 100.83 100.83 100.83 100.84 100.84 100.84 100.84 100.85 100.85 100.85 100.86 100.86 100.86 100.86 100.86 100.87 100.87 100.87 100.88 100.88 100.88 100.88 100.89 100.89 100.89 100.89 100.89 100.90 100.90 100.90 100.91 100.91 100.91
100.41 100.41 100.42 100.42 100.42 100.42 100.42 100.43 100.43 100.43 100.44 100.44 100.44 100.44 100.44 100.45 100.45 100.45 100.45 100.46 100.46 100.46 100.47 100.47 100.47 100.47 100.47 100.48 100.48 100.48 100.48 100.49 100.49 100.49 100.50 100.50 100.50 100.50 100.50 100.51 100.51 100.51 100.52 100.52 100.52 100.52 100.53 100.53 100.53 100.53 100.53 100.54 100.54 100.54 100.55 100.55 100.55 100.55 100.56 100.56 100.56 100.56 100.56 100.57 100.57 100.57 100.58 100.58 100.58 100.58 100.58 100.59 100.59 100.59 100.59 100.60 100.60 100.60 100.61 100.61 100.61 100.61 100.61 100.62 100.62 100.62 100.62 100.63 100.63 100.63 100.64 100.64 100.64 100.64 100.64 100.65 100.65 100.65 100.66 100.66 100.66 100.66 100.67 100.67 100.67 100.67 100.67 100.68 100.68 100.68 100.69 100.69 100.69 100.69 100.69 100.70 100.70 100.70 100.70 100.71 100.71 100.71 100.72 100.72 100.72 100.72 100.72 100.73 100.73 100.73 100.73 100.74 100.74 100.74 100.75 100.75 100.75 100.75 100.75 100.76 100.76 100.76 100.77 100.77 100.77 100.77 100.78 100.78 100.78 100.78 100.78 100.79 100.79 100.79 100.80 100.80 100.80 100.80 100.81 100.81 100.81 100.81 100.81 100.82 100.82 100.82 100.83 100.83 100.83 100.83 100.83 100.84 100.84 100.84 100.84 100.85 100.85 100.85 100.86 100.86 100.86 100.86 100.86 100.87 100.87 100.87 100.88 100.88 100.88 100.88 100.89 100.89 100.89 100.89 100.89 100.90 100.90 100.90 100.91 100.91
100.41 100.41 100.41 100.42 100.42 100.42 100.42 100.42 100.43 100.43 100.43 100.44 100.44 100.44 100.44 100.44 100.45 100.45 100.45 100.45 100.46 100.46 100.46 100.47 100.47 100.47 100.47 100.47 100.48 100.48 100.48 100.48 100.49 100.49 100.49 100.50 100.50 100.50 100.50 100.50 100.51 100.51 100.51 100.52 100.52 100.52 100.52 100.53 100.53 100.53 100.53 100.53 100.54 100.54 100.54 100.55 100.55 100.55 100.55 100.56 100.56 100.56 100.56 100.56 100.57 100.57 100.57 100.58 100.58 100.58 100.58 100.58 100.59 100.59 100.59 100.59 100.60 100.60 100.60 100.61 100.61 100.61 100.61 100.61 100.62 100.62 100.62 100.62 100.63 100.63 100.63 100.64 100.64 100.64 100.64 100.64 100.65 100.65 100.65 100.66 100.66 100.66 100.66 100.67 100.67 100.67 100.67 100.67 100.68 100.68 100.68 100.69 100.69 100.69 100.69 100.69 100.70 100.70 100.70 100.70 100.71 100.71 100.71 100.72 100.72 100.72 100.72 100.72 100.73 100.73 100.73 100.73 100.74 100.74 100.74 100.75 100.75 100.75 100.75 100.75 100.76 100.76 100.76 100.77 100.77 100.77 100.77 100.78 100.78 100.78 100.78 100.78 100.79 100.79 100.79 100.80 100.80 100.80 100.80 100.81 100.81 100.81 100.81 100.81 100.82 100.82 100.82 100.83 100.83 100.83 100.83 100.83 100.84 100.84 100.84 100.84 100.85 100.85 100.85 100.86 100.86 100.86 100.86 100.86 100.87 100.87 100.87 100.88 100.88 100.88 100.88 100.89 100.89 100.89 100.89 100.89 100.90 100.90 100.90 100.91
100.41 100.41 100.41 100.41 100.42 100.42 100.42 100.42 100.42 100.43 100.43 100.43 100.44 100.44 100.44 100.44 100.44 100.45 100.45 100.45 100.45 100.46 100.46 100.46 100.47 100.47 100.47 100.47 100.47 100.48 100.48 100.48 100.48 100.49 100.49 100.49 100.50 100.50 100.50 100.50 100.50 100.51 100.51 100.51 100.52 100.52 100.52 100.52 100.53 100.53 100.53 100.53 100.53 100.54 100.54 100.54 100.55 100.55 100.55 100.55 100.56 100.56 100.56 100.56 100.56 100.57 100.57 100.57 100.58 100.58 100.58 100.58 100.58 100.59 100.59 100.59 100.59 100.60 100.60 100.60 100.61 100.61 100.61 100.61 100.61 100.62 100.62 100.62 100.62 100.63 100.63 100.63 100.64 100.64 100.64 100.64 100.64 100.65 100.65 100.65 100.66 100.66 100.66 100.66 100.67 100.67 100.67 100.67 100.67 100.68 100.68 100.68 100.69 100.69 100.69 100.69 100.69 100.70 100.70 100.70 100.70 100.71 100.71 100.71 100.72 100.72 100.72 100.72 100.72 100.73 100.73 100.73 100.73 100.74 100.74 100.74 100.75 100.75 100.75 100.75 100.75 100.76 100.76 100.76 100.77 100.77 100.77 100.77 100.78 100.78 100.78 100.78 100.78 100.79 100.79 100.79 100.80 100.80 100.80 100.80 100.81 100.81 100.81 100.81 100.81 100.82 100.82 100.82 100.83 100.83 100.83 100.83 100.83 100.84 100.84 100.84 100.84 100.85 100.85 100.85 100.86 100.86 100.86 100.86 100.86 100.87 100.87 100.87 100.88 100.88 100.88 100.88 100.89 100.89 100.89 100.89 100.89 100.90 100.90 100.90
100.40 100.41 100.41 100.41 100.41 100.42 100.42 100.42 100.42 100.42 100.43 100.43 100.43 100.44 100.44 100.44 100.44 100.44 100.45 100.45 100.45 100.45 100.46 100.46 100.46 100.47 100.47 100.47 100.47 100.47 100.48 100.48 100.48 100.48 100.49 100.49 100.49 100.50 100.50 100.50 100.50 100.50 100.51 100.51 100.51 100.52 100.52 100.52 100.52 100.53 100.53 100.53 100.53 100.53 100.54 100.54 100.54 100.55 100.55 100.55 100.55 100.56 100.56 100.56 100.56 100.56 100.57 100.57 100.57 100.58 100.58 100.58 100.58 100.58 100.59 100.59 100.59 100.59 100.60 100.60 100.60 100.61 100.61 100.61 100.61 100.61 100.62 100.62 100.62 100.62 100.63 100.63 100.63 100.64 100.64 100.64 100.64 100.64 100.65 100.65 100.65 100.66 100.66 100.66 100.66 100.67 100.67 100.67 100.67 100.67 100.68 100.68 100.68 100.69 100.69 100.69 100.69 100.69 100.70 100.70 100.70 100.70 100.71 100.71 100.71 100.72 100.72 100.72 100.72 100.72 100.73 100.73 100.73 100.73 100.74 100.74 100.74 100.75 100.75 100.75 100.75 100.75 100.76 100.76 100.76 100.77 100.77 100.77 100.77 100.78 100.78 100.78 100.78 100.78 100.79 100.79 100.79 100.80 100.80 100.80 100.80 100.81 100.81 100.81 100.81 100.81 100.82 100.82 100.82 100.83 100.83 100.83 100.83 100.83 100.84 100.84 100.84 100.84 100.85 100.85 100.85 100.86 100.86 100.86 100.86 100.86 100.87 100.87 100.87 100.88 100.88 100.88 100.88 100.89 100.89 100.89 100.89 100.89 100.90 100.90
100.40 100.40 100.41 100.41 100.41 100.41 100.42 100.42 100.42 100.42 100.42 100.43 100.43 100.43 100.44 100.44 100.44 100.44 100.44 100.45 100.45 100.45 100.45 100.46 100.46 100.46 100.47 100.47 100.47 100.47 100.47 100.48 100.48 100.48 100.48 100.49 100.49 100.49 100.50 100.50 100.50 100.50 100.50 100.51 100.51 100.51 100.52 100.52 100.52 100.52 100.53 100.53 100.53 100.53 100.53 100.54 100.54 100.54 100.55 100.55 100.55 100.55 100.56 100.56 100.56 100.56 100.56 100.57 100.57 100.57 100.58 100.58 100.58 100.58 100.58 100.59 100.59 100.59 100.59 100.60 100.60 100.60 100.61 100.61 100.61 100.61 100.61 100.62 100.62 100.62 100.62 100.63 100.63 100.63 100.64 100.64 100.64 100.64 100.64 100.65 100.65 100.65 100.66 100.66 100.66 100.66 100.67 100.67 100.67 100.67 100.67 100.68 100.68 100.68 100.69 100.69 100.69 100.69 100.69 100.70 100.70 100.70 100.70 100.71 100.71 100.71 100.72 100.72 100.72 100.72 100.72 100.73 100.73 100.73 100.73 100.74 100.74 100.74 100.75 100.75 100.75 100.75 100.75 100.76 100.76 100.76 100.77 100.77 100.77 100.77 100.78 100.78 100.78 100.78 100.78 100.79 100.79 100.79 100.80 100.80 100.80 100.80 100.81 100.81 100.81 100.81 100.81 100.82 100.82 100.82 100.83 100.83 100.83 100.83 100.83 100.84 100.84 100.84 100.84 100.85 100.85 100.85 100.86 100.86 100.86 100.86 100.86 100.87 100.87 100.87 100.88 100.88 100.88 100.88 100.89 100.89 100.89 100.89 100.89 100.90
100.40 100.40 100.40 100.41 100.41 100.41 100.41 100.42 100.42 100.42 100.42 100.42 100.43 100.43 100.43 100.44 100.44 100.44 100.44 100.44 100.45 100.45 100.45 100.45 100.46 100.46 100.46 100.47 100.47 100.47 100.47 100.47 100.48 100.48 100.48 100.48 100.49 100.49 100.49 100.50 100.50 100.50 100.50 100.50 100.51 100.51 100.51 100.52 100.52 100.52 100.52 100.53 100.53 100.53 100.53 100.53 100.54 100.54 100.54 100.55 100.55 100.55 100.55 100.56 100.56 100.56 100.56 100.56 100.57 100.57 100.57 100.58 100.58 100.58 100.58 100.58 100.59 100.59 100.59 100.59 100.60 100.60 100.60 100.61 100.61 100.61 100.61 100.61 100.62 100.62 100.62 100.62 100.63 100.63 100.63 100.64 100.64 100.64 100.64 100.64 100.65 100.65 100.65 100.66 100.66 100.66 100.66 100.67 100.67 100.67 100.67 100.67 100.68 100.68 100.68 100.69 100.69 100.69 100.69 100.69 100.70 100.70 100.70 100.70 100.71 100.71 100.71 100.72 100.72 100.72 100.72 100.72 100.73 100.73 100.73 100.73 100.74 100.74 100.74 100.75 100.75 100.75 100.75 100.75 100.76 100.76 100.76 100.77 100.77 100.77 100.77 100.78 100.78 100.78 100.78 100.78 100.79 100.79 100.79 100.80 100.80 100.80 100.80 100.81 100.81 100.81 100.81 100.81 100.82 100.82 100.82 100.83 100.83 100.83 100.83 100.83 100.84 100.84 100.84 100.84 100.85 100.85 100.85 100.86 100.86 100.86 100.86 100.86 100.87 100.87 100.87 100.88 100.88 100.88 100.88 100.89 100.89 100.89 100.89 100.89
100.39 100.40 100.40 100.40 100.41 100.41 100.41 100.41 100.42 100.42 100.42 100.42 100.42 100.43 100.43 100.43 100.44 100.44 100.44 100.44 100.44 100.45 100.45 100.45 100.45 100.46 100.46 100.46 100.47 100.47 100.47 100.47 100.47 100.48 100.48 100.48 100.48 100.49 100.49 100.49 100.50 100.50 100.50 100.50 100.50 100.51 100.51 100.51 100.52 100.52 100.52 100.52 100.53 100.53 100.53 100.53 100.53 100.54 100.54 100.54 100.55 100.55 100.55 100.55 100.56 100.56 100.56 100.56 100.56 100.57 100.57 100.57 100.58 100.58 100.58 100.58 100.58 100.59 100.59 100.59 100.59 100.60 100.60 100.60 100.61 100.61 100.61 100.61 100.61 100.62 100.62 100.62 100.62 100.63 100.63 100.63 100.64 100.64 100.64 100.64 100.64 100.65 100.65 100.65 100.66 100.66 100.66 100.66 100.67 100.67 100.67 100.67 100.67 100.68 100.68 100.68 100.69 100.69 100.69 100.69 100.69 100.70 100.70 100.70 100.70 100.71 100.71 100.71 100.72 100.72 100.72 100.72 100.72 100.73 100.73 100.73 100.73 100.74 100.74 100.74 100.75 100.75 100.75 100.75 100.75 100.76 100.76 100.76 100.77 100.77 100.77 100.77 100.78 100.78 100.78 100.78 100.78 100.79 100.79 100.79 100.80 100.80 100.80 100.80 100.81 100.81 100.81 100.81 100.81 100.82 100.82 100.82 100.83 100.83 100.83 100.83 100.83 100.84 100.84 100.84 100.84 100.85 100.85 100.85 100.86 100.86 100.86 100.86 100.86 100.87 100.87 100.87 100.88 100.88 100.88 100.88 100.89 100.89 100.89 100.89
100.39 100.39 100.40 100.40 100.40 100.41 100.41 100.41 100.41 100.42 100.42 100.42 100.42 100.42 100.43 100.43 100.43 100.44 100.44 100.44 100.44 100.44 100.45 100.45 100.45 100.45 100.46 100.46 100.46 100.47 100.47 100.47 100.47 100.47 100.48 100.48 100.48 100.48 100.49 100.49 100.49 100.50 100.50 100.50 100.50 100.50 100.51 100.51 100.51 100.52 100.52 100.52 100.52 100.53 100.53 100.53 100.53 100.53 100.54 100.54 100.54 100.55 100.55 100.55 100.55 100.56 100.56 100.56 100.56 100.56 100.57 100.57 100.57 100.58 100.58 100.58 100.58 100.58 100.59 100.59 100.59 100.59 100.60 100.60 100.60 100.61 100.61 100.61 100.61 100.61 100.62 100.62 100.62 100.62 100.63 100.63 100.63 100.64 100.64 100.64 100.64 100.64 100.65 100.65 100.65 100.66 100.66 100.66 100.66 100.67 100.67 100.67 100.67 100.67 100.68 100.68 100.68 100.69 100.69 100.69 100.69 100.69 100.70 100.70 100.70 100.70 100.71 100.71 100.71 100.72 100.72 100.72 100.72 100.72 100.73 100.73 100.73 100.73 100.74 100.74 100.74 100.75 100.75 100.75 100.75 100.75 100.76 100.76 100.76 100.77 100.77 100.77 100.77 100.78 100.78 100.78 100.78 100.78 100.79 100.79 100.79 100.80 100.80 100.80 100.80 100.81 100.81 100.81 100.81 100.81 100.82 100.82 100.82 100.83 100.83 100.83 100.83 100.83 100.84 100.84 100.84 100.84 100.85 100.85 100.85 100.86 100.86 100.86 100.86 100.86 100.87 100.87 100.87 100.88 100.88 100.88 100.88 100.89 100.89 100.89
100.39 100.39 100.39 100.40 100.40 100.40 100.41 100.41 100.41 100.41 100.42 100.42 100.42 100.42 100.42 100.43 100.43 100.43 100.44 100.44 100.44 100.44 100.44 100.45 100.45 100.45 100.45 100.46 100.46 100.46 100.47 100.47 100.47 100.47 100.47 100.48 100.48 100.48 100.48 100.49 100.49 100.49 100.50 100.50 100.50 100.50 100.50 100.51 100.51 100.51 100.52 100.52 100.52 100.52 100.53 100.53 100.53 100.53 100.53 100.54 100.54 100.54 100.55 100.55 100.55 100.55 100.56 100.56 100.56 100.56 100.56 100.57 100.57 100.57 100.58 100.58 100.58 100.58 100.58 100.59 100.59 100.59 100.59 100.60 100.60 100.60 100.61 100.61 100.61 100.61 100.61 100.62 100.62 100.62 100.62 100.63 100.63 100.63 100.64 100.64 100.64 100.64 100.64 100.65 100.65 100.65 100.66 100.66 100.66 100.66 100.67 100.67 100.67 100.67 100.67 100.68 100.68 100.68 100.69 100.69 100.69 100.69 100.69 100.70 100.70 100.70 100.70 100.71 100.71 100.71 100.72 100.72 100.72 100.72 100.72 100.73 100.73 100.73 100.73 100.74 100.74 100.74 100.75 100.75 100.75 100.75 100.75 100.76 100.76 100.76 100.77 100.77 100.77 100.77 100.78 100.78 100.78 100.78 100.78 100.79 100.79 100.79 100.80 100.80 100.80 100.80 100.81 100.81 100.81 100.81 100.81 100.82 100.82 100.82 100.83 100.83 100.83 100.83 100.83 100.84 100.84 100.84 100.84 100.85 100.85 100.85 100.86 100.86 100.86 100.86 100.86 100.87 100.87 100.87 100.88 100.88 100.88 100.88 100.89 100.89
100.39 100.39 100.39 100.39 100.40 100.40 100.40 100.41 100.41 100.41 100.41 100.42 100.42 100.42 100.42 100.42 100.43 100.43 100.43 100.44 100.44 100.44 100.44 100.44 100.45 100.45 100.45 100.45 100.46 100.46 100.46 100.47 100.47 100.47 100.47 100.47 100.48 100.48 100.48 100.48 100.49 100.49 100.49 100.50 100.50 100.50 100.50 100.50 100.51 100.51 100.51 100.52 100.52 100.52 100.52 100.53 100.53 100.53 100.53 100.53 100.54 100.54 100.54 100.55 100.55 100.55 100.55 100.56 100.56 100.56 100.56 100.56 100.57 100.57 100.57 100.58 100.58 100.58 100.58 100.58 100.59 100.59 100.59 100.59 100.60 100.60 100.60 100.61 100.61 100.61 100.61 100.61 100.62 100.62 100.62 100.62 100.63 100.63 100.63 100.64 100.64 100.64 100.64 100.64 100.65 100.65 100.65 100.66 100.66 100.66 100.66 100.67 100.67 100.67 100.67 100.67 100.68 100.68 100.68 100.69 100.69 100.69 100.69 100.69 100.70 100.70 100.70 100.70 100.71 100.71 100.71 100.72 100.72 100.72 100.72 100.72 100.73 100.73 100.73 100.73 100.74 100.74 100.74 100.75 100.75 100.75 100.75 100.75 100.76 100.76 100.76 100.77 100.77 100.77 100.77 100.78 100.78 100.78 100.78 100.78 100.79 100.79 100.79 100.80 100.80 100.80 100.80 100.81 100.81 100.81 100.81 100.81 100.82 100.82 100.82 100.83 100.83 100.83 100.83 100.83 100.84 100.84 100.84 100.84 100.85 100.85 100.85 100.86 100.86 100.86 100.86 100.86 100.87 100.87 100.87 100.88 100.88 100.88 100.88 100.89
100.39 100.39 100.39 100.39 100.39 100.40 100.40 100.40 100.41 100.41 100.41 100.41 100.42 100.42 100.42 100.42 100.42 100.43 100.43 100.43 100.44 100.44 100.44 100.44 100.44 100.45 100.45 100.45 100.45 100.46 100.46 100.46 100.47 100.47 100.47 100.47 100.47 100.48 100.48 100.48 100.48 100.49 100.49 100.49 100.50 100.50 100.50 100.50 100.50 100.51 100.51 100.51 100.52 100.52 100.52 100.52 100.53 100.53 100.53 100.53 100.53 100.54 100.54 100.54 100.55 100.55 100.55 100.55 100.56 100.56 100.56 100.56 100.56 100.57 100.57 100.57 100.58 100.58 100.58 100.58 100.58 100.59 100.59 100.59 100.59 100.60 100.60 100.60 100.61 100.61 100.61 100.61 100.61 100.62 100.62 100.62 100.62 100.63 100.63 100.63 100.64 100.64 100.64 100.64 100.64 100.65 100.65 100.65 100.66 100.66 100.66 100.66 100.67 100.67 100.67 100.67 100.67 100.68 100.68 100.68 100.69 100.69 100.69 100.69 100.69 100.70 100.70 100.70 100.70 100.71 100.71 100.71 100.72 100.72 100.72 100.72 100.72 100.73 100.73 100.73 100.73 100.74 100.74 100.74 100.75 100.75 100.75 100.75 100.75 100.76 100.76 100.76 100.77 100.77 100.77 100.77 100.78 100.78 100.78 100.78 100.78 100.79 100.79 100.79 100.80 100.80 100.80 100.80 100.81 100.81 100.81 100.81 100.81 100.82 100.82 100.82 100.83 100.83 100.83 100.83 100.83 100.84 100.84 100.84 100.84 100.85 100.85 100.85 100.86 100.86 100.86 100.86 100.86 100.87 100.87 100.87 100.88 100.88 100.88 100.88
100.38 100.39 100.39 100.39 100.39 100.39 100.40 100.40 100.40 100.41 100.41 100.41 100.41 100.42 100.42 100.42 100.42 100.42 100.43 100.43 100.43 100.44 100.44 100.44 100.44 100.44 100.45 100.45 100.45 100.45 100.46 100.46 100.46 100.47 100.47 100.47 100.47 100.47 100.48 100.48 100.48 100.48 100.49 100.49 100.49 100.50 100.50 100.50 100.50 100.50 100.51 100.51 100.51 100.52 100.52 100.52 100.52 100.53 100.53 100.53 100.53 100.53 100.54 100.54 100.54 100.55 100.55 100.55 100.55 100.56 100.56 100.56 100.56 100.56 100.57 100.57 100.57 100.58 100.58 100.58 100.58 100.58 100.59 100.59 100.59 100.59 100.60 100.60 100.60 100.61 100.61 100.61 100.61 100.61 100.62 100.62 100.62 100.62 100.63 100.63 100.63 100.64 100.64 100.64 100.64 100.64 100.65 100.65 100.65 100.66 100.66 100.66 100.66 100.67 100.67 100.67 100.67 100.67 100.68 100.68 100.68 100.69 100.69 100.69 100.69 100.69 100.70 100.70 100.70 100.70 100.71 100.71 100.71 100.72 100.72 100.72 100.72 100.72 100.73 100.73 100.73 100.73 100.74 100.74 100.74 100.75 100.75 100.75 100.75 100.75 100.76 100.76 100.76 100.77 100.77 100.77 100.77 100.78 100.78 100.78 100.78 100.78 100.79 100.79 100.79 100.80 100.80 100.80 100.80 100.81 100.81 100.81 100.81 100.81 100.82 100.82 100.82 100.83 100.83 100.83 100.83 100.83 100.84 100.84 100.84 100.84 100.85 100.85 100.85 100.86 100.86 100.86 100.86 100.86 100.87 100.87 100.87 100.88 100.88 100.88
100.38 100.38 100.39 100.39 100.39 100.39 100.39 100.40 100.40 100.40 100.41 100.41 100.41 100.41 100.42 100.42 100.42 100.42 100.42 100.43 100.43 100.43 100.44 100.44 100.44 100.44 100.44 100.45 100.45 100.45 100.45 100.46 100.46 100.46 100.47 100.47 100.47 100.47 100.47 100.48 100.48 100.48 100.48 100.49 100.49 100.49 100.50 100.50 100.50 100.50 100.50 100.51 100.51 100.51 100.52 100.52 100.52 100.52 100.53 100.53 100.53 100.53 100.53 100.54 100.54 100.54 100.55 100.55 100.55 100.55 100.56 100.56 100.56 100.56 100.56 100.57 100.57 100.57 100.58 100.58 100.58 100.58 100.58 100.59 100.59 100.59 100.59 100.60 100.60 100.60 100.61 100.61 100.61 100.61 100.61 100.62 100.62 100.62 100.62 100.63 100.63 100.63 100.64 100.64 100.64 100.64 100.64 100.65 100.65 100.65 100.66 100.66 100.66 100.66 100.67 100.67 100.67 100.67 100.67 100.68 100.68 100.68 100.69 100.69 100.69 100.69 100.69 100.70 100.70 100.70 100.70 100.71 100.71 100.71 100.72 100.72 100.72 100.72 100.72 100.73 100.73 100.73 100.73 100.74 100.74 100.74 100.75 100.75 100.75 100.75 100.75 100.76 100.76 100.76 100.77 100.77 100.77 100.77 100.78 100.78 100.78 100.78 100.78 100.79 100.79 100.79 100.80 100.80 100.80 100.80 100.81 100.81 100.81 100.81 100.81 100.82 100.82 100.82 100.83 100.83 100.83 100.83 100.83 100.84 100.84 100.84 100.84 100.85 100.85 100.85 100.86 100.86 100.86 100.86 100.86 100.87 100.87 100.87 100.88 100.88
100.38 100.38 100.38 100.39 100.39 100.39 100.39 100.39 100.40 100.40 100.40 100.41 100.41 100.41 100.41 100.42 100.42 100.42 100.42 100.42 100.43 100.43 100.43 100.44 100.44 100.44 100.44 100.44 100.45 100.45 100.45 100.45 100.46 100.46 100.46 100.47 100.47 100.47 100.47 100.47 100.48 100.48 100.48 100.48 100.49 100.49 100.49 100.50 100.50 100.50 100.50 100.50 100.51 100.51 100.51 100.52 100.52 100.52 100.52 100.53 100.53 100.53 100.53 100.53 100.54 100.54 100.54 100.55 100.55 100.55 100.55 100.56 100.56 100.56 100.56 100.56 100.57 100.57 100.57 100.58 100.58 100.58 100.58 100.58 100.59 100.59 100.59 100.59 100.60 100.60 100.60 100.61 100.61 100.61 100.61 100.61 100.62 100.62 100.62 100.62 100.63 100.63 100.63 100.64 100.64 100.64 100.64 100.64 100.65 100.65 100.65 100.66 100.66 100.66 100.66 100.67 100.67 100.67 100.67 100.67 100.68 100.68 100.68 100.69 100.69 100.69 100.69 100.69 100.70 100.70 100.70 100.70 100.71 100.71 100.71 100.72 100.72 100.72 100.72 100.72 100.73 100.73 100.73 100.73 100.74 100.74 100.74 100.75 100.75 100.75 100.75 100.75 100.76 100.76 100.76 100.77 100.77 100.77 100.77 100.78 100.78 100.78 100.78 100.78 100.79 100.79 100.79 100.80 100.80 100.80 100.80 100.81 100.81 100.81 100.81 100.81 100.82 100.82 100.82 100.83 100.83 100.83 100.83 100.83 100.84 100.84 100.84 100.84 100.85 100.85 100.85 100.86 100.86 100.86 100.86 100.86 100.87 100.87 100.87 100.88
100.38 100.38 100.38 100.38 100.39 100.39 100.39 100.39 100.39 100.40 110.40 110.40 110.41 110.41 110.41 110.41 110.42 110.42 110.42 110.42 110.42 110.43 110.43 110.43 110.44 110.44 110.44 110.44 110.44 110.45 110.45 100.45 100.45 100.46 100.46 100.46 100.47 100.47 100.47 100.47 100.47 100.48 100.48 100.48 100.48 100.49 100.49 100.49 100.50 100.50 110.50 110.50 110.50 110.51 110.51 110.51 110.52 110.52 110.52 110.52 110.53 110.53 110.53 110.53 110.53 110.54 110.54 110.54 110.55 110.55 110.55 100.55 100.56 100.56 100.56 100.56 100.56 100.57 100.57 100.57 100.58 100.58 100.58 100.58 100.58 100.59 100.59 100.59 100.59 100.60 110.60 110.60 110.61 110.61 110.61 110.61 110.61 110.62 110.62 110.62 110.62 110.63 110.63 110.63 110.64 110.64 110.64 110.64 110.64 110.65 110.65 100.65 100.66 100.66 100.66 100.66 100.67 100.67 100.67 100.67 100.67 100.68 100.68 100.68 100.69 100.69 100.69 100.69 100.69 100.70 110.70 110.70 110.70 110.71 110.71 110.71 110.72 110.72 110.72 110.72 110.72 110.73 110.73 110.73 110.73 110.74 110.74 110.74 110.75 110.75 110.75 100.75 100.75 100.76 100.76 100.76 100.77 100.77 100.77 100.77 100.78 100.78 100.78 100.78 100.78 100.79 100.79 100.79 100.80 100.80 110.80 110.80 110.81 110.81 110.81 110.81 110.81 110.82 110.82 110.82 110.83 110.83 110.83 110.83 110.83 110.84 110.84 110.84 110.84 110.85 110.85 100.85 100.86 100.86 100.86 100.86 100.86 100.87 100.87 100.87
100.37 100.38 100.38 100.38 100.38 100.39 100.39 100.39 100.39 100.39 110.40 110.40 110.40 110.41 110.41 110.41 110.41 110.42 110.42 110.42 110.42 110.42 110.43 110.43 110.43 110.44 110.44 110.44 110.44 110.44 110.45 100.45 100.45 100.45 100.46 100.46 100.46 100.47 100.47 100.47 100.47 100.47 100.48 100.48 100.48 100.48 100.49 100.49 100.49 100.50 110.50 110.50 110.50 110.50 110.51 110.51 110.51 110.52 110.52 110.52 110.52 110.53 110.53 110.53 110.53 110.53 110.54 110.54 110.54 110.55 110.55 100.55 100.55 100.56 100.56 100.56 100.56 100.56 100.57 100.57 100.57 100.58 100.58 100.58 100.58 100.58 100.59 100.59 100.59 100.59 110.60 110.60 110.60 110.61 110.61 110.61 110.61 110.61 110.62 110.62 110.62 110.62 110.63 110.63 110.63 110.64 110.64 110.64 110.64 110.64 110.65 100.65 100.65 100.66 100.66 100.66 100.66 100.67 100.67 100.67 100.67 100.67 100.68 100.68 100.68 100.69 100.69 100.69 100.69 100.69 110.70 110.70 110.70 110.70 110.71 110.71 110.71 110.72 110.72 110.72 110.72 110.72 110.73 110.73 110.73 110.73 110.74 110.74 110.74 110.75 110.75 100.75 100.75 100.75 100.76 100.76 100.76 100.77 100.77 100.77 100.77 100.78 100.78 100.78 100.78 100.78 100.79 100.79 100.79 100.80 110.80 110.80 110.80 110.81 110.81 110.81 110.81 110.81 110.82 110.82 110.82 110.83 110.83 110.83 110.83 110.83 110.84 110.84 110.84 110.84 110.85 100.85 100.85 100.86 100.86 100.86 100.86 100.86 100.87 100.87
100.37 100.37 100.38 100.38 100.38 100.38 100.39 100.39 100.39 100.39 110.39 110.40 110.40 110.40 110.41 110.41 110.41 110.41 110.42 110.42 110.42 110.42 110.42 110.43 110.43 110.43 110.44 110.44 110.44 110.44 110.44 100.45 100.45 100.45 100.45 100.46 100.46 100.46 100.47 100.47 100.47 100.47 100.47 100.48 100.48 100.48 100.48 100.49 100.49 100.49 110.50 110.50 110.50 110.50 110.50 110.51 110.51 110.51 110.52 110.52 110.52 110.52 110.53 110.53 110.53 110.53 110.53 110.54 110.54 110.54 110.55 100.55 100.55 100.55 100.56 100.56 100.56 100.56 100.56 100.57 100.57 100.57 100.58 100.58 100.58 100.58 100.58 100.59 100.59 100.59 110.59 110.60 110.60 110.60 110.61 110.61 110.61 110.61 110.61 110.62 110.62 110.62 110.62 110.63 110.63 110.63 110.64 110.64 110.64 110.64 110.64 100.65 100.65 100.65 100.66 100.66 100.66 100.66 100.67 100.67 100.67 100.67 100.67 100.68 100.68 100.68 100.69 100.69 100.69 100.69 110.69 110.70 110.70 110.70 110.70 110.71 110.71 110.71 110.72 110.72 110.72 110.72 110.72 110.73 110.73 110.73 110.73 110.74 110.74 110.74 110.75 100.75 100.75 100.75 100.75 100.76 100.76 100.76 100.77 100.77 100.77 100.77 100.78 100.78 100.78 100.78 100.78 100.79 100.79 100.79 110.80 110.80 110.80 110.80 110.81 110.81 110.81 110.81 110.81 110.82 110.82 110.82 110.83 110.83 110.83 110.83 110.83 110.84 110.84 110.84 110.84 100.85 100.85 100.85 100.86 100.86 100.86 100.86 100.86 100.87
100.37 100.37 100.37 100.38 100.38 100.38 100.38 100.39 100.39 100.39 110.39 110.39 110.40 110.40 110.40 110.41 110.41 110.41 110.41 110.42 110.42 110.42 110.42 110.42 110.43 110.43 110.43 110.44 110.44 110.44 110.44 100.44 100.45 100.45 100.45 100.45 100.46 100.46 100.46 100.47 100.47 100.47 100.47 100.47 100.48 100.48 100.48 100.48 100.49 100.49 110.49 110.50 110.50 110.50 110.50 110.50 110.51 110.51 110.51 110.52 110.52 110.52 110.52 110.53 110.53 110.53 110.53 110.53 110.54 110.54 110.54 100.55 100.55 100.55 100.55 100.56 100.56 100.56 100.56 100.56 100.57 100.57 100.57 100.58 100.58 100.58 100.58 100.58 100.59 100.59 110.59 110.59 110.60 110.60 110.60 110.61 110.61 110.61 110.61 110.61 110.62 110.62 110.62 110.62 110.63 110.63 110.63 110.64 110.64 110.64 110.64 100.64 100.65 100.65 100.65 100.66 100.66 100.66 100.66 100.67 100.67 100.67 100.67 100.67 100.68 100.68 100.68 100.69 100.69 100.69 110.69 110.69 110.70 110.70 110.70 110.70 110.71 110.71 110.71 110.72 110.72 110.72 110.72 110.72 110.73 110.73 110.73 110.73 110.74 110.74 110.74 100.75 100.75 100.75 100.75 100.75 100.76 100.76 100.76 100.77 100.77 100.77 100.77 100.78 100.78 100.78 100.78 100.78 100.79 100.79 110.79 110.80 110.80 110.80 110.80 110.81 110.81 110.81 110.81 110.81 110.82 110.82 110.82 110.83 110.83 110.83 110.83 110.83 110.84 110.84 110.84 100.84 100.85 100.85 100.85 100.86 100.86 100.86 100.86 100.86
100.36 100.37 100.37 100.37 100.38 100.38 100.38 100.38 100.39 100.39 110.39 110.39 110.39 110.40 110.40 110.40 110.41 110.41 110.41 110.41 110.42 110.42 110.42 110.42 110.42 110.43 110.43 110.43 110.44 110.44 110.44 100.44 100.44 100.45 100.45 100.45 100.45 100.46 100.46 100.46 100.47 100.47 100.47 100.47 100.47 100.48 100.48 100.48 100.48 100.49 110.49 110.49 110.50 110.50 110.50 110.50 110.50 110.51 110.51 110.51 110.52 110.52 110.52 110.52 110.53 110.53 110.53 110.53 110.53 110.54 110.54 100.54 100.55 100.55 100.55 100.55 100.56 100.56 100.56 100.56 100.56 100.57 100.57 100.57 100.58 100.58 100.58 100.58 100.58 100.59 110.59 110.59 110.59 110.60 110.60 110.60 110.61 110.61 110.61 110.61 110.61 110.62 110.62 110.62 110.62 110.63 110.63 110.63 110.64 110.64 110.64 100.64 100.64 100.65 100.65 100.65 100.66 100.66 100.66 100.66 100.67 100.67 100.67 100.67 100.67 100.68 100.68 100.68 100.69 100.69 110.69 110.69 110.69 110.70 110.70 110.70 110.70 110.71 110.71 110.71 110.72 110.72 110.72 110.72 110.72 110.73 110.73 110.73 110.73 110.74 110.74 100.74 100.75 100.75 100.75 100.75 100.75 100.76 100.76 100.76 100.77 100.77 100.77 100.77 100.78 100.78 100.78 100.78 100.78 100.79 110.79 110.79 110.80 110.80 110.80 110.80 110.81 110.81 110.81 110.81 110.81 110.82 110.82 110.82 110.83 110.83 110.83 110.83 110.83 110.84 110.84 100.84 100.84 100.85 100.85 100.85 100.86 100.86 100.86 100.86
100.36 100.36 100.37 100.37 100.37 100.38 100.38 100.38 100.38 100.39 110.39 110.39 110.39 110.39 110.40 110.40 110.40 110.41 110.41 110.41 110.41 110.42 110.42 110.42 110.42 110.42 110.43 110.43 110.43 110.44 110.44 100.44 100.44 100.44 100.45 100.45 100.45 100.45 100.46 100.46 100.46 100.47 100.47 100.47 100.47 100.47 100.48 100.48 100.48 100.48 110.49 110.49 110.49 110.50 110.50 110.50 110.50 110.50 110.51 110.51 110.51 110.52 110.52 110.52 110.52 110.53 110.53 110.53 110.53 110.53 110.54 100.54 100.54 100.55 100.55 100.55 100.55 100.56 100.56 100.56 100.56 100.56 100.57 100.57 100.57 100.58 100.58 100.58 100.58 100.58 110.59 110.59 110.59 110.59 110.60 110.60 110.60 110.61 110.61 110.61 110.61 110.61 110.62 110.62 110.62 110.62 110.63 110.63 110.63 110.64 110.64 100.64 100.64 100.64 100.65 100.65 100.65 100.66 100.66 100.66 100.66 100.67 100.67 100.67 100.67 100.67 100.68 100.68 100.68 100.69 110.69 110.69 110.69 110.69 110.70 110.70 110.70 110.70 110.71 110.71 110.71 110.72 110.72 110.72 110.72 110.72 110.73 110.73 110.73 110.73 110.74 100.74 100.74 100.75 100.75 100.75 100.75 100.75 100.76 100.76 100.76 100.77 100.77 100.77 100.77 100.78 100.78 100.78 100.78 100.78 110.79 110.79 110.79 110.80 110.80 110.80 110.80 110.81 110.81 110.81 110.81 110.81 110.82 110.82 110.82 110.83 110.83 110.83 110.83 110.83 110.84 100.84 100.84 100.84 100.85 100.85 100.85 100.86 100.86 100.86
100.36 100.36 100.36 100.37 100.37 100.37 100.38 100.38 100.38 100.38 110.39 110.39 110.39 110.39 110.39 110.40 110.40 110.40 110.41 110.41 110.41 110.41 110.42 110.42 110.42 110.42 110.42 110.43 110.43 110.43 110.44 100.44 100.44 100.44 100.44 100.45 100.45 100.45 100.45 100.46 100.46 100.46 100.47 100.47 100.47 100.47 100.47 100.48 100.48 100.48 110.48 110.49 110.49 110.49 110.50 110.50 110.50 110.50 110.50 110.51 110.51 110.51 110.52 110.52 110.52 110.52 110.53 110.53 110.53 110.53 110.53 100.54 100.54 100.54 100.55 100.55 100.55 100.55 100.56 100.56 100.56 100.56 100.56 100.57 100.57 100.57 100.58 100.58 100.58 100.58 110.58 110.59 110.59 110.59 110.59 110.60 110.60 110.60 110.61 110.61 110.61 110.61 110.61 110.62 110.62 110.62 110.62 110.63 110.63 110.63 110.64 100.64 100.64 100.64 100.64 100.65 100.65 100.65 100.66 100.66 100.66 100.66 100.67 100.67 100.67 100.67 100.67 100.68 100.68 100.68 110.69 110.69 110.69 110.69 110.69 110.70 110.70 110.70 110.70 110.71 110.71 110.71 110.72 110.72 110.72 110.72 110.72 110.73 110.73 110.73 110.73 100.74 100.74 100.74 100.75 100.75 100.75 100.75 100.75 100.76 100.76 100.76 100.77 100.77 100.77 100.77 100.78 100.78 100.78 100.78 110.78 110.79 110.79 110.79 110.80 110.80 110.80 110.80 110.81 110.81 110.81 110.81 110.81 110.82 110.82 110.82 110.83 110.83 110.83 110.83 110.83 100.84 100.84 100.84 100.84 100.85 100.85 100.85 100.86 100.86
100.36 100.36 100.36 100.36 100.37 100.37 100.37 100.38 100.38 100.38 110.38 110.39 110.39 110.39 110.39 110.39 110.40 110.40 110.40 110.41 110.41 110.41 110.41 110.42 110.42 110.42 110.42 110.42 110.43 110.43 110.43 100.44 100.44 100.44 100.44 100.44 100.45 100.45 100.45 100.45 100.46 100.46 100.46 100.47 100.47 100.47 100.47 100.47 100.48 100.48 110.48 110.48 110.49 110.49 110.49 110.50 110.50 110.50 110.50 110.50 110.51 110.51 110.51 110.52 110.52 110.52 110.52 110.53 110.53 110.53 110.53 100.53 100.54 100.54 100.54 100.55 100.55 100.55 100.55 100.56 100.56 100.56 100.56 100.56 100.57 100.57 100.57 100.58 100.58 100.58 110.58 110.58 110.59 110.59 110.59 110.59 110.60 110.60 110.60 110.61 110.61 110.61 110.61 110.61 110.62 110.62 110.62 110.62 110.63 110.63 110.63 100.64 100.64 100.64 100.64 100.64 100.65 100.65 100.65 100.66 100.66 100.66 100.66 100.67 100.67 100.67 100.67 100.67 100.68 100.68 110.68 110.69 110.69 110.69 110.69 110.69 110.70 110.70 110.70 110.70 110.71 110.71 110.71 110.72 110.72 110.72 110.72 110.72 110.73 110.73 110.73 100.73 100.74 100.74 100.74 100.75 100.75 100.75 100.75 100.75 100.76 100.76 100.76 100.77 100.77 100.77 100.77 100.78 100.78 100.78 110.78 110.78 110.79 110.79 110.79 110.80 110.80 110.80 110.80 110.81 110.81 110.81 110.81 110.81 110.82 110.82 110.82 110.83 110.83 110.83 110.83 100.83 100.84 100.84 100.84 100.84 100.85 100.85 100.85 100.86
100.36 100.36 100.36 100.36 100.36 100.37 100.37 100.37 100.38 100.38 110.38 110.38 110.39 110.39 110.39 110.39 110.39 110.40 110.40 110.40 110.41 110.41 110.41 110.41 110.42 110.42 110.42 110.42 110.42 110.43 110.43 100.43 100.44 100.44 100.44 100.44 100.44 100.45 100.45 100.45 100.45 100.46 100.46 100.46 100.47 100.47 100.47 100.47 100.47 100.48 110.48 110.48 110.48 110.49 110.49 110.49 110.50 110.50 110.50 110.50 110.50 110.51 110.51 110.51 110.52 110.52 110.52 110.52 110.53 110.53 110.53 100.53 100.53 100.54 100.54 100.54 100.55 100.55 100.55 100.55 100.56 100.56 100.56 100.56 100.56 100.57 100.57 100.57 100.58 100.58 110.58 110.58 110.58 110.59 110.59 110.59 110.59 110.60 110.60 110.60 110.61 110.61 110.61 110.61 110.61 110.62 110.62 110.62 110.62 110.63 110.63 100.63 100.64 100.64 100.64 100.64 100.64 100.65 100.65 100.65 100.66 100.66 100.66 100.66 100.67 100.67 100.67 100.67 100.67 100.68 110.68 110.68 110.69 110.69 110.69 110.69 110.69 110.70 110.70 110.70 110.70 110.71 110.71 110.71 110.72 110.72 110.72 110.72 110.72 110.73 110.73 100.73 100.73 100.74 100.74 100.74 100.75 100.75 100.75 100.75 100.75 100.76 100.76 100.76 100.77 100.77 100.77 100.77 100.78 100.78 110.78 110.78 110.78 110.79 110.79 110.79 110.80 110.80 110.80 110.80 110.81 110.81 110.81 110.81 110.81 110.82 110.82 110.82 110.83 110.83 110.83 100.83 100.83 100.84 100.84 100.84 100.84 100.85 100.85 100.85
100.35 100.36 100.36 100.36 100.36 100.36 100.37 100.37 100.37 100.38 110.38 110.38 110.38 110.39 110.39 110.39 110.39 110.39 110.40 110.40 110.40 110.41 110.41 110.41 110.41 110.42 110.42 110.42 110.42 110.42 110.43 100.43 100.43 100.44 100.44 100.44 100.44 100.44 100.45 100.45 100.45 100.45 100.46 100.46 100.46 100.47 100.47 100.47 100.47 100.47 110.48 110.48 110.48 110.48 110.49 110.49 110.49 110.50 110.50 110.50 110.50 110.50 110.51 110.51 110.51 110.52 110.52 110.52 110.52 110.53 110.53 100.53 100.53 100.53 100.54 100.54 100.54 100.55 100.55 100.55 100.55 100.56 100.56 100.56 100.56 100.56 100.57 100.57 100.57 100.58 110.58 110.58 110.58 110.58 110.59 110.59 110.59 110.59 110.60 110.60 110.60 110.61 110.61 110.61 110.61 110.61 110.62 110.62 110.62 110.62 110.63 100.63 100.63 100.64 100.64 100.64 100.64 100.64 100.65 100.65 100.65 100.66 100.66 100.66 100.66 100.67 100.67 100.67 100.67 100.67 110.68 110.68 110.68 110.69 110.69 110.69 110.69 110.69 110.70 110.70 110.70 110.70 110.71 110.71 110.71 110.72 110.72 110.72 110.72 110.72 110.73 100.73 100.73 100.73 100.74 100.74 100.74 100.75 100.75 100.75 100.75 100.75 100.76 100.76 100.76 100.77 100.77 100.77 100.77 100.78 110.78 110.78 110.78 110.78 110.79 110.79 110.79 110.80 110.80 110.80 110.80 110.81 110.81 110.81 110.81 110.81 110.82 110.82 110.82 110.83 110.83 100.83 100.83 100.83 100.84 100.84 100.84 100.84 100.85 100.85
100.35 100.35 100.36 100.36 100.36 100.36 100.36 100.37 100.37 100.37 110.38 110.38 110.38 110.38 110.39 110.39 110.39 110.39 110.39 110.40 110.40 110.40 110.41 110.41 110.41 110.41 110.42 110.42 110.42 110.42 110.42 100.43 100.43 100.43 100.44 100.44 100.44 100.44 100.44 100.45 100.45 100.45 100.45 100.46 100.46 100.46 100.47 100.47 100.47 100.47 110.47 110.48 110.48 110.48 110.48 110.49 110.49 110.49 110.50 110.50 110.50 110.50 110.50 110.51 110.51 110.51 110.52 110.52 110.52 110.52 110.53 100.53 100.53 100.53 100.53 100.54 100.54 100.54 100.55 100.55 100.55 100.55 100.56 100.56 100.56 100.56 100.56 100.57 100.57 100.57 110.58 110.58 110.58 110.58 110.58 110.59 110.59 110.59 110.59 110.60 110.60 110.60 110.61 110.61 110.61 110.61 110.61 110.62 110.62 110.62 110.62 100.63 100.63 100.63 100.64 100.64 100.64 100.64 100.64 100.65 100.65 100.65 100.66 100.66 100.66 100.66 100.67 100.67 100.67 100.67 110.67 110.68 110.68 110.68 110.69 110.69 110.69 110.69 110.69 110.70 110.70 110.70 110.70 110.71 110.71 110.71 110.72 110.72 110.72 110.72 110.72 100.73 100.73 100.73 100.73 100.74 100.74 100.74 100.75 100.75 100.75 100.75 100.75 100.76 100.76 100.76 100.77 100.77 100.77 100.77 110.78 110.78 110.78 110.78 110.78 110.79 110.79 110.79 110.80 110.80 110.80 110.80 110.81 110.81 110.81 110.81 110.81 110.82 110.82 110.82 110.83 100.83 100.83 100.83 100.83 100.84 100.84 100.84 100.84 100.85
100.35 100.35 100.35 100.36 100.36 100.36 100.36 100.36 100.37 100.37 110.37 110.38 110.38 110.38 110.38 110.39 110.39 110.39 110.39 110.39 110.40 110.40 110.40 110.41 110.41 110.41 110.41 110.42 110.42 110.42 110.42 100.42 100.43 100.43 100.43 100.44 100.44 100.44 100.44 100.44 100.45 100.45 100.45 100.45 100.46 100.46 100.46 100.47 100.47 100.47 110.47 110.47 110.48 110.48 110.48 110.48 110.49 110.49 110.49 110.50 110.50 110.50 110.50 110.50 110.51 110.51 110.51 110.52 110.52 110.52 110.52 100.53 100.53 100.53 100.53 100.53 100.54 100.54 100.54 100.55 100.55 100.55 100.55 100.56 100.56 100.56 100.56 100.56 100.57 100.57 110.57 110.58 110.58 110.58 110.58 110.58 110.59 110.59 110.59 110.59 110.60 110.60 110.60 110.61 110.61 110.61 110.61 110.61 110.62 110.62 110.62 100.62 100.63 100.63 100.63 100.64 100.64 100.64 100.64 100.64 100.65 100.65 100.65 100.66 100.66 100.66 100.66 100.67 100.67 100.67 110.67 110.67 110.68 110.68 110.68 110.69 110.69 110.69 110.69 110.69 110.70 110.70 110.70 110.70 110.71 110.71 110.71 110.72 110.72 110.72 110.72 100.72 100.73 100.73 100.73 100.73 100.74 100.74 100.74 100.75 100.75 100.75 100.75 100.75 100.76 100.76 100.76 100.77 100.77 100.77 110.77 110.78 110.78 110.78 110.78 110.78 110.79 110.79 110.79 110.80 110.80 110.80 110.80 110.81 110.81 110.81 110.81 110.81 110.82 110.82 110.82 100.83 100.83 100.83 100.83 100.83 100.84 100.84 100.84 100.84
100.34 100.35 100.35 100.35 100.36 100.36 100.36 100.36 100.36 100.37 110.37 110.37 110.38 110.38 110.38 110.38 110.39 110.39 110.39 110.39 110.39 110.40 110.40 110.40 110.41 110.41 110.41 110.41 110.42 110.42 110.42 100.42 100.42 100.43 100.43 100.43 100.44 100.44 100.44 100.44 100.44 100.45 100.45 100.45 100.45 100.46 100.46 100.46 100.47 100.47 110.47 110.47 110.47 110.48 110.48 110.48 110.48 110.49 110.49 110.49 110.50 110.50 110.50 110.50 110.50 110.51 110.51 110.51 110.52 110.52 110.52 100.52 100.53 100.53 100.53 100.53 100.53 100.54 100.54 100.54 100.55 100.55 100.55 100.55 100.56 100.56 100.56 100.56 100.56 100.57 110.57 110.57 110.58 110.58 110.58 110.58 110.58 110.59 110.59 110.59 110.59 110.60 110.60 110.60 110.61 110.61 110.61 110.61 110.61 110.62 110.62 100.62 100.62 100.63 100.63 100.63 100.64 100.64 100.64 100.64 100.64 100.65 100.65 100.65 100.66 100.66 100.66 100.66 100.67 100.67 110.67 110.67 110.67 110.68 110.68 110.68 110.69 110.69 110.69 110.69 110.69 110.70 110.70 110.70 110.70 110.71 110.71 110.71 110.72 110.72 110.72 100.72 100.72 100.73 100.73 100.73 100.73 100.74 100.74 100.74 100.75 100.75 100.75 100.75 100.75 100.76 100.76 100.76 100.77 100.77 110.77 110.77 110.78 110.78 110.78 110.78 110.78 110.79 110.79 110.79 110.80 110.80 110.80 110.80 110.81 110.81 110.81 110.81 110.81 110.82 110.82 100.82 100.83 100.83 100.83 100.83 100.83 100.84 100.84 100.84
100.34 100.34 100.35 100.35 100.35 100.36 100.36 100.36 100.36 100.36 110.37 110.37 110.37 110.38 110.38 110.38 110.38 110.39 110.39 110.39 110.39 110.39 110.40 110.40 110.40 110.41 110.41 110.41 110.41 110.42 110.42 100.42 100.42 100.42 100.43 100.43 100.43 100.44 100.44 100.44 100.44 100.44 100.45 100.45 100.45 100.45 100.46 100.46 100.46 100.47 110.47 110.47 110.47 110.47 110.48 110.48 110.48 110.48 110.49 110.49 110.49 110.50 110.50 110.50 110.50 110.50 110.51 110.51 110.51 110.52 110.52 100.52 100.52 100.53 100.53 100.53 100.53 100.53 100.54 100.54 100.54 100.55 100.55 100.55 100.55 100.56 100.56 100.56 100.56 100.56 110.57 110.57 110.57 110.58 110.58 110.58 110.58 110.58 110.59 110.59 110.59 110.59 110.60 110.60 110.60 110.61 110.61 110.61 110.61 110.61 110.62 100.62 100.62 100.62 100.63 100.63 100.63 100.64 100.64 100.64 100.64 100.64 100.65 100.65 100.65 100.66 100.66 100.66 100.66 100.67 110.67 110.67 110.67 110.67 110.68 110.68 110.68 110.69 110.69 110.69 110.69 110.69 110.70 110.70 110.70 110.70 110.71 110.71 110.71 110.72 110.72 100.72 100.72 100.72 100.73 100.73 100.73 100.73 100.74 100.74 100.74 100.75 100.75 100.75 100.75 100.75 100.76 100.76 100.76 100.77 110.77 110.77 110.77 110.78 110.78 110.78 110.78 110.78 110.79 110.79 110.79 110.80 110.80 110.80 110.80 110.81 110.81 110.81 110.81 110.81 110.82 100.82 100.82 100.83 100.83 100.83 100.83 100.83 100.84 100.84
100.34 100.34 100.34 100.35 100.35 100.35 100.36 100.36 100.36 100.36 110.36 110.37 110.37 110.37 110.38 110.38 110.38 110.38 110.39 110.39 110.39 110.39 110.39 110.40 110.40 110.40 110.41 110.41 110.41 110.41 110.42 100.42 100.42 100.42 100.42 100.43 100.43 100.43 100.44 100.44 100.44 100.44 100.44 100.45 100.45 100.45 100.45 100.46 100.46 100.46 110.47 110.47 110.47 110.47 110.47 110.48 110.48 110.48 110.48 110.49 110.49 110.49 110.50 110.50 110.50 110.50 110.50 110.51 110.51 110.51 110.52 100.52 100.52 100.52 100.53 100.53 100.53 100.53 100.53 100.54 100.54 100.54 100.55 100.55 100.55 100.55 100.56 100.56 100.56 100.56 110.56 110.57 110.57 110.57 110.58 110.58 110.58 110.58 110.58 110.59 110.59 110.59 110.59 110.60 110.60 110.60 110.61 110.61 110.61 110.61 110.61 100.62 100.62 100.62 100.62 100.63 100.63 100.63 100.64 100.64 100.64 100.64 100.64 100.65 100.65 100.65 100.66 100.66 100.66 100.66 110.67 110.67 110.67 110.67 110.67 110.68 110.68 110.68 110.69 110.69 110.69 110.69 110.69 110.70 110.70 110.70 110.70 110.71 110.71 110.71 110.72 100.72 100.72 100.72 100.72 100.73 100.73 100.73 100.73 100.74 100.74 100.74 100.75 100.75 100.75 100.75 100.75 100.76 100.76 100.76 110.77 110.77 110.77 110.77 110.78 110.78 110.78 110.78 110.78 110.79 110.79 110.79 110.80 110.80 110.80 110.80 110.81 110.81 110.81 110.81 110.81 100.82 100.82 100.82 100.83 100.83 100.83 100.83 100.83 100.84
100.34 100.34 100.34 100.34 100.35 100.35 100.35 100.36 100.36 100.36 110.36 110.36 110.37 110.37 110.37 110.38 110.38 110.38 110.38 110.39 110.39 110.39 110.39 110.39 110.40 110.40 110.40 110.41 110.41 110.41 110.41 100.42 100.42 100.42 100.42 100.42 100.43 100.43 100.43 100.44 100.44 100.44 100.44 100.44 100.45 100.45 100.45 100.45 100.46 100.46 110.46 110.47 110.47 110.47 110.47 110.47 110.48 110.48 110.48 110.48 110.49 110.49 110.49 110.50 110.50 110.50 110.50 110.50 110.51 110.51 110.51 100.52 100.52 100.52 100.52 100.53 100.53 100.53 100.53 100.53 100.54 100.54 100.54 100.55 100.55 100.55 100.55 100.56 100.56 100.56 110.56 110.56 110.57 110.57 110.57 110.58 110.58 110.58 110.58 110.58 110.59 110.59 110.59 110.59 110.60 110.60 110.60 110.61 110.61 110.61 110.61 100.61 100.62 100.62 100.62 100.62 100.63 100.63 100.63 100.64 100.64 100.64 100.64 100.64 100.65 100.65 100.65 100.66 100.66 100.66 110.66 110.67 110.67 110.67 110.67 110.67 110.68 110.68 110.68 110.69 110.69 110.69 110.69 110.69 110.70 110.70 110.70 110.70 110.71 110.71 110.71 100.72 100.72 100.72 100.72 100.72 100.73 100.73 100.73 100.73 100.74 100.74 100.74 100.75 100.75 100.75 100.75 100.75 100.76 100.76 110.76 110.77 110.77 110.77 110.77 110.78 110.78 110.78 110.78 110.78 110.79 110.79 110.79 110.80 110.80 110.80 110.80 110.81 110.81 110.81 110.81 100.81 100.82 100.82 100.82 100.83 100.83 100.83 100.83 100.83
100.33 100.34 100.34 100.34 100.34 100.35 100.35 100.35 100.36 100.36 110.36 110.36 110.36 110.37 110.37 110.37 110.38 110.38 110.38 110.38 110.39 110.39 110.39 110.39 110.39 110.40 110.40 110.40 110.41 110.41 110.41 100.41 100.42 100.42 100.42 100.42 100.42 100.43 100.43 100.43 100.44 100.44 100.44 100.44 100.44 100.45 100.45 100.45 100.45 100.46 110.46 110.46 110.47 110.47 110.47 110.47 110.47 110.48 110.48 110.48 110.48 110.49 110.49 110.49 110.50 110.50 110.50 110.50 110.50 110.51 110.51 100.51 100.52 100.52 100.52 100.52 100.53 100.53 100.53 100.53 100.53 100.54 100.54 100.54 100.55 100.55 100.55 100.55 100.56 100.56 110.56 110.56 110.56 110.57 110.57 110.57 110.58 110.58 110.58 110.58 110.58 110.59 110.59 110.59 110.59 110.60 110.60 110.60 110.61 110.61 110.61 100.61 100.61 100.62 100.62 100.62 100.62 100.63 100.63 100.63 100.64 100.64 100.64 100.64 100.64 100.65 100.65 100.65 100.66 100.66 110.66 110.66 110.67 110.67 110.67 110.67 110.67 110.68 110.68 110.68 110.69 110.69 110.69 110.69 110.69 110.70 110.70 110.70 110.70 110.71 110.71 100.71 100.72 100.72 100.72 100.72 100.72 100.73 100.73 100.73 100.73 100.74 100.74 100.74 100.75 100.75 100.75 100.75 100.75 100.76 110.76 110.76 110.77 110.77 110.77 110.77 110.78 110.78 110.78 110.78 110.78 110.79 110.79 110.79 110.80 110.80 110.80 110.80 110.81 110.81 110.81 100.81 100.81 100.82 100.82 100.82 100.83 100.83 100.83 100.83
100.33 100.33 100.34 100.34 100.34 100.34 100.35 100.35 100.35 100.36 110.36 110.36 110.36 110.36 110.37 110.37 110.37 110.38 110.38 110.38 110.38 110.39 110.39 110.39 110.39 110.39 110.40 110.40 110.40 110.41 110.41 100.41 100.41 100.42 100.42 100.42 100.42 100.42 100.43 100.43 100.43 100.44 100.44 100.44 100.44 100.44 100.45 100.45 100.45 100.45 110.46 110.46 110.46 110.47 110.47 110.47 110.47 110.47 110.48 110.48 110.48 110.48 110.49 110.49 110.49 110.50 110.50 110.50 110.50 110.50 110.51 100.51 100.51 100.52 100.52 100.52 100.52 100.53 100.53 100.53 100.53 100.53 100.54 100.54 100.54 100.55 100.55 100.55 100.55 100.56 110.56 110.56 110.56 110.56 110.57 110.57 110.57 110.58 110.58 110.58 110.58 110.58 110.59 110.59 110.59 110.59 110.60 110.60 110.60 110.61 110.61 100.61 100.61 100.61 100.62 100.62 100.62 100.62 100.63 100.63 100.63 100.64 100.64 100.64 100.64 100.64 100.65 100.65 100.65 100.66 110.66 110.66 110.66 110.67 110.67 110.67 110.67 110.67 110.68 110.68 110.68 110.69 110.69 110.69 110.69 110.69 110.70 110.70 110.70 110.70 110.71 100.71 100.71 100.72 100.72 100.72 100.72 100.72 100.73 100.73 100.73 100.73 100.74 100.74 100.74 100.75 100.75 100.75 100.75 100.75 110.76 110.76 110.76 110.77 110.77 110.77 110.77 110.78 110.78 110.78 110.78 110.78 110.79 110.79 110.79 110.80 110.80 110.80 110.80 110.81 110.81 100.81 100.81 100.81 100.82 100.82 100.82 100.83 100.83 100.83
100.33 100.33 100.33 100.34 100.34 100.34 100.34 100.35 100.35 100.35 110.36 110.36 110.36 110.36 110.36 110.37 110.37 110.37 110.38 110.38 110.38 110.38 110.39 110.39 110.39 110.39 110.39 110.40 110.40 110.40 110.41 100.41 100.41 100.41 100.42 100.42 100.42 100.42 100.42 100.43 100.43 100.43 100.44 100.44 100.44 100.44 100.44 100.45 100.45 100.45 110.45 110.46 110.46 110.46 110.47 110.47 110.47 110.47 110.47 110.48 110.48 110.48 110.48 110.49 110.49 110.49 110.50 110.50 110.50 110.50 110.50 100.51 100.51 100.51 100.52 100.52 100.52 100.52 100.53 100.53 100.53 100.53 100.53 100.54 100.54 100.54 100.55 100.55 100.55 100.55 110.56 110.56 110.56 110.56 110.56 110.57 110.57 110.57 110.58 110.58 110.58 110.58 110.58 110.59 110.59 110.59 110.59 110.60 110.60 110.60 110.61 100.61 100.61 100.61 100.61 100.62 100.62 100.62 100.62 100.63 100.63 100.63 100.64 100.64 100.64 100.64 100.64 100.65 100.65 100.65 110.66 110.66 110.66 110.66 110.67 110.67 110.67 110.67 110.67 110.68 110.68 110.68 110.69 110.69 110.69 110.69 110.69 110.70 110.70 110.70 110.70 100.71 100.71 100.71 100.72 100.72 100.72 100.72 100.72 100.73 100.73 100.73 100.73 100.74 100.74 100.74 100.75 100.75 100.75 100.75 110.75 110.76 110.76 110.76 110.77 110.77 110.77 110.77 110.78 110.78 110.78 110.78 110.78 110.79 110.79 110.79 110.80 110.80 110.80 110.80 110.81 100.81 100.81 100.81 100.81 100.82 100.82 100.82 100.83 100.83
100.33 100.33 100.33 100.33 100.34 100.34 100.34 100.34 100.35 100.35 110.35 110.36 110.36 110.36 110.36 110.36 110.37 110.37 110.37 110.38 110.38 110.38 110.38 110.39 110.39 110.39 110.39 110.39 110.40 110.40 110.40 100.41 100.41 100.41 100.41 100.42 100.42 100.42 100.42 100.42 100.43 100.43 100.43 100.44 100.44 100.44 100.44 100.44 100.45 100.45 110.45 110.45 110.46 110.46 110.46 110.47 110.47 110.47 110.47 110.47 110.48 110.48 110.48 110.48 110.49 110.49 110.49 110.50 110.50 110.50 110.50 100.50 100.51 100.51 100.51 100.52 100.52 100.52 100.52 100.53 100.53 100.53 100.53 100.53 100.54 100.54 100.54 100.55 100.55 100.55 110.55 110.56 110.56 110.56 110.56 110.56 110.57 110.57 110.57 110.58 110.58 110.58 110.58 110.58 110.59 110.59 110.59 110.59 110.60 110.60 110.60 100.61 100.61 100.61 100.61 100.61 100.62 100.62 100.62 100.62 100.63 100.63 100.63 100.64 100.64 100.64 100.64 100.64 100.65 100.65 110.65 110.66 110.66 110.66 110.66 110.67 110.67 110.67 110.67 110.67 110.68 110.68 110.68 110.69 110.69 110.69 110.69 110.69 110.70 110.70 110.70 100.70 100.71 100.71 100.71 100.72 100.72 100.72 100.72 100.72 100.73 100.73 100.73 100.73 100.74 100.74 100.74 100.75 100.75 100.75 110.75 110.75 110.76 110.76 110.76 110.77 110.77 110.77 110.77 110.78 110.78 110.78 110.78 110.78 110.79 110.79 110.79 110.80 110.80 110.80 110.80 100.81 100.81 100.81 100.81 100.81 100.82 100.82 100.82 100.83
100.33 100.33 100.33 100.33 100.33 100.34 100.34 100.34 100.34 100.35 110.35 110.35 110.36 110.36 110.36 110.36 110.36 110.37 110.37 110.37 110.38 110.38 110.38 110.38 110.39 110.39 110.39 110.39 110.39 110.40 110.40 100.40 100.41 100.41 100.41 100.41 100.42 100.42 100.42 100.42 100.42 100.43 100.43 100.43 100.44 100.44 100.44 100.44 100.44 100.45 110.45 110.45 110.45 110.46 110.46 110.46 110.47 110.47 110.47 110.47 110.47 110.48 110.48 110.48 110.48 110.49 110.49 110.49 110.50 110.50 110.50 100.50 100.50 100.51 100.51 100.51 100.52 100.52 100.52 100.52 100.53 100.53 100.53 100.53 100.53 100.54 100.54 100.54 100.55 100.55 110.55 110.55 110.56 110.56 110.56 110.56 110.56 110.57 110.57 110.57 110.58 110.58 110.58 110.58 110.58 110.59 110.59 110.59 110.59 110.60 110.60 100.60 100.61 100.61 100.61 100.61 100.61 100.62 100.62 100.62 100.62 100.63 100.63 100.63 100.64 100.64 100.64 100.64 100.64 100.65 110.65 110.65 110.66 110.66 110.66 110.66 110.67 110.67 110.67 110.67 110.67 110.68 110.68 110.68 110.69 110.69 110.69 110.69 110.69 110.70 110.70 100.70 100.70 100.71 100.71 100.71 100.72 100.72 100.72 100.72 100.72 100.73 100.73 100.73 100.73 100.74 100.74 100.74 100.75 100.75 110.75 110.75 110.75 110.76 110.76 110.76 110.77 110.77 110.77 110.77 110.78 110.78 110.78 110.78 110.78 110.79 110.79 110.79 110.80 110.80 110.80 100.80 100.81 100.81 100.81 100.81 100.81 100.82 100.82 100.82
100.32 100.33 100.33 100.33 100.33 100.33 100.34 100.34 100.34 100.34 100.35 100.35 100.35 100.36 100.36 100.36 100.36 100.36 100.37 100.37 100.37 100.38 100.38 100.38 100.38 100.39 100.39 100.39 100.39 100.39 100.40 100.40 100.40 100.41 100.41 100.41 100.41 100.42 100.42 100.42 100.42 100.42 100.43 100.43 100.43 100.44 100.44 100.44 100.44 100.44 100.45 100.45 100.45 100.45 100.46 100.46 100.46 100.47 100.47 100.47 100.47 100.47 100.48 100.48 100.48 100.48 100.49 100.49 100.49 100.50 100.50 100.50 100.50 100.50 100.51 100.51 100.51 100.52 100.52 100.52 100.52 100.53 100.53 100.53 100.53 100.53 100.54 100.54 100.54 100.55 100.55 100.55 100.55 100.56 100.56 100.56 100.56 100.56 100.57 100.57 100.57 100.58 100.58 100.58 100.58 100.58 100.59 100.59 100.59 100.59 100.60 100.60 100.60 100.61 100.61 100.61 100.61 100.61 100.62 100.62 100.62 100.62 100.63 100.63 100.63 100.64 100.64 100.64 100.64 100.64 100.65 100.65 100.65 100.66 100.66 100.66 100.66 100.67 100.67 100.67 100.67 100.67 100.68 100.68 100.68 100.69 100.69 100.69 100.69 100.69 100.70 100.70 100.70 100.70 100.71 100.71 100.71 100.72 100.72 100.72 100.72 100.72 100.73 100.73 100.73 100.73 100.74 100.74 100.74 100.75 100.75 100.75 100.75 100.75 100.76 100.76 100.76 100.77 100.77 100.77 100.77 100.78 100.78 100.78 100.78 100.78 100.79 100.79 100.79 100.80 100.80 100.80 100.80 100.81 100.81 100.81 100.81 100.81 100.82 100.82
100.32 100.32 100.33 100.33 100.33 100.33 100.33 100.34 100.34 100.34 100.34 100.35 100.35 100.35 100.36 100.36 100.36 100.36 100.36 100.37 100.37 100.37 100.38 100.38 100.38 100.38 100.39 100.39 100.39 100.39 100.39 100.40 100.40 100.40 100.41 100.41 100.41 100.41 100.42 100.42 100.42 100.42 100.42 100.43 100.43 100.43 100.44 100.44 100.44 100.44 100.44 100.45 100.45 100.45 100.45 100.46 100.46 100.46 100.47 100.47 100.47 100.47 100.47 100.48 100.48 100.48 100.48 100.49 100.49 100.49 100.50 100.50 100.50 100.50 100.50 100.51 100.51 100.51 100.52 100.52 100.52 100.52 100.53 100.53 100.53 100.53 100.53 100.54 100.54 100.54 100.55 100.55 100.55 100.55 100.56 100.56 100.56 100.56 100.56 100.57 100.57 100.57 100.58 100.58 100.58 100.58 100.58 100.59 100.59 100.59 100.59 100.60 100.60 100.60 100.61 100.61 100.61 100.61 100.61 100.62 100.62 100.62 100.62 100.63 100.63 100.63 100.64 100.64 100.64 100.64 100.64 100.65 100.65 100.65 100.66 100.66 100.66 100.66 100.67 100.67 100.67 100.67 100.67 100.68 100.68 100.68 100.69 100.69 100.69 100.69 100.69 100.70 100.70 100.70 100.70 100.71 100.71 100.71 100.72 100.72 100.72 100.72 100.72 100.73 100.73 100.73 100.73 100.74 100.74 100.74 100.75 100.75 100.75 100.75 100.75 100.76 100.76 100.76 100.77 100.77 100.77 100.77 100.78 100.78 100.78 100.78 100.78 100.79 100.79 100.79 100.80 100.80 100.80 100.80 100.81 100.81 100.81 100.81 100.81 100.82
100.32 100.32 100.32 100.33 100.33 100.33 100.33 100.33 100.34 100.34 100.34 100.34 100.35 100.35 100.35 100.36 100.36 100.36 100.36 100.36 100.37 100.37 100.37 100.38 100.38 100.38 100.38 100.39 100.39 100.39 100.39 100.39 100.40 100.40 100.40 100.41 100.41 100.41 100.41 100.42 100.42 100.42 100.42 100.42 100.43 100.43 100.43 100.44 100.44 100.44 100.44 100.44 100.45 100.45 100.45 100.45 100.46 100.46 100.46 100.47 100.47 100.47 100.47 100.47 100.48 100.48 100.48 100.48 100.49 100.49 100.49 100.50 100.50 100.50 100.50 100.50 100.51 100.51 100.51 100.52 100.52 100.52 100.52 100.53 100.53 100.53 100.53 100.53 100.54 100.54 100.54 100.55 100.55 100.55 100.55 100.56 100.56 100.56 100.56 100.56 100.57 100.57 100.57 100.58 100.58 100.58 100.58 100.58 100.59 100.59 100.59 100.59 100.60 100.60 100.60 100.61 100.61 100.61 100.61 100.61 100.62 100.62 100.62 100.62 100.63 100.63 100.63 100.64 100.64 100.64 100.64 100.64 100.65 100.65 100.65 100.66 100.66 100.66 100.66 100.67 100.67 100.67 100.67 100.67 100.68 100.68 100.68 100.69 100.69 100.69 100.69 100.69 100.70 100.70 100.70 100.70 100.71 100.71 100.71 100.72 100.72 100.72 100.72 100.72 100.73 100.73 100.73 100.73 100.74 100.74 100.74 100.75 100.75 100.75 100.75 100.75 100.76 100.76 100.76 100.77 100.77 100.77 100.77 100.78 100.78 100.78 100.78 100.78 100.79 100.79 100.79 100.80 100.80 100.80 100.80 100.81 100.81 100.81 100.81 100.81
100.31 100.32 100.32 100.32 100.33 100.33 100.33 100.33 100.33 100.34 100.34 100.34 100.34 100.35 100.35 100.35 100.36 100.36 100.36 100.36 100.36 100.37 100.37 100.37 100.38 100.38 100.38 100.38 100.39 100.39 100.39 100.39 100.39 100.40 100.40 100.40 100.41 100.41 100.41 100.41 100.42 100.42 100.42 100.42 100.42 100.43 100.43 100.43 100.44 100.44 100.44 100.44 100.44 100.45 100.45 100.45 100.45 100.46 100.46 100.46 100.47 100.47 100.47 100.47 100.47 100.48 100.48 100.48 100.48 100.49 100.49 100.49 100.50 100.50 100.50 100.50 100.50 100.51 100.51 100.51 100.52 100.52 100.52 100.52 100.53 100.53 100.53 100.53 100.53 100.54 100.54 100.54 100.55 100.55 100.55 100.55 100.56 100.56 100.56 100.56 100.56 100.57 100.57 100.57 100.58 100.58 100.58 100.58 100.58 100.59 100.59 100.59 100.59 100.60 100.60 100.60 100.61 100.61 100.61 100.61 100.61 100.62 100.62 100.62 100.62 100.63 100.63 100.63 100.64 100.64 100.64 100.64 100.64 100.65 100.65 100.65 100.66 100.66 100.66 100.66 100.67 100.67 100.67 100.67 100.67 100.68 100.68 100.68 100.69 100.69 100.69 100.69 100.69 100.70 100.70 100.70 100.70 100.71 100.71 100.71 100.72 100.72 100.72 100.72 100.72 100.73 100.73 100.73 100.73 100.74 100.74 100.74 100.75 100.75 100.75 100.75 100.75 100.76 100.76 100.76 100.77 100.77 100.77 100.77 100.78 100.78 100.78 100.78 100.78 100.79 100.79 100.79 100.80 100.80 100.80 100.80 100.81 100.81 100.81 100.81
100.31 100.31 100.32 100.32 100.32 100.33 100.33 100.33 100.33 100.33 100.34 100.34 100.34 100.34 100.35 100.35 100.35 100.36 100.36 100.36 100.36 100.36 100.37 100.37 100.37 100.38 100.38 100.38 100.38 100.39 100.39 100.39 100.39 100.39 100.40 100.40 100.40 100.41 100.41 100.41 100.41 100.42 100.42 100.42 100.42 100.42 100.43 100.43 100.43 100.44 100.44 100.44 100.44 100.44 100.45 100.45 100.45 100.45 100.46 100.46 100.46 100.47 100.47 100.47 100.47 100.47 100.48 100.48 100.48 100.48 100.49 100.49 100.49 100.50 100.50 100.50 100.50 100.50 100.51 100.51 100.51 100.52 100.52 100.52 100.52 100.53 100.53 100.53 100.53 100.53 100.54 100.54 100.54 100.55 100.55 100.55 100.55 100.56 100.56 100.56 100.56 100.56 100.57 100.57 100.57 100.58 100.58 100.58 100.58 100.58 100.59 100.59 100.59 100.59 100.60 100.60 100.60 100.61 100.61 100.61 100.61 100.61 100.62 100.62 100.62 100.62 100.63 100.63 100.63 100.64 100.64 100.64 100.64 100.64 100.65 100.65 100.65 100.66 100.66 100.66 100.66 100.67 100.67 100.67 100.67 100.67 100.68 100.68 100.68 100.69 100.69 100.69 100.69 100.69 100.70 100.70 100.70 100.70 100.71 100.71 100.71 100.72 100.72 100.72 100.72 100.72 100.73 100.73 100.73 100.73 100.74 100.74 100.74 100.75 100.75 100.75 100.75 100.75 100.76 100.76 100.76 100.77 100.77 100.77 100.77 100.78 100.78 100.78 100.78 100.78 100.79 100.79 100.79 100.80 100.80 100.80 100.80 100.81 100.81 100.81
100.31 100.31 100.31 100.32 100.32 100.32 100.33 100.33 100.33 100.33 100.33 100.34 100.34 100.34 100.34 100.35 100.35 100.35 100.36 100.36 100.36 100.36 100.36 100.37 100.37 100.37 100.38 100.38 100.38 100.38 100.39 100.39 100.39 100.39 100.39 100.40 100.40 100.40 100.41 100.41 100.41 100.41 100.42 100.42 100.42 100.42 100.42 100.43 100.43 100.43 100.44 100.44 100.44 100.44 100.44 100.45 100.45 100.45 100.45 100.46 100.46 100.46 100.47 100.47 100.47 100.47 100.47 100.48 100.48 100.48 100.48 100.49 100.49 100.49 100.50 100.50 100.50 100.50 100.50 100.51 100.51 100.51 100.52 100.52 100.52 100.52 100.53 100.53 100.53 100.53 100.53 100.54 100.54 100.54 100.55 100.55 100.55 100.55 100.56 100.56 100.56 100.56 100.56 100.57 100.57 100.57 100.58 100.58 100.58 100.58 100.58 100.59 100.59 100.59 100.59 100.60 100.60 100.60 100.61 100.61 100.61 100.61 100.61 100.62 100.62 100.62 100.62 100.63 100.63 100.63 100.64 100.64 100.64 100.64 100.64 100.65 100.65 100.65 100.66 100.66 100.66 100.66 100.67 100.67 100.67 100.67 100.67 100.68 100.68 100.68 100.69 100.69 100.69 100.69 100.69 100.70 100.70 100.70 100.70 100.71 100.71 100.71 100.72 100.72 100.72 100.72 100.72 100.73 100.73 100.73 100.73 100.74 100.74 100.74 100.75 100.75 100.75 100.75 100.75 100.76 100.76 100.76 100.77 100.77 100.77 100.77 100.78 100.78 100.78 100.78 100.78 100.79 100.79 100.79 100.80 100.80 100.80 100.80 100.81 100.81
100.31 100.31 100.31 100.31 100.32 100.32 100.32 100.33 100.33 100.33 100.33 100.33 100.34 100.34 100.34 100.34 100.35 100.35 100.35 100.36 100.36 100.36 100.36 100.36 100.37 100.37 100.37 100.38 100.38 100.38 100.38 100.39 100.39 100.39 100.39 100.39 100.40 100.40 100.40 100.41 100.41 100.41 100.41 100.42 100.42 100.42 100.42 100.42 100.43 100.43 100.43 100.44 100.44 100.44 100.44 100.44 100.45 100.45 100.45 100.45 100.46 100.46 100.46 100.47 100.47 100.47 100.47 100.47 100.48 100.48 100.48 100.48 100.49 100.49 100.49 100.50 100.50 100.50 100.50 100.50 100.51 100.51 100.51 100.52 100.52 100.52 100.52 100.53 100.53 100.53 100.53 100.53 100.54 100.54 100.54 100.55 100.55 100.55 100.55 100.56 100.56 100.56 100.56 100.56 100.57 100.57 100.57 100.58 100.58 100.58 100.58 100.58 100.59 100.59 100.59 100.59 100.60 100.60 100.60 100.61 100.61 100.61 100.61 100.61 100.62 100.62 100.62 100.62 100.63 100.63 100.63 100.64 100.64 100.64 100.64 100.64 100.65 100.65 100.65 100.66 100.66 100.66 100.66 100.67 100.67 100.67 100.67 100.67 100.68 100.68 100.68 100.69 100.69 100.69 100.69 100.69 100.70 100.70 100.70 100.70 100.71 100.71 100.71 100.72 100.72 100.72 100.72 100.72 100.73 100.73 100.73 100.73 100.74 100.74 100.74 100.75 100.75 100.75 100.75 100.75 100.76 100.76 100.76 100.77 100.77 100.77 100.77 100.78 100.78 100.78 100.78 100.78 100.79 100.79 100.79 100.80 100.80 100.80 100.80 100.81
100.31 100.31 100.31 100.31 100.31 100.32 100.32 100.32 100.33 100.33 100.33 100.33 100.33 100.34 100.34 100.34 100.34 100.35 100.35 100.35 100.36 100.36 100.36 100.36 100.36 100.37 100.37 100.37 100.38 100.38 100.38 100.38 100.39 100.39 100.39 100.39 100.39 100.40 100.40 100.40 100.41 100.41 100.41 100.41 100.42 100.42 100.42 100.42 100.42 100.43 100.43 100.43 100.44 100.44 100.44 100.44 100.44 100.45 100.45 100.45 100.45 100.46 100.46 100.46 100.47 100.47 100.47 100.47 100.47 100.48 100.48 100.48 100.48 100.49 100.49 100.49 100.50 100.50 100.50 100.50 100.50 100.51 100.51 100.51 100.52 100.52 100.52 100.52 100.53 100.53 100.53 100.53 100.53 100.54 100.54 100.54 100.55 100.55 100.55 100.55 100.56 100.56 100.56 100.56 100.56 100.57 100.57 100.57 100.58 100.58 100.58 100.58 100.58 100.59 100.59 100.59 100.59 100.60 100.60 100.60 100.61 100.61 100.61 100.61 100.61 100.62 100.62 100.62 100.62 100.63 100.63 100.63 100.64 100.64 100.64 100.64 100.64 100.65 100.65 100.65 100.66 100.66 100.66 100.66 100.67 100.67 100.67 100.67 100.67 100.68 100.68 100.68 100.69 100.69 100.69 100.69 100.69 100.70 100.70 100.70 100.70 100.71 100.71 100.71 100.72 100.72 100.72 100.72 100.72 100.73 100.73 100.73 100.73 100.74 100.74 100.74 100.75 100.75 100.75 100.75 100.75 100.76 100.76 100.76 100.77 100.77 100.77 100.77 100.78 100.78 100.78 100.78 100.78 100.79 100.79 100.79 100.80 100.80 100.80 100.80
100.30 100.31 100.31 100.31 100.31 100.31 100.32 100.32 100.32 100.33 100.33 100.33 100.33 100.33 100.34 100.34 100.34 100.34 100.35 100.35 100.35 100.36 100.36 100.36 100.36 100.36 100.37 100.37 100.37 100.38 100.38 100.38 100.38 100.39 100.39 100.39 100.39 100.39 100.40 100.40 100.40 100.41 100.41 100.41 100.41 100.42 100.42 100.42 100.42 100.42 100.43 100.43 100.43 100.44 100.44 100.44 100.44 100.44 100.45 100.45 100.45 100.45 100.46 100.46 100.46 100.47 100.47 100.47 100.47 100.47 100.48 100.48 100.48 100.48 100.49 100.49 100.49 100.50 100.50 100.50 100.50 100.50 100.51 100.51 100.51 100.52 100.52 100.52 100.52 100.53 100.53 100.53 100.53 100.53 100.54 100.54 100.54 100.55 100.55 100.55 100.55 100.56 100.56 100.56 100.56 100.56 100.57 100.57 100.57 100.58 100.58 100.58 100.58 100.58 100.59 100.59 100.59 100.59 100.60 100.60 100.60 100.61 100.61 100.61 100.61 100.61 100.62 100.62 100.62 100.62 100.63 100.63 100.63 100.64 100.64 100.64 100.64 100.64 100.65 100.65 100.65 100.66 100.66 100.66 100.66 100.67 100.67 100.67 100.67 100.67 100.68 100.68 100.68 100.69 100.69 100.69 100.69 100.69 100.70 100.70 100.70 100.70 100.71 100.71 100.71 100.72 100.72 100.72 100.72 100.72 100.73 100.73 100.73 100.73 100.74 100.74 100.74 100.75 100.75 100.75 100.75 100.75 100.76 100.76 100.76 100.77 100.77 100.77 100.77 100.78 100.78 100.78 100.78 100.78 100.79 100.79 100.79 100.80 100.80 100.80
100.30 100.30 100.31 100.31 100.31 100.31 100.31 100.32 100.32 100.32 100.33 100.33 100.33 100.33 100.33 100.34 100.34 100.34 100.34 100.35 100.35 100.35 100.36 100.36 100.36 100.36 100.36 100.37 100.37 100.37 100.38 100.38 100.38 100.38 100.39 100.39 100.39 100.39 100.39 100.40 100.40 100.40 100.41 100.41 100.41 100.41 100.42 100.42 100.42 100.42 100.42 100.43 100.43 100.43 100.44 100.44 100.44 100.44 100.44 100.45 100.45 100.45 100.45 100.46 100.46 100.46 100.47 100.47 100.47 100.47 100.47 100.48 100.48 100.48 100.48 100.49 100.49 100.49 100.50 100.50 100.50 100.50 100.50 100.51 100.51 100.51 100.52 100.52 100.52 100.52 100.53 100.53 100.53 100.53 100.53 100.54 100.54 100.54 100.55 100.55 100.55 100.55 100.56 100.56 100.56 100.56 100.56 100.57 100.57 100.57 100.58 100.58 100.58 100.58 100.58 100.59 100.59 100.59 100.59 100.60 100.60 100.60 100.61 100.61 100.61 100.61 100.61 100.62 100.62 100.62 100.62 100.63 100.63 100.63 100.64 100.64 100.64 100.64 100.64 100.65 100.65 100.65 100.66 100.66 100.66 100.66 100.67 100.67 100.67 100.67 100.67 100.68 100.68 100.68 100.69 100.69 100.69 100.69 100.69 100.70 100.70 100.70 100.70 100.71 100.71 100.71 100.72 100.72 100.72 100.72 100.72 100.73 100.73 100.73 100.73 100.74 100.74 100.74 100.75 100.75 100.75 100.75 100.75 100.76 100.76 100.76 100.77 100.77 100.77 100.77 100.78 100.78 100.78 100.78 100.78 100.79 100.79 100.79 100.80 100.80
100.30 100.30 100.30 100.31 100.31 100.31 100.31 100.31 100.32 100.32 100.32 100.33 100.33 100.33 100.33 100.33 100.34 100.34 100.34 100.34 100.35 100.35 100.35 100.36 100.36 100.36 100.36 100.36 100.37 100.37 100.37 100.38 100.38 100.38 100.38 100.39 100.39 100.39 100.39 100.39 100.40 100.40 100.40 100.41 100.41 100.41 100.41 100.42 100.42 100.42 100.42 100.42 100.43 100.43 100.43 100.44 100.44 100.44 100.44 100.44 100.45 100.45 100.45 100.45 100.46 100.46 100.46 100.47 100.47 100.47 100.47 100.47 100.48 100.48 100.48 100.48 100.49 100.49 100.49 100.50 100.50 100.50 100.50 100.50 100.51 100.51 100.51 100.52 100.52 100.52 100.52 100.53 100.53 100.53 100.53 100.53 100.54 100.54 100.54 100.55 100.55 100.55 100.55 100.56 100.56 100.56 100.56 100.56 100.57 100.57 100.57 100.58 100.58 100.58 100.58 100.58 100.59 100.59 100.59 100.59 100.60 100.60 100.60 100.61 100.61 100.61 100.61 100.61 100.62 100.62 100.62 100.62 100.63 100.63 100.63 100.64 100.64 100.64 100.64 100.64 100.65 100.65 100.65 100.66 100.66 100.66 100.66 100.67 100.67 100.67 100.67 100.67 100.68 100.68 100.68 100.69 100.69 100.69 100.69 100.69 100.70 100.70 100.70 100.70 100.71 100.71 100.71 100.72 100.72 100.72 100.72 100.72 100.73 100.73 100.73 100.73 100.74 100.74 100.74 100.75 100.75 100.75 100.75 100.75 100.76 100.76 100.76 100.77 100.77 100.77 100.77 100.78 100.78 100.78 100.78 100.78 100.79 100.79 100.79 100.80
100.30 100.30 100.30 100.30 100.31 100.31 100.31 100.31 100.31 100.32 100.32 100.32 100.33 100.33 100.33 100.33 100.33 100.34 100.34 100.34 100.34 100.35 100.35 100.35 100.36 100.36 100.36 100.36 100.36 100.37 100.37 100.37 100.38 100.38 100.38 100.38 100.39 100.39 100.39 100.39 100.39 100.40 100.40 100.40 100.41 100.41 100.41 100.41 100.42 100.42 100.42 100.42 100.42 100.43 100.43 100.43 100.44 100.44 100.44 100.44 100.44 100.45 100.45 100.45 100.45 100.46 100.46 100.46 100.47 100.47 100.47 100.47 100.47 100.48 100.48 100.48 100.48 100.49 100.49 100.49 100.50 100.50 100.50 100.50 100.50 100.51 100.51 100.51 100.52 100.52 100.52 100.52 100.53 100.53 100.53 100.53 100.53 100.54 100.54 100.54 100.55 100.55 100.55 100.55 100.56 100.56 100.56 100.56 100.56 100.57 100.57 100.57 100.58 100.58 100.58 100.58 100.58 100.59 100.59 100.59 100.59 100.60 100.60 100.60 100.61 100.61 100.61 100.61 100.61 100.62 100.62 100.62 100.62 100.63 100.63 100.63 100.64 100.64 100.64 100.64 100.64 100.65 100.65 100.65 100.66 100.66 100.66 100.66 100.67 100.67 100.67 100.67 100.67 100.68 100.68 100.68 100.69 100.69 100.69 100.69 100.69 100.70 100.70 100.70 100.70 100.71 100.71 100.71 100.72 100.72 100.72 100.72 100.72 100.73 100.73 100.73 100.73 100.74 100.74 100.74 100.75 100.75 100.75 100.75 100.75 100.76 100.76 100.76 100.77 100.77 100.77 100.77 100.78 100.78 100.78 100.78 100.78 100.79 100.79 100.79
100.29 100.30 100.30 100.30 100.30 100.31 100.31 100.31 100.31 100.31 100.32 100.32 100.32 100.33 100.33 100.33 100.33 100.33 100.34 100.34 100.34 100.34 100.35 100.35 100.35 100.36 100.36 100.36 100.36 100.36 100.37 100.37 100.37 100.38 100.38 100.38 100.38 100.39 100.39 100.39 100.39 100.39 100.40 100.40 100.40 100.41 100.41 100.41 100.41 100.42 100.42 100.42 100.42 100.42 100.43 100.43 100.43 100.44 100.44 100.44 100.44 100.44 100.45 100.45 100.45 100.45 100.46 100.46 100.46 100.47 100.47 100.47 100.47 100.47 100.48 100.48 100.48 100.48 100.49 100.49 100.49 100.50 100.50 100.50 100.50 100.50 100.51 100.51 100.51 100.52 100.52 100.52 100.52 100.53 100.53 100.53 100.53 100.53 100.54 100.54 100.54 100.55 100.55 100.55 100.55 100.56 100.56 100.56 100.56 100.56 100.57 100.57 100.57 100.58 100.58 100.58 100.58 100.58 100.59 100.59 100.59 100.59 100.60 100.60 100.60 100.61 100.61 100.61 100.61 100.61 100.62 100.62 100.62 100.62 100.63 100.63 100.63 100.64 100.64 100.64 100.64 100.64 100.65 100.65 100.65 100.66 100.66 100.66 100.66 100.67 100.67 100.67 100.67 100.67 100.68 100.68 100.68 100.69 100.69 100.69 100.69 100.69 100.70 100.70 100.70 100.70 100.71 100.71 100.71 100.72 100.72 100.72 100.72 100.72 100.73 100.73 100.73 100.73 100.74 100.74 100.74 100.75 100.75 100.75 100.75 100.75 100.76 100.76 100.76 100.77 100.77 100.77 100.77 100.78 100.78 100.78 100.78 100.78 100.79 100.79
100.29 100.29 100.30 100.30 100.30 100.30 100.31 100.31 100.31 100.31 100.31 100.32 100.32 100.32 100.33 100.33 100.33 100.33 100.33 100.34 100.34 100.34 100.34 100.35 100.35 100.35 100.36 100.36 100.36 100.36 100.36 100.37 100.37 100.37 100.38 100.38 100.38 100.38 100.39 100.39 100.39 100.39 100.39 100.40 100.40 100.40 100.41 100.41 100.41 100.41 100.42 100.42 100.42 100.42 100.42 100.43 100.43 100.43 100.44 100.44 100.44 100.44 100.44 100.45 100.45 100.45 100.45 100.46 100.46 100.46 100.47 100.47 100.47 100.47 100.47 100.48 100.48 100.48 100.48 100.49 100.49 100.49 100.50 100.50 100.50 100.50 100.50 100.51 100.51 100.51 100.52 100.52 100.52 100.52 100.53 100.53 100.53 100.53 100.53 100.54 100.54 100.54 100.55 100.55 100.55 100.55 100.56 100.56 100.56 100.56 100.56 100.57 100.57 100.57 100.58 100.58 100.58 100.58 100.58 100.59 100.59 100.59 100.59 100.60 100.60 100.60 100.61 100.61 100.61 100.61 100.61 100.62 100.62 100.62 100.62 100.63 100.63 100.63 100.64 100.64 100.64 100.64 100.64 100.65 100.65 100.65 100.66 100.66 100.66 100.66 100.67 100.67 100.67 100.67 100.67 100.68 100.68 100.68 100.69 100.69 100.69 100.69 100.69 100.70 100.70 100.70 100.70 100.71 100.71 100.71 100.72 100.72 100.72 100.72 100.72 100.73 100.73 100.73 100.73 100.74 100.74 100.74 100.75 100.75 100.75 100.75 100.75 100.76 100.76 100.76 100.77 100.77 100.77 100.77 100.78 100.78 100.78 100.78 100.78 100.79
100.29 100.29 100.29 100.30 100.30 100.30 100.30 100.31 100.31 100.31 100.31 100.31 100.32 100.32 100.32 100.33 100.33 100.33 100.33 100.33 100.34 100.34 100.34 100.34 100.35 100.35 100.35 100.36 100.36 100.36 100.36 100.36 100.37 100.37 100.37 100.38 100.38 100.38 100.38 100.39 100.39 100.39 100.39 100.39 100.40 100.40 100.40 100.41 100.41 100.41 100.41 100.42 100.42 100.42 100.42 100.42 100.43 100.43 100.43 100.44 100.44 100.44 100.44 100.44 100.45 100.45 100.45 100.45 100.46 100.46 100.46 100.47 100.47 100.47 100.47 100.47 100.48 100.48 100.48 100.48 100.49 100.49 100.49 100.50 100.50 100.50 100.50 100.50 100.51 100.51 100.51 100.52 100.52 100.52 100.52 100.53 100.53 100.53 100.53 100.53 100.54 100.54 100.54 100.55 100.55 100.55 100.55 100.56 100.56 100.56 100.56 100.56 100.57 100.57 100.57 100.58 100.58 100.58 100.58 100.58 100.59 100.59 100.59 100.59 100.60 100.60 100.60 100.61 100.61 100.61 100.61 100.61 100.62 100.62 100.62 100.62 100.63 100.63 100.63 100.64 100.64 100.64 100.64 100.64 100.65 100.65 100.65 100.66 100.66 100.66 100.66 100.67 100.67 100.67 100.67 100.67 100.68 100.68 100.68 100.69 100.69 100.69 100.69 100.69 100.70 100.70 100.70 100.70 100.71 100.71 100.71 100.72 100.72 100.72 100.72 100.72 100.73 100.73 100.73 100.73 100.74 100.74 100.74 100.75 100.75 100.75 100.75 100.75 100.76 100.76 100.76 100.77 100.77 100.77 100.77 100.78 100.78 100.78 100.78 100.78
100.28 100.29 100.29 100.29 100.30 100.30 100.30 100.30 100.31 100.31 100.31 100.31 100.31 100.32 100.32 100.32 100.33 100.33 100.33 100.33 100.33 100.34 100.34 100.34 100.34 100.35 100.35 100.35 100.36 100.36 100.36 100.36 100.36 100.37 100.37 100.37 100.38 100.38 100.38 100.38 100.39 100.39 100.39 100.39 100.39 100.40 100.40 100.40 100.41 100.41 100.41 100.41 100.42 100.42 100.42 100.42 100.42 100.43 100.43 100.43 100.44 100.44 100.44 100.44 100.44 100.45 100.45 100.45 100.45 100.46 100.46 100.46 100.47 100.47 100.47 100.47 100.47 100.48 100.48 100.48 100.48 100.49 100.49 100.49 100.50 100.50 100.50 100.50 100.50 100.51 100.51 100.51 100.52 100.52 100.52 100.52 100.53 100.53 100.53 100.53 100.53 100.54 100.54 100.54 100.55 100.55 100.55 100.55 100.56 100.56 100.56 100.56 100.56 100.57 100.57 100.57 100.58 100.58 100.58 100.58 100.58 100.59 100.59 100.59 100.59 100.60 100.60 100.60 100.61 100.61 100.61 100.61 100.61 100.62 100.62 100.62 100.62 100.63 100.63 100.63 100.64 100.64 100.64 100.64 100.64 100.65 100.65 100.65 100.66 100.66 100.66 100.66 100.67 100.67 100.67 100.67 100.67 100.68 100.68 100.68 100.69 100.69 100.69 100.69 100.69 100.70 100.70 100.70 100.70 100.71 100.71 100.71 100.72 100.72 100.72 100.72 100.72 100.73 100.73 100.73 100.73 100.74 100.74 100.74 100.75 100.75 100.75 100.75 100.75 100.76 100.76 100.76 100.77 100.77 100.77 100.77 100.78 100.78 100.78 100.78
100.28 100.28 100.29 100.29 100.29 100.30 100.30 100.30 100.30 100.31 100.31 100.31 100.31 100.31 100.32 100.32 100.32 100.33 100.33 100.33 100.33 100.33 100.34 100.34 100.34 100.34 100.35 100.35 100.35 100.36 100.36 100.36 100.36 100.36 100.37 100.37 100.37 100.38 100.38 100.38 100.38 100.39 100.39 100.39 100.39 100.39 100.40 100.40 100.40 100.41 100.41 100.41 100.41 100.42 100.42 100.42 100.42 100.42 100.43 100.43 100.43 100.44 100.44 100.44 100.44 100.44 100.45 100.45 100.45 100.45 100.46 100.46 100.46 100.47 100.47 100.47 100.47 100.47 100.48 100.48 100.48 100.48 100.49 100.49 100.49 100.50 100.50 100.50 100.50 100.50 100.51 100.51 100.51 100.52 100.52 100.52 100.52 100.53 100.53 100.53 100.53 100.53 100.54 100.54 100.54 100.55 100.55 100.55 100.55 100.56 100.56 100.56 100.56 100.56 100.57 100.57 100.57 100.58 100.58 100.58 100.58 100.58 100.59 100.59 100.59 100.59 100.60 100.60 100.60 100.61 100.61 100.61 100.61 100.61 100.62 100.62 100.62 100.62 100.63 100.63 100.63 100.64 100.64 100.64 100.64 100.64 100.65 100.65 100.65 100.66 100.66 100.66 100.66 100.67 100.67 100.67 100.67 100.67 100.68 100.68 100.68 100.69 100.69 100.69 100.69 100.69 100.70 100.70 100.70 100.70 100.71 100.71 100.71 100.72 100.72 100.72 100.72 100.72 100.73 100.73 100.73 100.73 100.74 100.74 100.74 100.75 100.75 100.75 100.75 100.75 100.76 100.76 100.76 100.77 100.77 100.77 100.77 100.78 100.78 100.78
100.28 100.28 100.28 100.29 100.29 100.29 100.30 100.30 100.30 100.30 100.31 100.31 100.31 100.31 100.31 100.32 100.32 100.32 100.33 100.33 100.33 100.33 100.33 100.34 100.34 100.34 100.34 100.35 100.35 100.35 100.36 100.36 100.36 100.36 100.36 100.37 100.37 100.37 100.38 100.38 100.38 100.38 100.39 100.39 100.39 100.39 100.39 100.40 100.40 100.40 100.41 100.41 100.41 100.41 100.42 100.42 100.42 100.42 100.42 100.43 100.43 100.43 100.44 100.44 100.44 100.44 100.44 100.45 100.45 100.45 100.45 100.46 100.46 100.46 100.47 100.47 100.47 100.47 100.47 100.48 100.48 100.48 100.48 100.49 100.49 100.49 100.50 100.50 100.50 100.50 100.50 100.51 100.51 100.51 100.52 100.52 100.52 100.52 100.53 100.53 100.53 100.53 100.53 100.54 100.54 100.54 100.55 100.55 100.55 100.55 100.56 100.56 100.56 100.56 100.56 100.57 100.57 100.57 100.58 100.58 100.58 100.58 100.58 100.59 100.59 100.59 100.59 100.60 100.60 100.60 100.61 100.61 100.61 100.61 100.61 100.62 100.62 100.62 100.62 100.63 100.63 100.63 100.64 100.64 100.64 100.64 100.64 100.65 100.65 100.65 100.66 100.66 100.66 100.66 100.67 100.67 100.67 100.67 100.67 100.68 100.68 100.68 100.69 100.69 100.69 100.69 100.69 100.70 100.70 100.70 100.70 100.71 100.71 100.71 100.72 100.72 100.72 100.72 100.72 100.73 100.73 100.73 100.73 100.74 100.74 100.74 100.75 100.75 100.75 100.75 100.75 100.76 100.76 100.76 100.77 100.77 100.77 100.77 100.78 100.78
100.28 100.28 100.28 100.28 100.29 100.29 100.29 100.30 100.30 100.30 100.30 100.31 100.31 100.31 100.31 100.31 100.32 100.32 100.32 100.33 100.33 100.33 100.33 100.33 100.34 100.34 100.34 100.34 100.35 100.35 100.35 100.36 100.36 100.36 100.36 100.36 100.37 100.37 100.37 100.38 100.38 100.38 100.38 100.39 100.39 100.39 100.39 100.39 100.40 100.40 100.40 100.41 100.41 100.41 100.41 100.42 100.42 100.42 100.42 100.42 100.43 100.43 100.43 100.44 100.44 100.44 100.44 100.44 100.45 100.45 100.45 100.45 100.46 100.46 100.46 100.47 100.47 100.47 100.47 100.47 100.48 100.48 100.48 100.48 100.49 100.49 100.49 100.50 100.50 100.50 100.50 100.50 100.51 100.51 100.51 100.52 100.52 100.52 100.52 100.53 100.53 100.53 100.53 100.53 100.54 100.54 100.54 100.55 100.55 100.55 100.55 100.56 100.56 100.56 100.56 100.56 100.57 100.57 100.57 100.58 100.58 100.58 100.58 100.58 100.59 100.59 100.59 100.59 100.60 100.60 100.60 100.61 100.61 100.61 100.61 100.61 100.62 100.62 100.62 100.62 100.63 100.63 100.63 100.64 100.64 100.64 100.64 100.64 100.65 100.65 100.65 100.66 100.66 100.66 100.66 100.67 100.67 100.67 100.67 100.67 100.68 100.68 100.68 100.69 100.69 100.69 100.69 100.69 100.70 100.70 100.70 100.70 100.71 100.71 100.71 100.72 100.72 100.72 100.72 100.72 100.73 100.73 100.73 100.73 100.74 100.74 100.74 100.75 100.75 100.75 100.75 100.75 100.76 100.76 100.76 100.77 100.77 100.77 100.77 100.78
100.28 100.28 100.28 100.28 100.28 100.29 100.29 100.29 100.30 100.30 110.30 110.30 110.31 110.31 110.31 110.31 110.31 110.32 110.32 110.32 110.33 110.33 110.33 110.33 110.33 110.34 110.34 110.34 110.34 110.35 110.35 100.35 100.36 100.36 100.36 100.36 100.36 100.37 100.37 100.37 100.38 100.38 100.38 100.38 100.39 100.39 100.39 100.39 100.39 100.40 110.40 110.40 110.41 110.41 110.41 110.41 110.42 110.42 110.42 110.42 110.42 110.43 110.43 110.43 110.44 110.44 110.44 110.44 110.44 110.45 110.45 100.45 100.45 100.46 100.46 100.46 100.47 100.47 100.47 100.47 100.47 100.48 100.48 100.48 100.48 100.49 100.49 100.49 100.50 100.50 110.50 110.50 110.50 110.51 110.51 110.51 110.52 110.52 110.52 110.52 110.53 110.53 110.53 110.53 110.53 110.54 110.54 110.54 110.55 110.55 110.55 100.55 100.56 100.56 100.56 100.56 100.56 100.57 100.57 100.57 100.58 100.58 100.58 100.58 100.58 100.59 100.59 100.59 100.59 100.60 110.60 110.60 110.61 110.61 110.61 110.61 110.61 110.62 110.62 110.62 110.62 110.63 110.63 110.63 110.64 110.64 110.64 110.64 110.64 110.65 110.65 100.65 100.66 100.66 100.66 100.66 100.67 100.67 100.67 100.67 100.67 100.68 100.68 100.68 100.69 100.69 100.69 100.69 100.69 100.70 110.70 110.70 110.70 110.71 110.71 110.71 110.72 110.72 110.72 110.72 110.72 110.73 110.73 110.73 110.73 110.74 110.74 110.74 110.75 110.75 110.75 100.75 100.75 100.76 100.76 100.76 100.77 100.77 100.77 100.77
100.27 100.28 100.28 100.28 100.28 100.28 100.29 100.29 100.29 100.30 110.30 110.30 110.30 110.31 110.31 110.31 110.31 110.31 110.32 110.32 110.32 110.33 110.33 110.33 110.33 110.33 110.34 110.34 110.34 110.34 110.35 100.35 100.35 100.36 100.36 100.36 100.36 100.36 100.37 100.37 100.37 100.38 100.38 100.38 100.38 100.39 100.39 100.39 100.39 100.39 110.40 110.40 110.40 110.41 110.41 110.41 110.41 110.42 110.42 110.42 110.42 110.42 110.43 110.43 110.43 110.44 110.44 110.44 110.44 110.44 110.45 100.45 100.45 100.45 100.46 100.46 100.46 100.47 100.47 100.47 100.47 100.47 100.48 100.48 100.48 100.48 100.49 100.49 100.49 100.50 110.50 110.50 110.50 110.50 110.51 110.51 110.51 110.52 110.52 110.52 110.52 110.53 110.53 110.53 110.53 110.53 110.54 110.54 110.54 110.55 110.55 100.55 100.55 100.56 100.56 100.56 100.56 100.56 100.57 100.57 100.57 100.58 100.58 100.58 100.58 100.58 100.59 100.59 100.59 100.59 110.60 110.60 110.60 110.61 110.61 110.61 110.61 110.61 110.62 110.62 110.62 110.62 110.63 110.63 110.63 110.64 110.64 110.64 110.64 110.64 110.65 100.65 100.65 100.66 100.66 100.66 100.66 100.67 100.67 100.67 100.67 100.67 100.68 100.68 100.68 100.69 100.69 100.69 100.69 100.69 110.70 110.70 110.70 110.70 110.71 110.71 110.71 110.72 110.72 110.72 110.72 110.72 110.73 110.73 110.73 110.73 110.74 110.74 110.74 110.75 110.75 100.75 100.75 100.75 100.76 100.76 100.76 100.77 100.77 100.77
100.27 100.27 100.28 100.28 100.28 100.28 100.28 100.29 100.29 100.29 110.30 110.30 110.30 110.30 110.31 110.31 110.31 110.31 110.31 110.32 110.32 110.32 110.33 110.33 110.33 110.33 110.33 110.34 110.34 110.34 110.34 100.35 100.35 100.35 100.36 100.36 100.36 100.36 100.36 100.37 100.37 100.37 100.38 100.38 100.38 100.38 100.39 100.39 100.39 100.39 110.39 110.40 110.40 110.40 110.41 110.41 110.41 110.41 110.42 110.42 110.42 110.42 110.42 110.43 110.43 110.43 110.44 110.44 110.44 110.44 110.44 100.45 100.45 100.45 100.45 100.46 100.46 100.46 100.47 100.47 100.47 100.47 100.47 100.48 100.48 100.48 100.48 100.49 100.49 100.49 110.50 110.50 110.50 110.50 110.50 110.51 110.51 110.51 110.52 110.52 110.52 110.52 110.53 110.53 110.53 110.53 110.53 110.54 110.54 110.54 110.55 100.55 100.55 100.55 100.56 100.56 100.56 100.56 100.56 100.57 100.57 100.57 100.58 100.58 100.58 100.58 100.58 100.59 100.59 100.59 110.59 110.60 110.60 110.60 110.61 110.61 110.61 110.61 110.61 110.62 110.62 110.62 110.62 110.63 110.63 110.63 110.64 110.64 110.64 110.64 110.64 100.65 100.65 100.65 100.66 100.66 100.66 100.66 100.67 100.67 100.67 100.67 100.67 100.68 100.68 100.68 100.69 100.69 100.69 100.69 110.69 110.70 110.70 110.70 110.70 110.71 110.71 110.71 110.72 110.72 110.72 110.72 110.72 110.73 110.73 110.73 110.73 110.74 110.74 110.74 110.75 100.75 100.75 100.75 100.75 100.76 100.76 100.76 100.77 100.77
100.27 100.27 100.27 100.28 100.28 100.28 100.28 100.28 100.29 100.29 110.29 110.30 110.30 110.30 110.30 110.31 110.31 110.31 110.31 110.31 110.32 110.32 110.32 110.33 110.33 110.33 110.33 110.33 110.34 110.34 110.34 100.34 100.35 100.35 100.35 100.36 100.36 100.36 100.36 100.36 100.37 100.37 100.37 100.38 100.38 100.38 100.38 100.39 100.39 100.39 110.39 110.39 110.40 110.40 110.40 110.41 110.41 110.41 110.41 110.42 110.42 110.42 110.42 110.42 110.43 110.43 110.43 110.44 110.44 110.44 110.44 100.44 100.45 100.45 100.45 100.45 100.46 100.46 100.46 100.47 100.47 100.47 100.47 100.47 100.48 100.48 100.48 100.48 100.49 100.49 110.49 110.50 110.50 110.50 110.50 110.50 110.51 110.51 110.51 110.52 110.52 110.52 110.52 110.53 110.53 110.53 110.53 110.53 110.54 110.54 110.54 100.55 100.55 100.55 100.55 100.56 100.56 100.56 100.56 100.56 100.57 100.57 100.57 100.58 100.58 100.58 100.58 100.58 100.59 100.59 110.59 110.59 110.60 110.60 110.60 110.61 110.61 110.61 110.61 110.61 110.62 110.62 110.62 110.62 110.63 110.63 110.63 110.64 110.64 110.64 110.64 100.64 100.65 100.65 100.65 100.66 100.66 100.66 100.66 100.67 100.67 100.67 100.67 100.67 100.68 100.68 100.68 100.69 100.69 100.69 110.69 110.69 110.70 110.70 110.70 110.70 110.71 110.71 110.71 110.72 110.72 110.72 110.72 110.72 110.73 110.73 110.73 110.73 110.74 110.74 110.74 100.75 100.75 100.75 100.75 100.75 100.76 100.76 100.76 100.77
100.27 100.27 100.27 100.27 100.28 100.28 100.28 100.28 100.28 100.29 110.29 110.29 110.30 110.30 110.30 110.30 110.31 110.31 110.31 110.31 110.31 110.32 110.32 110.32 110.33 110.33 110.33 110.33 110.33 110.34 110.34 100.34 100.34 100.35 100.35 100.35 100.36 100.36 100.36 100.36 100.36 100.37 100.37 100.37 100.38 100.38 100.38 100.38 100.39 100.39 110.39 110.39 110.39 110.40 110.40 110.40 110.41 110.41 110.41 110.41 110.42 110.42 110.42 110.42 110.42 110.43 110.43 110.43 110.44 110.44 110.44 100.44 100.44 100.45 100.45 100.45 100.45 100.46 100.46 100.46 100.47 100.47 100.47 100.47 100.47 100.48 100.48 100.48 100.48 100.49 110.49 110.49 110.50 110.50 110.50 110.50 110.50 110.51 110.51 110.51 110.52 110.52 110.52 110.52 110.53 110.53 110.53 110.53 110.53 110.54 110.54 100.54 100.55 100.55 100.55 100.55 100.56 100.56 100.56 100.56 100.56 100.57 100.57 100.57 100.58 100.58 100.58 100.58 100.58 100.59 110.59 110.59 110.59 110.60 110.60 110.60 110.61 110.61 110.61 110.61 110.61 110.62 110.62 110.62 110.62 110.63 110.63 110.63 110.64 110.64 110.64 100.64 100.64 100.65 100.65 100.65 100.66 100.66 100.66 100.66 100.67 100.67 100.67 100.67 100.67 100.68 100.68 100.68 100.69 100.69 110.69 110.69 110.69 110.70 110.70 110.70 110.70 110.71 110.71 110.71 110.72 110.72 110.72 110.72 110.72 110.73 110.73 110.73 110.73 110.74 110.74 100.74 100.75 100.75 100.75 100.75 100.75 100.76 100.76 100.76
100.26 100.27 100.27 100.27 100.27 100.28 100.28 100.28 100.28 100.28 110.29 110.29 110.29 110.30 110.30 110.30 110.30 110.31 110.31 110.31 110.31 110.31 110.32 110.32 110.32 110.33 110.33 110.33 110.33 110.33 110.34 100.34 100.34 100.34 100.35 100.35 100.35 100.36 100.36 100.36 100.36 100.36 100.37 100.37 100.37 100.38 100.38 100.38 100.38 100.39 110.39 110.39 110.39 110.39 110.40 110.40 110.40 110.41 110.41 110.41 110.41 110.42 110.42 110.42 110.42 110.42 110.43 110.43 110.43 110.44 110.44 100.44 100.44 100.44 100.45 100.45 100.45 100.45 100.46 100.46 100.46 100.47 100.47 100.47 100.47 100.47 100.48 100.48 100.48 100.48 110.49 110.49 110.49 110.50 110.50 110.50 110.50 110.50 110.51 110.51 110.51 110.52 110.52 110.52 110.52 110.53 110.53 110.53 110.53 110.53 110.54 100.54 100.54 100.55 100.55 100.55 100.55 100.56 100.56 100.56 100.56 100.56 100.57 100.57 100.57 100.58 100.58 100.58 100.58 100.58 110.59 110.59 110.59 110.59 110.60 110.60 110.60 110.61 110.61 110.61 110.61 110.61 110.62 110.62 110.62 110.62 110.63 110.63 110.63 110.64 110.64 100.64 100.64 100.64 100.65 100.65 100.65 100.66 100.66 100.66 100.66 100.67 100.67 100.67 100.67 100.67 100.68 100.68 100.68 100.69 110.69 110.69 110.69 110.69 110.70 110.70 110.70 110.70 110.71 110.71 110.71 110.72 110.72 110.72 110.72 110.72 110.73 110.73 110.73 110.73 110.74 100.74 100.74 100.75 100.75 100.75 100.75 100.75 100.76 100.76
100.26 100.26 100.27 100.27 100.27 100.27 100.28 100.28 100.28 100.28 110.28 110.29 110.29 110.29 110.30 110.30 110.30 110.30 110.31 110.31 110.31 110.31 110.31 110.32 110.32 110.32 110.33 110.33 110.33 110.33 110.33 100.34 100.34 100.34 100.34 100.35 100.35 100.35 100.36 100.36 100.36 100.36 100.36 100.37 100.37 100.37 100.38 100.38 100.38 100.38 110.39 110.39 110.39 110.39 110.39 110.40 110.40 110.40 110.41 110.41 110.41 110.41 110.42 110.42 110.42 110.42 110.42 110.43 110.43 110.43 110.44 100.44 100.44 100.44 100.44 100.45 100.45 100.45 100.45 100.46 100.46 100.46 100.47 100.47 100.47 100.47 100.47 100.48 100.48 100.48 110.48 110.49 110.49 110.49 110.50 110.50 110.50 110.50 110.50 110.51 110.51 110.51 110.52 110.52 110.52 110.52 110.53 110.53 110.53 110.53 110.53 100.54 100.54 100.54 100.55 100.55 100.55 100.55 100.56 100.56 100.56 100.56 100.56 100.57 100.57 100.57 100.58 100.58 100.58 100.58 110.58 110.59 110.59 110.59 110.59 110.60 110.60 110.60 110.61 110.61 110.61 110.61 110.61 110.62 110.62 110.62 110.62 110.63 110.63 110.63 110.64 100.64 100.64 100.64 100.64 100.65 100.65 100.65 100.66 100.66 100.66 100.66 100.67 100.67 100.67 100.67 100.67 100.68 100.68 100.68 110.69 110.69 110.69 110.69 110.69 110.70 110.70 110.70 110.70 110.71 110.71 110.71 110.72 110.72 110.72 110.72 110.72 110.73 110.73 110.73 110.73 100.74 100.74 100.74 100.75 100.75 100.75 100.75 100.75 100.76
100.26 100.26 100.26 100.27 100.27 100.27 100.27 100.28 100.28 100.28 110.28 110.28 110.29 110.29 110.29 110.30 110.30 110.30 110.30 110.31 110.31 110.31 110.31 110.31 110.32 110.32 110.32 110.33 110.33 110.33 110.33 100.33 100.34 100.34 100.34 100.34 100.35 100.35 100.35 100.36 100.36 100.36 100.36 100.36 100.37 100.37 100.37 100.38 100.38 100.38 110.38 110.39 110.39 110.39 110.39 110.39 110.40 110.40 110.40 110.41 110.41 110.41 110.41 110.42 110.42 110.42 110.42 110.42 110.43 110.43 110.43 100.44 100.44 100.44 100.44 100.44 100.45 100.45 100.45 100.45 100.46 100.46 100.46 100.47 100.47 100.47 100.47 100.47 100.48 100.48 110.48 110.48 110.49 110.49 110.49 110.50 110.50 110.50 110.50 110.50 110.51 110.51 110.51 110.52 110.52 110.52 110.52 110.53 110.53 110.53 110.53 100.53 100.54 100.54 100.54 100.55 100.55 100.55 100.55 100.56 100.56 100.56 100.56 100.56 100.57 100.57 100.57 100.58 100.58 100.58 110.58 110.58 110.59 110.59 110.59 110.59 110.60 110.60 110.60 110.61 110.61 110.61 110.61 110.61 110.62 110.62 110.62 110.62 110.63 110.63 110.63 100.64 100.64 100.64 100.64 100.64 100.65 100.65 100.65 100.66 100.66 100.66 100.66 100.67 100.67 100.67 100.67 100.67 100.68 100.68 110.68 110.69 110.69 110.69 110.69 110.69 110.70 110.70 110.70 110.70 110.71 110.71 110.71 110.72 110.72 110.72 110.72 110.72 110.73 110.73 110.73 100.73 100.74 100.74 100.74 100.75 100.75 100.75 100.75 100.75
100.25 100.26 100.26 100.26 100.27 100.27 100.27 100.27 100.28 100.28 110.28 110.28 110.28 110.29 110.29 110.29 110.30 110.30 110.30 110.30 110.31 110.31 110.31 110.31 110.31 110.32 110.32 110.32 110.33 110.33 110.33 100.33 100.33 100.34 100.34 100.34 100.34 100.35 100.35 100.35 100.36 100.36 100.36 100.36 100.36 100.37 100.37 100.37 100.38 100.38 110.38 110.38 110.39 110.39 110.39 110.39 110.39 110.40 110.40 110.40 110.41 110.41 110.41 110.41 110.42 110.42 110.42 110.42 110.42 110.43 110.43 100.43 100.44 100.44 100.44 100.44 100.44 100.45 100.45 100.45 100.45 100.46 100.46 100.46 100.47 100.47 100.47 100.47 100.47 100.48 110.48 110.48 110.48 110.49 110.49 110.49 110.50 110.50 110.50 110.50 110.50 110.51 110.51 110.51 110.52 110.52 110.52 110.52 110.53 110.53 110.53 100.53 100.53 100.54 100.54 100.54 100.55 100.55 100.55 100.55 100.56 100.56 100.56 100.56 100.56 100.57 100.57 100.57 100.58 100.58 110.58 110.58 110.58 110.59 110.59 110.59 110.59 110.60 110.60 110.60 110.61 110.61 110.61 110.61 110.61 110.62 110.62 110.62 110.62 110.63 110.63 100.63 100.64 100.64 100.64 100.64 100.64 100.65 100.65 100.65 100.66 100.66 100.66 100.66 100.67 100.67 100.67 100.67 100.67 100.68 110.68 110.68 110.69 110.69 110.69 110.69 110.69 110.70 110.70 110.70 110.70 110.71 110.71 110.71 110.72 110.72 110.72 110.72 110.72 110.73 110.73 100.73 100.73 100.74 100.74 100.74 100.75 100.75 100.75 100.75
100.25 100.25 100.26 100.26 100.26 100.27 100.27 100.27 100.27 100.28 110.28 110.28 110.28 110.28 110.29 110.29 110.29 110.30 110.30 110.30 110.30 110.31 110.31 110.31 110.31 110.31 110.32 110.32 110.32 110.33 110.33 100.33 100.33 100.33 100.34 100.34 100.34 100.34 100.35 100.35 100.35 100.36 100.36 100.36 100.36 100.36 100.37 100.37 100.37 100.38 110.38 110.38 110.38 110.39 110.39 110.39 110.39 110.39 110.40 110.40 110.40 110.41 110.41 110.41 110.41 110.42 110.42 110.42 110.42 110.42 110.43 100.43 100.43 100.44 100.44 100.44 100.44 100.44 100.45 100.45 100.45 100.45 100.46 100.46 100.46 100.47 100.47 100.47 100.47 100.47 110.48 110.48 110.48 110.48 110.49 110.49 110.49 110.50 110.50 110.50 110.50 110.50 110.51 110.51 110.51 110.52 110.52 110.52 110.52 110.53 110.53 100.53 100.53 100.53 100.54 100.54 100.54 100.55 100.55 100.55 100.55 100.56 100.56 100.56 100.56 100.56 100.57 100.57 100.57 100.58 110.58 110.58 110.58 110.58 110.59 110.59 110.59 110.59 110.60 110.60 110.60 110.61 110.61 110.61 110.61 110.61 110.62 110.62 110.62 110.62 110.63 100.63 100.63 100.64 100.64 100.64 100.64 100.64 100.65 100.65 100.65 100.66 100.66 100.66 100.66 100.67 100.67 100.67 100.67 100.67 110.68 110.68 110.68 110.69 110.69 110.69 110.69 110.69 110.70 110.70 110.70 110.70 110.71 110.71 110.71 110.72 110.72 110.72 110.72 110.72 110.73 100.73 100.73 100.73 100.74 100.74 100.74 100.75 100.75 100.75
100.25 100.25 100.25 100.26 100.26 100.26 100.27 100.27 100.27 100.27 110.28 110.28 110.28 110.28 110.28 110.29 110.29 110.29 110.30 110.30 110.30 110.30 110.31 110.31 110.31 110.31 110.31 110.32 110.32 110.32 110.33 100.33 100.33 100.33 100.33 100.34 100.34 100.34 100.34 100.35 100.35 100.35 100.36 100.36 100.36 100.36 100.36 100.37 100.37 100.37 110.38 110.38 110.38 110.38 110.39 110.39 110.39 110.39 110.39 110.40 110.40 110.40 110.41 110.41 110.41 110.41 110.42 110.42 110.42 110.42 110.42 100.43 100.43 100.43 100.44 100.44 100.44 100.44 100.44 100.45 100.45 100.45 100.45 100.46 100.46 100.46 100.47 100.47 100.47 100.47 110.47 110.48 110.48 110.48 110.48 110.49 110.49 110.49 110.50 110.50 110.50 110.50 110.50 110.51 110.51 110.51 110.52 110.52 110.52 110.52 110.53 100.53 100.53 100.53 100.53 100.54 100.54 100.54 100.55 100.55 100.55 100.55 100.56 100.56 100.56 100.56 100.56 100.57 100.57 100.57 110.58 110.58 110.58 110.58 110.58 110.59 110.59 110.59 110.59 110.60 110.60 110.60 110.61 110.61 110.61 110.61 110.61 110.62 110.62 110.62 110.62 100.63 100.63 100.63 100.64 100.64 100.64 100.64 100.64 100.65 100.65 100.65 100.66 100.66 100.66 100.66 100.67 100.67 100.67 100.67 110.67 110.68 110.68 110.68 110.69 110.69 110.69 110.69 110.69 110.70 110.70 110.70 110.70 110.71 110.71 110.71 110.72 110.72 110.72 110.72 110.72 100.73 100.73 100.73 100.73 100.74 100.74 100.74 100.75 100.75
100.25 100.25 100.25 100.25 100.26 100.26 100.26 100.27 100.27 100.27 110.27 110.28 110.28 110.28 110.28 110.28 110.29 110.29 110.29 110.30 110.30 110.30 110.30 110.31 110.31 110.31 110.31 110.31 110.32 110.32 110.32 100.33 100.33 100.33 100.33 100.33 100.34 100.34 100.34 100.34 100.35 100.35 100.35 100.36 100.36 100.36 100.36 100.36 100.37 100.37 110.37 110.38 110.38 110.38 110.38 110.39 110.39 110.39 110.39 110.39 110.40 110.40 110.40 110.41 110.41 110.41 110.41 110.42 110.42 110.42 110.42 100.42 100.43 100.43 100.43 100.44 100.44 100.44 100.44 100.44 100.45 100.45 100.45 100.45 100.46 100.46 100.46 100.47 100.47 100.47 110.47 110.47 110.48 110.48 110.48 110.48 110.49 110.49 110.49 110.50 110.50 110.50 110.50 110.50 110.51 110.51 110.51 110.52 110.52 110.52 110.52 100.53 100.53 100.53 100.53 100.53 100.54 100.54 100.54 100.55 100.55 100.55 100.55 100.56 100.56 100.56 100.56 100.56 100.57 100.57 110.57 110.58 110.58 110.58 110.58 110.58 110.59 110.59 110.59 110.59 110.60 110.60 110.60 110.61 110.61 110.61 110.61 110.61 110.62 110.62 110.62 100.62 100.63 100.63 100.63 100.64 100.64 100.64 100.64 100.64 100.65 100.65 100.65 100.66 100.66 100.66 100.66 100.67 100.67 100.67 110.67 110.67 110.68 110.68 110.68 110.69 110.69 110.69 110.69 110.69 110.70 110.70 110.70 110.70 110.71 110.71 110.71 110.72 110.72 110.72 110.72 100.72 100.73 100.73 100.73 100.73 100.74 100.74 100.74 100.75
100.25 100.25 100.25 100.25 100.25 100.26 100.26 100.26 100.27 100.27 110.27 110.27 110.28 110.28 110.28 110.28 110.28 110.29 110.29 110.29 110.30 110.30 110.30 110.30 110.31 110.31 110.31 110.31 110.31 110.32 110.32 100.32 100.33 100.33 100.33 100.33 100.33 100.34 100.34 100.34 100.34 100.35 100.35 100.35 100.36 100.36 100.36 100.36 100.36 100.37 110.37 110.37 110.38 110.38 110.38 110.38 110.39 110.39 110.39 110.39 110.39 110.40 110.40 110.40 110.41 110.41 110.41 110.41 110.42 110.42 110.42 100.42 100.42 100.43 100.43 100.43 100.44 100.44 100.44 100.44 100.44 100.45 100.45 100.45 100.45 100.46 100.46 100.46 100.47 100.47 110.47 110.47 110.47 110.48 110.48 110.48 110.48 110.49 110.49 110.49 110.50 110.50 110.50 110.50 110.50 110.51 110.51 110.51 110.52 110.52 110.52 100.52 100.53 100.53 100.53 100.53 100.53 100.54 100.54 100.54 100.55 100.55 100.55 100.55 100.56 100.56 100.56 100.56 100.56 100.57 110.57 110.57 110.58 110.58 110.58 110.58 110.58 110.59 110.59 110.59 110.59 110.60 110.60 110.60 110.61 110.61 110.61 110.61 110.61 110.62 110.62 100.62 100.62 100.63 100.63 100.63 100.64 100.64 100.64 100.64 100.64 100.65 100.65 100.65 100.66 100.66 100.66 100.66 100.67 100.67 110.67 110.67 110.67 110.68 110.68 110.68 110.69 110.69 110.69 110.69 110.69 110.70 110.70 110.70 110.70 110.71 110.71 110.71 110.72 110.72 110.72 100.72 100.72 100.73 100.73 100.73 100.73 100.74 100.74 100.74
100.24 100.25 100.25 100.25 100.25 100.25 100.26 100.26 100.26 100.27 110.27 110.27 110.27 110.28 110.28 110.28 110.28 110.28 110.29 110.29 110.29 110.30 110.30 110.30 110.30 110.31 110.31 110.31 110.31 110.31 110.32 100.32 100.32 100.33 100.33 100.33 100.33 100.33 100.34 100.34 100.34 100.34 100.35 100.35 100.35 100.36 100.36 100.36 100.36 100.36 110.37 110.37 110.37 110.38 110.38 110.38 110.38 110.39 110.39 110.39 110.39 110.39 110.40 110.40 110.40 110.41 110.41 110.41 110.41 110.42 110.42 100.42 100.42 100.42 100.43 100.43 100.43 100.44 100.44 100.44 100.44 100.44 100.45 100.45 100.45 100.45 100.46 100.46 100.46 100.47 110.47 110.47 110.47 110.47 110.48 110.48 110.48 110.48 110.49 110.49 110.49 110.50 110.50 110.50 110.50 110.50 110.51 110.51 110.51 110.52 110.52 100.52 100.52 100.53 100.53 100.53 100.53 100.53 100.54 100.54 100.54 100.55 100.55 100.55 100.55 100.56 100.56 100.56 100.56 100.56 110.57 110.57 110.57 110.58 110.58 110.58 110.58 110.58 110.59 110.59 110.59 110.59 110.60 110.60 110.60 110.61 110.61 110.61 110.61 110.61 110.62 100.62 100.62 100.62 100.63 100.63 100.63 100.64 100.64 100.64 100.64 100.64 100.65 100.65 100.65 100.66 100.66 100.66 100.66 100.67 110.67 110.67 110.67 110.67 110.68 110.68 110.68 110.69 110.69 110.69 110.69 110.69 110.70 110.70 110.70 110.70 110.71 110.71 110.71 110.72 110.72 100.72 100.72 100.72 100.73 100.73 100.73 100.73 100.74 100.74
100.24 100.24 100.25 100.25 100.25 100.25 100.25 100.26 100.26 100.26 110.27 110.27 110.27 110.27 110.28 110.28 110.28 110.28 110.28 110.29 110.29 110.29 110.30 110.30 110.30 110.30 110.31 110.31 110.31 110.31 110.31 100.32 100.32 100.32 100.33 100.33 100.33 100.33 100.33 100.34 100.34 100.34 100.34 100.35 100.35 100.35 100.36 100.36 100.36 100.36 110.36 110.37 110.37 110.37 110.38 110.38 110.38 110.38 110.39 110.39 110.39 110.39 110.39 110.40 110.40 110.40 110.41 110.41 110.41 110.41 110.42 100.42 100.42 100.42 100.42 100.43 100.43 100.43 100.44 100.44 100.44 100.44 100.44 100.45 100.45 100.45 100.45 100.46 100.46 100.46 110.47 110.47 110.47 110.47 110.47 110.48 110.48 110.48 110.48 110.49 110.49 110.49 110.50 110.50 110.50 110.50 110.50 110.51 110.51 110.51 110.52 100.52 100.52 100.52 100.53 100.53 100.53 100.53 100.53 100.54 100.54 100.54 100.55 100.55 100.55 100.55 100.56 100.56 100.56 100.56 110.56 110.57 110.57 110.57 110.58 110.58 110.58 110.58 110.58 110.59 110.59 110.59 110.59 110.60 110.60 110.60 110.61 110.61 110.61 110.61 110.61 100.62 100.62 100.62 100.62 100.63 100.63 100.63 100.64 100.64 100.64 100.64 100.64 100.65 100.65 100.65 100.66 100.66 100.66 100.66 110.67 110.67 110.67 110.67 110.67 110.68 110.68 110.68 110.69 110.69 110.69 110.69 110.69 110.70 110.70 110.70 110.70 110.71 110.71 110.71 110.72 100.72 100.72 100.72 100.72 100.73 100.73 100.73 100.73 100.74
100.24 100.24 100.24 100.25 100.25 100.25 100.25 100.25 100.26 100.26 110.26 110.27 110.27 110.27 110.27 110.28 110.28 110.28 110.28 110.28 110.29 110.29 110.29 110.30 110.30 110.30 110.30 110.31 110.31 110.31 110.31 100.31 100.32 100.32 100.32 100.33 100.33 100.33 100.33 100.33 100.34 100.34 100.34 100.34 100.35 100.35 100.35 100.36 100.36 100.36 110.36 110.36 110.37 110.37 110.37 110.38 110.38 110.38 110.38 110.39 110.39 110.39 110.39 110.39 110.40 110.40 110.40 110.41 110.41 110.41 110.41 100.42 100.42 100.42 100.42 100.42 100.43 100.43 100.43 100.44 100.44 100.44 100.44 100.44 100.45 100.45 100.45 100.45 100.46 100.46 110.46 110.47 110.47 110.47 110.47 110.47 110.48 110.48 110.48 110.48 110.49 110.49 110.49 110.50 110.50 110.50 110.50 110.50 110.51 110.51 110.51 100.52 100.52 100.52 100.52 100.53 100.53 100.53 100.53 100.53 100.54 100.54 100.54 100.55 100.55 100.55 100.55 100.56 100.56 100.56 110.56 110.56 110.57 110.57 110.57 110.58 110.58 110.58 110.58 110.58 110.59 110.59 110.59 110.59 110.60 110.60 110.60 110.61 110.61 110.61 110.61 100.61 100.62 100.62 100.62 100.62 100.63 100.63 100.63 100.64 100.64 100.64 100.64 100.64 100.65 100.65 100.65 100.66 100.66 100.66 110.66 110.67 110.67 110.67 110.67 110.67 110.68 110.68 110.68 110.69 110.69 110.69 110.69 110.69 110.70 110.70 110.70 110.70 110.71 110.71 110.71 100.72 100.72 100.72 100.72 100.72 100.73 100.73 100.73 100.73
100.23 100.24 100.24 100.24 100.25 100.25 100.25 100.25 100.25 100.26 110.26 110.26 110.27 110.27 110.27 110.27 110.28 110.28 110.28 110.28 110.28 110.29 110.29 110.29 110.30 110.30 110.30 110.30 110.31 110.31 110.31 100.31 100.31 100.32 100.32 100.32 100.33 100.33 100.33 100.33 100.33 100.34 100.34 100.34 100.34 100.35 100.35 100.35 100.36 100.36 110.36 110.36 110.36 110.37 110.37 110.37 110.38 110.38 110.38 110.38 110.39 110.39 110.39 110.39 110.39 110.40 110.40 110.40 110.41 110.41 110.41 100.41 100.42 100.42 100.42 100.42 100.42 100.43 100.43 100.43 100.44 100.44 100.44 100.44 100.44 100.45 100.45 100.45 100.45 100.46 110.46 110.46 110.47 110.47 110.47 110.47 110.47 110.48 110.48 110.48 110.48 110.49 110.49 110.49 110.50 110.50 110.50 110.50 110.50 110.51 110.51 100.51 100.52 100.52 100.52 100.52 100.53 100.53 100.53 100.53 100.53 100.54 100.54 100.54 100.55 100.55 100.55 100.55 100.56 100.56 110.56 110.56 110.56 110.57 110.57 110.57 110.58 110.58 110.58 110.58 110.58 110.59 110.59 110.59 110.59 110.60 110.60 110.60 110.61 110.61 110.61 100.61 100.61 100.62 100.62 100.62 100.62 100.63 100.63 100.63 100.64 100.64 100.64 100.64 100.64 100.65 100.65 100.65 100.66 100.66 110.66 110.66 110.67 110.67 110.67 110.67 110.67 110.68 110.68 110.68 110.69 110.69 110.69 110.69 110.69 110.70 110.70 110.70 110.70 110.71 110.71 100.71 100.72 100.72 100.72 100.72 100.72 100.73 100.73 100.73
100.23 100.23 100.24 100.24 100.24 100.25 100.25 100.25 100.25 100.25 110.26 110.26 110.26 110.27 110.27 110.27 110.27 110.28 110.28 110.28 110.28 110.28 110.29 110.29 110.29 110.30 110.30 110.30 110.30 110.31 110.31 100.31 100.31 100.31 100.32 100.32 100.32 100.33 100.33 100.33 100.33 100.33 100.34 100.34 100.34 100.34 100.35 100.35 100.35 100.36 110.36 110.36 110.36 110.36 110.37 110.37 110.37 110.38 110.38 110.38 110.38 110.39 110.39 110.39 110.39 110.39 110.40 110.40 110.40 110.41 110.41 100.41 100.41 100.42 100.42 100.42 100.42 100.42 100.43 100.43 100.43 100.44 100.44 100.44 100.44 100.44 100.45 100.45 100.45 100.45 110.46 110.46 110.46 110.47 110.47 110.47 110.47 110.47 110.48 110.48 110.48 110.48 110.49 110.49 110.49 110.50 110.50 110.50 110.50 110.50 110.51 100.51 100.51 100.52 100.52 100.52 100.52 100.53 100.53 100.53 100.53 100.53 100.54 100.54 100.54 100.55 100.55 100.55 100.55 100.56 110.56 110.56 110.56 110.56 110.57 110.57 110.57 110.58 110.58 110.58 110.58 110.58 110.59 110.59 110.59 110.59 110.60 110.60 110.60 110.61 110.61 100.61 100.61 100.61 100.62 100.62 100.62 100.62 100.63 100.63 100.63 100.64 100.64 100.64 100.64 100.64 100.65 100.65 100.65 100.66 110.66 110.66 110.66 110.67 110.67 110.67 110.67 110.67 110.68 110.68 110.68 110.69 110.69 110.69 110.69 110.69 110.70 110.70 110.70 110.70 110.71 100.71 100.71 100.72 100.72 100.72 100.72 100.72 100.73 100.73
100.23 100.23 100.23 100.24 100.24 100.24 100.25 100.25 100.25 100.25 110.25 110.26 110.26 110.26 110.27 110.27 110.27 110.27 110.28 110.28 110.28 110.28 110.28 110.29 110.29 110.29 110.30 110.30 110.30 110.30 110.31 100.31 100.31 100.31 100.31 100.32 100.32 100.32 100.33 100.33 100.33 100.33 100.33 100.34 100.34 100.34 100.34 100.35 100.35 100.35 110.36 110.36 110.36 110.36 110.36 110.37 110.37 110.37 110.38 110.38 110.38 110.38 110.39 110.39 110.39 110.39 110.39 110.40 110.40 110.40 110.41 100.41 100.41 100.41 100.42 100.42 100.42 100.42 100.42 100.43 100.43 100.43 100.44 100.44 100.44 100.44 100.44 100.45 100.45 100.45 110.45 110.46 110.46 110.46 110.47 110.47 110.47 110.47 110.47 110.48 110.48 110.48 110.48 110.49 110.49 110.49 110.50 110.50 110.50 110.50 110.50 100.51 100.51 100.51 100.52 100.52 100.52 100.52 100.53 100.53 100.53 100.53 100.53 100.54 100.54 100.54 100.55 100.55 100.55 100.55 110.56 110.56 110.56 110.56 110.56 110.57 110.57 110.57 110.58 110.58 110.58 110.58 110.58 110.59 110.59 110.59 110.59 110.60 110.60 110.60 110.61 100.61 100.61 100.61 100.61 100.62 100.62 100.62 100.62 100.63 100.63 100.63 100.64 100.64 100.64 100.64 100.64 100.65 100.65 100.65 110.66 110.66 110.66 110.66 110.67 110.67 110.67 110.67 110.67 110.68 110.68 110.68 110.69 110.69 110.69 110.69 110.69 110.70 110.70 110.70 110.70 100.71 100.71 100.71 100.72 100.72 100.72 100.72 100.72 100.73
100.23 100.23 100.23 100.23 100.24 100.24 100.24 100.25 100.25 100.25 110.25 110.25 110.26 110.26 110.26 110.27 110.27 110.27 110.27 110.28 110.28 110.28 110.28 110.28 110.29 110.29 110.29 110.30 110.30 110.30 110.30 100.31 100.31 100.31 100.31 100.31 100.32 100.32 100.32 100.33 100.33 100.33 100.33 100.33 100.34 100.34 100.34 100.34 100.35 100.35 110.35 110.36 110.36 110.36 110.36 110.36 110.37 110.37 110.37 110.38 110.38 110.38 110.38 110.39 110.39 110.39 110.39 110.39 110.40 110.40 110.40 100.41 100.41 100.41 100.41 100.42 100.42 100.42 100.42 100.42 100.43 100.43 100.43 100.44 100.44 100.44 100.44 100.44 100.45 100.45 110.45 110.45 110.46 110.46 110.46 110.47 110.47 110.47 110.47 110.47 110.48 110.48 110.48 110.48 110.49 110.49 110.49 110.50 110.50 110.50 110.50 100.50 100.51 100.51 100.51 100.52 100.52 100.52 100.52 100.53 100.53 100.53 100.53 100.53 100.54 100.54 100.54 100.55 100.55 100.55 110.55 110.56 110.56 110.56 110.56 110.56 110.57 110.57 110.57 110.58 110.58 110.58 110.58 110.58 110.59 110.59 110.59 110.59 110.60 110.60 110.60 100.61 100.61 100.61 100.61 100.61 100.62 100.62 100.62 100.62 100.63 100.63 100.63 100.64 100.64 100.64 100.64 100.64 100.65 100.65 110.65 110.66 110.66 110.66 110.66 110.67 110.67 110.67 110.67 110.67 110.68 110.68 110.68 110.69 110.69 110.69 110.69 110.69 110.70 110.70 110.70 100.70 100.71 100.71 100.71 100.72 100.72 100.72 100.72 100.72
100.22 100.23 100.23 100.23 100.23 100.24 100.24 100.24 100.25 100.25 110.25 110.25 110.25 110.26 110.26 110.26 110.27 110.27 110.27 110.27 110.28 110.28 110.28 110.28 110.28 110.29 110.29 110.29 110.30 110.30 110.30 100.30 100.31 100.31 100.31 100.31 100.31 100.32 100.32 100.32 100.33 100.33 100.33 100.33 100.33 100.34 100.34 100.34 100.34 100.35 110.35 110.35 110.36 110.36 110.36 110.36 110.36 110.37 110.37 110.37 110.38 110.38 110.38 110.38 110.39 110.39 110.39 110.39 110.39 110.40 110.40 100.40 100.41 100.41 100.41 100.41 100.42 100.42 100.42 100.42 100.42 100.43 100.43 100.43 100.44 100.44 100.44 100.44 100.44 100.45 110.45 110.45 110.45 110.46 110.46 110.46 110.47 110.47 110.47 110.47 110.47 110.48 110.48 110.48 110.48 110.49 110.49 110.49 110.50 110.50 110.50 100.50 100.50 100.51 100.51 100.51 100.52 100.52 100.52 100.52 100.53 100.53 100.53 100.53 100.53 100.54 100.54 100.54 100.55 100.55 110.55 110.55 110.56 110.56 110.56 110.56 110.56 110.57 110.57 110.57 110.58 110.58 110.58 110.58 110.58 110.59 110.59 110.59 110.59 110.60 110.60 100.60 100.61 100.61 100.61 100.61 100.61 100.62 100.62 100.62 100.62 100.63 100.63 100.63 100.64 100.64 100.64 100.64 100.64 100.65 110.65 110.65 110.66 110.66 110.66 110.66 110.67 110.67 110.67 110.67 110.67 110.68 110.68 110.68 110.69 110.69 110.69 110.69 110.69 110.70 110.70 100.70 100.70 100.71 100.71 100.71 100.72 100.72 100.72 100.72
100.22 100.22 100.23 100.23 100.23 100.23 100.24 100.24 100.24 100.25 100.25 100.25 100.25 100.25 100.26 100.26 100.26 100.27 100.27 100.27 100.27 100.28 100.28 100.28 100.28 100.28 100.29 100.29 100.29 100.30 100.30 100.30 100.30 100.31 100.31 100.31 100.31 100.31 100.32 100.32 100.32 100.33 100.33 100.33 100.33 100.33 100.34 100.34 100.34 100.34 100.35 100.35 100.35 100.36 100.36 100.36 100.36 100.36 100.37 100.37 100.37 100.38 100.38 100.38 100.38 100.39 100.39 100.39 100.39 100.39 100.40 100.40 100.40 100.41 100.41 100.41 100.41 100.42 100.42 100.42 100.42 100.42 100.43 100.43 100.43 100.44 100.44 100.44 100.44 100.44 100.45 100.45 100.45 100.45 100.46 100.46 100.46 100.47 100.47 100.47 100.47 100.47 100.48 100.48 100.48 100.48 100.49 100.49 100.49 100.50 100.50 100.50 100.50 100.50 100.51 100.51 100.51 100.52 100.52 100.52 100.52 100.53 100.53 100.53 100.53 100.53 100.54 100.54 100.54 100.55 100.55 100.55 100.55 100.56 100.56 100.56 100.56 100.56 100.57 100.57 100.57 100.58 100.58 100.58 100.58 100.58 100.59 100.59 100.59 100.59 100.60 100.60 100.60 100.61 100.61 100.61 100.61 100.61 100.62 100.62 100.62 100.62 100.63 100.63 100.63 100.64 100.64 100.64 100.64 100.64 100.65 100.65 100.65 100.66 100.66 100.66 100.66 100.67 100.67 100.67 100.67 100.67 100.68 100.68 100.68 100.69 100.69 100.69 100.69 100.69 100.70 100.70 100.70 100.70 100.71 100.71 100.71 100.72 100.72 100.72
100.22 100.22 100.22 100.23 100.23 100.23 100.23 100.24 100.24 100.24 100.25 100.25 100.25 100.25 100.25 100.26 100.26 100.26 100.27 100.27 100.27 100.27 100.28 100.28 100.28 100.28 100.28 100.29 100.29 100.29 100.30 100.30 100.30 100.30 100.31 100.31 100.31 100.31 100.31 100.32 100.32 100.32 100.33 100.33 100.33 100.33 100.33 100.34 100.34 100.34 100.34 100.35 100.35 100.35 100.36 100.36 100.36 100.36 100.36 100.37 100.37 100.37 100.38 100.38 100.38 100.38 100.39 100.39 100.39 100.39 100.39 100.40 100.40 100.40 100.41 100.41 100.41 100.41 100.42 100.42 100.42 100.42 100.42 100.43 100.43 100.43 100.44 100.44 100.44 100.44 100.44 100.45 100.45 100.45 100.45 100.46 100.46 100.46 100.47 100.47 100.47 100.47 100.47 100.48 100.48 100.48 100.48 100.49 100.49 100.49 100.50 100.50 100.50 100.50 100.50 100.51 100.51 100.51 100.52 100.52 100.52 100.52 100.53 100.53 100.53 100.53 100.53 100.54 100.54 100.54 100.55 100.55 100.55 100.55 100.56 100.56 100.56 100.56 100.56 100.57 100.57 100.57 100.58 100.58 100.58 100.58 100.58 100.59 100.59 100.59 100.59 100.60 100.60 100.60 100.61 100.61 100.61 100.61 100.61 100.62 100.62 100.62 100.62 100.63 100.63 100.63 100.64 100.64 100.64 100.64 100.64 100.65 100.65 100.65 100.66 100.66 100.66 100.66 100.67 100.67 100.67 100.67 100.67 100.68 100.68 100.68 100.69 100.69 100.69 100.69 100.69 100.70 100.70 100.70 100.70 100.71 100.71 100.71 100.72 100.72
100.22 100.22 100.22 100.22 100.23 100.23 100.23 100.23 100.24 100.24 100.24 100.25 100.25 100.25 100.25 100.25 100.26 100.26 100.26 100.27 100.27 100.27 100.27 100.28 100.28 100.28 100.28 100.28 100.29 100.29 100.29 100.30 100.30 100.30 100.30 100.31 100.31 100.31 100.31 100.31 100.32 100.32 100.32 100.33 100.33 100.33 100.33 100.33 100.34 100.34 100.34 100.34 100.35 100.35 100.35 100.36 100.36 100.36 100.36 100.36 100.37 100.37 100.37 100.38 100.38 100.38 100.38 100.39 100.39 100.39 100.39 100.39 100.40 100.40 100.40 100.41 100.41 100.41 100.41 100.42 100.42 100.42 100.42 100.42 100.43 100.43 100.43 100.44 100.44 100.44 100.44 100.44 100.45 100.45 100.45 100.45 100.46 100.46 100.46 100.47 100.47 100.47 100.47 100.47 100.48 100.48 100.48 100.48 100.49 100.49 100.49 100.50 100.50 100.50 100.50 100.50 100.51 100.51 100.51 100.52 100.52 100.52 100.52 100.53 100.53 100.53 100.53 100.53 100.54 100.54 100.54 100.55 100.55 100.55 100.55 100.56 100.56 100.56 100.56 100.56 100.57 100.57 100.57 100.58 100.58 100.58 100.58 100.58 100.59 100.59 100.59 100.59 100.60 100.60 100.60 100.61 100.61 100.61 100.61 100.61 100.62 100.62 100.62 100.62 100.63 100.63 100.63 100.64 100.64 100.64 100.64 100.64 100.65 100.65 100.65 100.66 100.66 100.66 100.66 100.67 100.67 100.67 100.67 100.67 100.68 100.68 100.68 100.69 100.69 100.69 100.69 100.69 100.70 100.70 100.70 100.70 100.71 100.71 100.71 100.72
100.22 100.22 100.22 100.22 100.22 100.23 100.23 100.23 100.23 100.24 100.24 100.24 100.25 100.25 100.25 100.25 100.25 100.26 100.26 100.26 100.27 100.27 100.27 100.27 100.28 100.28 100.28 100.28 100.28 100.29 100.29 100.29 100.30 100.30 100.30 100.30 100.31 100.31 100.31 100.31 100.31 100.32 100.32 100.32 100.33 100.33 100.33 100.33 100.33 100.34 100.34 100.34 100.34 100.35 100.35 100.35 100.36 100.36 100.36 100.36 100.36 100.37 100.37 100.37 100.38 100.38 100.38 100.38 100.39 100.39 100.39 100.39 100.39 100.40 100.40 100.40 100.41 100.41 100.41 100.41 100.42 100.42 100.42 100.42 100.42 100.43 100.43 100.43 100.44 100.44 100.44 100.44 100.44 100.45 100.45 100.45 100.45 100.46 100.46 100.46 100.47 100.47 100.47 100.47 100.47 100.48 100.48 100.48 100.48 100.49 100.49 100.49 100.50 100.50 100.50 100.50 100.50 100.51 100.51 100.51 100.52 100.52 100.52 100.52 100.53 100.53 100.53 100.53 100.53 100.54 100.54 100.54 100.55 100.55 100.55 100.55 100.56 100.56 100.56 100.56 100.56 100.57 100.57 100.57 100.58 100.58 100.58 100.58 100.58 100.59 100.59 100.59 100.59 100.60 100.60 100.60 100.61 100.61 100.61 100.61 100.61 100.62 100.62 100.62 100.62 100.63 100.63 100.63 100.64 100.64 100.64 100.64 100.64 100.65 100.65 100.65 100.66 100.66 100.66 100.66 100.67 100.67 100.67 100.67 100.67 100.68 100.68 100.68 100.69 100.69 100.69 100.69 100.69 100.70 100.70 100.70 100.70 100.71 100.71 100.71
100.21 100.22 100.22 100.22 100.22 100.22 100.23 100.23 100.23 100.23 100.24 100.24 100.24 100.25 100.25 100.25 100.25 100.25 100.26 100.26 100.26 100.27 100.27 100.27 100.27 100.28 100.28 100.28 100.28 100.28 100.29 100.29 100.29 100.30 100.30 100.30 100.30 100.31 100.31 100.31 100.31 100.31 100.32 100.32 100.32 100.33 100.33 100.33 100.33 100.33 100.34 100.34 100.34 100.34 100.35 100.35 100.35 100.36 100.36 100.36 100.36 100.36 100.37 100.37 100.37 100.38 100.38 100.38 100.38 100.39 100.39 100.39 100.39 100.39 100.40 100.40 100.40 100.41 100.41 100.41 100.41 100.42 100.42 100.42 100.42 100.42 100.43 100.43 100.43 100.44 100.44 100.44 100.44 100.44 100.45 100.45 100.45 100.45 100.46 100.46 100.46 100.47 100.47 100.47 100.47 100.47 100.48 100.48 100.48 100.48 100.49 100.49 100.49 100.50 100.50 100.50 100.50 100.50 100.51 100.51 100.51 100.52 100.52 100.52 100.52 100.53 100.53 100.53 100.53 100.53 100.54 100.54 100.54 100.55 100.55 100.55 100.55 100.56 100.56 100.56 100.56 100.56 100.57 100.57 100.57 100.58 100.58 100.58 100.58 100.58 100.59 100.59 100.59 100.59 100.60 100.60 100.60 100.61 100.61 100.61 100.61 100.61 100.62 100.62 100.62 100.62 100.63 100.63 100.63 100.64 100.64 100.64 100.64 100.64 100.65 100.65 100.65 100.66 100.66 100.66 100.66 100.67 100.67 100.67 100.67 100.67 100.68 100.68 100.68 100.69 100.69 100.69 100.69 100.69 100.70 100.70 100.70 100.70 100.71 100.71
100.21 100.21 100.22 100.22 100.22 100.22 100.22 100.23 100.23 100.23 100.23 100.24 100.24 100.24 100.25 100.25 100.25 100.25 100.25 100.26 100.26 100.26 100.27 100.27 100.27 100.27 100.28 100.28 100.28 100.28 100.28 100.29 100.29 100.29 100.30 100.30 100.30 100.30 100.31 100.31 100.31 100.31 100.31 100.32 100.32 100.32 100.33 100.33 100.33 100.33 100.33 100.34 100.34 100.34 100.34 100.35 100.35 100.35 100.36 100.36 100.36 100.36 100.36 100.37 100.37 100.37 100.38 100.38 100.38 100.38 100.39 100.39 100.39 100.39 100.39 100.40 100.40 100.40 100.41 100.41 100.41 100.41 100.42 100.42 100.42 100.42 100.42 100.43 100.43 100.43 100.44 100.44 100.44 100.44 100.44 100.45 100.45 100.45 100.45 100.46 100.46 100.46 100.47 100.47 100.47 100.47 100.47 100.48 100.48 100.48 100.48 100.49 100.49 100.49 100.50 100.50 100.50 100.50 100.50 100.51 100.51 100.51 100.52 100.52 100.52 100.52 100.53 100.53 100.53 100.53 100.53 100.54 100.54 100.54 100.55 100.55 100.55 100.55 100.56 100.56 100.56 100.56 100.56 100.57 100.57 100.57 100.58 100.58 100.58 100.58 100.58 100.59 100.59 100.59 100.59 100.60 100.60 100.60 100.61 100.61 100.61 100.61 100.61 100.62 100.62 100.62 100.62 100.63 100.63 100.63 100.64 100.64 100.64 100.64 100.64 100.65 100.65 100.65 100.66 100.66 100.66 100.66 100.67 100.67 100.67 100.67 100.67 100.68 100.68 100.68 100.69 100.69 100.69 100.69 100.69 100.70 100.70 100.70 100.70 100.71
100.21 100.21 100.21 100.22 100.22 100.22 100.22 100.22 100.23 100.23 100.23 100.23 100.24 100.24 100.24 100.25 100.25 100.25 100.25 100.25 100.26 100.26 100.26 100.27 100.27 100.27 100.27 100.28 100.28 100.28 100.28 100.28 100.29 100.29 100.29 100.30 100.30 100.30 100.30 100.31 100.31 100.31 100.31 100.31 100.32 100.32 100.32 100.33 100.33 100.33 100.33 100.33 100.34 100.34 100.34 100.34 100.35 100.35 100.35 100.36 100.36 100.36 100.36 100.36 100.37 100.37 100.37 100.38 100.38 100.38 100.38 100.39 100.39 100.39 100.39 100.39 100.40 100.40 100.40 100.41 100.41 100.41 100.41 100.42 100.42 100.42 100.42 100.42 100.43 100.43 100.43 100.44 100.44 100.44 100.44 100.44 100.45 100.45 100.45 100.45 100.46 100.46 100.46 100.47 100.47 100.47 100.47 100.47 100.48 100.48 100.48 100.48 100.49 100.49 100.49 100.50 100.50 100.50 100.50 100.50 100.51 100.51 100.51 100.52 100.52 100.52 100.52 100.53 100.53 100.53 100.53 100.53 100.54 100.54 100.54 100.55 100.55 100.55 100.55 100.56 100.56 100.56 100.56 100.56 100.57 100.57 100.57 100.58 100.58 100.58 100.58 100.58 100.59 100.59 100.59 100.59 100.60 100.60 100.60 100.61 100.61 100.61 100.61 100.61 100.62 100.62 100.62 100.62 100.63 100.63 100.63 100.64 100.64 100.64 100.64 100.64 100.65 100.65 100.65 100.66 100.66 100.66 100.66 100.67 100.67 100.67 100.67 100.67 100.68 100.68 100.68 100.69 100.69 100.69 100.69 100.69 100.70 100.70 100.70 100.70
100.20 100.21 100.21 100.21 100.22 100.22 100.22 100.22 100.22 100.23 100.23 100.23 100.23 100.24 100.24 100.24 100.25 100.25 100.25 100.25 100.25 100.26 100.26 100.26 100.27 100.27 100.27 100.27 100.28 100.28 100.28 100.28 100.28 100.29 100.29 100.29 100.30 100.30 100.30 100.30 100.31 100.31 100.31 100.31 100.31 100.32 100.32 100.32 100.33 100.33 100.33 100.33 100.33 100.34 100.34 100.34 100.34 100.35 100.35 100.35 100.36 100.36 100.36 100.36 100.36 100.37 100.37 100.37 100.38 100.38 100.38 100.38 100.39 100.39 100.39 100.39 100.39 100.40 100.40 100.40 100.41 100.41 100.41 100.41 100.42 100.42 100.42 100.42 100.42 100.43 100.43 100.43 100.44 100.44 100.44 100.44 100.44 100.45 100.45 100.45 100.45 100.46 100.46 100.46 100.47 100.47 100.47 100.47 100.47 100.48 100.48 100.48 100.48 100.49 100.49 100.49 100.50 100.50 100.50 100.50 100.50 100.51 100.51 100.51 100.52 100.52 100.52 100.52 100.53 100.53 100.53 100.53 100.53 100.54 100.54 100.54 100.55 100.55 100.55 100.55 100.56 100.56 100.56 100.56 100.56 100.57 100.57 100.57 100.58 100.58 100.58 100.58 100.58 100.59 100.59 100.59 100.59 100.60 100.60 100.60 100.61 100.61 100.61 100.61 100.61 100.62 100.62 100.62 100.62 100.63 100.63 100.63 100.64 100.64 100.64 100.64 100.64 100.65 100.65 100.65 100.66 100.66 100.66 100.66 100.67 100.67 100.67 100.67 100.67 100.68 100.68 100.68 100.69 100.69 100.69 100.69 100.69 100.70 100.70 100.70
100.20 100.20 100.21 100.21 100.21 100.22 100.22 100.22 100.22 100.22 100.23 100.23 100.23 100.23 100.24 100.24 100.24 100.25 100.25 100.25 100.25 100.25 100.26 100.26 100.26 100.27 100.27 100.27 100.27 100.28 100.28 100.28 100.28 100.28 100.29 100.29 100.29 100.30 100.30 100.30 100.30 100.31 100.31 100.31 100.31 100.31 100.32 100.32 100.32 100.33 100.33 100.33 100.33 100.33 100.34 100.34 100.34 100.34 100.35 100.35 100.35 100.36 100.36 100.36 100.36 100.36 100.37 100.37 100.37 100.38 100.38 100.38 100.38 100.39 100.39 100.39 100.39 100.39 100.40 100.40 100.40 100.41 100.41 100.41 100.41 100.42 100.42 100.42 100.42 100.42 100.43 100.43 100.43 100.44 100.44 100.44 100.44 100.44 100.45 100.45 100.45 100.45 100.46 100.46 100.46 100.47 100.47 100.47 100.47 100.47 100.48 100.48 100.48 100.48 100.49 100.49 100.49 100.50 100.50 100.50 100.50 100.50 100.51 100.51 100.51 100.52 100.52 100.52 100.52 100.53 100.53 100.53 100.53 100.53 100.54 100.54 100.54 100.55 100.55 100.55 100.55 100.56 100.56 100.56 100.56 100.56 100.57 100.57 100.57 100.58 100.58 100.58 100.58 100.58 100.59 100.59 100.59 100.59 100.60 100.60 100.60 100.61 100.61 100.61 100.61 100.61 100.62 100.62 100.62 100.62 100.63 100.63 100.63 100.64 100.64 100.64 100.64 100.64 100.65 100.65 100.65 100.66 100.66 100.66 100.66 100.67 100.67 100.67 100.67 100.67 100.68 100.68 100.68 100.69 100.69 100.69 100.69 100.69 100.70 100.70
100.20 100.20 100.20 100.21 100.21 100.21 100.22 100.22 100.22 100.22 100.22 100.23 100.23 100.23 100.23 100.24 100.24 100.24 100.25 100.25 100.25 100.25 100.25 100.26 100.26 100.26 100.27 100.27 100.27 100.27 100.28 100.28 100.28 100.28 100.28 100.29 100.29 100.29 100.30 100.30 100.30 100.30 100.31 100.31 100.31 100.31 100.31 100.32 100.32 100.32 100.33 100.33 100.33 100.33 100.33 100.34 100.34 100.34 100.34 100.35 100.35 100.35 100.36 100.36 100.36 100.36 100.36 100.37 100.37 100.37 100.38 100.38 100.38 100.38 100.39 100.39 100.39 100.39 100.39 100.40 100.40 100.40 100.41 100.41 100.41 100.41 100.42 100.42 100.42 100.42 100.42 100.43 100.43 100.43 100.44 100.44 100.44 100.44 100.44 100.45 100.45 100.45 100.45 100.46 100.46 100.46 100.47 100.47 100.47 100.47 100.47 100.48 100.48 100.48 100.48 100.49 100.49 100.49 100.50 100.50 100.50 100.50 100.50 100.51 100.51 100.51 100.52 100.52 100.52 100.52 100.53 100.53 100.53 100.53 100.53 100.54 100.54 100.54 100.55 100.55 100.55 100.55 100.56 100.56 100.56 100.56 100.56 100.57 100.57 100.57 100.58 100.58 100.58 100.58 100.58 100.59 100.59 100.59 100.59 100.60 100.60 100.60 100.61 100.61 100.61 100.61 100.61 100.62 100.62 100.62 100.62 100.63 100.63 100.63 100.64 100.64 100.64 100.64 100.64 100.65 100.65 100.65 100.66 100.66 100.66 100.66 100.67 100.67 100.67 100.67 100.67 100.68 100.68 100.68 100.69 100.69 100.69 100.69 100.69 100.70
100.20 100.20 100.20 100.20 100.21 100.21 100.21 100.22 100.22 100.22 100.22 100.22 100.23 100.23 100.23 100.23 100.24 100.24 100.24 100.25 100.25 100.25 100.25 100.25 100.26 100.26 100.26 100.27 100.27 100.27 100.27 100.28 100.28 100.28 100.28 100.28 100.29 100.29 100.29 100.30 100.30 100.30 100.30 100.31 100.31 100.31 100.31 100.31 100.32 100.32 100.32 100.33 100.33 100.33 100.33 100.33 100.34 100.34 100.34 100.34 100.35 100.35 100.35 100.36 100.36 100.36 100.36 100.36 100.37 100.37 100.37 100.38 100.38 100.38 100.38 100.39 100.39 100.39 100.39 100.39 100.40 100.40 100.40 100.41 100.41 100.41 100.41 100.42 100.42 100.42 100.42 100.42 100.43 100.43 100.43 100.44 100.44 100.44 100.44 100.44 100.45 100.45 100.45 100.45 100.46 100.46 100.46 100.47 100.47 100.47 100.47 100.47 100.48 100.48 100.48 100.48 100.49 100.49 100.49 100.50 100.50 100.50 100.50 100.50 100.51 100.51 100.51 100.52 100.52 100.52 100.52 100.53 100.53 100.53 100.53 100.53 100.54 100.54 100.54 100.55 100.55 100.55 100.55 100.56 100.56 100.56 100.56 100.56 100.57 100.57 100.57 100.58 100.58 100.58 100.58 100.58 100.59 100.59 100.59 100.59 100.60 100.60 100.60 100.61 100.61 100.61 100.61 100.61 100.62 100.62 100.62 100.62 100.63 100.63 100.63 100.64 100.64 100.64 100.64 100.64 100.65 100.65 100.65 100.66 100.66 100.66 100.66 100.67 100.67 100.67 100.67 100.67 100.68 100.68 100.68 100.69 100.69 100.69 100.69 100.69
100.19 100.20 100.20 100.20 100.20 100.21 100.21 100.21 100.22 100.22 100.22 100.22 100.22 100.23 100.23 100.23 100.23 100.24 100.24 100.24 100.25 100.25 100.25 100.25 100.25 100.26 100.26 100.26 100.27 100.27 100.27 100.27 100.28 100.28 100.28 100.28 100.28 100.29 100.29 100.29 100.30 100.30 100.30 100.30 100.31 100.31 100.31 100.31 100.31 100.32 100.32 100.32 100.33 100.33 100.33 100.33 100.33 100.34 100.34 100.34 100.34 100.35 100.35 100.35 100.36 100.36 100.36 100.36 100.36 100.37 100.37 100.37 100.38 100.38 100.38 100.38 100.39 100.39 100.39 100.39 100.39 100.40 100.40 100.40 100.41 100.41 100.41 100.41 100.42 100.42 100.42 100.42 100.42 100.43 100.43 100.43 100.44 100.44 100.44 100.44 100.44 100.45 100.45 100.45 100.45 100.46 100.46 100.46 100.47 100.47 100.47 100.47 100.47 100.48 100.48 100.48 100.48 100.49 100.49 100.49 100.50 100.50 100.50 100.50 100.50 100.51 100.51 100.51 100.52 100.52 100.52 100.52 100.53 100.53 100.53 100.53 100.53 100.54 100.54 100.54 100.55 100.55 100.55 100.55 100.56 100.56 100.56 100.56 100.56 100.57 100.57 100.57 100.58 100.58 100.58 100.58 100.58 100.59 100.59 100.59 100.59 100.60 100.60 100.60 100.61 100.61 100.61 100.61 100.61 100.62 100.62 100.62 100.62 100.63 100.63 100.63 100.64 100.64 100.64 100.64 100.64 100.65 100.65 100.65 100.66 100.66 100.66 100.66 100.67 100.67 100.67 100.67 100.67 100.68 100.68 100.68 100.69 100.69 100.69 100.69
100.19 100.19 100.20 100.20 100.20 100.20 100.21 100.21 100.21 100.22 100.22 100.22 100.22 100.22 100.23 100.23 100.23 100.23 100.24 100.24 100.24 100.25 100.25 100.25 100.25 100.25 100.26 100.26 100.26 100.27 100.27 100.27 100.27 100.28 100.28 100.28 100.28 100.28 100.29 100.29 100.29 100.30 100.30 100.30 100.30 100.31 100.31 100.31 100.31 100.31 100.32 100.32 100.32 100.33 100.33 100.33 100.33 100.33 100.34 100.34 100.34 100.34 100.35 100.35 100.35 100.36 100.36 100.36 100.36 100.36 100.37 100.37 100.37 100.38 100.38 100.38 100.38 100.39 100.39 100.39 100.39 100.39 100.40 100.40 100.40 100.41 100.41 100.41 100.41 100.42 100.42 100.42 100.42 100.42 100.43 100.43 100.43 100.44 100.44 100.44 100.44 100.44 100.45 100.45 100.45 100.45 100.46 100.46 100.46 100.47 100.47 100.47 100.47 100.47 100.48 100.48 100.48 100.48 100.49 100.49 100.49 100.50 100.50 100.50 100.50 100.50 100.51 100.51 100.51 100.52 100.52 100.52 100.52 100.53 100.53 100.53 100.53 100.53 100.54 100.54 100.54 100.55 100.55 100.55 100.55 100.56 100.56 100.56 100.56 100.56 100.57 100.57 100.57 100.58 100.58 100.58 100.58 100.58 100.59 100.59 100.59 100.59 100.60 100.60 100.60 100.61 100.61 100.61 100.61 100.61 100.62 100.62 100.62 100.62 100.63 100.63 100.63 100.64 100.64 100.64 100.64 100.64 100.65 100.65 100.65 100.66 100.66 100.66 100.66 100.67 100.67 100.67 100.67 100.67 100.68 100.68 100.68 100.69 100.69 100.69
100.19 100.19 100.19 100.20 100.20 100.20 100.20 100.21 100.21 100.21 100.22 100.22 100.22 100.22 100.22 100.23 100.23 100.23 100.23 100.24 100.24 100.24 100.25 100.25 100.25 100.25 100.25 100.26 100.26 100.26 100.27 100.27 100.27 100.27 100.28 100.28 100.28 100.28 100.28 100.29 100.29 100.29 100.30 100.30 100.30 100.30 100.31 100.31 100.31 100.31 100.31 100.32 100.32 100.32 100.33 100.33 100.33 100.33 100.33 100.34 100.34 100.34 100.34 100.35 100.35 100.35 100.36 100.36 100.36 100.36 100.36 100.37 100.37 100.37 100.38 100.38 100.38 100.38 100.39 100.39 100.39 100.39 100.39 100.40 100.40 100.40 100.41 100.41 100.41 100.41 100.42 100.42 100.42 100.42 100.42 100.43 100.43 100.43 100.44 100.44 100.44 100.44 100.44 100.45 100.45 100.45 100.45 100.46 100.46 100.46 100.47 100.47 100.47 100.47 100.47 100.48 100.48 100.48 100.48 100.49 100.49 100.49 100.50 100.50 100.50 100.50 100.50 100.51 100.51 100.51 100.52 100.52 100.52 100.52 100.53 100.53 100.53 100.53 100.53 100.54 100.54 100.54 100.55 100.55 100.55 100.55 100.56 100.56 100.56 100.56 100.56 100.57 100.57 100.57 100.58 100.58 100.58 100.58 100.58 100.59 100.59 100.59 100.59 100.60 100.60 100.60 100.61 100.61 100.61 100.61 100.61 100.62 100.62 100.62 100.62 100.63 100.63 100.63 100.64 100.64 100.64 100.64 100.64 100.65 100.65 100.65 100.66 100.66 100.66 100.66 100.67 100.67 100.67 100.67 100.67 100.68 100.68 100.68 100.69 100.69
100.19 100.19 100.19 100.19 100.20 100.20 100.20 100.20 100.21 100.21 100.21 100.22 100.22 100.22 100.22 100.22 100.23 100.23 100.23 100.23 100.24 100.24 100.24 100.25 100.25 100.25 100.25 100.25 100.26 100.26 100.26 100.27 100.27 100.27 100.27 100.28 100.28 100.28 100.28 100.28 100.29 100.29 100.29 100.30 100.30 100.30 100.30 100.31 100.31 100.31 100.31 100.31 100.32 100.32 100.32 100.33 100.33 100.33 100.33 100.33 100.34 100.34 100.34 100.34 100.35 100.35 100.35 100.36 100.36 100.36 100.36 100.36 100.37 100.37 100.37 100.38 100.38 100.38 100.38 100.39 100.39 100.39 100.39 100.39 100.40 100.40 100.40 100.41 100.41 100.41 100.41 100.42 100.42 100.42 100.42 100.42 100.43 100.43 100.43 100.44 100.44 100.44 100.44 100.44 100.45 100.45 100.45 100.45 100.46 100.46 100.46 100.47 100.47 100.47 100.47 100.47 100.48 100.48 100.48 100.48 100.49 100.49 100.49 100.50 100.50 100.50 100.50 100.50 100.51 100.51 100.51 100.52 100.52 100.52 100.52 100.53 100.53 100.53 100.53 100.53 100.54 100.54 100.54 100.55 100.55 100.55 100.55 100.56 100.56 100.56 100.56 100.56 100.57 100.57 100.57 100.58 100.58 100.58 100.58 100.58 100.59 100.59 100.59 100.59 100.60 100.60 100.60 100.61 100.61 100.61 100.61 100.61 100.62 100.62 100.62 100.62 100.63 100.63 100.63 100.64 100.64 100.64 100.64 100.64 100.65 100.65 100.65 100.66 100.66 100.66 100.66 100.67 100.67 100.67 100.67 100.67 100.68 100.68 100.68 100.69
100.19 100.19 100.19 100.19 100.19 100.20 100.20 100.20 100.20 100.21 100.21 100.21 100.22 100.22 100.22 100.22 100.22 100.23 100.23 100.23 100.23 100.24 100.24 100.24 100.25 100.25 100.25 100.25 100.25 100.26 100.26 100.26 100.27 100.27 100.27 100.27 100.28 100.28 100.28 100.28 100.28 100.29 100.29 100.29 100.30 100.30 100.30 100.30 100.31 100.31 100.31 100.31 100.31 100.32 100.32 100.32 100.33 100.33 100.33 100.33 100.33 100.34 100.34 100.34 100.34 100.35 100.35 100.35 100.36 100.36 100.36 100.36 100.36 100.37 100.37 100.37 100.38 100.38 100.38 100.38 100.39 100.39 100.39 100.39 100.39 100.40 100.40 100.40 100.41 100.41 100.41 100.41 100.42 100.42 100.42 100.42 100.42 100.43 100.43 100.43 100.44 100.44 100.44 100.44 100.44 100.45 100.45 100.45 100.45 100.46 100.46 100.46 100.47 100.47 100.47 100.47 100.47 100.48 100.48 100.48 100.48 100.49 100.49 100.49 100.50 100.50 100.50 100.50 100.50 100.51 100.51 100.51 100.52 100.52 100.52 100.52 100.53 100.53 100.53 100.53 100.53 100.54 100.54 100.54 100.55 100.55 100.55 100.55 100.56 100.56 100.56 100.56 100.56 100.57 100.57 100.57 100.58 100.58 100.58 100.58 100.58 100.59 100.59 100.59 100.59 100.60 100.60 100.60 100.61 100.61 100.61 100.61 100.61 100.62 100.62 100.62 100.62 100.63 100.63 100.63 100.64 100.64 100.64 100.64 100.64 100.65 100.65 100.65 100.66 100.66 100.66 100.66 100.67 100.67 100.67 100.67 100.67 100.68 100.68 100.68
100.18 100.19 100.19 100.19 100.19 100.19 100.20 100.20 100.20 100.20 100.21 100.21 100.21 100.22 100.22 100.22 100.22 100.22 100.23 100.23 100.23 100.23 100.24 100.24 100.24 100.25 100.25 100.25 100.25 100.25 100.26 100.26 100.26 100.27 100.27 100.27 100.27 100.28 100.28 100.28 100.28 100.28 100.29 100.29 100.29 100.30 100.30 100.30 100.30 100.31 100.31 100.31 100.31 100.31 100.32 100.32 100.32 100.33 100.33 100.33 100.33 100.33 100.34 100.34 100.34 100.34 100.35 100.35 100.35 100.36 100.36 100.36 100.36 100.36 100.37 100.37 100.37 100.38 100.38 100.38 100.38 100.39 100.39 100.39 100.39 100.39 100.40 100.40 100.40 100.41 100.41 100.41 100.41 100.42 100.42 100.42 100.42 100.42 100.43 100.43 100.43 100.44 100.44 100.44 100.44 100.44 100.45 100.45 100.45 100.45 100.46 100.46 100.46 100.47 100.47 100.47 100.47 100.47 100.48 100.48 100.48 100.48 100.49 100.49 100.49 100.50 100.50 100.50 100.50 100.50 100.51 100.51 100.51 100.52 100.52 100.52 100.52 100.53 100.53 100.53 100.53 100.53 100.54 100.54 100.54 100.55 100.55 100.55 100.55 100.56 100.56 100.56 100.56 100.56 100.57 100.57 100.57 100.58 100.58 100.58 100.58 100.58 100.59 100.59 100.59 100.59 100.60 100.60 100.60 100.61 100.61 100.61 100.61 100.61 100.62 100.62 100.62 100.62 100.63 100.63 100.63 100.64 100.64 100.64 100.64 100.64 100.65 100.65 100.65 100.66 100.66 100.66 100.66 100.67 100.67 100.67 100.67 100.67 100.68 100.68
100.18 100.18 100.19 100.19 100.19 100.19 100.19 100.20 100.20 100.20 100.20 100.21 100.21 100.21 100.22 100.22 100.22 100.22 100.22 100.23 100.23 100.23 100.23 100.24 100.24 100.24 100.25 100.25 100.25 100.25 100.25 100.26 100.26 100.26 100.27 100.27 100.27 100.27 100.28 100.28 100.28 100.28 100.28 100.29 100.29 100.29 100.30 100.30 100.30 100.30 100.31 100.31 100.31 100.31 100.31 100.32 100.32 100.32 100.33 100.33 100.33 100.33 100.33 100.34 100.34 100.34 100.34 100.35 100.35 100.35 100.36 100.36 100.36 100.36 100.36 100.37 100.37 100.37 100.38 100.38 100.38 100.38 100.39 100.39 100.39 100.39 100.39 100.40 100.40 100.40 100.41 100.41 100.41 100.41 100.42 100.42 100.42 100.42 100.42 100.43 100.43 100.43 100.44 100.44 100.44 100.44 100.44 100.45 100.45 100.45 100.45 100.46 100.46 100.46 100.47 100.47 100.47 100.47 100.47 100.48 100.48 100.48 100.48 100.49 100.49 100.49 100.50 100.50 100.50 100.50 100.50 100.51 100.51 100.51 100.52 100.52 100.52 100.52 100.53 100.53 100.53 100.53 100.53 100.54 100.54 100.54 100.55 100.55 100.55 100.55 100.56 100.56 100.56 100.56 100.56 100.57 100.57 100.57 100.58 100.58 100.58 100.58 100.58 100.59 100.59 100.59 100.59 100.60 100.60 100.60 100.61 100.61 100.61 100.61 100.61 100.62 100.62 100.62 100.62 100.63 100.63 100.63 100.64 100.64 100.64 100.64 100.64 100.65 100.65 100.65 100.66 100.66 100.66 100.66 100.67 100.67 100.67 100.67 100.67 100.68
100.18 100.18 100.18 100.19 100.19 100.19 100.19 100.19 100.20 100.20 100.20 100.20 100.21 100.21 100.21 100.22 100.22 100.22 100.22 100.22 100.23 100.23 100.23 100.23 100.24 100.24 100.24 100.25 100.25 100.25 100.25 100.25 100.26 100.26 100.26 100.27 100.27 100.27 100.27 100.28 100.28 100.28 100.28 100.28 100.29 100.29 100.29 100.30 100.30 100.30 100.30 100.31 100.31 100.31 100.31 100.31 100.32 100.32 100.32 100.33 100.33 100.33 100.33 100.33 100.34 100.34 100.34 100.34 100.35 100.35 100.35 100.36 100.36 100.36 100.36 100.36 100.37 100.37 100.37 100.38 100.38 100.38 100.38 100.39 100.39 100.39 100.39 100.39 100.40 100.40 100.40 100.41 100.41 100.41 100.41 100.42 100.42 100.42 100.42 100.42 100.43 100.43 100.43 100.44 100.44 100.44 100.44 100.44 100.45 100.45 100.45 100.45 100.46 100.46 100.46 100.47 100.47 100.47 100.47 100.47 100.48 100.48 100.48 100.48 100.49 100.49 100.49 100.50 100.50 100.50 100.50 100.50 100.51 100.51 100.51 100.52 100.52 100.52 100.52 100.53 100.53 100.53 100.53 100.53 100.54 100.54 100.54 100.55 100.55 100.55 100.55 100.56 100.56 100.56 100.56 100.56 100.57 100.57 100.57 100.58 100.58 100.58 100.58 100.58 100.59 100.59 100.59 100.59 100.60 100.60 100.60 100.61 100.61 100.61 100.61 100.61 100.62 100.62 100.62 100.62 100.63 100.63 100.63 100.64 100.64 100.64 100.64 100.64 100.65 100.65 100.65 100.66 100.66 100.66 100.66 100.67 100.67 100.67 100.67 100.67
100.17 100.18 100.18 100.18 100.19 100.19 100.19 100.19 100.19 100.20 110.20 110.20 110.20 110.21 110.21 110.21 110.22 110.22 110.22 110.22 110.22 110.23 110.23 110.23 110.23 110.24 110.24 110.24 110.25 110.25 110.25 100.25 100.25 100.26 100.26 100.26 100.27 100.27 100.27 100.27 100.28 100.28 100.28 100.28 100.28 100.29 100.29 100.29 100.30 100.30 110.30 110.30 110.31 110.31 110.31 110.31 110.31 110.32 110.32 110.32 110.33 110.33 110.33 110.33 110.33 110.34 110.34 110.34 110.34 110.35 110.35 100.35 100.36 100.36 100.36 100.36 100.36 100.37 100.37 100.37 100.38 100.38 100.38 100.38 100.39 100.39 100.39 100.39 100.39 100.40 110.40 110.40 110.41 110.41 110.41 110.41 110.42 110.42 110.42 110.42 110.42 110.43 110.43 110.43 110.44 110.44 110.44 110.44 110.44 110.45 110.45 100.45 100.45 100.46 100.46 100.46 100.47 100.47 100.47 100.47 100.47 100.48 100.48 100.48 100.48 100.49 100.49 100.49 100.50 100.50 110.50 110.50 110.50 110.51 110.51 110.51 110.52 110.52 110.52 110.52 110.53 110.53 110.53 110.53 110.53 110.54 110.54 110.54 110.55 110.55 110.55 100.55 100.56 100.56 100.56 100.56 100.56 100.57 100.57 100.57 100.58 100.58 100.58 100.58 100.58 100.59 100.59 100.59 100.59 100.60 110.60 110.60 110.61 110.61 110.61 110.61 110.61 110.62 110.62 110.62 110.62 110.63 110.63 110.63 110.64 110.64 110.64 110.64 110.64 110.65 110.65 100.65 100.66 100.66 100.66 100.66 100.67 100.67 100.67 100.67
100.17 100.17 100.18 100.18 100.18 100.19 100.19 100.19 100.19 100.19 110.20 110.20 110.20 110.20 110.21 110.21 110.21 110.22 110.22 110.22 110.22 110.22 110.23 110.23 110.23 110.23 110.24 110.24 110.24 110.25 110.25 100.25 100.25 100.25 100.26 100.26 100.26 100.27 100.27 100.27 100.27 100.28 100.28 100.28 100.28 100.28 100.29 100.29 100.29 100.30 110.30 110.30 110.30 110.31 110.31 110.31 110.31 110.31 110.32 110.32 110.32 110.33 110.33 110.33 110.33 110.33 110.34 110.34 110.34 110.34 110.35 100.35 100.35 100.36 100.36 100.36 100.36 100.36 100.37 100.37 100.37 100.38 100.38 100.38 100.38 100.39 100.39 100.39 100.39 100.39 110.40 110.40 110.40 110.41 110.41 110.41 110.41 110.42 110.42 110.42 110.42 110.42 110.43 110.43 110.43 110.44 110.44 110.44 110.44 110.44 110.45 100.45 100.45 100.45 100.46 100.46 100.46 100.47 100.47 100.47 100.47 100.47 100.48 100.48 100.48 100.48 100.49 100.49 100.49 100.50 110.50 110.50 110.50 110.50 110.51 110.51 110.51 110.52 110.52 110.52 110.52 110.53 110.53 110.53 110.53 110.53 110.54 110.54 110.54 110.55 110.55 100.55 100.55 100.56 100.56 100.56 100.56 100.56 100.57 100.57 100.57 100.58 100.58 100.58 100.58 100.58 100.59 100.59 100.59 100.59 110.60 110.60 110.60 110.61 110.61 110.61 110.61 110.61 110.62 110.62 110.62 110.62 110.63 110.63 110.63 110.64 110.64 110.64 110.64 110.64 110.65 100.65 100.65 100.66 100.66 100.66 100.66 100.67 100.67 100.67
100.17 100.17 100.17 100.18 100.18 100.18 100.19 100.19 100.19 100.19 110.19 110.20 110.20 110.20 110.20 110.21 110.21 110.21 110.22 110.22 110.22 110.22 110.22 110.23 110.23 110.23 110.23 110.24 110.24 110.24 110.25 100.25 100.25 100.25 100.25 100.26 100.26 100.26 100.27 100.27 100.27 100.27 100.28 100.28 100.28 100.28 100.28 100.29 100.29 100.29 110.30 110.30 110.30 110.30 110.31 110.31 110.31 110.31 110.31 110.32 110.32 110.32 110.33 110.33 110.33 110.33 110.33 110.34 110.34 110.34 110.34 100.35 100.35 100.35 100.36 100.36 100.36 100.36 100.36 100.37 100.37 100.37 100.38 100.38 100.38 100.38 100.39 100.39 100.39 100.39 110.39 110.40 110.40 110.40 110.41 110.41 110.41 110.41 110.42 110.42 110.42 110.42 110.42 110.43 110.43 110.43 110.44 110.44 110.44 110.44 110.44 100.45 100.45 100.45 100.45 100.46 100.46 100.46 100.47 100.47 100.47 100.47 100.47 100.48 100.48 100.48 100.48 100.49 100.49 100.49 110.50 110.50 110.50 110.50 110.50 110.51 110.51 110.51 110.52 110.52 110.52 110.52 110.53 110.53 110.53 110.53 110.53 110.54 110.54 110.54 110.55 100.55 100.55 100.55 100.56 100.56 100.56 100.56 100.56 100.57 100.57 100.57 100.58 100.58 100.58 100.58 100.58 100.59 100.59 100.59 110.59 110.60 110.60 110.60 110.61 110.61 110.61 110.61 110.61 110.62 110.62 110.62 110.62 110.63 110.63 110.63 110.64 110.64 110.64 110.64 110.64 100.65 100.65 100.65 100.66 100.66 100.66 100.66 100.67 100.67
100.17 100.17 100.17 100.17 100.18 100.18 100.18 100.19 100.19 100.19 110.19 110.19 110.20 110.20 110.20 110.20 110.21 110.21 110.21 110.22 110.22 110.22 110.22 110.22 110.23 110.23 110.23 110.23 110.24 110.24 110.24 100.25 100.25 100.25 100.25 100.25 100.26 100.26 100.26 100.27 100.27 100.27 100.27 100.28 100.28 100.28 100.28 100.28 100.29 100.29 110.29 110.30 110.30 110.30 110.30 110.31 110.31 110.31 110.31 110.31 110.32 110.32 110.32 110.33 110.33 110.33 110.33 110.33 110.34 110.34 110.34 100.34 100.35 100.35 100.35 100.36 100.36 100.36 100.36 100.36 100.37 100.37 100.37 100.38 100.38 100.38 100.38 100.39 100.39 100.39 110.39 110.39 110.40 110.40 110.40 110.41 110.41 110.41 110.41 110.42 110.42 110.42 110.42 110.42 110.43 110.43 110.43 110.44 110.44 110.44 110.44 100.44 100.45 100.45 100.45 100.45 100.46 100.46 100.46 100.47 100.47 100.47 100.47 100.47 100.48 100.48 100.48 100.48 100.49 100.49 110.49 110.50 110.50 110.50 110.50 110.50 110.51 110.51 110.51 110.52 110.52 110.52 110.52 110.53 110.53 110.53 110.53 110.53 110.54 110.54 110.54 100.55 100.55 100.55 100.55 100.56 100.56 100.56 100.56 100.56 100.57 100.57 100.57 100.58 100.58 100.58 100.58 100.58 100.59 100.59 110.59 110.59 110.60 110.60 110.60 110.61 110.61 110.61 110.61 110.61 110.62 110.62 110.62 110.62 110.63 110.63 110.63 110.64 110.64 110.64 110.64 100.64 100.65 100.65 100.65 100.66 100.66 100.66 100.66 100.67
100.17 100.17 100.17 100.17 100.17 100.18 100.18 100.18 100.19 100.19 110.19 110.19 110.19 110.20 110.20 110.20 110.20 110.21 110.21 110.21 110.22 110.22 110.22 110.22 110.22 110.23 110.23 110.23 110.23 110.24 110.24 100.24 100.25 100.25 100.25 100.25 100.25 100.26 100.26 100.26 100.27 100.27 100.27 100.27 100.28 100.28 100.28 100.28 100.28 100.29 110.29 110.29 110.30 110.30 110.30 110.30 110.31 110.31 110.31 110.31 110.31 110.32 110.32 110.32 110.33 110.33 110.33 110.33 110.33 110.34 110.34 100.34 100.34 100.35 100.35 100.35 100.36 100.36 100.36 100.36 100.36 100.37 100.37 100.37 100.38 100.38 100.38 100.38 100.39 100.39 110.39 110.39 110.39 110.40 110.40 110.40 110.41 110.41 110.41 110.41 110.42 110.42 110.42 110.42 110.42 110.43 110.43 110.43 110.44 110.44 110.44 100.44 100.44 100.45 100.45 100.45 100.45 100.46 100.46 100.46 100.47 100.47 100.47 100.47 100.47 100.48 100.48 100.48 100.48 100.49 110.49 110.49 110.50 110.50 110.50 110.50 110.50 110.51 110.51 110.51 110.52 110.52 110.52 110.52 110.53 110.53 110.53 110.53 110.53 110.54 110.54 100.54 100.55 100.55 100.55 100.55 100.56 100.56 100.56 100.56 100.56 100.57 100.57 100.57 100.58 100.58 100.58 100.58 100.58 100.59 110.59 110.59 110.59 110.60 110.60 110.60 110.61 110.61 110.61 110.61 110.61 110.62 110.62 110.62 110.62 110.63 110.63 110.63 110.64 110.64 110.64 100.64 100.64 100.65 100.65 100.65 100.66 100.66 100.66 100.66
100.16 100.17 100.17 100.17 100.17 100.17 100.18 100.18 100.18 100.19 110.19 110.19 110.19 110.19 110.20 110.20 110.20 110.20 110.21 110.21 110.21 110.22 110.22 110.22 110.22 110.22 110.23 110.23 110.23 110.23 110.24 100.24 100.24 100.25 100.25 100.25 100.25 100.25 100.26 100.26 100.26 100.27 100.27 100.27 100.27 100.28 100.28 100.28 100.28 100.28 110.29 110.29 110.29 110.30 110.30 110.30 110.30 110.31 110.31 110.31 110.31 110.31 110.32 110.32 110.32 110.33 110.33 110.33 110.33 110.33 110.34 100.34 100.34 100.34 100.35 100.35 100.35 100.36 100.36 100.36 100.36 100.36 100.37 100.37 100.37 100.38 100.38 100.38 100.38 100.39 110.39 110.39 110.39 110.39 110.40 110.40 110.40 110.41 110.41 110.41 110.41 110.42 110.42 110.42 110.42 110.42 110.43 110.43 110.43 110.44 110.44 100.44 100.44 100.44 100.45 100.45 100.45 100.45 100.46 100.46 100.46 100.47 100.47 100.47 100.47 100.47 100.48 100.48 100.48 100.48 110.49 110.49 110.49 110.50 110.50 110.50 110.50 110.50 110.51 110.51 110.51 110.52 110.52 110.52 110.52 110.53 110.53 110.53 110.53 110.53 110.54 100.54 100.54 100.55 100.55 100.55 100.55 100.56 100.56 100.56 100.56 100.56 100.57 100.57 100.57 100.58 100.58 100.58 100.58 100.58 110.59 110.59 110.59 110.59 110.60 110.60 110.60 110.61 110.61 110.61 110.61 110.61 110.62 110.62 110.62 110.62 110.63 110.63 110.63 110.64 110.64 100.64 100.64 100.64 100.65 100.65 100.65 100.66 100.66 100.66
100.16 100.16 100.17 100.17 100.17 100.17 100.17 100.18 100.18 100.18 110.19 110.19 110.19 110.19 110.19 110.20 110.20 110.20 110.20 110.21 110.21 110.21 110.22 110.22 110.22 110.22 110.22 110.23 110.23 110.23 110.23 100.24 100.24 100.24 100.25 100.25 100.25 100.25 100.25 100.26 100.26 100.26 100.27 100.27 100.27 100.27 100.28 100.28 100.28 100.28 110.28 110.29 110.29 110.29 110.30 110.30 110.30 110.30 110.31 110.31 110.31 110.31 110.31 110.32 110.32 110.32 110.33 110.33 110.33 110.33 110.33 100.34 100.34 100.34 100.34 100.35 100.35 100.35 100.36 100.36 100.36 100.36 100.36 100.37 100.37 100.37 100.38 100.38 100.38 100.38 110.39 110.39 110.39 110.39 110.39 110.40 110.40 110.40 110.41 110.41 110.41 110.41 110.42 110.42 110.42 110.42 110.42 110.43 110.43 110.43 110.44 100.44 100.44 100.44 100.44 100.45 100.45 100.45 100.45 100.46 100.46 100.46 100.47 100.47 100.47 100.47 100.47 100.48 100.48 100.48 110.48 110.49 110.49 110.49 110.50 110.50 110.50 110.50 110.50 110.51 110.51 110.51 110.52 110.52 110.52 110.52 110.53 110.53 110.53 110.53 110.53 100.54 100.54 100.54 100.55 100.55 100.55 100.55 100.56 100.56 100.56 100.56 100.56 100.57 100.57 100.57 100.58 100.58 100.58 100.58 110.58 110.59 110.59 110.59 110.59 110.60 110.60 110.60 110.61 110.61 110.61 110.61 110.61 110.62 110.62 110.62 110.62 110.63 110.63 110.63 110.64 100.64 100.64 100.64 100.64 100.65 100.65 100.65 100.66 100.66
100.16 100.16 100.16 100.17 100.17 100.17 100.17 100.17 100.18 100.18 110.18 110.19 110.19 110.19 110.19 110.19 110.20 110.20 110.20 110.20 110.21 110.21 110.21 110.22 110.22 110.22 110.22 110.22 110.23 110.23 110.23 100.23 100.24 100.24 100.24 100.25 100.25 100.25 100.25 100.25 100.26 100.26 100.26 100.27 100.27 100.27 100.27 100.28 100.28 100.28 110.28 110.28 110.29 110.29 110.29 110.30 110.30 110.30 110.30 110.31 110.31 110.31 110.31 110.31 110.32 110.32 110.32 110.33 110.33 110.33 110.33 100.33 100.34 100.34 100.34 100.34 100.35 100.35 100.35 100.36 100.36 100.36 100.36 100.36 100.37 100.37 100.37 100.38 100.38 100.38 110.38 110.39 110.39 110.39 110.39 110.39 110.40 110.40 110.40 110.41 110.41 110.41 110.41 110.42 110.42 110.42 110.42 110.42 110.43 110.43 110.43 100.44 100.44 100.44 100.44 100.44 100.45 100.45 100.45 100.45 100.46 100.46 100.46 100.47 100.47 100.47 100.47 100.47 100.48 100.48 110.48 110.48 110.49 110.49 110.49 110.50 110.50 110.50 110.50 110.50 110.51 110.51 110.51 110.52 110.52 110.52 110.52 110.53 110.53 110.53 110.53 100.53 100.54 100.54 100.54 100.55 100.55 100.55 100.55 100.56 100.56 100.56 100.56 100.56 100.57 100.57 100.57 100.58 100.58 100.58 110.58 110.58 110.59 110.59 110.59 110.59 110.60 110.60 110.60 110.61 110.61 110.61 110.61 110.61 110.62 110.62 110.62 110.62 110.63 110.63 110.63 100.64 100.64 100.64 100.64 100.64 100.65 100.65 100.65 100.66
100.16 100.16 100.16 100.16 100.17 100.17 100.17 100.17 100.17 100.18 110.18 110.18 110.19 110.19 110.19 110.19 110.19 110.20 110.20 110.20 110.20 110.21 110.21 110.21 110.22 110.22 110.22 110.22 110.22 110.23 110.23 100.23 100.23 100.24 100.24 100.24 100.25 100.25 100.25 100.25 100.25 100.26 100.26 100.26 100.27 100.27 100.27 100.27 100.28 100.28 110.28 110.28 110.28 110.29 110.29 110.29 110.30 110.30 110.30 110.30 110.31 110.31 110.31 110.31 110.31 110.32 110.32 110.32 110.33 110.33 110.33 100.33 100.33 100.34 100.34 100.34 100.34 100.35 100.35 100.35 100.36 100.36 100.36 100.36 100.36 100.37 100.37 100.37 100.38 100.38 110.38 110.38 110.39 110.39 110.39 110.39 110.39 110.40 110.40 110.40 110.41 110.41 110.41 110.41 110.42 110.42 110.42 110.42 110.42 110.43 110.43 100.43 100.44 100.44 100.44 100.44 100.44 100.45 100.45 100.45 100.45 100.46 100.46 100.46 100.47 100.47 100.47 100.47 100.47 100.48 110.48 110.48 110.48 110.49 110.49 110.49 110.50 110.50 110.50 110.50 110.50 110.51 110.51 110.51 110.52 110.52 110.52 110.52 110.53 110.53 110.53 100.53 100.53 100.54 100.54 100.54 100.55 100.55 100.55 100.55 100.56 100.56 100.56 100.56 100.56 100.57 100.57 100.57 100.58 100.58 110.58 110.58 110.58 110.59 110.59 110.59 110.59 110.60 110.60 110.60 110.61 110.61 110.61 110.61 110.61 110.62 110.62 110.62 110.62 110.63 110.63 100.63 100.64 100.64 100.64 100.64 100.64 100.65 100.65 100.65
100.15 100.16 100.16 100.16 100.16 100.17 100.17 100.17 100.17 100.17 110.18 110.18 110.18 110.19 110.19 110.19 110.19 110.19 110.20 110.20 110.20 110.20 110.21 110.21 110.21 110.22 110.22 110.22 110.22 110.22 110.23 100.23 100.23 100.23 100.24 100.24 100.24 100.25 100.25 100.25 100.25 100.25 100.26 100.26 100.26 100.27 100.27 100.27 100.27 100.28 110.28 110.28 110.28 110.28 110.29 110.29 110.29 110.30 110.30 110.30 110.30 110.31 110.31 110.31 110.31 110.31 110.32 110.32 110.32 110.33 110.33 100.33 100.33 100.33 100.34 100.34 100.34 100.34 100.35 100.35 100.35 100.36 100.36 100.36 100.36 100.36 100.37 100.37 100.37 100.38 110.38 110.38 110.38 110.39 110.39 110.39 110.39 110.39 110.40 110.40 110.40 110.41 110.41 110.41 110.41 110.42 110.42 110.42 110.42 110.42 110.43 100.43 100.43 100.44 100.44 100.44 100.44 100.44 100.45 100.45 100.45 100.45 100.46 100.46 100.46 100.47 100.47 100.47 100.47 100.47 110.48 110.48 110.48 110.48 110.49 110.49 110.49 110.50 110.50 110.50 110.50 110.50 110.51 110.51 110.51 110.52 110.52 110.52 110.52 110.53 110.53 100.53 100.53 100.53 100.54 100.54 100.54 100.55 100.55 100.55 100.55 100.56 100.56 100.56 100.56 100.56 100.57 100.57 100.57 100.58 110.58 110.58 110.58 110.58 110.59 110.59 110.59 110.59 110.60 110.60 110.60 110.61 110.61 110.61 110.61 110.61 110.62 110.62 110.62 110.62 110.63 100.63 100.63 100.64 100.64 100.64 100.64 100.64 100.65 100.65
100.15 100.15 100.16 100.16 100.16 100.16 100.17 100.17 100.17 100.17 110.17 110.18 110.18 110.18 110.19 110.19 110.19 110.19 110.19 110.20 110.20 110.20 110.20 110.21 110.21 110.21 110.22 110.22 110.22 110.22 110.22 100.23 100.23 100.23 100.23 100.24 100.24 100.24 100.25 100.25 100.25 100.25 100.25 100.26 100.26 100.26 100.27 100.27 100.27 100.27 110.28 110.28 110.28 110.28 110.28 110.29 110.29 110.29 110.30 110.30 110.30 110.30 110.31 110.31 110.31 110.31 110.31 110.32 110.32 110.32 110.33 100.33 100.33 100.33 100.33 100.34 100.34 100.34 100.34 100.35 100.35 100.35 100.36 100.36 100.36 100.36 100.36 100.37 100.37 100.37 110.38 110.38 110.38 110.38 110.39 110.39 110.39 110.39 110.39 110.40 110.40 110.40 110.41 110.41 110.41 110.41 110.42 110.42 110.42 110.42 110.42 100.43 100.43 100.43 100.44 100.44 100.44 100.44 100.44 100.45 100.45 100.45 100.45 100.46 100.46 100.46 100.47 100.47 100.47 100.47 110.47 110.48 110.48 110.48 110.48 110.49 110.49 110.49 110.50 110.50 110.50 110.50 110.50 110.51 110.51 110.51 110.52 110.52 110.52 110.52 110.53 100.53 100.53 100.53 100.53 100.54 100.54 100.54 100.55 100.55 100.55 100.55 100.56 100.56 100.56 100.56 100.56 100.57 100.57 100.57 110.58 110.58 110.58 110.58 110.58 110.59 110.59 110.59 110.59 110.60 110.60 110.60 110.61 110.61 110.61 110.61 110.61 110.62 110.62 110.62 110.62 100.63 100.63 100.63 100.64 100.64 100.64 100.64 100.64 100.65
100.15 100.15 100.15 100.16 100.16 100.16 100.16 100.17 100.17 100.17 110.17 110.17 110.18 110.18 110.18 110.19 110.19 110.19 110.19 110.19 110.20 110.20 110.20 110.20 110.21 110.21 110.21 110.22 110.22 110.22 110.22 100.22 100.23 100.23 100.23 100.23 100.24 100.24 100.24 100.25 100.25 100.25 100.25 100.25 100.26 100.26 100.26 100.27 100.27 100.27 110.27 110.28 110.28 110.28 110.28 110.28 110.29 110.29 110.29 110.30 110.30 110.30 110.30 110.31 110.31 110.31 110.31 110.31 110.32 110.32 110.32 100.33 100.33 100.33 100.33 100.33 100.34 100.34 100.34 100.34 100.35 100.35 100.35 100.36 100.36 100.36 100.36 100.36 100.37 100.37 110.37 110.38 110.38 110.38 110.38 110.39 110.39 110.39 110.39 110.39 110.40 110.40 110.40 110.41 110.41 110.41 110.41 110.42 110.42 110.42 110.42 100.42 100.43 100.43 100.43 100.44 100.44 100.44 100.44 100.44 100.45 100.45 100.45 100.45 100.46 100.46 100.46 100.47 100.47 100.47 110.47 110.47 110.48 110.48 110.48 110.48 110.49 110.49 110.49 110.50 110.50 110.50 110.50 110.50 110.51 110.51 110.51 110.52 110.52 110.52 110.52 100.53 100.53 100.53 100.53 100.53 100.54 100.54 100.54 100.55 100.55 100.55 100.55 100.56 100.56 100.56 100.56 100.56 100.57 100.57 110.57 110.58 110.58 110.58 110.58 110.58 110.59 110.59 110.59 110.59 110.60 110.60 110.60 110.61 110.61 110.61 110.61 110.61 110.62 110.62 110.62 100.62 100.63 100.63 100.63 100.64 100.64 100.64 100.64 100.64
100.14 100.15 100.15 100.15 100.16 100.16 100.16 100.16 100.17 100.17 110.17 110.17 110.17 110.18 110.18 110.18 110.19 110.19 110.19 110.19 110.19 110.20 110.20 110.20 110.20 110.21 110.21 110.21 110.22 110.22 110.22 100.22 100.22 100.23 100.23 100.23 100.23 100.24 100.24 100.24 100.25 100.25 100.25 100.25 100.25 100.26 100.26 100.26 100.27 100.27 110.27 110.27 110.28 110.28 110.28 110.28 110.28 110.29 110.29 110.29 110.30 110.30 110.30 110.30 110.31 110.31 110.31 110.31 110.31 110.32 110.32 100.32 100.33 100.33 100.33 100.33 100.33 100.34 100.34 100.34 100.34 100.35 100.35 100.35 100.36 100.36 100.36 100.36 100.36 100.37 110.37 110.37 110.38 110.38 110.38 110.38 110.39 110.39 110.39 110.39 110.39 110.40 110.40 110.40 110.41 110.41 110.41 110.41 110.42 110.42 110.42 100.42 100.42 100.43 100.43 100.43 100.44 100.44 100.44 100.44 100.44 100.45 100.45 100.45 100.45 100.46 100.46 100.46 100.47 100.47 110.47 110.47 110.47 110.48 110.48 110.48 110.48 110.49 110.49 110.49 110.50 110.50 110.50 110.50 110.50 110.51 110.51 110.51 110.52 110.52 110.52 100.52 100.53 100.53 100.53 100.53 100.53 100.54 100.54 100.54 100.55 100.55 100.55 100.55 100.56 100.56 100.56 100.56 100.56 100.57 110.57 110.57 110.58 110.58 110.58 110.58 110.58 110.59 110.59 110.59 110.59 110.60 110.60 110.60 110.61 110.61 110.61 110.61 110.61 110.62 110.62 100.62 100.62 100.63 100.63 100.63 100.64 100.64 100.64 100.64
100.14 100.14 100.15 100.15 100.15 100.16 100.16 100.16 100.16 100.17 110.17 110.17 110.17 110.17 110.18 110.18 110.18 110.19 110.19 110.19 110.19 110.19 110.20 110.20 110.20 110.20 110.21 110.21 110.21 110.22 110.22 100.22 100.22 100.22 100.23 100.23 100.23 100.23 100.24 100.24 100.24 100.25 100.25 100.25 100.25 100.25 100.26 100.26 100.26 100.27 110.27 110.27 110.27 110.28 110.28 110.28 110.28 110.28 110.29 110.29 110.29 110.30 110.30 110.30 110.30 110.31 110.31 110.31 110.31 110.31 110.32 100.32 100.32 100.33 100.33 100.33 100.33 100.33 100.34 100.34 100.34 100.34 100.35 100.35 100.35 100.36 100.36 100.36 100.36 100.36 110.37 110.37 110.37 110.38 110.38 110.38 110.38 110.39 110.39 110.39 110.39 110.39 110.40 110.40 110.40 110.41 110.41 110.41 110.41 110.42 110.42 100.42 100.42 100.42 100.43 100.43 100.43 100.44 100.44 100.44 100.44 100.44 100.45 100.45 100.45 100.45 100.46 100.46 100.46 100.47 110.47 110.47 110.47 110.47 110.48 110.48 110.48 110.48 110.49 110.49 110.49 110.50 110.50 110.50 110.50 110.50 110.51 110.51 110.51 110.52 110.52 100.52 100.52 100.53 100.53 100.53 100.53 100.53 100.54 100.54 100.54 100.55 100.55 100.55 100.55 100.56 100.56 100.56 100.56 100.56 110.57 110.57 110.57 110.58 110.58 110.58 110.58 110.58 110.59 110.59 110.59 110.59 110.60 110.60 110.60 110.61 110.61 110.61 110.61 110.61 110.62 100.62 100.62 100.62 100.63 100.63 100.63 100.64 100.64 100.64
100.14 100.14 100.14 100.15 100.15 100.15 100.16 100.16 100.16 100.16 110.17 110.17 110.17 110.17 110.17 110.18 110.18 110.18 110.19 110.19 110.19 110.19 110.19 110.20 110.20 110.20 110.20 110.21 110.21 110.21 110.22 100.22 100.22 100.22 100.22 100.23 100.23 100.23 100.23 100.24 100.24 100.24 100.25 100.25 100.25 100.25 100.25 100.26 100.26 100.26 110.27 110.27 110.27 110.27 110.28 110.28 110.28 110.28 110.28 110.29 110.29 110.29 110.30 110.30 110.30 110.30 110.31 110.31 110.31 110.31 110.31 100.32 100.32 100.32 100.33 100.33 100.33 100.33 100.33 100.34 100.34 100.34 100.34 100.35 100.35 100.35 100.36 100.36 100.36 100.36 110.36 110.37 110.37 110.37 110.38 110.38 110.38 110.38 110.39 110.39 110.39 110.39 110.39 110.40 110.40 110.40 110.41 110.41 110.41 110.41 110.42 100.42 100.42 100.42 100.42 100.43 100.43 100.43 100.44 100.44 100.44 100.44 100.44 100.45 100.45 100.45 100.45 100.46 100.46 100.46 110.47 110.47 110.47 110.47 110.47 110.48 110.48 110.48 110.48 110.49 110.49 110.49 110.50 110.50 110.50 110.50 110.50 110.51 110.51 110.51 110.52 100.52 100.52 100.52 100.53 100.53 100.53 100.53 100.53 100.54 100.54 100.54 100.55 100.55 100.55 100.55 100.56 100.56 100.56 100.56 110.56 110.57 110.57 110.57 110.58 110.58 110.58 110.58 110.58 110.59 110.59 110.59 110.59 110.60 110.60 110.60 110.61 110.61 110.61 110.61 110.61 100.62 100.62 100.62 100.62 100.63 100.63 100.63 100.64 100.64
100.14 100.14 100.14 100.14 100.15 100.15 100.15 100.16 100.16 100.16 110.16 110.17 110.17 110.17 110.17 110.17 110.18 110.18 110.18 110.19 110.19 110.19 110.19 110.19 110.20 110.20 110.20 110.20 110.21 110.21 110.21 100.22 100.22 100.22 100.22 100.22 100.23 100.23 100.23 100.23 100.24 100.24 100.24 100.25 100.25 100.25 100.25 100.25 100.26 100.26 110.26 110.27 110.27 110.27 110.27 110.28 110.28 110.28 110.28 110.28 110.29 110.29 110.29 110.30 110.30 110.30 110.30 110.31 110.31 110.31 110.31 100.31 100.32 100.32 100.32 100.33 100.33 100.33 100.33 100.33 100.34 100.34 100.34 100.34 100.35 100.35 100.35 100.36 100.36 100.36 110.36 110.36 110.37 110.37 110.37 110.38 110.38 110.38 110.38 110.39 110.39 110.39 110.39 110.39 110.40 110.40 110.40 110.41 110.41 110.41 110.41 100.42 100.42 100.42 100.42 100.42 100.43 100.43 100.43 100.44 100.44 100.44 100.44 100.44 100.45 100.45 100.45 100.45 100.46 100.46 110.46 110.47 110.47 110.47 110.47 110.47 110.48 110.48 110.48 110.48 110.49 110.49 110.49 110.50 110.50 110.50 110.50 110.50 110.51 110.51 110.51 100.52 100.52 100.52 100.52 100.53 100.53 100.53 100.53 100.53 100.54 100.54 100.54 100.55 100.55 100.55 100.55 100.56 100.56 100.56 110.56 110.56 110.57 110.57 110.57 110.58 110.58 110.58 110.58 110.58 110.59 110.59 110.59 110.59 110.60 110.60 110.60 110.61 110.61 110.61 110.61 100.61 100.62 100.62 100.62 100.62 100.63 100.63 100.63 100.64
100.14 100.14 100.14 100.14 100.14 100.15 100.15 100.15 100.16 100.16 110.16 110.16 110.17 110.17 110.17 110.17 110.17 110.18 110.18 110.18 110.19 110.19 110.19 110.19 110.19 110.20 110.20 110.20 110.20 110.21 110.21 100.21 100.22 100.22 100.22 100.22 100.22 100.23 100.23 100.23 100.23 100.24 100.24 100.24 100.25 100.25 100.25 100.25 100.25 100.26 110.26 110.26 110.27 110.27 110.27 110.27 110.28 110.28 110.28 110.28 110.28 110.29 110.29 110.29 110.30 110.30 110.30 110.30 110.31 110.31 110.31 100.31 100.31 100.32 100.32 100.32 100.33 100.33 100.33 100.33 100.33 100.34 100.34 100.34 100.34 100.35 100.35 100.35 100.36 100.36 110.36 110.36 110.36 110.37 110.37 110.37 110.38 110.38 110.38 110.38 110.39 110.39 110.39 110.39 110.39 110.40 110.40 110.40 110.41 110.41 110.41 100.41 100.42 100.42 100.42 100.42 100.42 100.43 100.43 100.43 100.44 100.44 100.44 100.44 100.44 100.45 100.45 100.45 100.45 100.46 110.46 110.46 110.47 110.47 110.47 110.47 110.47 110.48 110.48 110.48 110.48 110.49 110.49 110.49 110.50 110.50 110.50 110.50 110.50 110.51 110.51 100.51 100.52 100.52 100.52 100.52 100.53 100.53 100.53 100.53 100.53 100.54 100.54 100.54 100.55 100.55 100.55 100.55 100.56 100.56 110.56 110.56 110.56 110.57 110.57 110.57 110.58 110.58 110.58 110.58 110.58 110.59 110.59 110.59 110.59 110.60 110.60 110.60 110.61 110.61 110.61 100.61 100.61 100.62 100.62 100.62 100.62 100.63 100.63 100.63
100.13 100.14 100.14 100.14 100.14 100.14 100.15 100.15 100.15 100.16 110.16 110.16 110.16 110.17 110.17 110.17 110.17 110.17 110.18 110.18 110.18 110.19 110.19 110.19 110.19 110.19 110.20 110.20 110.20 110.20 110.21 100.21 100.21 100.22 100.22 100.22 100.22 100.22 100.23 100.23 100.23 100.23 100.24 100.24 100.24 100.25 100.25 100.25 100.25 100.25 110.26 110.26 110.26 110.27 110.27 110.27 110.27 110.28 110.28 110.28 110.28 110.28 110.29 110.29 110.29 110.30 110.30 110.30 110.30 110.31 110.31 100.31 100.31 100.31 100.32 100.32 100.32 100.33 100.33 100.33 100.33 100.33 100.34 100.34 100.34 100.34 100.35 100.35 100.35 100.36 110.36 110.36 110.36 110.36 110.37 110.37 110.37 110.38 110.38 110.38 110.38 110.39 110.39 110.39 110.39 110.39 110.40 110.40 110.40 110.41 110.41 100.41 100.41 100.42 100.42 100.42 100.42 100.42 100.43 100.43 100.43 100.44 100.44 100.44 100.44 100.44 100.45 100.45 100.45 100.45 110.46 110.46 110.46 110.47 110.47 110.47 110.47 110.47 110.48 110.48 110.48 110.48 110.49 110.49 110.49 110.50 110.50 110.50 110.50 110.50 110.51 100.51 100.51 100.52 100.52 100.52 100.52 100.53 100.53 100.53 100.53 100.53 100.54 100.54 100.54 100.55 100.55 100.55 100.55 100.56 110.56 110.56 110.56 110.56 110.57 110.57 110.57 110.58 110.58 110.58 110.58 110.58 110.59 110.59 110.59 110.59 110.60 110.60 110.60 110.61 110.61 100.61 100.61 100.61 100.62 100.62 100.62 100.62 100.63 100.63
100.13 100.13 100.14 100.14 100.14 100.14 100.14 100.15 100.15 100.15 110.16 110.16 110.16 110.16 110.17 110.17 110.17 110.17 110.17 110.18 110.18 110.18 110.19 110.19 110.19 110.19 110.19 110.20 110.20 110.20 110.20 100.21 100.21 100.21 100.22 100.22 100.22 100.22 100.22 100.23 100.23 100.23 100.23 100.24 100.24 100.24 100.25 100.25 100.25 100.25 110.25 110.26 110.26 110.26 110.27 110.27 110.27 110.27 110.28 110.28 110.28 110.28 110.28 110.29 110.29 110.29 110.30 110.30 110.30 110.30 110.31 100.31 100.31 100.31 100.31 100.32 100.32 100.32 100.33 100.33 100.33 100.33 100.33 100.34 100.34 100.34 100.34 100.35 100.35 100.35 110.36 110.36 110.36 110.36 110.36 110.37 110.37 110.37 110.38 110.38 110.38 110.38 110.39 110.39 110.39 110.39 110.39 110.40 110.40 110.40 110.41 100.41 100.41 100.41 100.42 100.42 100.42 100.42 100.42 100.43 100.43 100.43 100.44 100.44 100.44 100.44 100.44 100.45 100.45 100.45 110.45 110.46 110.46 110.46 110.47 110.47 110.47 110.47 110.47 110.48 110.48 110.48 110.48 110.49 110.49 110.49 110.50 110.50 110.50 110.50 110.50 100.51 100.51 100.51 100.52 100.52 100.52 100.52 100.53 100.53 100.53 100.53 100.53 100.54 100.54 100.54 100.55 100.55 100.55 100.55 110.56 110.56 110.56 110.56 110.56 110.57 110.57 110.57 110.58 110.58 110.58 110.58 110.58 110.59 110.59 110.59 110.59 110.60 110.60 110.60 110.61 100.61 100.61 100.61 100.61 100.62 100.62 100.62 100.62 100.63
100.13 100.13 100.13 100.14 100.14 100.14 100.14 100.14 100.15 100.15 110.15 110.16 110.16 110.16 110.16 110.17 110.17 110.17 110.17 110.17 110.18 110.18 110.18 110.19 110.19 110.19 110.19 110.19 110.20 110.20 110.20 100.20 100.21 100.21 100.21 100.22 100.22 100.22 100.22 100.22 100.23 100.23 100.23 100.23 100.24 100.24 100.24 100.25 100.25 100.25 110.25 110.25 110.26 110.26 110.26 110.27 110.27 110.27 110.27 110.28 110.28 110.28 110.28 110.28 110.29 110.29 110.29 110.30 110.30 110.30 110.30 100.31 100.31 100.31 100.31 100.31 100.32 100.32 100.32 100.33 100.33 100.33 100.33 100.33 100.34 100.34 100.34 100.34 100.35 100.35 110.35 110.36 110.36 110.36 110.36 110.36 110.37 110.37 110.37 110.38 110.38 110.38 110.38 110.39 110.39 110.39 110.39 110.39 110.40 110.40 110.40 100.41 100.41 100.41 100.41 100.42 100.42 100.42 100.42 100.42 100.43 100.43 100.43 100.44 100.44 100.44 100.44 100.44 100.45 100.45 110.45 110.45 110.46 110.46 110.46 110.47 110.47 110.47 110.47 110.47 110.48 110.48 110.48 110.48 110.49 110.49 110.49 110.50 110.50 110.50 110.50 100.50 100.51 100.51 100.51 100.52 100.52 100.52 100.52 100.53 100.53 100.53 100.53 100.53 100.54 100.54 100.54 100.55 100.55 100.55 110.55 110.56 110.56 110.56 110.56 110.56 110.57 110.57 110.57 110.58 110.58 110.58 110.58 110.58 110.59 110.59 110.59 110.59 110.60 110.60 110.60 100.61 100.61 100.61 100.61 100.61 100.62 100.62 100.62 100.62
100.12 100.13 100.13 100.13 100.14 100.14 100.14 100.14 100.14 100.15 110.15 110.15 110.16 110.16 110.16 110.16 110.17 110.17 110.17 110.17 110.17 110.18 110.18 110.18 110.19 110.19 110.19 110.19 110.19 110.20 110.20 100.20 100.20 100.21 100.21 100.21 100.22 100.22 100.22 100.22 100.22 100.23 100.23 100.23 100.23 100.24 100.24 100.24 100.25 100.25 110.25 110.25 110.25 110.26 110.26 110.26 110.27 110.27 110.27 110.27 110.28 110.28 110.28 110.28 110.28 110.29 110.29 110.29 110.30 110.30 110.30 100.30 100.31 100.31 100.31 100.31 100.31 100.32 100.32 100.32 100.33 100.33 100.33 100.33 100.33 100.34 100.34 100.34 100.34 100.35 110.35 110.35 110.36 110.36 110.36 110.36 110.36 110.37 110.37 110.37 110.38 110.38 110.38 110.38 110.39 110.39 110.39 110.39 110.39 110.40 110.40 100.40 100.41 100.41 100.41 100.41 100.42 100.42 100.42 100.42 100.42 100.43 100.43 100.43 100.44 100.44 100.44 100.44 100.44 100.45 110.45 110.45 110.45 110.46 110.46 110.46 110.47 110.47 110.47 110.47 110.47 110.48 110.48 110.48 110.48 110.49 110.49 110.49 110.50 110.50 110.50 100.50 100.50 100.51 100.51 100.51 100.52 100.52 100.52 100.52 100.53 100.53 100.53 100.53 100.53 100.54 100.54 100.54 100.55 100.55 110.55 110.55 110.56 110.56 110.56 110.56 110.56 110.57 110.57 110.57 110.58 110.58 110.58 110.58 110.58 110.59 110.59 110.59 110.59 110.60 110.60 100.60 100.61 100.61 100.61 100.61 100.61 100.62 100.62 100.62
100.12 100.12 100.13 100.13 100.13 100.14 100.14 100.14 100.14 100.14 100.15 100.15 100.15 100.16 100.16 100.16 100.16 100.17 100.17 100.17 100.17 100.17 100.18 100.18 100.18 100.19 100.19 100.19 100.19 100.19 100.20 100.20 100.20 100.20 100.21 100.21 100.21 100.22 100.22 100.22 100.22 100.22 100.23 100.23 100.23 100.23 100.24 100.24 100.24 100.25 100.25 100.25 100.25 100.25 100.26 100.26 100.26 100.27 100.27 100.27 100.27 100.28 100.28 100.28 100.28 100.28 100.29 100.29 100.29 100.30 100.30 100.30 100.30 100.31 100.31 100.31 100.31 100.31 100.32 100.32 100.32 100.33 100.33 100.33 100.33 100.33 100.34 100.34 100.34 100.34 100.35 100.35 100.35 100.36 100.36 100.36 100.36 100.36 100.37 100.37 100.37 100.38 100.38 100.38 100.38 100.39 100.39 100.39 100.39 100.39 100.40 100.40 100.40 100.41 100.41 100.41 100.41 100.42 100.42 100.42 100.42 100.42 100.43 100.43 100.43 100.44 100.44 100.44 100.44 100.44 100.45 100.45 100.45 100.45 100.46 100.46 100.46 100.47 100.47 100.47 100.47 100.47 100.48 100.48 100.48 100.48 100.49 100.49 100.49 100.50 100.50 100.50 100.50 100.50 100.51 100.51 100.51 100.52 100.52 100.52 100.52 100.53 100.53 100.53 100.53 100.53 100.54 100.54 100.54 100.55 100.55 100.55 100.55 100.56 100.56 100.56 100.56 100.56 100.57 100.57 100.57 100.58 100.58 100.58 100.58 100.58 100.59 100.59 100.59 100.59 100.60 100.60 100.60 100.61 100.61 100.61 100.61 100.61 100.62 100.62
100.12 100.12 100.12 100.13 100.13 100.13 100.14 100.14 100.14 100.14 100.14 100.15 100.15 100.15 100.16 100.16 100.16 100.16 100.17 100.17 100.17 100.17 100.17 100.18 100.18 100.18 100.19 100.19 100.19 100.19 100.19 100.20 100.20 100.20 100.20 100.21 100.21 100.21 100.22 100.22 100.22 100.22 100.22 100.23 100.23 100.23 100.23 100.24 100.24 100.24 100.25 100.25 100.25 100.25 100.25 100.26 100.26 100.26 100.27 100.27 100.27 100.27 100.28 100.28 100.28 100.28 100.28 100.29 100.29 100.29 100.30 100.30 100.30 100.30 100.31 100.31 100.31 100.31 100.31 100.32 100.32 100.32 100.33 100.33 100.33 100.33 100.33 100.34 100.34 100.34 100.34 100.35 100.35 100.35 100.36 100.36 100.36 100.36 100.36 100.37 100.37 100.37 100.38 100.38 100.38 100.38 100.39 100.39 100.39 100.39 100.39 100.40 100.40 100.40 100.41 100.41 100.41 100.41 100.42 100.42 100.42 100.42 100.42 100.43 100.43 100.43 100.44 100.44 100.44 100.44 100.44 100.45 100.45 100.45 100.45 100.46 100.46 100.46 100.47 100.47 100.47 100.47 100.47 100.48 100.48 100.48 100.48 100.49 100.49 100.49 100.50 100.50 100.50 100.50 100.50 100.51 100.51 100.51 100.52 100.52 100.52 100.52 100.53 100.53 100.53 100.53 100.53 100.54 100.54 100.54 100.55 100.55 100.55 100.55 100.56 100.56 100.56 100.56 100.56 100.57 100.57 100.57 100.58 100.58 100.58 100.58 100.58 100.59 100.59 100.59 100.59 100.60 100.60 100.60 100.61 100.61 100.61 100.61 100.61 100.62
100.12 100.12 100.12 100.12 100.13 100.13 100.13 100.14 100.14 100.14 100.14 100.14 100.15 100.15 100.15 100.16 100.16 100.16 100.16 100.17 100.17 100.17 100.17 100.17 100.18 100.18 100.18 100.19 100.19 100.19 100.19 100.19 100.20 100.20 100.20 100.20 100.21 100.21 100.21 100.22 100.22 100.22 100.22 100.22 100.23 100.23 100.23 100.23 100.24 100.24 100.24 100.25 100.25 100.25 100.25 100.25 100.26 100.26 100.26 100.27 100.27 100.27 100.27 100.28 100.28 100.28 100.28 100.28 100.29 100.29 100.29 100.30 100.30 100.30 100.30 100.31 100.31 100.31 100.31 100.31 100.32 100.32 100.32 100.33 100.33 100.33 100.33 100.33 100.34 100.34 100.34 100.34 100.35 100.35 100.35 100.36 100.36 100.36 100.36 100.36 100.37 100.37 100.37 100.38 100.38 100.38 100.38 100.39 100.39 100.39 100.39 100.39 100.40 100.40 100.40 100.41 100.41 100.41 100.41 100.42 100.42 100.42 100.42 100.42 100.43 100.43 100.43 100.44 100.44 100.44 100.44 100.44 100.45 100.45 100.45 100.45 100.46 100.46 100.46 100.47 100.47 100.47 100.47 100.47 100.48 100.48 100.48 100.48 100.49 100.49 100.49 100.50 100.50 100.50 100.50 100.50 100.51 100.51 100.51 100.52 100.52 100.52 100.52 100.53 100.53 100.53 100.53 100.53 100.54 100.54 100.54 100.55 100.55 100.55 100.55 100.56 100.56 100.56 100.56 100.56 100.57 100.57 100.57 100.58 100.58 100.58 100.58 100.58 100.59 100.59 100.59 100.59 100.60 100.60 100.60 100.61 100.61 100.61 100.61 100.61
100.11 100.12 100.12 100.12 100.12 100.13 100.13 100.13 100.14 100.14 100.14 100.14 100.14 100.15 100.15 100.15 100.16 100.16 100.16 100.16 100.17 100.17 100.17 100.17 100.17 100.18 100.18 100.18 100.19 100.19 100.19 100.19 100.19 100.20 100.20 100.20 100.20 100.21 100.21 100.21 100.22 100.22 100.22 100.22 100.22 100.23 100.23 100.23 100.23 100.24 100.24 100.24 100.25 100.25 100.25 100.25 100.25 100.26 100.26 100.26 100.27 100.27 100.27 100.27 100.28 100.28 100.28 100.28 100.28 100.29 100.29 100.29 100.30 100.30 100.30 100.30 100.31 100.31 100.31 100.31 100.31 100.32 100.32 100.32 100.33 100.33 100.33 100.33 100.33 100.34 100.34 100.34 100.34 100.35 100.35 100.35 100.36 100.36 100.36 100.36 100.36 100.37 100.37 100.37 100.38 100.38 100.38 100.38 100.39 100.39 100.39 100.39 100.39 100.40 100.40 100.40 100.41 100.41 100.41 100.41 100.42 100.42 100.42 100.42 100.42 100.43 100.43 100.43 100.44 100.44 100.44 100.44 100.44 100.45 100.45 100.45 100.45 100.46 100.46 100.46 100.47 100.47 100.47 100.47 100.47 100.48 100.48 100.48 100.48 100.49 100.49 100.49 100.50 100.50 100.50 100.50 100.50 100.51 100.51 100.51 100.52 100.52 100.52 100.52 100.53 100.53 100.53 100.53 100.53 100.54 100.54 100.54 100.55 100.55 100.55 100.55 100.56 100.56 100.56 100.56 100.56 100.57 100.57 100.57 100.58 100.58 100.58 100.58 100.58 100.59 100.59 100.59 100.59 100.60 100.60 100.60 100.61 100.61 100.61 100.61
100.11 100.11 100.12 100.12 100.12 100.12 100.13 100.13 100.13 100.14 100.14 100.14 100.14 100.14 100.15 100.15 100.15 100.16 100.16 100.16 100.16 100.17 100.17 100.17 100.17 100.17 100.18 100.18 100.18 100.19 100.19 100.19 100.19 100.19 100.20 100.20 100.20 100.20 100.21 100.21 100.21 100.22 100.22 100.22 100.22 100.22 100.23 100.23 100.23 100.23 100.24 100.24 100.24 100.25 100.25 100.25 100.25 100.25 100.26 100.26 100.26 100.27 100.27 100.27 100.27 100.28 100.28 100.28 100.28 100.28 100.29 100.29 100.29 100.30 100.30 100.30 100.30 100.31 100.31 100.31 100.31 100.31 100.32 100.32 100.32 100.33 100.33 100.33 100.33 100.33 100.34 100.34 100.34 100.34 100.35 100.35 100.35 100.36 100.36 100.36 100.36 100.36 100.37 100.37 100.37 100.38 100.38 100.38 100.38 100.39 100.39 100.39 100.39 100.39 100.40 100.40 100.40 100.41 100.41 100.41 100.41 100.42 100.42 100.42 100.42 100.42 100.43 100.43 100.43 100.44 100.44 100.44 100.44 100.44 100.45 100.45 100.45 100.45 100.46 100.46 100.46 100.47 100.47 100.47 100.47 100.47 100.48 100.48 100.48 100.48 100.49 100.49 100.49 100.50 100.50 100.50 100.50 100.50 100.51 100.51 100.51 100.52 100.52 100.52 100.52 100.53 100.53 100.53 100.53 100.53 100.54 100.54 100.54 100.55 100.55 100.55 100.55 100.56 100.56 100.56 100.56 100.56 100.57 100.57 100.57 100.58 100.58 100.58 100.58 100.58 100.59 100.59 100.59 100.59 100.60 100.60 100.60 100.61 100.61 100.61
100.11 100.11 100.11 100.12 100.12 100.12 100.12 100.13 100.13 100.13 100.14 100.14 100.14 100.14 100.14 100.15 100.15 100.15 100.16 100.16 100.16 100.16 100.17 100.17 100.17 100.17 100.17 100.18 100.18 100.18 100.19 100.19 100.19 100.19 100.19 100.20 100.20 100.20 100.20 100.21 100.21 100.21 100.22 100.22 100.22 100.22 100.22 100.23 100.23 100.23 100.23 100.24 100.24 100.24 100.25 100.25 100.25 100.25 100.25 100.26 100.26 100.26 100.27 100.27 100.27 100.27 100.28 100.28 100.28 100.28 100.28 100.29 100.29 100.29 100.30 100.30 100.30 100.30 100.31 100.31 100.31 100.31 100.31 100.32 100.32 100.32 100.33 100.33 100.33 100.33 100.33 100.34 100.34 100.34 100.34 100.35 100.35 100.35 100.36 100.36 100.36 100.36 100.36 100.37 100.37 100.37 100.38 100.38 100.38 100.38 100.39 100.39 100.39 100.39 100.39 100.40 100.40 100.40 100.41 100.41 100.41 100.41 100.42 100.42 100.42 100.42 100.42 100.43 100.43 100.43 100.44 100.44 100.44 100.44 100.44 100.45 100.45 100.45 100.45 100.46 100.46 100.46 100.47 100.47 100.47 100.47 100.47 100.48 100.48 100.48 100.48 100.49 100.49 100.49 100.50 100.50 100.50 100.50 100.50 100.51 100.51 100.51 100.52 100.52 100.52 100.52 100.53 100.53 100.53 100.53 100.53 100.54 100.54 100.54 100.55 100.55 100.55 100.55 100.56 100.56 100.56 100.56 100.56 100.57 100.57 100.57 100.58 100.58 100.58 100.58 100.58 100.59 100.59 100.59 100.59 100.60 100.60 100.60 100.61 100.61
100.11 100.11 100.11 100.11 100.12 100.12 100.12 100.12 100.13 100.13 100.13 100.14 100.14 100.14 100.14 100.14 100.15 100.15 100.15 100.16 100.16 100.16 100.16 100.17 100.17 100.17 100.17 100.17 100.18 100.18 100.18 100.19 100.19 100.19 100.19 100.19 100.20 100.20 100.20 100.20 100.21 100.21 100.21 100.22 100.22 100.22 100.22 100.22 100.23 100.23 100.23 100.23 100.24 100.24 100.24 100.25 100.25 100.25 100.25 100.25 100.26 100.26 100.26 100.27 100.27 100.27 100.27 100.28 100.28 100.28 100.28 100.28 100.29 100.29 100.29 100.30 100.30 100.30 100.30 100.31 100.31 100.31 100.31 100.31 100.32 100.32 100.32 100.33 100.33 100.33 100.33 100.33 100.34 100.34 100.34 100.34 100.35 100.35 100.35 100.36 100.36 100.36 100.36 100.36 100.37 100.37 100.37 100.38 100.38 100.38 100.38 100.39 100.39 100.39 100.39 100.39 100.40 100.40 100.40 100.41 100.41 100.41 100.41 100.42 100.42 100.42 100.42 100.42 100.43 100.43 100.43 100.44 100.44 100.44 100.44 100.44 100.45 100.45 100.45 100.45 100.46 100.46 100.46 100.47 100.47 100.47 100.47 100.47 100.48 100.48 100.48 100.48 100.49 100.49 100.49 100.50 100.50 100.50 100.50 100.50 100.51 100.51 100.51 100.52 100.52 100.52 100.52 100.53 100.53 100.53 100.53 100.53 100.54 100.54 100.54 100.55 100.55 100.55 100.55 100.56 100.56 100.56 100.56 100.56 100.57 100.57 100.57 100.58 100.58 100.58 100.58 100.58 100.59 100.59 100.59 100.59 100.60 100.60 100.60 100.61
100.11 100.11 100.11 100.11 100.11 100.12 100.12 100.12 100.12 100.13 100.13 100.13 100.14 100.14 100.14 100.14 100.14 100.15 100.15 100.15 100.16 100.16 100.16 100.16 100.17 100.17 100.17 100.17 100.17 100.18 100.18 100.18 100.19 100.19 100.19 100.19 100.19 100.20 100.20 100.20 100.20 100.21 100.21 100.21 100.22 100.22 100.22 100.22 100.22 100.23 100.23 100.23 100.23 100.24 100.24 100.24 100.25 100.25 100.25 100.25 100.25 100.26 100.26 100.26 100.27 100.27 100.27 100.27 100.28 100.28 100.28 100.28 100.28 100.29 100.29 100.29 100.30 100.30 100.30 100.30 100.31 100.31 100.31 100.31 100.31 100.32 100.32 100.32 100.33 100.33 100.33 100.33 100.33 100.34 100.34 100.34 100.34 100.35 100.35 100.35 100.36 100.36 100.36 100.36 100.36 100.37 100.37 100.37 100.38 100.38 100.38 100.38 100.39 100.39 100.39 100.39 100.39 100.40 100.40 100.40 100.41 100.41 100.41 100.41 100.42 100.42 100.42 100.42 100.42 100.43 100.43 100.43 100.44 100.44 100.44 100.44 100.44 100.45 100.45 100.45 100.45 100.46 100.46 100.46 100.47 100.47 100.47 100.47 100.47 100.48 100.48 100.48 100.48 100.49 100.49 100.49 100.50 100.50 100.50 100.50 100.50 100.51 100.51 100.51 100.52 100.52 100.52 100.52 100.53 100.53 100.53 100.53 100.53 100.54 100.54 100.54 100.55 100.55 100.55 100.55 100.56 100.56 100.56 100.56 100.56 100.57 100.57 100.57 100.58 100.58 100.58 100.58 100.58 100.59 100.59 100.59 100.59 100.60 100.60 100.60
100.10 100.11 100.11 100.11 100.11 100.11 100.12 100.12 100.12 100.12 100.13 100.13 100.13 100.14 100.14 100.14 100.14 100.14 100.15 100.15 100.15 100.16 100.16 100.16 100.16 100.17 100.17 100.17 100.17 100.17 100.18 100.18 100.18 100.19 100.19 100.19 100.19 100.19 100.20 100.20 100.20 100.20 100.21 100.21 100.21 100.22 100.22 100.22 100.22 100.22 100.23 100.23 100.23 100.23 100.24 100.24 100.24 100.25 100.25 100.25 100.25 100.25 100.26 100.26 100.26 100.27 100.27 100.27 100.27 100.28 100.28 100.28 100.28 100.28 100.29 100.29 100.29 100.30 100.30 100.30 100.30 100.31 100.31 100.31 100.31 100.31 100.32 100.32 100.32 100.33 100.33 100.33 100.33 100.33 100.34 100.34 100.34 100.34 100.35 100.35 100.35 100.36 100.36 100.36 100.36 100.36 100.37 100.37 100.37 100.38 100.38 100.38 100.38 100.39 100.39 100.39 100.39 100.39 100.40 100.40 100.40 100.41 100.41 100.41 100.41 100.42 100.42 100.42 100.42 100.42 100.43 100.43 100.43 100.44 100.44 100.44 100.44 100.44 100.45 100.45 100.45 100.45 100.46 100.46 100.46 100.47 100.47 100.47 100.47 100.47 100.48 100.48 100.48 100.48 100.49 100.49 100.49 100.50 100.50 100.50 100.50 100.50 100.51 100.51 100.51 100.52 100.52 100.52 100.52 100.53 100.53 100.53 100.53 100.53 100.54 100.54 100.54 100.55 100.55 100.55 100.55 100.56 100.56 100.56 100.56 100.56 100.57 100.57 100.57 100.58 100.58 100.58 100.58 100.58 100.59 100.59 100.59 100.59 100.60 100.60
100.10 100.10 100.11 100.11 100.11 100.11 100.11 100.12 100.12 100.12 100.12 100.13 100.13 100.13 100.14 100.14 100.14 100.14 100.14 100.15 100.15 100.15 100.16 100.16 100.16 100.16 100.17 100.17 100.17 100.17 100.17 100.18 100.18 100.18 100.19 100.19 100.19 100.19 100.19 100.20 100.20 100.20 100.20 100.21 100.21 100.21 100.22 100.22 100.22 100.22 100.22 100.23 100.23 100.23 100.23 100.24 100.24 100.24 100.25 100.25 100.25 100.25 100.25 100.26 100.26 100.26 100.27 100.27 100.27 100.27 100.28 100.28 100.28 100.28 100.28 100.29 100.29 100.29 100.30 100.30 100.30 100.30 100.31 100.31 100.31 100.31 100.31 100.32 100.32 100.32 100.33 100.33 100.33 100.33 100.33 100.34 100.34 100.34 100.34 100.35 100.35 100.35 100.36 100.36 100.36 100.36 100.36 100.37 100.37 100.37 100.38 100.38 100.38 100.38 100.39 100.39 100.39 100.39 100.39 100.40 100.40 100.40 100.41 100.41 100.41 100.41 100.42 100.42 100.42 100.42 100.42 100.43 100.43 100.43 100.44 100.44 100.44 100.44 100.44 100.45 100.45 100.45 100.45 100.46 100.46 100.46 100.47 100.47 100.47 100.47 100.47 100.48 100.48 100.48 100.48 100.49 100.49 100.49 100.50 100.50 100.50 100.50 100.50 100.51 100.51 100.51 100.52 100.52 100.52 100.52 100.53 100.53 100.53 100.53 100.53 100.54 100.54 100.54 100.55 100.55 100.55 100.55 100.56 100.56 100.56 100.56 100.56 100.57 100.57 100.57 100.58 100.58 100.58 100.58 100.58 100.59 100.59 100.59 100.59 100.60
100.10 100.10 100.10 100.11 100.11 100.11 100.11 100.11 100.12 100.12 100.12 100.12 100.13 100.13 100.13 100.14 100.14 100.14 100.14 100.14 100.15 100.15 100.15 100.16 100.16 100.16 100.16 100.17 100.17 100.17 100.17 100.17 100.18 100.18 100.18 100.19 100.19 100.19 100.19 100.19 100.20 100.20 100.20 100.20 100.21 100.21 100.21 100.22 100.22 100.22 100.22 100.22 100.23 100.23 100.23 100.23 100.24 100.24 100.24 100.25 100.25 100.25 100.25 100.25 100.26 100.26 100.26 100.27 100.27 100.27 100.27 100.28 100.28 100.28 100.28 100.28 100.29 100.29 100.29 100.30 100.30 100.30 100.30 100.31 100.31 100.31 100.31 100.31 100.32 100.32 100.32 100.33 100.33 100.33 100.33 100.33 100.34 100.34 100.34 100.34 100.35 100.35 100.35 100.36 100.36 100.36 100.36 100.36 100.37 100.37 100.37 100.38 100.38 100.38 100.38 100.39 100.39 100.39 100.39 100.39 100.40 100.40 100.40 100.41 100.41 100.41 100.41 100.42 100.42 100.42 100.42 100.42 100.43 100.43 100.43 100.44 100.44 100.44 100.44 100.44 100.45 100.45 100.45 100.45 100.46 100.46 100.46 100.47 100.47 100.47 100.47 100.47 100.48 100.48 100.48 100.48 100.49 100.49 100.49 100.50 100.50 100.50 100.50 100.50 100.51 100.51 100.51 100.52 100.52 100.52 100.52 100.53 100.53 100.53 100.53 100.53 100.54 100.54 100.54 100.55 100.55 100.55 100.55 100.56 100.56 100.56 100.56 100.56 100.57 100.57 100.57 100.58 100.58 100.58 100.58 100.58 100.59 100.59 100.59 100.59
100.09 100.10 100.10 100.10 100.11 100.11 100.11 100.11 100.11 100.12 100.12 100.12 100.12 100.13 100.13 100.13 100.14 100.14 100.14 100.14 100.14 100.15 100.15 100.15 100.16 100.16 100.16 100.16 100.17 100.17 100.17 100.17 100.17 100.18 100.18 100.18 100.19 100.19 100.19 100.19 100.19 100.20 100.20 100.20 100.20 100.21 100.21 100.21 100.22 100.22 100.22 100.22 100.22 100.23 100.23 100.23 100.23 100.24 100.24 100.24 100.25 100.25 100.25 100.25 100.25 100.26 100.26 100.26 100.27 100.27 100.27 100.27 100.28 100.28 100.28 100.28 100.28 100.29 100.29 100.29 100.30 100.30 100.30 100.30 100.31 100.31 100.31 100.31 100.31 100.32 100.32 100.32 100.33 100.33 100.33 100.33 100.33 100.34 100.34 100.34 100.34 100.35 100.35 100.35 100.36 100.36 100.36 100.36 100.36 100.37 100.37 100.37 100.38 100.38 100.38 100.38 100.39 100.39 100.39 100.39 100.39 100.40 100.40 100.40 100.41 100.41 100.41 100.41 100.42 100.42 100.42 100.42 100.42 100.43 100.43 100.43 100.44 100.44 100.44 100.44 100.44 100.45 100.45 100.45 100.45 100.46 100.46 100.46 100.47 100.47 100.47 100.47 100.47 100.48 100.48 100.48 100.48 100.49 100.49 100.49 100.50 100.50 100.50 100.50 100.50 100.51 100.51 100.51 100.52 100.52 100.52 100.52 100.53 100.53 100.53 100.53 100.53 100.54 100.54 100.54 100.55 100.55 100.55 100.55 100.56 100.56 100.56 100.56 100.56 100.57 100.57 100.57 100.58 100.58 100.58 100.58 100.58 100.59 100.59 100.59
100.09 100.09 100.10 100.10 100.10 100.11 100.11 100.11 100.11 100.11 100.12 100.12 100.12 100.12 100.13 100.13 100.13 100.14 100.14 100.14 100.14 100.14 100.15 100.15 100.15 100.16 100.16 100.16 100.16 100.17 100.17 100.17 100.17 100.17 100.18 100.18 100.18 100.19 100.19 100.19 100.19 100.19 100.20 100.20 100.20 100.20 100.21 100.21 100.21 100.22 100.22 100.22 100.22 100.22 100.23 100.23 100.23 100.23 100.24 100.24 100.24 100.25 100.25 100.25 100.25 100.25 100.26 100.26 100.26 100.27 100.27 100.27 100.27 100.28 100.28 100.28 100.28 100.28 100.29 100.29 100.29 100.30 100.30 100.30 100.30 100.31 100.31 100.31 100.31 100.31 100.32 100.32 100.32 100.33 100.33 100.33 100.33 100.33 100.34 100.34 100.34 100.34 100.35 100.35 100.35 100.36 100.36 100.36 100.36 100.36 100.37 100.37 100.37 100.38 100.38 100.38 100.38 100.39 100.39 100.39 100.39 100.39 100.40 100.40 100.40 100.41 100.41 100.41 100.41 100.42 100.42 100.42 100.42 100.42 100.43 100.43 100.43 100.44 100.44 100.44 100.44 100.44 100.45 100.45 100.45 100.45 100.46 100.46 100.46 100.47 100.47 100.47 100.47 100.47 100.48 100.48 100.48 100.48 100.49 100.49 100.49 100.50 100.50 100.50 100.50 100.50 100.51 100.51 100.51 100.52 100.52 100.52 100.52 100.53 100.53 100.53 100.53 100.53 100.54 100.54 100.54 100.55 100.55 100.55 100.55 100.56 100.56 100.56 100.56 100.56 100.57 100.57 100.57 100.58 100.58 100.58 100.58 100.58 100.59 100.59
100.09 100.09 100.09 100.10 100.10 100.10 100.11 100.11 100.11 100.11 100.11 100.12 100.12 100.12 100.12 100.13 100.13 100.13 100.14 100.14 100.14 100.14 100.14 100.15 100.15 100.15 100.16 100.16 100.16 100.16 100.17 100.17 100.17 100.17 100.17 100.18 100.18 100.18 100.19 100.19 100.19 100.19 100.19 100.20 100.20 100.20 100.20 100.21 100.21 100.21 100.22 100.22 100.22 100.22 100.22 100.23 100.23 100.23 100.23 100.24 100.24 100.24 100.25 100.25 100.25 100.25 100.25 100.26 100.26 100.26 100.27 100.27 100.27 100.27 100.28 100.28 100.28 100.28 100.28 100.29 100.29 100.29 100.30 100.30 100.30 100.30 100.31 100.31 100.31 100.31 100.31 100.32 100.32 100.32 100.33 100.33 100.33 100.33 100.33 100.34 100.34 100.34 100.34 100.35 100.35 100.35 100.36 100.36 100.36 100.36 100.36 100.37 100.37 100.37 100.38 100.38 100.38 100.38 100.39 100.39 100.39 100.39 100.39 100.40 100.40 100.40 100.41 100.41 100.41 100.41 100.42 100.42 100.42 100.42 100.42 100.43 100.43 100.43 100.44 100.44 100.44 100.44 100.44 100.45 100.45 100.45 100.45 100.46 100.46 100.46 100.47 100.47 100.47 100.47 100.47 100.48 100.48 100.48 100.48 100.49 100.49 100.49 100.50 100.50 100.50 100.50 100.50 100.51 100.51 100.51 100.52 100.52 100.52 100.52 100.53 100.53 100.53 100.53 100.53 100.54 100.54 100.54 100.55 100.55 100.55 100.55 100.56 100.56 100.56 100.56 100.56 100.57 100.57 100.57 100.58 100.58 100.58 100.58 100.58 100.59
100.09 100.09 100.09 100.09 100.10 100.10 100.10 100.11 100.11 100.11 100.11 100.11 100.12 100.12 100.12 100.12 100.13 100.13 100.13 100.14 100.14 100.14 100.14 100.14 100.15 100.15 100.15 100.16 100.16 100.16 100.16 100.17 100.17 100.17 100.17 100.17 100.18 100.18 100.18 100.19 100.19 100.19 100.19 100.19 100.20 100.20 100.20 100.20 100.21 100.21 100.21 100.22 100.22 100.22 100.22 100.22 100.23 100.23 100.23 100.23 100.24 100.24 100.24 100.25 100.25 100.25 100.25 100.25 100.26 100.26 100.26 100.27 100.27 100.27 100.27 100.28 100.28 100.28 100.28 100.28 100.29 100.29 100.29 100.30 100.30 100.30 100.30 100.31 100.31 100.31 100.31 100.31 100.32 100.32 100.32 100.33 100.33 100.33 100.33 100.33 100.34 100.34 100.34 100.34 100.35 100.35 100.35 100.36 100.36 100.36 100.36 100.36 100.37 100.37 100.37 100.38 100.38 100.38 100.38 100.39 100.39 100.39 100.39 100.39 100.40 100.40 100.40 100.41 100.41 100.41 100.41 100.42 100.42 100.42 100.42 100.42 100.43 100.43 100.43 100.44 100.44 100.44 100.44 100.44 100.45 100.45 100.45 100.45 100.46 100.46 100.46 100.47 100.47 100.47 100.47 100.47 100.48 100.48 100.48 100.48 100.49 100.49 100.49 100.50 100.50 100.50 100.50 100.50 100.51 100.51 100.51 100.52 100.52 100.52 100.52 100.53 100.53 100.53 100.53 100.53 100.54 100.54 100.54 100.55 100.55 100.55 100.55 100.56 100.56 100.56 100.56 100.56 100.57 100.57 100.57 100.58 100.58 100.58 100.58 100.58
100.08 100.09 100.09 100.09 100.09 100.10 100.10 100.10 100.11 100.11 100.11 100.11 100.11 100.12 100.12 100.12 100.12 100.13 100.13 100.13 100.14 100.14 100.14 100.14 100.14 100.15 100.15 100.15 100.16 100.16 100.16 100.16 100.17 100.17 100.17 100.17 100.17 100.18 100.18 100.18 100.19 100.19 100.19 100.19 100.19 100.20 100.20 100.20 100.20 100.21 100.21 100.21 100.22 100.22 100.22 100.22 100.22 100.23 100.23 100.23 100.23 100.24 100.24 100.24 100.25 100.25 100.25 100.25 100.25 100.26 100.26 100.26 100.27 100.27 100.27 100.27 100.28 100.28 100.28 100.28 100.28 100.29 100.29 100.29 100.30 100.30 100.30 100.30 100.31 100.31 100.31 100.31 100.31 100.32 100.32 100.32 100.33 100.33 100.33 100.33 100.33 100.34 100.34 100.34 100.34 100.35 100.35 100.35 100.36 100.36 100.36 100.36 100.36 100.37 100.37 100.37 100.38 100.38 100.38 100.38 100.39 100.39 100.39 100.39 100.39 100.40 100.40 100.40 100.41 100.41 100.41 100.41 100.42 100.42 100.42 100.42 100.42 100.43 100.43 100.43 100.44 100.44 100.44 100.44 100.44 100.45 100.45 100.45 100.45 100.46 100.46 100.46 100.47 100.47 100.47 100.47 100.47 100.48 100.48 100.48 100.48 100.49 100.49 100.49 100.50 100.50 100.50 100.50 100.50 100.51 100.51 100.51 100.52 100.52 100.52 100.52 100.53 100.53 100.53 100.53 100.53 100.54 100.54 100.54 100.55 100.55 100.55 100.55 100.56 100.56 100.56 100.56 100.56 100.57 100.57 100.57 100.58 100.58 100.58 100.58
100.08 100.08 100.09 100.09 100.09 100.09 100.10 100.10 100.10 100.11 100.11 100.11 100.11 100.11 100.12 100.12 100.12 100.12 100.13 100.13 100.13 100.14 100.14 100.14 100.14 100.14 100.15 100.15 100.15 100.16 100.16 100.16 100.16 100.17 100.17 100.17 100.17 100.17 100.18 100.18 100.18 100.19 100.19 100.19 100.19 100.19 100.20 100.20 100.20 100.20 100.21 100.21 100.21 100.22 100.22 100.22 100.22 100.22 100.23 100.23 100.23 100.23 100.24 100.24 100.24 100.25 100.25 100.25 100.25 100.25 100.26 100.26 100.26 100.27 100.27 100.27 100.27 100.28 100.28 100.28 100.28 100.28 100.29 100.29 100.29 100.30 100.30 100.30 100.30 100.31 100.31 100.31 100.31 100.31 100.32 100.32 100.32 100.33 100.33 100.33 100.33 100.33 100.34 100.34 100.34 100.34 100.35 100.35 100.35 100.36 100.36 100.36 100.36 100.36 100.37 100.37 100.37 100.38 100.38 100.38 100.38 100.39 100.39 100.39 100.39 100.39 100.40 100.40 100.40 100.41 100.41 100.41 100.41 100.42 100.42 100.42 100.42 100.42 100.43 100.43 100.43 100.44 100.44 100.44 100.44 100.44 100.45 100.45 100.45 100.45 100.46 100.46 100.46 100.47 100.47 100.47 100.47 100.47 100.48 100.48 100.48 100.48 100.49 100.49 100.49 100.50 100.50 100.50 100.50 100.50 100.51 100.51 100.51 100.52 100.52 100.52 100.52 100.53 100.53 100.53 100.53 100.53 100.54 100.54 100.54 100.55 100.55 100.55 100.55 100.56 100.56 100.56 100.56 100.56 100.57 100.57 100.57 100.58 100.58 100.58
100.08 100.08 100.08 100.09 100.09 100.09 100.09 100.10 100.10 100.10 100.11 100.11 100.11 100.11 100.11 100.12 100.12 100.12 100.12 100.13 100.13 100.13 100.14 100.14 100.14 100.14 100.14 100.15 100.15 100.15 100.16 100.16 100.16 100.16 100.17 100.17 100.17 100.17 100.17 100.18 100.18 100.18 100.19 100.19 100.19 100.19 100.19 100.20 100.20 100.20 100.20 100.21 100.21 100.21 100.22 100.22 100.22 100.22 100.22 100.23 100.23 100.23 100.23 100.24 100.24 100.24 100.25 100.25 100.25 100.25 100.25 100.26 100.26 100.26 100.27 100.27 100.27 100.27 100.28 100.28 100.28 100.28 100.28 100.29 100.29 100.29 100.30 100.30 100.30 100.30 100.31 100.31 100.31 100.31 100.31 100.32 100.32 100.32 100.33 100.33 100.33 100.33 100.33 100.34 100.34 100.34 100.34 100.35 100.35 100.35 100.36 100.36 100.36 100.36 100.36 100.37 100.37 100.37 100.38 100.38 100.38 100.38 100.39 100.39 100.39 100.39 100.39 100.40 100.40 100.40 100.41 100.41 100.41 100.41 100.42 100.42 100.42 100.42 100.42 100.43 100.43 100.43 100.44 100.44 100.44 100.44 100.44 100.45 100.45 100.45 100.45 100.46 100.46 100.46 100.47 100.47 100.47 100.47 100.47 100.48 100.48 100.48 100.48 100.49 100.49 100.49 100.50 100.50 100.50 100.50 100.50 100.51 100.51 100.51 100.52 100.52 100.52 100.52 100.53 100.53 100.53 100.53 100.53 100.54 100.54 100.54 100.55 100.55 100.55 100.55 100.56 100.56 100.56 100.56 100.56 100.57 100.57 100.57 100.58 100.58
100.08 100.08 100.08 100.08 100.09 100.09 100.09 100.09 100.10 100.10 100.10 100.11 100.11 100.11 100.11 100.11 100.12 100.12 100.12 100.12 100.13 100.13 100.13 100.14 100.14 100.14 100.14 100.14 100.15 100.15 100.15 100.16 100.16 100.16 100.16 100.17 100.17 100.17 100.17 100.17 100.18 100.18 100.18 100.19 100.19 100.19 100.19 100.19 100.20 100.20 100.20 100.20 100.21 100.21 100.21 100.22 100.22 100.22 100.22 100.22 100.23 100.23 100.23 100.23 100.24 100.24 100.24 100.25 100.25 100.25 100.25 100.25 100.26 100.26 100.26 100.27 100.27 100.27 100.27 100.28 100.28 100.28 100.28 100.28 100.29 100.29 100.29 100.30 100.30 100.30 100.30 100.31 100.31 100.31 100.31 100.31 100.32 100.32 100.32 100.33 100.33 100.33 100.33 100.33 100.34 100.34 100.34 100.34 100.35 100.35 100.35 100.36 100.36 100.36 100.36 100.36 100.37 100.37 100.37 100.38 100.38 100.38 100.38 100.39 100.39 100.39 100.39 100.39 100.40 100.40 100.40 100.41 100.41 100.41 100.41 100.42 100.42 100.42 100.42 100.42 100.43 100.43 100.43 100.44 100.44 100.44 100.44 100.44 100.45 100.45 100.45 100.45 100.46 100.46 100.46 100.47 100.47 100.47 100.47 100.47 100.48 100.48 100.48 100.48 100.49 100.49 100.49 100.50 100.50 100.50 100.50 100.50 100.51 100.51 100.51 100.52 100.52 100.52 100.52 100.53 100.53 100.53 100.53 100.53 100.54 100.54 100.54 100.55 100.55 100.55 100.55 100.56 100.56 100.56 100.56 100.56 100.57 100.57 100.57 100.58
100.08 100.08 100.08 100.08 100.08 100.09 100.09 100.09 100.09 100.10 110.10 110.10 110.11 110.11 110.11 110.11 110.11 110.12 110.12 110.12 110.12 110.13 110.13 110.13 110.14 110.14 110.14 110.14 110.14 110.15 110.15 100.15 100.16 100.16 100.16 100.16 100.17 100.17 100.17 100.17 100.17 100.18 100.18 100.18 100.19 100.19 100.19 100.19 100.19 100.20 110.20 110.20 110.20 110.21 110.21 110.21 110.22 110.22 110.22 110.22 110.22 110.23 110.23 110.23 110.23 110.24 110.24 110.24 110.25 110.25 110.25 100.25 100.25 100.26 100.26 100.26 100.27 100.27 100.27 100.27 100.28 100.28 100.28 100.28 100.28 100.29 100.29 100.29 100.30 100.30 110.30 110.30 110.31 110.31 110.31 110.31 110.31 110.32 110.32 110.32 110.33 110.33 110.33 110.33 110.33 110.34 110.34 110.34 110.34 110.35 110.35 100.35 100.36 100.36 100.36 100.36 100.36 100.37 100.37 100.37 100.38 100.38 100.38 100.38 100.39 100.39 100.39 100.39 100.39 100.40 110.40 110.40 110.41 110.41 110.41 110.41 110.42 110.42 110.42 110.42 110.42 110.43 110.43 110.43 110.44 110.44 110.44 110.44 110.44 110.45 110.45 100.45 100.45 100.46 100.46 100.46 100.47 100.47 100.47 100.47 100.47 100.48 100.48 100.48 100.48 100.49 100.49 100.49 100.50 100.50 110.50 110.50 110.50 110.51 110.51 110.51 110.52 110.52 110.52 110.52 110.53 110.53 110.53 110.53 110.53 110.54 110.54 110.54 110.55 110.55 110.55 100.55 100.56 100.56 100.56 100.56 100.56 100.57 100.57 100.57
100.07 100.08 100.08 100.08 100.08 100.08 100.09 100.09 100.09 100.09 110.10 110.10 110.10 110.11 110.11 110.11 110.11 110.11 110.12 110.12 110.12 110.12 110.13 110.13 110.13 110.14 110.14 110.14 110.14 110.14 110.15 100.15 100.15 100.16 100.16 100.16 100.16 100.17 100.17 100.17 100.17 100.17 100.18 100.18 100.18 100.19 100.19 100.19 100.19 100.19 110.20 110.20 110.20 110.20 110.21 110.21 110.21 110.22 110.22 110.22 110.22 110.22 110.23 110.23 110.23 110.23 110.24 110.24 110.24 110.25 110.25 100.25 100.25 100.25 100.26 100.26 100.26 100.27 100.27 100.27 100.27 100.28 100.28 100.28 100.28 100.28 100.29 100.29 100.29 100.30 110.30 110.30 110.30 110.31 110.31 110.31 110.31 110.31 110.32 110.32 110.32 110.33 110.33 110.33 110.33 110.33 110.34 110.34 110.34 110.34 110.35 100.35 100.35 100.36 100.36 100.36 100.36 100.36 100.37 100.37 100.37 100.38 100.38 100.38 100.38 100.39 100.39 100.39 100.39 100.39 110.40 110.40 110.40 110.41 110.41 110.41 110.41 110.42 110.42 110.42 110.42 110.42 110.43 110.43 110.43 110.44 110.44 110.44 110.44 110.44 110.45 100.45 100.45 100.45 100.46 100.46 100.46 100.47 100.47 100.47 100.47 100.47 100.48 100.48 100.48 100.48 100.49 100.49 100.49 100.50 110.50 110.50 110.50 110.50 110.51 110.51 110.51 110.52 110.52 110.52 110.52 110.53 110.53 110.53 110.53 110.53 110.54 110.54 110.54 110.55 110.55 100.55 100.55 100.56 100.56 100.56 100.56 100.56 100.57 100.57
100.07 100.07 100.08 100.08 100.08 100.08 100.08 100.09 100.09 100.09 110.09 110.10 110.10 110.10 110.11 110.11 110.11 110.11 110.11 110.12 110.12 110.12 110.12 110.13 110.13 110.13 110.14 110.14 110.14 110.14 110.14 100.15 100.15 100.15 100.16 100.16 100.16 100.16 100.17 100.17 100.17 100.17 100.17 100.18 100.18 100.18 100.19 100.19 100.19 100.19 110.19 110.20 110.20 110.20 110.20 110.21 110.21 110.21 110.22 110.22 110.22 110.22 110.22 110.23 110.23 110.23 110.23 110.24 110.24 110.24 110.25 100.25 100.25 100.25 100.25 100.26 100.26 100.26 100.27 100.27 100.27 100.27 100.28 100.28 100.28 100.28 100.28 100.29 100.29 100.29 110.30 110.30 110.30 110.30 110.31 110.31 110.31 110.31 110.31 110.32 110.32 110.32 110.33 110.33 110.33 110.33 110.33 110.34 110.34 110.34 110.34 100.35 100.35 100.35 100.36 100.36 100.36 100.36 100.36 100.37 100.37 100.37 100.38 100.38 100.38 100.38 100.39 100.39 100.39 100.39 110.39 110.40 110.40 110.40 110.41 110.41 110.41 110.41 110.42 110.42 110.42 110.42 110.42 110.43 110.43 110.43 110.44 110.44 110.44 110.44 110.44 100.45 100.45 100.45 100.45 100.46 100.46 100.46 100.47 100.47 100.47 100.47 100.47 100.48 100.48 100.48 100.48 100.49 100.49 100.49 110.50 110.50 110.50 110.50 110.50 110.51 110.51 110.51 110.52 110.52 110.52 110.52 110.53 110.53 110.53 110.53 110.53 110.54 110.54 110.54 110.55 100.55 100.55 100.55 100.56 100.56 100.56 100.56 100.56 100.57
100.07 100.07 100.07 100.08 100.08 100.08 100.08 100.08 100.09 100.09 110.09 110.09 110.10 110.10 110.10 110.11 110.11 110.11 110.11 110.11 110.12 110.12 110.12 110.12 110.13 110.13 110.13 110.14 110.14 110.14 110.14 100.14 100.15 100.15 100.15 100.16 100.16 100.16 100.16 100.17 100.17 100.17 100.17 100.17 100.18 100.18 100.18 100.19 100.19 100.19 110.19 110.19 110.20 110.20 110.20 110.20 110.21 110.21 110.21 110.22 110.22 110.22 110.22 110.22 110.23 110.23 110.23 110.23 110.24 110.24 110.24 100.25 100.25 100.25 100.25 100.25 100.26 100.26 100.26 100.27 100.27 100.27 100.27 100.28 100.28 100.28 100.28 100.28 100.29 100.29 110.29 110.30 110.30 110.30 110.30 110.31 110.31 110.31 110.31 110.31 110.32 110.32 110.32 110.33 110.33 110.33 110.33 110.33 110.34 110.34 110.34 100.34 100.35 100.35 100.35 100.36 100.36 100.36 100.36 100.36 100.37 100.37 100.37 100.38 100.38 100.38 100.38 100.39 100.39 100.39 110.39 110.39 110.40 110.40 110.40 110.41 110.41 110.41 110.41 110.42 110.42 110.42 110.42 110.42 110.43 110.43 110.43 110.44 110.44 110.44 110.44 100.44 100.45 100.45 100.45 100.45 100.46 100.46 100.46 100.47 100.47 100.47 100.47 100.47 100.48 100.48 100.48 100.48 100.49 100.49 110.49 110.50 110.50 110.50 110.50 110.50 110.51 110.51 110.51 110.52 110.52 110.52 110.52 110.53 110.53 110.53 110.53 110.53 110.54 110.54 110.54 100.55 100.55 100.55 100.55 100.56 100.56 100.56 100.56 100.56
100.06 100.07 100.07 100.07 100.08 100.08 100.08 100.08 100.08 100.09 110.09 110.09 110.09 110.10 110.10 110.10 110.11 110.11 110.11 110.11 110.11 110.12 110.12 110.12 110.12 110.13 110.13 110.13 110.14 110.14 110.14 100.14 100.14 100.15 100.15 100.15 100.16 100.16 100.16 100.16 100.17 100.17 100.17 100.17 100.17 100.18 100.18 100.18 100.19 100.19 110.19 110.19 110.19 110.20 110.20 110.20 110.20 110.21 110.21 110.21 110.22 110.22 110.22 110.22 110.22 110.23 110.23 110.23 110.23 110.24 110.24 100.24 100.25 100.25 100.25 100.25 100.25 100.26 100.26 100.26 100.27 100.27 100.27 100.27 100.28 100.28 100.28 100.28 100.28 100.29 110.29 110.29 110.30 110.30 110.30 110.30 110.31 110.31 110.31 110.31 110.31 110.32 110.32 110.32 110.33 110.33 110.33 110.33 110.33 110.34 110.34 100.34 100.34 100.35 100.35 100.35 100.36 100.36 100.36 100.36 100.36 100.37 100.37 100.37 100.38 100.38 100.38 100.38 100.39 100.39 110.39 110.39 110.39 110.40 110.40 110.40 110.41 110.41 110.41 110.41 110.42 110.42 110.42 110.42 110.42 110.43 110.43 110.43 110.44 110.44 110.44 100.44 100.44 100.45 100.45 100.45 100.45 100.46 100.46 100.46 100.47 100.47 100.47 100.47 100.47 100.48 100.48 100.48 100.48 100.49 110.49 110.49 110.50 110.50 110.50 110.50 110.50 110.51 110.51 110.51 110.52 110.52 110.52 110.52 110.53 110.53 110.53 110.53 110.53 110.54 110.54 100.54 100.55 100.55 100.55 100.55 100.56 100.56 100.56 100.56
100.06 100.06 100.07 100.07 100.07 100.08 100.08 100.08 100.08 100.08 110.09 110.09 110.09 110.09 110.10 110.10 110.10 110.11 110.11 110.11 110.11 110.11 110.12 110.12 110.12 110.12 110.13 110.13 110.13 110.14 110.14 100.14 100.14 100.14 100.15 100.15 100.15 100.16 100.16 100.16 100.16 100.17 100.17 100.17 100.17 100.17 100.18 100.18 100.18 100.19 110.19 110.19 110.19 110.19 110.20 110.20 110.20 110.20 110.21 110.21 110.21 110.22 110.22 110.22 110.22 110.22 110.23 110.23 110.23 110.23 110.24 100.24 100.24 100.25 100.25 100.25 100.25 100.25 100.26 100.26 100.26 100.27 100.27 100.27 100.27 100.28 100.28 100.28 100.28 100.28 110.29 110.29 110.29 110.30 110.30 110.30 110.30 110.31 110.31 110.31 110.31 110.31 110.32 110.32 110.32 110.33 110.33 110.33 110.33 110.33 110.34 100.34 100.34 100.34 100.35 100.35 100.35 100.36 100.36 100.36 100.36 100.36 100.37 100.37 100.37 100.38 100.38 100.38 100.38 100.39 110.39 110.39 110.39 110.39 110.40 110.40 110.40 110.41 110.41 110.41 110.41 110.42 110.42 110.42 110.42 110.42 110.43 110.43 110.43 110.44 110.44 100.44 100.44 100.44 100.45 100.45 100.45 100.45 100.46 100.46 100.46 100.47 100.47 100.47 100.47 100.47 100.48 100.48 100.48 100.48 110.49 110.49 110.49 110.50 110.50 110.50 110.50 110.50 110.51 110.51 110.51 110.52 110.52 110.52 110.52 110.53 110.53 110.53 110.53 110.53 110.54 100.54 100.54 100.55 100.55 100.55 100.55 100.56 100.56 100.56
100.06 100.06 100.06 100.07 100.07 100.07 100.08 100.08 100.08 100.08 110.08 110.09 110.09 110.09 110.09 110.10 110.10 110.10 110.11 110.11 110.11 110.11 110.11 110.12 110.12 110.12 110.12 110.13 110.13 110.13 110.14 100.14 100.14 100.14 100.14 100.15 100.15 100.15 100.16 100.16 100.16 100.16 100.17 100.17 100.17 100.17 100.17 100.18 100.18 100.18 110.19 110.19 110.19 110.19 110.19 110.20 110.20 110.20 110.20 110.21 110.21 110.21 110.22 110.22 110.22 110.22 110.22 110.23 110.23 110.23 110.23 100.24 100.24 100.24 100.25 100.25 100.25 100.25 100.25 100.26 100.26 100.26 100.27 100.27 100.27 100.27 100.28 100.28 100.28 100.28 110.28 110.29 110.29 110.29 110.30 110.30 110.30 110.30 110.31 110.31 110.31 110.31 110.31 110.32 110.32 110.32 110.33 110.33 110.33 110.33 110.33 100.34 100.34 100.34 100.34 100.35 100.35 100.35 100.36 100.36 100.36 100.36 100.36 100.37 100.37 100.37 100.38 100.38 100.38 100.38 110.39 110.39 110.39 110.39 110.39 110.40 110.40 110.40 110.41 110.41 110.41 110.41 110.42 110.42 110.42 110.42 110.42 110.43 110.43 110.43 110.44 100.44 100.44 100.44 100.44 100.45 100.45 100.45 100.45 100.46 100.46 100.46 100.47 100.47 100.47 100.47 100.47 100.48 100.48 100.48 110.48 110.49 110.49 110.49 110.50 110.50 110.50 110.50 110.50 110.51 110.51 110.51 110.52 110.52 110.52 110.52 110.53 110.53 110.53 110.53 110.53 100.54 100.54 100.54 100.55 100.55 100.55 100.55 100.56 100.56
100.06 100.06 100.06 100.06 100.07 100.07 100.07 100.08 100.08 100.08 110.08 110.08 110.09 110.09 110.09 110.09 110.10 110.10 110.10 110.11 110.11 110.11 110.11 110.11 110.12 110.12 110.12 110.12 110.13 110.13 110.13 100.14 100.14 100.14 100.14 100.14 100.15 100.15 100.15 100.16 100.16 100.16 100.16 100.17 100.17 100.17 100.17 100.17 100.18 100.18 110.18 110.19 110.19 110.19 110.19 110.19 110.20 110.20 110.20 110.20 110.21 110.21 110.21 110.22 110.22 110.22 110.22 110.22 110.23 110.23 110.23 100.23 100.24 100.24 100.24 100.25 100.25 100.25 100.25 100.25 100.26 100.26 100.26 100.27 100.27 100.27 100.27 100.28 100.28 100.28 110.28 110.28 110.29 110.29 110.29 110.30 110.30 110.30 110.30 110.31 110.31 110.31 110.31 110.31 110.32 110.32 110.32 110.33 110.33 110.33 110.33 100.33 100.34 100.34 100.34 100.34 100.35 100.35 100.35 100.36 100.36 100.36 100.36 100.36 100.37 100.37 100.37 100.38 100.38 100.38 110.38 110.39 110.39 110.39 110.39 110.39 110.40 110.40 110.40 110.41 110.41 110.41 110.41 110.42 110.42 110.42 110.42 110.42 110.43 110.43 110.43 100.44 100.44 100.44 100.44 100.44 100.45 100.45 100.45 100.45 100.46 100.46 100.46 100.47 100.47 100.47 100.47 100.47 100.48 100.48 110.48 110.48 110.49 110.49 110.49 110.50 110.50 110.50 110.50 110.50 110.51 110.51 110.51 110.52 110.52 110.52 110.52 110.53 110.53 110.53 110.53 100.53 100.54 100.54 100.54 100.55 100.55 100.55 100.55 100.56
100.06 100.06 100.06 100.06 100.06 100.07 100.07 100.07 100.08 100.08 110.08 110.08 110.08 110.09 110.09 110.09 110.09 110.10 110.10 110.10 110.11 110.11 110.11 110.11 110.11 110.12 110.12 110.12 110.12 110.13 110.13 100.13 100.14 100.14 100.14 100.14 100.14 100.15 100.15 100.15 100.16 100.16 100.16 100.16 100.17 100.17 100.17 100.17 100.17 100.18 110.18 110.18 110.19 110.19 110.19 110.19 110.19 110.20 110.20 110.20 110.20 110.21 110.21 110.21 110.22 110.22 110.22 110.22 110.22 110.23 110.23 100.23 100.23 100.24 100.24 100.24 100.25 100.25 100.25 100.25 100.25 100.26 100.26 100.26 100.27 100.27 100.27 100.27 100.28 100.28 110.28 110.28 110.28 110.29 110.29 110.29 110.30 110.30 110.30 110.30 110.31 110.31 110.31 110.31 110.31 110.32 110.32 110.32 110.33 110.33 110.33 100.33 100.33 100.34 100.34 100.34 100.34 100.35 100.35 100.35 100.36 100.36 100.36 100.36 100.36 100.37 100.37 100.37 100.38 100.38 110.38 110.38 110.39 110.39 110.39 110.39 110.39 110.40 110.40 110.40 110.41 110.41 110.41 110.41 110.42 110.42 110.42 110.42 110.42 110.43 110.43 100.43 100.44 100.44 100.44 100.44 100.44 100.45 100.45 100.45 100.45 100.46 100.46 100.46 100.47 100.47 100.47 100.47 100.47 100.48 110.48 110.48 110.48 110.49 110.49 110.49 110.50 110.50 110.50 110.50 110.50 110.51 110.51 110.51 110.52 110.52 110.52 110.52 110.53 110.53 110.53 100.53 100.53 100.54 100.54 100.54 100.55 100.55 100.55 100.55
100.05 100.06 100.06 100.06 100.06 100.06 100.07 100.07 100.07 100.08 110.08 110.08 110.08 110.08 110.09 110.09 110.09 110.09 110.10 110.10 110.10 110.11 110.11 110.11 110.11 110.11 110.12 110.12 110.12 110.12 110.13 100.13 100.13 100.14 100.14 100.14 100.14 100.14 100.15 100.15 100.15 100.16 100.16 100.16 100.16 100.17 100.17 100.17 100.17 100.17 110.18 110.18 110.18 110.19 110.19 110.19 110.19 110.19 110.20 110.20 110.20 110.20 110.21 110.21 110.21 110.22 110.22 110.22 110.22 110.22 110.23 100.23 100.23 100.23 100.24 100.24 100.24 100.25 100.25 100.25 100.25 100.25 100.26 100.26 100.26 100.27 100.27 100.27 100.27 100.28 110.28 110.28 110.28 110.28 110.29 110.29 110.29 110.30 110.30 110.30 110.30 110.31 110.31 110.31 110.31 110.31 110.32 110.32 110.32 110.33 110.33 100.33 100.33 100.33 100.34 100.34 100.34 100.34 100.35 100.35 100.35 100.36 100.36 100.36 100.36 100.36 100.37 100.37 100.37 100.38 110.38 110.38 110.38 110.39 110.39 110.39 110.39 110.39 110.40 110.40 110.40 110.41 110.41 110.41 110.41 110.42 110.42 110.42 110.42 110.42 110.43 100.43 100.43 100.44 100.44 100.44 100.44 100.44 100.45 100.45 100.45 100.45 100.46 100.46 100.46 100.47 100.47 100.47 100.47 100.47 110.48 110.48 110.48 110.48 110.49 110.49 110.49 110.50 110.50 110.50 110.50 110.50 110.51 110.51 110.51 110.52 110.52 110.52 110.52 110.53 110.53 100.53 100.53 100.53 100.54 100.54 100.54 100.55 100.55 100.55
100.05 100.05 100.06 100.06 100.06 100.06 100.06 100.07 100.07 100.07 110.08 110.08 110.08 110.08 110.08 110.09 110.09 110.09 110.09 110.10 110.10 110.10 110.11 110.11 110.11 110.11 110.11 110.12 110.12 110.12 110.12 100.13 100.13 100.13 100.14 100.14 100.14 100.14 100.14 100.15 100.15 100.15 100.16 100.16 100.16 100.16 100.17 100.17 100.17 100.17 110.17 110.18 110.18 110.18 110.19 110.19 110.19 110.19 110.19 110.20 110.20 110.20 110.20 110.21 110.21 110.21 110.22 110.22 110.22 110.22 110.22 100.23 100.23 100.23 100.23 100.24 100.24 100.24 100.25 100.25 100.25 100.25 100.25 100.26 100.26 100.26 100.27 100.27 100.27 100.27 110.28 110.28 110.28 110.28 110.28 110.29 110.29 110.29 110.30 110.30 110.30 110.30 110.31 110.31 110.31 110.31 110.31 110.32 110.32 110.32 110.33 100.33 100.33 100.33 100.33 100.34 100.34 100.34 100.34 100.35 100.35 100.35 100.36 100.36 100.36 100.36 100.36 100.37 100.37 100.37 110.38 110.38 110.38 110.38 110.39 110.39 110.39 110.39 110.39 110.40 110.40 110.40 110.41 110.41 110.41 110.41 110.42 110.42 110.42 110.42 110.42 100.43 100.43 100.43 100.44 100.44 100.44 100.44 100.44 100.45 100.45 100.45 100.45 100.46 100.46 100.46 100.47 100.47 100.47 100.47 110.47 110.48 110.48 110.48 110.48 110.49 110.49 110.49 110.50 110.50 110.50 110.50 110.50 110.51 110.51 110.51 110.52 110.52 110.52 110.52 110.53 100.53 100.53 100.53 100.53 100.54 100.54 100.54 100.55 100.55
100.05 100.05 100.05 100.06 100.06 100.06 100.06 100.06 100.07 100.07 110.07 110.08 110.08 110.08 110.08 110.08 110.09 110.09 110.09 110.09 110.10 110.10 110.10 110.11 110.11 110.11 110.11 110.11 110.12 110.12 110.12 100.12 100.13 100.13 100.13 100.14 100.14 100.14 100.14 100.14 100.15 100.15 100.15 100.16 100.16 100.16 100.16 100.17 100.17 100.17 110.17 110.17 110.18 110.18 110.18 110.19 110.19 110.19 110.19 110.19 110.20 110.20 110.20 110.20 110.21 110.21 110.21 110.22 110.22 110.22 110.22 100.22 100.23 100.23 100.23 100.23 100.24 100.24 100.24 100.25 100.25 100.25 100.25 100.25 100.26 100.26 100.26 100.27 100.27 100.27 110.27 110.28 110.28 110.28 110.28 110.28 110.29 110.29 110.29 110.30 110.30 110.30 110.30 110.31 110.31 110.31 110.31 110.31 110.32 110.32 110.32 100.33 100.33 100.33 100.33 100.33 100.34 100.34 100.34 100.34 100.35 100.35 100.35 100.36 100.36 100.36 100.36 100.36 100.37 100.37 110.37 110.38 110.38 110.38 110.38 110.39 110.39 110.39 110.39 110.39 110.40 110.40 110.40 110.41 110.41 110.41 110.41 110.42 110.42 110.42 110.42 100.42 100.43 100.43 100.43 100.44 100.44 100.44 100.44 100.44 100.45 100.45 100.45 100.45 100.46 100.46 100.46 100.47 100.47 100.47 110.47 110.47 110.48 110.48 110.48 110.48 110.49 110.49 110.49 110.50 110.50 110.50 110.50 110.50 110.51 110.51 110.51 110.52 110.52 110.52 110.52 100.53 100.53 100.53 100.53 100.53 100.54 100.54 100.54 100.55
100.05 100.05 100.05 100.05 100.06 100.06 100.06 100.06 100.06 100.07 110.07 110.07 110.08 110.08 110.08 110.08 110.08 110.09 110.09 110.09 110.09 110.10 110.10 110.10 110.11 110.11 110.11 110.11 110.11 110.12 110.12 100.12 100.12 100.13 100.13 100.13 100.14 100.14 100.14 100.14 100.14 100.15 100.15 100.15 100.16 100.16 100.16 100.16 100.17 100.17 110.17 110.17 110.17 110.18 110.18 110.18 110.19 110.19 110.19 110.19 110.19 110.20 110.20 110.20 110.20 110.21 110.21 110.21 110.22 110.22 110.22 100.22 100.22 100.23 100.23 100.23 100.23 100.24 100.24 100.24 100.25 100.25 100.25 100.25 100.25 100.26 100.26 100.26 100.27 100.27 110.27 110.27 110.28 110.28 110.28 110.28 110.28 110.29 110.29 110.29 110.30 110.30 110.30 110.30 110.31 110.31 110.31 110.31 110.31 110.32 110.32 100.32 100.33 100.33 100.33 100.33 100.33 100.34 100.34 100.34 100.34 100.35 100.35 100.35 100.36 100.36 100.36 100.36 100.36 100.37 110.37 110.37 110.38 110.38 110.38 110.38 110.39 110.39 110.39 110.39 110.39 110.40 110.40 110.40 110.41 110.41 110.41 110.41 110.42 110.42 110.42 100.42 100.42 100.43 100.43 100.43 100.44 100.44 100.44 100.44 100.44 100.45 100.45 100.45 100.45 100.46 100.46 100.46 100.47 100.47 110.47 110.47 110.47 110.48 110.48 110.48 110.48 110.49 110.49 110.49 110.50 110.50 110.50 110.50 110.50 110.51 110.51 110.51 110.52 110.52 110.52 100.52 100.53 100.53 100.53 100.53 100.53 100.54 100.54 100.54
100.04 100.05 100.05 100.05 100.05 100.06 100.06 100.06 100.06 100.06 110.07 110.07 110.07 110.08 110.08 110.08 110.08 110.08 110.09 110.09 110.09 110.09 110.10 110.10 110.10 110.11 110.11 110.11 110.11 110.11 110.12 100.12 100.12 100.12 100.13 100.13 100.13 100.14 100.14 100.14 100.14 100.14 100.15 100.15 100.15 100.16 100.16 100.16 100.16 100.17 110.17 110.17 110.17 110.17 110.18 110.18 110.18 110.19 110.19 110.19 110.19 110.19 110.20 110.20 110.20 110.20 110.21 110.21 110.21 110.22 110.22 100.22 100.22 100.22 100.23 100.23 100.23 100.23 100.24 100.24 100.24 100.25 100.25 100.25 100.25 100.25 100.26 100.26 100.26 100.27 110.27 110.27 110.27 110.28 110.28 110.28 110.28 110.28 110.29 110.29 110.29 110.30 110.30 110.30 110.30 110.31 110.31 110.31 110.31 110.31 110.32 100.32 100.32 100.33 100.33 100.33 100.33 100.33 100.34 100.34 100.34 100.34 100.35 100.35 100.35 100.36 100.36 100.36 100.36 100.36 110.37 110.37 110.37 110.38 110.38 110.38 110.38 110.39 110.39 110.39 110.39 110.39 110.40 110.40 110.40 110.41 110.41 110.41 110.41 110.42 110.42 100.42 100.42 100.42 100.43 100.43 100.43 100.44 100.44 100.44 100.44 100.44 100.45 100.45 100.45 100.45 100.46 100.46 100.46 100.47 110.47 110.47 110.47 110.47 110.48 110.48 110.48 110.48 110.49 110.49 110.49 110.50 110.50 110.50 110.50 110.50 110.51 110.51 110.51 110.52 110.52 100.52 100.52 100.53 100.53 100.53 100.53 100.53 100.54 100.54
100.04 100.04 100.05 100.05 100.05 100.05 100.06 100.06 100.06 100.06 110.06 110.07 110.07 110.07 110.08 110.08 110.08 110.08 110.08 110.09 110.09 110.09 110.09 110.10 110.10 110.10 110.11 110.11 110.11 110.11 110.11 100.12 100.12 100.12 100.12 100.13 100.13 100.13 100.14 100.14 100.14 100.14 100.14 100.15 100.15 100.15 100.16 100.16 100.16 100.16 110.17 110.17 110.17 110.17 110.17 110.18 110.18 110.18 110.19 110.19 110.19 110.19 110.19 110.20 110.20 110.20 110.20 110.21 110.21 110.21 110.22 100.22 100.22 100.22 100.22 100.23 100.23 100.23 100.23 100.24 100.24 100.24 100.25 100.25 100.25 100.25 100.25 100.26 100.26 100.26 110.27 110.27 110.27 110.27 110.28 110.28 110.28 110.28 110.28 110.29 110.29 110.29 110.30 110.30 110.30 110.30 110.31 110.31 110.31 110.31 110.31 100.32 100.32 100.32 100.33 100.33 100.33 100.33 100.33 100.34 100.34 100.34 100.34 100.35 100.35 100.35 100.36 100.36 100.36 100.36 110.36 110.37 110.37 110.37 110.38 110.38 110.38 110.38 110.39 110.39 110.39 110.39 110.39 110.40 110.40 110.40 110.41 110.41 110.41 110.41 110.42 100.42 100.42 100.42 100.42 100.43 100.43 100.43 100.44 100.44 100.44 100.44 100.44 100.45 100.45 100.45 100.45 100.46 100.46 100.46 110.47 110.47 110.47 110.47 110.47 110.48 110.48 110.48 110.48 110.49 110.49 110.49 110.50 110.50 110.50 110.50 110.50 110.51 110.51 110.51 110.52 100.52 100.52 100.52 100.53 100.53 100.53 100.53 100.53 100.54
100.04 100.04 100.04 100.05 100.05 100.05 100.05 100.06 100.06 100.06 110.06 110.06 110.07 110.07 110.07 110.08 110.08 110.08 110.08 110.08 110.09 110.09 110.09 110.09 110.10 110.10 110.10 110.11 110.11 110.11 110.11 100.11 100.12 100.12 100.12 100.12 100.13 100.13 100.13 100.14 100.14 100.14 100.14 100.14 100.15 100.15 100.15 100.16 100.16 100.16 110.16 110.17 110.17 110.17 110.17 110.17 110.18 110.18 110.18 110.19 110.19 110.19 110.19 110.19 110.20 110.20 110.20 110.20 110.21 110.21 110.21 100.22 100.22 100.22 100.22 100.22 100.23 100.23 100.23 100.23 100.24 100.24 100.24 100.25 100.25 100.25 100.25 100.25 100.26 100.26 110.26 110.27 110.27 110.27 110.27 110.28 110.28 110.28 110.28 110.28 110.29 110.29 110.29 110.30 110.30 110.30 110.30 110.31 110.31 110.31 110.31 100.31 100.32 100.32 100.32 100.33 100.33 100.33 100.33 100.33 100.34 100.34 100.34 100.34 100.35 100.35 100.35 100.36 100.36 100.36 110.36 110.36 110.37 110.37 110.37 110.38 110.38 110.38 110.38 110.39 110.39 110.39 110.39 110.39 110.40 110.40 110.40 110.41 110.41 110.41 110.41 100.42 100.42 100.42 100.42 100.42 100.43 100.43 100.43 100.44 100.44 100.44 100.44 100.44 100.45 100.45 100.45 100.45 100.46 100.46 110.46 110.47 110.47 110.47 110.47 110.47 110.48 110.48 110.48 110.48 110.49 110.49 110.49 110.50 110.50 110.50 110.50 110.50 110.51 110.51 110.51 100.52 100.52 100.52 100.52 100.53 100.53 100.53 100.53 100.53
100.03 100.04 100.04 100.04 100.05 100.05 100.05 100.05 100.06 100.06 110.06 110.06 110.06 110.07 110.07 110.07 110.08 110.08 110.08 110.08 110.08 110.09 110.09 110.09 110.09 110.10 110.10 110.10 110.11 110.11 110.11 100.11 100.11 100.12 100.12 100.12 100.12 100.13 100.13 100.13 100.14 100.14 100.14 100.14 100.14 100.15 100.15 100.15 100.16 100.16 110.16 110.16 110.17 110.17 110.17 110.17 110.17 110.18 110.18 110.18 110.19 110.19 110.19 110.19 110.19 110.20 110.20 110.20 110.20 110.21 110.21 100.21 100.22 100.22 100.22 100.22 100.22 100.23 100.23 100.23 100.23 100.24 100.24 100.24 100.25 100.25 100.25 100.25 100.25 100.26 110.26 110.26 110.27 110.27 110.27 110.27 110.28 110.28 110.28 110.28 110.28 110.29 110.29 110.29 110.30 110.30 110.30 110.30 110.31 110.31 110.31 100.31 100.31 100.32 100.32 100.32 100.33 100.33 100.33 100.33 100.33 100.34 100.34 100.34 100.34 100.35 100.35 100.35 100.36 100.36 110.36 110.36 110.36 110.37 110.37 110.37 110.38 110.38 110.38 110.38 110.39 110.39 110.39 110.39 110.39 110.40 110.40 110.40 110.41 110.41 110.41 100.41 100.42 100.42 100.42 100.42 100.42 100.43 100.43 100.43 100.44 100.44 100.44 100.44 100.44 100.45 100.45 100.45 100.45 100.46 110.46 110.46 110.47 110.47 110.47 110.47 110.47 110.48 110.48 110.48 110.48 110.49 110.49 110.49 110.50 110.50 110.50 110.50 110.50 110.51 110.51 100.51 100.52 100.52 100.52 100.52 100.53 100.53 100.53 100.53
100.03 100.03 100.04 100.04 100.04 100.05 100.05 100.05 100.05 100.06 110.06 110.06 110.06 110.06 110.07 110.07 110.07 110.08 110.08 110.08 110.08 110.08 110.09 110.09 110.09 110.09 110.10 110.10 110.10 110.11 110.11 100.11 100.11 100.11 100.12 100.12 100.12 100.12 100.13 100.13 100.13 100.14 100.14 100.14 100.14 100.14 100.15 100.15 100.15 100.16 110.16 110.16 110.16 110.17 110.17 110.17 110.17 110.17 110.18 110.18 110.18 110.19 110.19 110.19 110.19 110.19 110.20 110.20 110.20 110.20 110.21 100.21 100.21 100.22 100.22 100.22 100.22 100.22 100.23 100.23 100.23 100.23 100.24 100.24 100.24 100.25 100.25 100.25 100.25 100.25 110.26 110.26 110.26 110.27 110.27 110.27 110.27 110.28 110.28 110.28 110.28 110.28 110.29 110.29 110.29 110.30 110.30 110.30 110.30 110.31 110.31 100.31 100.31 100.31 100.32 100.32 100.32 100.33 100.33 100.33 100.33 100.33 100.34 100.34 100.34 100.34 100.35 100.35 100.35 100.36 110.36 110.36 110.36 110.36 110.37 110.37 110.37 110.38 110.38 110.38 110.38 110.39 110.39 110.39 110.39 110.39 110.40 110.40 110.40 110.41 110.41 100.41 100.41 100.42 100.42 100.42 100.42 100.42 100.43 100.43 100.43 100.44 100.44 100.44 100.44 100.44 100.45 100.45 100.45 100.45 110.46 110.46 110.46 110.47 110.47 110.47 110.47 110.47 110.48 110.48 110.48 110.48 110.49 110.49 110.49 110.50 110.50 110.50 110.50 110.50 110.51 100.51 100.51 100.52 100.52 100.52 100.52 100.53 100.53 100.53
100.03 100.03 100.03 100.04 100.04 100.04 100.05 100.05 100.05 100.05 110.06 110.06 110.06 110.06 110.06 110.07 110.07 110.07 110.08 110.08 110.08 110.08 110.08 110.09 110.09 110.09 110.09 110.10 110.10 110.10 110.11 100.11 100.11 100.11 100.11 100.12 100.12 100.12 100.12 100.13 100.13 100.13 100.14 100.14 100.14 100.14 100.14 100.15 100.15 100.15 110.16 110.16 110.16 110.16 110.17 110.17 110.17 110.17 110.17 110.18 110.18 110.18 110.19 110.19 110.19 110.19 110.19 110.20 110.20 110.20 110.20 100.21 100.21 100.21 100.22 100.22 100.22 100.22 100.22 100.23 100.23 100.23 100.23 100.24 100.24 100.24 100.25 100.25 100.25 100.25 110.25 110.26 110.26 110.26 110.27 110.27 110.27 110.27 110.28 110.28 110.28 110.28 110.28 110.29 110.29 110.29 110.30 110.30 110.30 110.30 110.31 100.31 100.31 100.31 100.31 100.32 100.32 100.32 100.33 100.33 100.33 100.33 100.33 100.34 100.34 100.34 100.34 100.35 100.35 100.35 110.36 110.36 110.36 110.36 110.36 110.37 110.37 110.37 110.38 110.38 110.38 110.38 110.39 110.39 110.39 110.39 110.39 110.40 110.40 110.40 110.41 100.41 100.41 100.41 100.42 100.42 100.42 100.42 100.42 100.43 100.43 100.43 100.44 100.44 100.44 100.44 100.44 100.45 100.45 100.45 110.45 110.46 110.46 110.46 110.47 110.47 110.47 110.47 110.47 110.48 110.48 110.48 110.48 110.49 110.49 110.49 110.50 110.50 110.50 110.50 110.50 100.51 100.51 100.51 100.52 100.52 100.52 100.52 100.53 100.53
100.03 100.03 100.03 100.03 100.04 100.04 100.04 100.05 100.05 100.05 110.05 110.06 110.06 110.06 110.06 110.06 110.07 110.07 110.07 110.08 110.08 110.08 110.08 110.08 110.09 110.09 110.09 110.09 110.10 110.10 110.10 100.11 100.11 100.11 100.11 100.11 100.12 100.12 100.12 100.12 100.13 100.13 100.13 100.14 100.14 100.14 100.14 100.14 100.15 100.15 110.15 110.16 110.16 110.16 110.16 110.17 110.17 110.17 110.17 110.17 110.18 110.18 110.18 110.19 110.19 110.19 110.19 110.19 110.20 110.20 110.20 100.20 100.21 100.21 100.21 100.22 100.22 100.22 100.22 100.22 100.23 100.23 100.23 100.23 100.24 100.24 100.24 100.25 100.25 100.25 110.25 110.25 110.26 110.26 110.26 110.27 110.27 110.27 110.27 110.28 110.28 110.28 110.28 110.28 110.29 110.29 110.29 110.30 110.30 110.30 110.30 100.31 100.31 100.31 100.31 100.31 100.32 100.32 100.32 100.33 100.33 100.33 100.33 100.33 100.34 100.34 100.34 100.34 100.35 100.35 110.35 110.36 110.36 110.36 110.36 110.36 110.37 110.37 110.37 110.38 110.38 110.38 110.38 110.39 110.39 110.39 110.39 110.39 110.40 110.40 110.40 100.41 100.41 100.41 100.41 100.42 100.42 100.42 100.42 100.42 100.43 100.43 100.43 100.44 100.44 100.44 100.44 100.44 100.45 100.45 110.45 110.45 110.46 110.46 110.46 110.47 110.47 110.47 110.47 110.47 110.48 110.48 110.48 110.48 110.49 110.49 110.49 110.50 110.50 110.50 110.50 100.50 100.51 100.51 100.51 100.52 100.52 100.52 100.52 100.53
100.03 100.03 100.03 100.03 100.03 100.04 100.04 100.04 100.05 100.05 110.05 110.05 110.06 110.06 110.06 110.06 110.06 110.07 110.07 110.07 110.08 110.08 110.08 110.08 110.08 110.09 110.09 110.09 110.09 110.10 110.10 100.10 100.11 100.11 100.11 100.11 100.11 100.12 100.12 100.12 100.12 100.13 100.13 100.13 100.14 100.14 100.14 100.14 100.14 100.15 110.15 110.15 110.16 110.16 110.16 110.16 110.17 110.17 110.17 110.17 110.17 110.18 110.18 110.18 110.19 110.19 110.19 110.19 110.19 110.20 110.20 100.20 100.20 100.21 100.21 100.21 100.22 100.22 100.22 100.22 100.22 100.23 100.23 100.23 100.23 100.24 100.24 100.24 100.25 100.25 110.25 110.25 110.25 110.26 110.26 110.26 110.27 110.27 110.27 110.27 110.28 110.28 110.28 110.28 110.28 110.29 110.29 110.29 110.30 110.30 110.30 100.30 100.31 100.31 100.31 100.31 100.31 100.32 100.32 100.32 100.33 100.33 100.33 100.33 100.33 100.34 100.34 100.34 100.34 100.35 110.35 110.35 110.36 110.36 110.36 110.36 110.36 110.37 110.37 110.37 110.38 110.38 110.38 110.38 110.39 110.39 110.39 110.39 110.39 110.40 110.40 100.40 100.41 100.41 100.41 100.41 100.42 100.42 100.42 100.42 100.42 100.43 100.43 100.43 100.44 100.44 100.44 100.44 100.44 100.45 110.45 110.45 110.45 110.46 110.46 110.46 110.47 110.47 110.47 110.47 110.47 110.48 110.48 110.48 110.48 110.49 110.49 110.49 110.50 110.50 110.50 100.50 100.50 100.51 100.51 100.51 100.52 100.52 100.52 100.52
100.02 100.03 100.03 100.03 100.03 100.03 100.04 100.04 100.04 100.05 100.05 100.05 100.05 100.06 100.06 100.06 100.06 100.06 100.07 100.07 100.07 100.08 100.08 100.08 100.08 100.08 100.09 100.09 100.09 100.09 100.10 100.10 100.10 100.11 100.11 100.11 100.11 100.11 100.12 100.12 100.12 100.12 100.13 100.13 100.13 100.14 100.14 100.14 100.14 100.14 100.15 100.15 100.15 100.16 100.16 100.16 100.16 100.17 100.17 100.17 100.17 100.17 100.18 100.18 100.18 100.19 100.19 100.19 100.19 100.19 100.20 100.20 100.20 100.20 100.21 100.21 100.21 100.22 100.22 100.22 100.22 100.22 100.23 100.23 100.23 100.23 100.24 100.24 100.24 100.25 100.25 100.25 100.25 100.25 100.26 100.26 100.26 100.27 100.27 100.27 100.27 100.28 100.28 100.28 100.28 100.28 100.29 100.29 100.29 100.30 100.30 100.30 100.30 100.31 100.31 100.31 100.31 100.31 100.32 100.32 100.32 100.33 100.33 100.33 100.33 100.33 100.34 100.34 100.34 100.34 100.35 100.35 100.35 100.36 100.36 100.36 100.36 100.36 100.37 100.37 100.37 100.38 100.38 100.38 100.38 100.39 100.39 100.39 100.39 100.39 100.40 100.40 100.40 100.41 100.41 100.41 100.41 100.42 100.42 100.42 100.42 100.42 100.43 100.43 100.43 100.44 100.44 100.44 100.44 100.44 100.45 100.45 100.45 100.45 100.46 100.46 100.46 100.47 100.47 100.47 100.47 100.47 100.48 100.48 100.48 100.48 100.49 100.49 100.49 100.50 100.50 100.50 100.50 100.50 100.51 100.51 100.51 100.52 100.52 100.52
100.02 100.02 100.03 100.03 100.03 100.03 100.03 100.04 100.04 100.04 100.05 100.05 100.05 100.05 100.06 100.06 100.06 100.06 100.06 100.07 100.07 100.07 100.08 100.08 100.08 100.08 100.08 100.09 100.09 100.09 100.09 100.10 100.10 100.10 100.11 100.11 100.11 100.11 100.11 100.12 100.12 100.12 100.12 100.13 100.13 100.13 100.14 100.14 100.14 100.14 100.14 100.15 100.15 100.15 100.16 100.16 100.16 100.16 100.17 100.17 100.17 100.17 100.17 100.18 100.18 100.18 100.19 100.19 100.19 100.19 100.19 100.20 100.20 100.20 100.20 100.21 100.21 100.21 100.22 100.22 100.22 100.22 100.22 100.23 100.23 100.23 100.23 100.24 100.24 100.24 100.25 100.25 100.25 100.25 100.25 100.26 100.26 100.26 100.27 100.27 100.27 100.27 100.28 100.28 100.28 100.28 100.28 100.29 100.29 100.29 100.30 100.30 100.30 100.30 100.31 100.31 100.31 100.31 100.31 100.32 100.32 100.32 100.33 100.33 100.33 100.33 100.33 100.34 100.34 100.34 100.34 100.35 100.35 100.35 100.36 100.36 100.36 100.36 100.36 100.37 100.37 100.37 100.38 100.38 100.38 100.38 100.39 100.39 100.39 100.39 100.39 100.40 100.40 100.40 100.41 100.41 100.41 100.41 100.42 100.42 100.42 100.42 100.42 100.43 100.43 100.43 100.44 100.44 100.44 100.44 100.44 100.45 100.45 100.45 100.45 100.46 100.46 100.46 100.47 100.47 100.47 100.47 100.47 100.48 100.48 100.48 100.48 100.49 100.49 100.49 100.50 100.50 100.50 100.50 100.50 100.51 100.51 100.51 100.52 100.52
100.02 100.02 100.02 100.03 100.03 100.03 100.03 100.03 100.04 100.04 100.04 100.05 100.05 100.05 100.05 100.06 100.06 100.06 100.06 100.06 100.07 100.07 100.07 100.08 100.08 100.08 100.08 100.08 100.09 100.09 100.09 100.09 100.10 100.10 100.10 100.11 100.11 100.11 100.11 100.11 100.12 100.12 100.12 100.12 100.13 100.13 100.13 100.14 100.14 100.14 100.14 100.14 100.15 100.15 100.15 100.16 100.16 100.16 100.16 100.17 100.17 100.17 100.17 100.17 100.18 100.18 100.18 100.19 100.19 100.19 100.19 100.19 100.20 100.20 100.20 100.20 100.21 100.21 100.21 100.22 100.22 100.22 100.22 100.22 100.23 100.23 100.23 100.23 100.24 100.24 100.24 100.25 100.25 100.25 100.25 100.25 100.26 100.26 100.26 100.27 100.27 100.27 100.27 100.28 100.28 100.28 100.28 100.28 100.29 100.29 100.29 100.30 100.30 100.30 100.30 100.31 100.31 100.31 100.31 100.31 100.32 100.32 100.32 100.33 100.33 100.33 100.33 100.33 100.34 100.34 100.34 100.34 100.35 100.35 100.35 100.36 100.36 100.36 100.36 100.36 100.37 100.37 100.37 100.38 100.38 100.38 100.38 100.39 100.39 100.39 100.39 100.39 100.40 100.40 100.40 100.41 100.41 100.41 100.41 100.42 100.42 100.42 100.42 100.42 100.43 100.43 100.43 100.44 100.44 100.44 100.44 100.44 100.45 100.45 100.45 100.45 100.46 100.46 100.46 100.47 100.47 100.47 100.47 100.47 100.48 100.48 100.48 100.48 100.49 100.49 100.49 100.50 100.50 100.50 100.50 100.50 100.51 100.51 100.51 100.52
100.02 100.02 100.02 100.02 100.03 100.03 100.03 100.03 100.03 100.04 100.04 100.04 100.05 100.05 100.05 100.05 100.06 100.06 100.06 100.06 100.06 100.07 100.07 100.07 100.08 100.08 100.08 100.08 100.08 100.09 100.09 100.09 100.09 100.10 100.10 100.10 100.11 100.11 100.11 100.11 100.11 100.12 100.12 100.12 100.12 100.13 100.13 100.13 100.14 100.14 100.14 100.14 100.14 100.15 100.15 100.15 100.16 100.16 100.16 100.16 100.17 100.17 100.17 100.17 100.17 100.18 100.18 100.18 100.19 100.19 100.19 100.19 100.19 100.20 100.20 100.20 100.20 100.21 100.21 100.21 100.22 100.22 100.22 100.22 100.22 100.23 100.23 100.23 100.23 100.24 100.24 100.24 100.25 100.25 100.25 100.25 100.25 100.26 100.26 100.26 100.27 100.27 100.27 100.27 100.28 100.28 100.28 100.28 100.28 100.29 100.29 100.29 100.30 100.30 100.30 100.30 100.31 100.31 100.31 100.31 100.31 100.32 100.32 100.32 100.33 100.33 100.33 100.33 100.33 100.34 100.34 100.34 100.34 100.35 100.35 100.35 100.36 100.36 100.36 100.36 100.36 100.37 100.37 100.37 100.38 100.38 100.38 100.38 100.39 100.39 100.39 100.39 100.39 100.40 100.40 100.40 100.41 100.41 100.41 100.41 100.42 100.42 100.42 100.42 100.42 100.43 100.43 100.43 100.44 100.44 100.44 100.44 100.44 100.45 100.45 100.45 100.45 100.46 100.46 100.46 100.47 100.47 100.47 100.47 100.47 100.48 100.48 100.48 100.48 100.49 100.49 100.49 100.50 100.50 100.50 100.50 100.50 100.51 100.51 100.51
100.01 100.02 100.02 100.02 100.02 100.03 100.03 100.03 100.03 100.03 100.04 100.04 100.04 100.05 100.05 100.05 100.05 100.06 100.06 100.06 100.06 100.06 100.07 100.07 100.07 100.08 100.08 100.08 100.08 100.08 100.09 100.09 100.09 100.09 100.10 100.10 100.10 100.11 100.11 100.11 100.11 100.11 100.12 100.12 100.12 100.12 100.13 100.13 100.13 100.14 100.14 100.14 100.14 100.14 100.15 100.15 100.15 100.16 100.16 100.16 100.16 100.17 100.17 100.17 100.17 100.17 100.18 100.18 100.18 100.19 100.19 100.19 100.19 100.19 100.20 100.20 100.20 100.20 100.21 100.21 100.21 100.22 100.22 100.22 100.22 100.22 100.23 100.23 100.23 100.23 100.24 100.24 100.24 100.25 100.25 100.25 100.25 100.25 100.26 100.26 100.26 100.27 100.27 100.27 100.27 100.28 100.28 100.28 100.28 100.28 100.29 100.29 100.29 100.30 100.30 100.30 100.30 100.31 100.31 100.31 100.31 100.31 100.32 100.32 100.32 100.33 100.33 100.33 100.33 100.33 100.34 100.34 100.34 100.34 100.35 100.35 100.35 100.36 100.36 100.36 100.36 100.36 100.37 100.37 100.37 100.38 100.38 100.38 100.38 100.39 100.39 100.39 100.39 100.39 100.40 100.40 100.40 100.41 100.41 100.41 100.41 100.42 100.42 100.42 100.42 100.42 100.43 100.43 100.43 100.44 100.44 100.44 100.44 100.44 100.45 100.45 100.45 100.45 100.46 100.46 100.46 100.47 100.47 100.47 100.47 100.47 100.48 100.48 100.48 100.48 100.49 100.49 100.49 100.50 100.50 100.50 100.50 100.50 100.51 100.51
100.01 100.01 100.02 100.02 100.02 100.02 100.03 100.03 100.03 100.03 100.03 100.04 100.04 100.04 100.05 100.05 100.05 100.05 100.06 100.06 100.06 100.06 100.06 100.07 100.07 100.07 100.08 100.08 100.08 100.08 100.08 100.09 100.09 100.09 100.09 100.10 100.10 100.10 100.11 100.11 100.11 100.11 100.11 100.12 100.12 100.12 100.12 100.13 100.13 100.13 100.14 100.14 100.14 100.14 100.14 100.15 100.15 100.15 100.16 100.16 100.16 100.16 100.17 100.17 100.17 100.17 100.17 100.18 100.18 100.18 100.19 100.19 100.19 100.19 100.19 100.20 100.20 100.20 100.20 100.21 100.21 100.21 100.22 100.22 100.22 100.22 100.22 100.23 100.23 100.23 100.23 100.24 100.24 100.24 100.25 100.25 100.25 100.25 100.25 100.26 100.26 100.26 100.27 100.27 100.27 100.27 100.28 100.28 100.28 100.28 100.28 100.29 100.29 100.29 100.30 100.30 100.30 100.30 100.31 100.31 100.31 100.31 100.31 100.32 100.32 100.32 100.33 100.33 100.33 100.33 100.33 100.34 100.34 100.34 100.34 100.35 100.35 100.35 100.36 100.36 100.36 100.36 100.36 100.37 100.37 100.37 100.38 100.38 100.38 100.38 100.39 100.39 100.39 100.39 100.39 100.40 100.40 100.40 100.41 100.41 100.41 100.41 100.42 100.42 100.42 100.42 100.42 100.43 100.43 100.43 100.44 100.44 100.44 100.44 100.44 100.45 100.45 100.45 100.45 100.46 100.46 100.46 100.47 100.47 100.47 100.47 100.47 100.48 100.48 100.48 100.48 100.49 100.49 100.49 100.50 100.50 100.50 100.50 100.50 100.51
100.01 100.01 100.01 100.02 100.02 100.02 100.02 100.03 100.03 100.03 100.03 100.03 100.04 100.04 100.04 100.05 100.05 100.05 100.05 100.06 100.06 100.06 100.06 100.06 100.07 100.07 100.07 100.08 100.08 100.08 100.08 100.08 100.09 100.09 100.09 100.09 100.10 100.10 100.10 100.11 100.11 100.11 100.11 100.11 100.12 100.12 100.12 100.12 100.13 100.13 100.13 100.14 100.14 100.14 100.14 100.14 100.15 100.15 100.15 100.16 100.16 100.16 100.16 100.17 100.17 100.17 100.17 100.17 100.18 100.18 100.18 100.19 100.19 100.19 100.19 100.19 100.20 100.20 100.20 100.20 100.21 100.21 100.21 100.22 100.22 100.22 100.22 100.22 100.23 100.23 100.23 100.23 100.24 100.24 100.24 100.25 100.25 100.25 100.25 100.25 100.26 100.26 100.26 100.27 100.27 100.27 100.27 100.28 100.28 100.28 100.28 100.28 100.29 100.29 100.29 100.30 100.30 100.30 100.30 100.31 100.31 100.31 100.31 100.31 100.32 100.32 100.32 100.33 100.33 100.33 100.33 100.33 100.34 100.34 100.34 100.34 100.35 100.35 100.35 100.36 100.36 100.36 100.36 100.36 100.37 100.37 100.37 100.38 100.38 100.38 100.38 100.39 100.39 100.39 100.39 100.39 100.40 100.40 100.40 100.41 100.41 100.41 100.41 100.42 100.42 100.42 100.42 100.42 100.43 100.43 100.43 100.44 100.44 100.44 100.44 100.44 100.45 100.45 100.45 100.45 100.46 100.46 100.46 100.47 100.47 100.47 100.47 100.47 100.48 100.48 100.48 100.48 100.49 100.49 100.49 100.50 100.50 100.50 100.50 100.50
100.00 100.01 100.01 100.01 100.02 100.02 100.02 100.02 100.03 100.03 100.03 100.03 100.03 100.04 100.04 100.04 100.05 100.05 100.05 100.05 100.06 100.06 100.06 100.06 100.06 100.07 100.07 100.07 100.08 100.08 100.08 100.08 100.08 100.09 100.09 100.09 100.09 100.10 100.10 100.10 100.11 100.11 100.11 100.11 100.11 100.12 100.12 100.12 100.12 100.13 100.13 100.13 100.14 100.14 100.14 100.14 100.14 100.15 100.15 100.15 100.16 100.16 100.16 100.16 100.17 100.17 100.17 100.17 100.17 100.18 100.18 100.18 100.19 100.19 100.19 100.19 100.19 100.20 100.20 100.20 100.20 100.21 100.21 100.21 100.22 100.22 100.22 100.22 100.22 100.23 100.23 100.23 100.23 100.24 100.24 100.24 100.25 100.25 100.25 100.25 100.25 100.26 100.26 100.26 100.27 100.27 100.27 100.27 100.28 100.28 100.28 100.28 100.28 100.29 100.29 100.29 100.30 100.30 100.30 100.30 100.31 100.31 100.31 100.31 100.31 100.32 100.32 100.32 100.33 100.33 100.33 100.33 100.33 100.34 100.34 100.34 100.34 100.35 100.35 100.35 100.36 100.36 100.36 100.36 100.36 100.37 100.37 100.37 100.38 100.38 100.38 100.38 100.39 100.39 100.39 100.39 100.39 100.40 100.40 100.40 100.41 100.41 100.41 100.41 100.42 100.42 100.42 100.42 100.42 100.43 100.43 100.43 100.44 100.44 100.44 100.44 100.44 100.45 100.45 100.45 100.45 100.46 100.46 100.46 100.47 100.47 100.47 100.47 100.47 100.48 100.48 100.48 100.48 100.49 100.49 100.49 100.50 100.50 100.50 100.50
100.00 100.00 100.01 100.01 100.01 100.02 100.02 100.02 100.02 100.03 100.03 100.03 100.03 100.03 100.04 100.04 100.04 100.05 100.05 100.05 100.05 100.06 100.06 100.06 100.06 100.06 100.07 100.07 100.07 100.08 100.08 100.08 100.08 100.08 100.09 100.09 100.09 100.09 100.10 100.10 100.10 100.11 100.11 100.11 100.11 100.11 100.12 100.12 100.12 100.12 100.13 100.13 100.13 100.14 100.14 100.14 100.14 100.14 100.15 100.15 100.15 100.16 100.16 100.16 100.16 100.17 100.17 100.17 100.17 100.17 100.18 100.18 100.18 100.19 100.19 100.19 100.19 100.19 100.20 100.20 100.20 100.20 100.21 100.21 100.21 100.22 100.22 100.22 100.22 100.22 100.23 100.23 100.23 100.23 100.24 100.24 100.24 100.25 100.25 100.25 100.25 100.25 100.26 100.26 100.26 100.27 100.27 100.27 100.27 100.28 100.28 100.28 100.28 100.28 100.29 100.29 100.29 100.30 100.30 100.30 100.30 100.31 100.31 100.31 100.31 100.31 100.32 100.32 100.32 100.33 100.33 100.33 100.33 100.33 100.34 100.34 100.34 100.34 100.35 100.35 100.35 100.36 100.36 100.36 100.36 100.36 100.37 100.37 100.37 100.38 100.38 100.38 100.38 100.39 100.39 100.39 100.39 100.39 100.40 100.40 100.40 100.41 100.41 100.41 100.41 100.42 100.42 100.42 100.42 100.42 100.43 100.43 100.43 100.44 100.44 100.44 100.44 100.44 100.45 100.45 100.45 100.45 100.46 100.46 100.46 100.47 100.47 100.47 100.47 100.47 100.48 100.48 100.48 100.48 100.49 100.49 100.49 100.50 100.50 100.50
100.00 100.00 100.00 100.01 100.01 100.01 100.02 100.02 100.02 100.02 100.03 100.03 100.03 100.03 100.03 100.04 100.04 100.04 100.05 100.05 100.05 100.05 100.06 100.06 100.06 100.06 100.06 100.07 100.07 100.07 100.08 100.08 100.08 100.08 100.08 100.09 100.09 100.09 100.09 100.10 100.10 100.10 100.11 100.11 100.11 100.11 100.11 100.12 100.12 100.12 100.12 100.13 100.13 100.13 100.14 100.14 100.14 100.14 100.14 100.15 100.15 100.15 100.16 100.16 100.16 100.16 100.17 100.17 100.17 100.17 100.17 100.18 100.18 100.18 100.19 100.19 100.19 100.19 100.19 100.20 100.20 100.20 100.20 100.21 100.21 100.21 100.22 100.22 100.22 100.22 100.22 100.23 100.23 100.23 100.23 100.24 100.24 100.24 100.25 100.25 100.25 100.25 100.25 100.26 100.26 100.26 100.27 100.27 100.27 100.27 100.28 100.28 100.28 100.28 100.28 100.29 100.29 100.29 100.30 100.30 100.30 100.30 100.31 100.31 100.31 100.31 100.31 100.32 100.32 100.32 100.33 100.33 100.33 100.33 100.33 100.34 100.34 100.34 100.34 100.35 100.35 100.35 100.36 100.36 100.36 100.36 100.36 100.37 100.37 100.37 100.38 100.38 100.38 100.38 100.39 100.39 100.39 100.39 100.39 100.40 100.40 100.40 100.41 100.41 100.41 100.41 100.42 100.42 100.42 100.42 100.42 100.43 100.43 100.43 100.44 100.44 100.44 100.44 100.44 100.45 100.45 100.45 100.45 100.46 100.46 100.46 100.47 100.47 100.47 100.47 100.47 100.48 100.48 100.48 100.48 100.49 100.49 100.49 100.50 100.50
