ncols         400
nrows         200
xllcorner     0.0
yllcorner     0.0
cellsize      5.0
NODATA_value  -9999
79.25 79.20 79.15 79.10 79.05 79.00 78.95 78.90 78.85 78.80 78.75 78.70 78.65 78.60 78.55 78.50 78.45 78.40 78.35 78.30 78.25 78.20 78.15 78.10 78.05 78.00 77.95 77.90 77.85 77.80 77.75 77.70 77.65 77.60 77.55 77.50 77.45 77.40 77.35 77.30 77.25 77.20 77.15 77.10 77.05 77.00 76.95 76.90 76.85 76.80 76.75 76.70 76.65 76.60 76.55 76.50 76.45 76.40 76.35 76.30 76.25 76.20 76.15 76.10 76.05 76.00 75.95 75.90 75.85 75.80 75.75 75.70 75.65 75.60 75.55 75.50 75.45 75.40 75.35 75.30 75.25 75.20 75.15 75.10 75.05 75.00 74.95 74.90 74.85 74.80 74.75 74.70 74.65 74.60 74.55 74.50 74.45 74.40 74.35 74.30 74.25 74.20 74.15 74.10 74.05 74.00 73.95 73.90 73.85 73.80 73.75 73.70 73.65 73.60 73.55 73.50 73.45 73.40 73.35 73.30 73.25 73.20 73.15 73.10 73.05 73.00 72.95 72.90 72.85 72.80 72.75 72.70 72.65 72.60 72.55 72.50 72.45 72.40 72.35 72.30 72.25 72.20 72.15 72.10 72.05 72.00 71.95 71.90 71.85 71.80 71.75 71.70 71.65 71.60 71.55 71.50 71.45 71.40 71.35 71.30 71.25 71.20 71.15 71.10 71.05 71.00 70.95 70.90 70.85 70.80 70.75 70.70 70.65 70.60 70.55 70.50 70.45 70.40 70.35 70.30 70.25 70.20 70.15 70.10 70.05 70.00 69.95 69.90 69.85 69.80 69.75 69.70 69.65 69.60 69.55 69.50 69.45 69.40 69.35 69.30 69.25 69.20 69.15 69.10 69.05 69.00 68.95 68.90 68.85 68.80 68.75 68.70 68.65 68.60 68.55 68.50 68.45 68.40 68.35 68.30 68.25 68.20 68.15 68.10 68.05 68.00 67.95 67.90 67.85 67.80 67.75 67.70 67.65 67.60 67.55 67.50 67.45 67.40 67.35 67.30 67.25 67.20 67.15 67.10 67.05 67.00 66.95 66.90 66.85 66.80 66.75 66.70 66.65 66.60 66.55 66.50 66.45 66.40 66.35 66.30 66.25 66.20 66.15 66.10 66.05 66.00 65.95 65.90 65.85 65.80 65.75 65.70 65.65 65.60 65.55 65.50 65.45 65.40 65.35 65.30 65.25 65.20 65.15 65.10 65.05 65.00 64.95 64.90 64.85 64.80 64.75 64.70 64.65 64.60 64.55 64.50 64.45 64.40 64.35 64.30 64.25 64.20 64.15 64.10 64.05 64.00 63.95 63.90 63.85 63.80 63.75 63.70 63.65 63.60 63.55 63.50 63.45 63.40 63.35 63.30 63.25 63.20 63.15 63.10 63.05 63.00 62.95 62.90 62.85 62.80 62.75 62.70 62.65 62.60 62.55 62.50 62.45 62.40 62.35 62.30 62.25 62.20 62.15 62.10 62.05 62.00 61.95 61.90 61.85 61.80 61.75 61.70 61.65 61.60 61.55 61.50 61.45 61.40 61.35 61.30 61.25 61.20 61.15 61.10 61.05 61.00 60.95 60.90 60.85 60.80 60.75 60.70 60.65 60.60 60.55 60.50 60.45 60.40 60.35 60.30 60.25 60.20 60.15 60.10 60.05 60.00 59.95 59.90 59.85 59.80 59.75 59.70 59.65 59.60 59.55 59.50 59.45 59.40 59.35 59.30
78.50 78.45 78.40 78.35 78.30 78.25 78.20 78.15 78.10 78.05 78.00 77.95 77.90 77.85 77.80 77.75 77.70 77.65 77.60 77.55 77.50 77.45 77.40 77.35 77.30 77.25 77.20 77.15 77.10 77.05 77.00 76.95 76.90 76.85 76.80 76.75 76.70 76.65 76.60 76.55 76.50 76.45 76.40 76.35 76.30 76.25 76.20 76.15 76.10 76.05 76.00 75.95 75.90 75.85 75.80 75.75 75.70 75.65 75.60 75.55 75.50 75.45 75.40 75.35 75.30 75.25 75.20 75.15 75.10 75.05 75.00 74.95 74.90 74.85 74.80 74.75 74.70 74.65 74.60 74.55 74.50 74.45 74.40 74.35 74.30 74.25 74.20 74.15 74.10 74.05 74.00 73.95 73.90 73.85 73.80 73.75 73.70 73.65 73.60 73.55 73.50 73.45 73.40 73.35 73.30 73.25 73.20 73.15 73.10 73.05 73.00 72.95 72.90 72.85 72.80 72.75 72.70 72.65 72.60 72.55 72.50 72.45 72.40 72.35 72.30 72.25 72.20 72.15 72.10 72.05 72.00 71.95 71.90 71.85 71.80 71.75 71.70 71.65 71.60 71.55 71.50 71.45 71.40 71.35 71.30 71.25 71.20 71.15 71.10 71.05 71.00 70.95 70.90 70.85 70.80 70.75 70.70 70.65 70.60 70.55 70.50 70.45 70.40 70.35 70.30 70.25 70.20 70.15 70.10 70.05 70.00 69.95 69.90 69.85 69.80 69.75 69.70 69.65 69.60 69.55 69.50 69.45 69.40 69.35 69.30 69.25 69.20 69.15 69.10 69.05 69.00 68.95 68.90 68.85 68.80 68.75 68.70 68.65 68.60 68.55 68.50 68.45 68.40 68.35 68.30 68.25 68.20 68.15 68.10 68.05 68.00 67.95 67.90 67.85 67.80 67.75 67.70 67.65 67.60 67.55 67.50 67.45 67.40 67.35 67.30 67.25 67.20 67.15 67.10 67.05 67.00 66.95 66.90 66.85 66.80 66.75 66.70 66.65 66.60 66.55 66.50 66.45 66.40 66.35 66.30 66.25 66.20 66.15 66.10 66.05 66.00 65.95 65.90 65.85 65.80 65.75 65.70 65.65 65.60 65.55 65.50 65.45 65.40 65.35 65.30 65.25 65.20 65.15 65.10 65.05 65.00 64.95 64.90 64.85 64.80 64.75 64.70 64.65 64.60 64.55 64.50 64.45 64.40 64.35 64.30 64.25 64.20 64.15 64.10 64.05 64.00 63.95 63.90 63.85 63.80 63.75 63.70 63.65 63.60 63.55 63.50 63.45 63.40 63.35 63.30 63.25 63.20 63.15 63.10 63.05 63.00 62.95 62.90 62.85 62.80 62.75 62.70 62.65 62.60 62.55 62.50 62.45 62.40 62.35 62.30 62.25 62.20 62.15 62.10 62.05 62.00 61.95 61.90 61.85 61.80 61.75 61.70 61.65 61.60 61.55 61.50 61.45 61.40 61.35 61.30 61.25 61.20 61.15 61.10 61.05 61.00 60.95 60.90 60.85 60.80 60.75 60.70 60.65 60.60 60.55 60.50 60.45 60.40 60.35 60.30 60.25 60.20 60.15 60.10 60.05 60.00 59.95 59.90 59.85 59.80 59.75 59.70 59.65 59.60 59.55 59.50 59.45 59.40 59.35 59.30 59.25 59.20 59.15 59.10 59.05 59.00 58.95 58.90 58.85 58.80 58.75 58.70 58.65 58.60 58.55
77.75 77.70 77.65 77.60 77.55 77.50 77.45 77.40 77.35 77.30 77.25 77.20 77.15 77.10 77.05 77.00 76.95 76.90 76.85 76.80 76.75 76.70 76.65 76.60 76.55 76.50 76.45 76.40 76.35 76.30 76.25 76.20 76.15 76.10 76.05 76.00 75.95 75.90 75.85 75.80 75.75 75.70 75.65 75.60 75.55 75.50 75.45 75.40 75.35 75.30 75.25 75.20 75.15 75.10 75.05 75.00 74.95 74.90 74.85 74.80 74.75 74.70 74.65 74.60 74.55 74.50 74.45 74.40 74.35 74.30 74.25 74.20 74.15 74.10 74.05 74.00 73.95 73.90 73.85 73.80 73.75 73.70 73.65 73.60 73.55 73.50 73.45 73.40 73.35 73.30 73.25 73.20 73.15 73.10 73.05 73.00 72.95 72.90 72.85 72.80 72.75 72.70 72.65 72.60 72.55 72.50 72.45 72.40 72.35 72.30 72.25 72.20 72.15 72.10 72.05 72.00 71.95 71.90 71.85 71.80 71.75 71.70 71.65 71.60 71.55 71.50 71.45 71.40 71.35 71.30 71.25 71.20 71.15 71.10 71.05 71.00 70.95 70.90 70.85 70.80 70.75 70.70 70.65 70.60 70.55 70.50 70.45 70.40 70.35 70.30 70.25 70.20 70.15 70.10 70.05 70.00 69.95 69.90 69.85 69.80 69.75 69.70 69.65 69.60 69.55 69.50 69.45 69.40 69.35 69.30 69.25 69.20 69.15 69.10 69.05 69.00 68.95 68.90 68.85 68.80 68.75 68.70 68.65 68.60 68.55 68.50 68.45 68.40 68.35 68.30 68.25 68.20 68.15 68.10 68.05 68.00 67.95 67.90 67.85 67.80 67.75 67.70 67.65 67.60 67.55 67.50 67.45 67.40 67.35 67.30 67.25 67.20 67.15 67.10 67.05 67.00 66.95 66.90 66.85 66.80 66.75 66.70 66.65 66.60 66.55 66.50 66.45 66.40 66.35 66.30 66.25 66.20 66.15 66.10 66.05 66.00 65.95 65.90 65.85 65.80 65.75 65.70 65.65 65.60 65.55 65.50 65.45 65.40 65.35 65.30 65.25 65.20 65.15 65.10 65.05 65.00 64.95 64.90 64.85 64.80 64.75 64.70 64.65 64.60 64.55 64.50 64.45 64.40 64.35 64.30 64.25 64.20 64.15 64.10 64.05 64.00 63.95 63.90 63.85 63.80 63.75 63.70 63.65 63.60 63.55 63.50 63.45 63.40 63.35 63.30 63.25 63.20 63.15 63.10 63.05 63.00 62.95 62.90 62.85 62.80 62.75 62.70 62.65 62.60 62.55 62.50 62.45 62.40 62.35 62.30 62.25 62.20 62.15 62.10 62.05 62.00 61.95 61.90 61.85 61.80 61.75 61.70 61.65 61.60 61.55 61.50 61.45 61.40 61.35 61.30 61.25 61.20 61.15 61.10 61.05 61.00 60.95 60.90 60.85 60.80 60.75 60.70 60.65 60.60 60.55 60.50 60.45 60.40 60.35 60.30 60.25 60.20 60.15 60.10 60.05 60.00 59.95 59.90 59.85 59.80 59.75 59.70 59.65 59.60 59.55 59.50 59.45 59.40 59.35 59.30 59.25 59.20 59.15 59.10 59.05 59.00 58.95 58.90 58.85 58.80 58.75 58.70 58.65 58.60 58.55 58.50 58.45 58.40 58.35 58.30 58.25 58.20 58.15 58.10 58.05 58.00 57.95 57.90 57.85 57.80
77.00 76.95 76.90 76.85 76.80 76.75 76.70 76.65 76.60 76.55 76.50 76.45 76.40 76.35 76.30 76.25 76.20 76.15 76.10 76.05 76.00 75.95 75.90 75.85 75.80 75.75 75.70 75.65 75.60 75.55 75.50 75.45 75.40 75.35 75.30 75.25 75.20 75.15 75.10 75.05 75.00 74.95 74.90 74.85 74.80 74.75 74.70 74.65 74.60 74.55 74.50 74.45 74.40 74.35 74.30 74.25 74.20 74.15 74.10 74.05 74.00 73.95 73.90 73.85 73.80 73.75 73.70 73.65 73.60 73.55 73.50 73.45 73.40 73.35 73.30 73.25 73.20 73.15 73.10 73.05 73.00 72.95 72.90 72.85 72.80 72.75 72.70 72.65 72.60 72.55 72.50 72.45 72.40 72.35 72.30 72.25 72.20 72.15 72.10 72.05 72.00 71.95 71.90 71.85 71.80 71.75 71.70 71.65 71.60 71.55 71.50 71.45 71.40 71.35 71.30 71.25 71.20 71.15 71.10 71.05 71.00 70.95 70.90 70.85 70.80 70.75 70.70 70.65 70.60 70.55 70.50 70.45 70.40 70.35 70.30 70.25 70.20 70.15 70.10 70.05 70.00 69.95 69.90 69.85 69.80 69.75 69.70 69.65 69.60 69.55 69.50 69.45 69.40 69.35 69.30 69.25 69.20 69.15 69.10 69.05 69.00 68.95 68.90 68.85 68.80 68.75 68.70 68.65 68.60 68.55 68.50 68.45 68.40 68.35 68.30 68.25 68.20 68.15 68.10 68.05 68.00 67.95 67.90 67.85 67.80 67.75 67.70 67.65 67.60 67.55 67.50 67.45 67.40 67.35 67.30 67.25 67.20 67.15 67.10 67.05 67.00 66.95 66.90 66.85 66.80 66.75 66.70 66.65 66.60 66.55 66.50 66.45 66.40 66.35 66.30 66.25 66.20 66.15 66.10 66.05 66.00 65.95 65.90 65.85 65.80 65.75 65.70 65.65 65.60 65.55 65.50 65.45 65.40 65.35 65.30 65.25 65.20 65.15 65.10 65.05 65.00 64.95 64.90 64.85 64.80 64.75 64.70 64.65 64.60 64.55 64.50 64.45 64.40 64.35 64.30 64.25 64.20 64.15 64.10 64.05 64.00 63.95 63.90 63.85 63.80 63.75 63.70 63.65 63.60 63.55 63.50 63.45 63.40 63.35 63.30 63.25 63.20 63.15 63.10 63.05 63.00 62.95 62.90 62.85 62.80 62.75 62.70 62.65 62.60 62.55 62.50 62.45 62.40 62.35 62.30 62.25 62.20 62.15 62.10 62.05 62.00 61.95 61.90 61.85 61.80 61.75 61.70 61.65 61.60 61.55 61.50 61.45 61.40 61.35 61.30 61.25 61.20 61.15 61.10 61.05 61.00 60.95 60.90 60.85 60.80 60.75 60.70 60.65 60.60 60.55 60.50 60.45 60.40 60.35 60.30 60.25 60.20 60.15 60.10 60.05 60.00 59.95 59.90 59.85 59.80 59.75 59.70 59.65 59.60 59.55 59.50 59.45 59.40 59.35 59.30 59.25 59.20 59.15 59.10 59.05 59.00 58.95 58.90 58.85 58.80 58.75 58.70 58.65 58.60 58.55 58.50 58.45 58.40 58.35 58.30 58.25 58.20 58.15 58.10 58.05 58.00 57.95 57.90 57.85 57.80 57.75 57.70 57.65 57.60 57.55 57.50 57.45 57.40 57.35 57.30 57.25 57.20 57.15 57.10 57.05
76.25 76.20 76.15 76.10 76.05 76.00 75.95 75.90 75.85 75.80 75.75 75.70 75.65 75.60 75.55 75.50 75.45 75.40 75.35 75.30 75.25 75.20 75.15 75.10 75.05 75.00 74.95 74.90 74.85 74.80 74.75 74.70 74.65 74.60 74.55 74.50 74.45 74.40 74.35 74.30 74.25 74.20 74.15 74.10 74.05 74.00 73.95 73.90 73.85 73.80 73.75 73.70 73.65 73.60 73.55 73.50 73.45 73.40 73.35 73.30 73.25 73.20 73.15 73.10 73.05 73.00 72.95 72.90 72.85 72.80 72.75 72.70 72.65 72.60 72.55 72.50 72.45 72.40 72.35 72.30 72.25 72.20 72.15 72.10 72.05 72.00 71.95 71.90 71.85 71.80 71.75 71.70 71.65 71.60 71.55 71.50 71.45 71.40 71.35 71.30 71.25 71.20 71.15 71.10 71.05 71.00 70.95 70.90 70.85 70.80 70.75 70.70 70.65 70.60 70.55 70.50 70.45 70.40 70.35 70.30 70.25 70.20 70.15 70.10 70.05 70.00 69.95 69.90 69.85 69.80 69.75 69.70 69.65 69.60 69.55 69.50 69.45 69.40 69.35 69.30 69.25 69.20 69.15 69.10 69.05 69.00 68.95 68.90 68.85 68.80 68.75 68.70 68.65 68.60 68.55 68.50 68.45 68.40 68.35 68.30 68.25 68.20 68.15 68.10 68.05 68.00 67.95 67.90 67.85 67.80 67.75 67.70 67.65 67.60 67.55 67.50 67.45 67.40 67.35 67.30 67.25 67.20 67.15 67.10 67.05 67.00 66.95 66.90 66.85 66.80 66.75 66.70 66.65 66.60 66.55 66.50 66.45 66.40 66.35 66.30 66.25 66.20 66.15 66.10 66.05 66.00 65.95 65.90 65.85 65.80 65.75 65.70 65.65 65.60 65.55 65.50 65.45 65.40 65.35 65.30 65.25 65.20 65.15 65.10 65.05 65.00 64.95 64.90 64.85 64.80 64.75 64.70 64.65 64.60 64.55 64.50 64.45 64.40 64.35 64.30 64.25 64.20 64.15 64.10 64.05 64.00 63.95 63.90 63.85 63.80 63.75 63.70 63.65 63.60 63.55 63.50 63.45 63.40 63.35 63.30 63.25 63.20 63.15 63.10 63.05 63.00 62.95 62.90 62.85 62.80 62.75 62.70 62.65 62.60 62.55 62.50 62.45 62.40 62.35 62.30 62.25 62.20 62.15 62.10 62.05 62.00 61.95 61.90 61.85 61.80 61.75 61.70 61.65 61.60 61.55 61.50 61.45 61.40 61.35 61.30 61.25 61.20 61.15 61.10 61.05 61.00 60.95 60.90 60.85 60.80 60.75 60.70 60.65 60.60 60.55 60.50 60.45 60.40 60.35 60.30 60.25 60.20 60.15 60.10 60.05 60.00 59.95 59.90 59.85 59.80 59.75 59.70 59.65 59.60 59.55 59.50 59.45 59.40 59.35 59.30 59.25 59.20 59.15 59.10 59.05 59.00 58.95 58.90 58.85 58.80 58.75 58.70 58.65 58.60 58.55 58.50 58.45 58.40 58.35 58.30 58.25 58.20 58.15 58.10 58.05 58.00 57.95 57.90 57.85 57.80 57.75 57.70 57.65 57.60 57.55 57.50 57.45 57.40 57.35 57.30 57.25 57.20 57.15 57.10 57.05 57.00 56.95 56.90 56.85 56.80 56.75 56.70 56.65 56.60 56.55 56.50 56.45 56.40 56.35 56.30
75.50 75.45 75.40 75.35 75.30 75.25 75.20 75.15 75.10 75.05 75.00 74.95 74.90 74.85 74.80 74.75 74.70 74.65 74.60 74.55 74.50 74.45 74.40 74.35 74.30 74.25 74.20 74.15 74.10 74.05 74.00 73.95 73.90 73.85 73.80 73.75 73.70 73.65 73.60 73.55 73.50 73.45 73.40 73.35 73.30 73.25 73.20 73.15 73.10 73.05 73.00 72.95 72.90 72.85 72.80 72.75 72.70 72.65 72.60 72.55 72.50 72.45 72.40 72.35 72.30 72.25 72.20 72.15 72.10 72.05 72.00 71.95 71.90 71.85 71.80 71.75 71.70 71.65 71.60 71.55 71.50 71.45 71.40 71.35 71.30 71.25 71.20 71.15 71.10 71.05 71.00 70.95 70.90 70.85 70.80 70.75 70.70 70.65 70.60 70.55 70.50 70.45 70.40 70.35 70.30 70.25 70.20 70.15 70.10 70.05 70.00 69.95 69.90 69.85 69.80 69.75 69.70 69.65 69.60 69.55 69.50 69.45 69.40 69.35 69.30 69.25 69.20 69.15 69.10 69.05 69.00 68.95 68.90 68.85 68.80 68.75 68.70 68.65 68.60 68.55 68.50 68.45 68.40 68.35 68.30 68.25 68.20 68.15 68.10 68.05 68.00 67.95 67.90 67.85 67.80 67.75 67.70 67.65 67.60 67.55 67.50 67.45 67.40 67.35 67.30 67.25 67.20 67.15 67.10 67.05 67.00 66.95 66.90 66.85 66.80 66.75 66.70 66.65 66.60 66.55 66.50 66.45 66.40 66.35 66.30 66.25 66.20 66.15 66.10 66.05 66.00 65.95 65.90 65.85 65.80 65.75 65.70 65.65 65.60 65.55 65.50 65.45 65.40 65.35 65.30 65.25 65.20 65.15 65.10 65.05 65.00 64.95 64.90 64.85 64.80 64.75 64.70 64.65 64.60 64.55 64.50 64.45 64.40 64.35 64.30 64.25 64.20 64.15 64.10 64.05 64.00 63.95 63.90 63.85 63.80 63.75 63.70 63.65 63.60 63.55 63.50 63.45 63.40 63.35 63.30 63.25 63.20 63.15 63.10 63.05 63.00 62.95 62.90 62.85 62.80 62.75 62.70 62.65 62.60 62.55 62.50 62.45 62.40 62.35 62.30 62.25 62.20 62.15 62.10 62.05 62.00 61.95 61.90 61.85 61.80 61.75 61.70 61.65 61.60 61.55 61.50 61.45 61.40 61.35 61.30 61.25 61.20 61.15 61.10 61.05 61.00 60.95 60.90 60.85 60.80 60.75 60.70 60.65 60.60 60.55 60.50 60.45 60.40 60.35 60.30 60.25 60.20 60.15 60.10 60.05 60.00 59.95 59.90 59.85 59.80 59.75 59.70 59.65 59.60 59.55 59.50 59.45 59.40 59.35 59.30 59.25 59.20 59.15 59.10 59.05 59.00 58.95 58.90 58.85 58.80 58.75 58.70 58.65 58.60 58.55 58.50 58.45 58.40 58.35 58.30 58.25 58.20 58.15 58.10 58.05 58.00 57.95 57.90 57.85 57.80 57.75 57.70 57.65 57.60 57.55 57.50 57.45 57.40 57.35 57.30 57.25 57.20 57.15 57.10 57.05 57.00 56.95 56.90 56.85 56.80 56.75 56.70 56.65 56.60 56.55 56.50 56.45 56.40 56.35 56.30 56.25 56.20 56.15 56.10 56.05 56.00 55.95 55.90 55.85 55.80 55.75 55.70 55.65 55.60 55.55
74.75 74.70 74.65 74.60 74.55 74.50 74.45 74.40 74.35 74.30 74.25 74.20 74.15 74.10 74.05 74.00 73.95 73.90 73.85 73.80 73.75 73.70 73.65 73.60 73.55 73.50 73.45 73.40 73.35 73.30 73.25 73.20 73.15 73.10 73.05 73.00 72.95 72.90 72.85 72.80 72.75 72.70 72.65 72.60 72.55 72.50 72.45 72.40 72.35 72.30 72.25 72.20 72.15 72.10 72.05 72.00 71.95 71.90 71.85 71.80 71.75 71.70 71.65 71.60 71.55 71.50 71.45 71.40 71.35 71.30 71.25 71.20 71.15 71.10 71.05 71.00 70.95 70.90 70.85 70.80 70.75 70.70 70.65 70.60 70.55 70.50 70.45 70.40 70.35 70.30 70.25 70.20 70.15 70.10 70.05 70.00 69.95 69.90 69.85 69.80 69.75 69.70 69.65 69.60 69.55 69.50 69.45 69.40 69.35 69.30 69.25 69.20 69.15 69.10 69.05 69.00 68.95 68.90 68.85 68.80 68.75 68.70 68.65 68.60 68.55 68.50 68.45 68.40 68.35 68.30 68.25 68.20 68.15 68.10 68.05 68.00 67.95 67.90 67.85 67.80 67.75 67.70 67.65 67.60 67.55 67.50 67.45 67.40 67.35 67.30 67.25 67.20 67.15 67.10 67.05 67.00 66.95 66.90 66.85 66.80 66.75 66.70 66.65 66.60 66.55 66.50 66.45 66.40 66.35 66.30 66.25 66.20 66.15 66.10 66.05 66.00 65.95 65.90 65.85 65.80 65.75 65.70 65.65 65.60 65.55 65.50 65.45 65.40 65.35 65.30 65.25 65.20 65.15 65.10 65.05 65.00 64.95 64.90 64.85 64.80 64.75 64.70 64.65 64.60 64.55 64.50 64.45 64.40 64.35 64.30 64.25 64.20 64.15 64.10 64.05 64.00 63.95 63.90 63.85 63.80 63.75 63.70 63.65 63.60 63.55 63.50 63.45 63.40 63.35 63.30 63.25 63.20 63.15 63.10 63.05 63.00 62.95 62.90 62.85 62.80 62.75 62.70 62.65 62.60 62.55 62.50 62.45 62.40 62.35 62.30 62.25 62.20 62.15 62.10 62.05 62.00 61.95 61.90 61.85 61.80 61.75 61.70 61.65 61.60 61.55 61.50 61.45 61.40 61.35 61.30 61.25 61.20 61.15 61.10 61.05 61.00 60.95 60.90 60.85 60.80 60.75 60.70 60.65 60.60 60.55 60.50 60.45 60.40 60.35 60.30 60.25 60.20 60.15 60.10 60.05 60.00 59.95 59.90 59.85 59.80 59.75 59.70 59.65 59.60 59.55 59.50 59.45 59.40 59.35 59.30 59.25 59.20 59.15 59.10 59.05 59.00 58.95 58.90 58.85 58.80 58.75 58.70 58.65 58.60 58.55 58.50 58.45 58.40 58.35 58.30 58.25 58.20 58.15 58.10 58.05 58.00 57.95 57.90 57.85 57.80 57.75 57.70 57.65 57.60 57.55 57.50 57.45 57.40 57.35 57.30 57.25 57.20 57.15 57.10 57.05 57.00 56.95 56.90 56.85 56.80 56.75 56.70 56.65 56.60 56.55 56.50 56.45 56.40 56.35 56.30 56.25 56.20 56.15 56.10 56.05 56.00 55.95 55.90 55.85 55.80 55.75 55.70 55.65 55.60 55.55 55.50 55.45 55.40 55.35 55.30 55.25 55.20 55.15 55.10 55.05 55.00 54.95 54.90 54.85 54.80
74.00 73.95 73.90 73.85 73.80 73.75 73.70 73.65 73.60 73.55 73.50 73.45 73.40 73.35 73.30 73.25 73.20 73.15 73.10 73.05 73.00 72.95 72.90 72.85 72.80 72.75 72.70 72.65 72.60 72.55 72.50 72.45 72.40 72.35 72.30 72.25 72.20 72.15 72.10 72.05 72.00 71.95 71.90 71.85 71.80 71.75 71.70 71.65 71.60 71.55 71.50 71.45 71.40 71.35 71.30 71.25 71.20 71.15 71.10 71.05 71.00 70.95 70.90 70.85 70.80 70.75 70.70 70.65 70.60 70.55 70.50 70.45 70.40 70.35 70.30 70.25 70.20 70.15 70.10 70.05 70.00 69.95 69.90 69.85 69.80 69.75 69.70 69.65 69.60 69.55 69.50 69.45 69.40 69.35 69.30 69.25 69.20 69.15 69.10 69.05 69.00 68.95 68.90 68.85 68.80 68.75 68.70 68.65 68.60 68.55 68.50 68.45 68.40 68.35 68.30 68.25 68.20 68.15 68.10 68.05 68.00 67.95 67.90 67.85 67.80 67.75 67.70 67.65 67.60 67.55 67.50 67.45 67.40 67.35 67.30 67.25 67.20 67.15 67.10 67.05 67.00 66.95 66.90 66.85 66.80 66.75 66.70 66.65 66.60 66.55 66.50 66.45 66.40 66.35 66.30 66.25 66.20 66.15 66.10 66.05 66.00 65.95 65.90 65.85 65.80 65.75 65.70 65.65 65.60 65.55 65.50 65.45 65.40 65.35 65.30 65.25 65.20 65.15 65.10 65.05 65.00 64.95 64.90 64.85 64.80 64.75 64.70 64.65 64.60 64.55 64.50 64.45 64.40 64.35 64.30 64.25 64.20 64.15 64.10 64.05 64.00 63.95 63.90 63.85 63.80 63.75 63.70 63.65 63.60 63.55 63.50 63.45 63.40 63.35 63.30 63.25 63.20 63.15 63.10 63.05 63.00 62.95 62.90 62.85 62.80 62.75 62.70 62.65 62.60 62.55 62.50 62.45 62.40 62.35 62.30 62.25 62.20 62.15 62.10 62.05 62.00 61.95 61.90 61.85 61.80 61.75 61.70 61.65 61.60 61.55 61.50 61.45 61.40 61.35 61.30 61.25 61.20 61.15 61.10 61.05 61.00 60.95 60.90 60.85 60.80 60.75 60.70 60.65 60.60 60.55 60.50 60.45 60.40 60.35 60.30 60.25 60.20 60.15 60.10 60.05 60.00 59.95 59.90 59.85 59.80 59.75 59.70 59.65 59.60 59.55 59.50 59.45 59.40 59.35 59.30 59.25 59.20 59.15 59.10 59.05 59.00 58.95 58.90 58.85 58.80 58.75 58.70 58.65 58.60 58.55 58.50 58.45 58.40 58.35 58.30 58.25 58.20 58.15 58.10 58.05 58.00 57.95 57.90 57.85 57.80 57.75 57.70 57.65 57.60 57.55 57.50 57.45 57.40 57.35 57.30 57.25 57.20 57.15 57.10 57.05 57.00 56.95 56.90 56.85 56.80 56.75 56.70 56.65 56.60 56.55 56.50 56.45 56.40 56.35 56.30 56.25 56.20 56.15 56.10 56.05 56.00 55.95 55.90 55.85 55.80 55.75 55.70 55.65 55.60 55.55 55.50 55.45 55.40 55.35 55.30 55.25 55.20 55.15 55.10 55.05 55.00 54.95 54.90 54.85 54.80 54.75 54.70 54.65 54.60 54.55 54.50 54.45 54.40 54.35 54.30 54.25 54.20 54.15 54.10 54.05
73.25 73.20 73.15 73.10 73.05 73.00 72.95 72.90 72.85 72.80 72.75 72.70 72.65 72.60 72.55 72.50 72.45 72.40 72.35 72.30 72.25 72.20 72.15 72.10 72.05 72.00 71.95 71.90 71.85 71.80 71.75 71.70 71.65 71.60 71.55 71.50 71.45 71.40 71.35 71.30 71.25 71.20 71.15 71.10 71.05 71.00 70.95 70.90 70.85 70.80 70.75 70.70 70.65 70.60 70.55 70.50 70.45 70.40 70.35 70.30 70.25 70.20 70.15 70.10 70.05 70.00 69.95 69.90 69.85 69.80 69.75 69.70 69.65 69.60 69.55 69.50 69.45 69.40 69.35 69.30 69.25 69.20 69.15 69.10 69.05 69.00 68.95 68.90 68.85 68.80 68.75 68.70 68.65 68.60 68.55 68.50 68.45 68.40 68.35 68.30 68.25 68.20 68.15 68.10 68.05 68.00 67.95 67.90 67.85 67.80 67.75 67.70 67.65 67.60 67.55 67.50 67.45 67.40 67.35 67.30 67.25 67.20 67.15 67.10 67.05 67.00 66.95 66.90 66.85 66.80 66.75 66.70 66.65 66.60 66.55 66.50 66.45 66.40 66.35 66.30 66.25 66.20 66.15 66.10 66.05 66.00 65.95 65.90 65.85 65.80 65.75 65.70 65.65 65.60 65.55 65.50 65.45 65.40 65.35 65.30 65.25 65.20 65.15 65.10 65.05 65.00 64.95 64.90 64.85 64.80 64.75 64.70 64.65 64.60 64.55 64.50 64.45 64.40 64.35 64.30 64.25 64.20 64.15 64.10 64.05 64.00 63.95 63.90 63.85 63.80 63.75 63.70 63.65 63.60 63.55 63.50 63.45 63.40 63.35 63.30 63.25 63.20 63.15 63.10 63.05 63.00 62.95 62.90 62.85 62.80 62.75 62.70 62.65 62.60 62.55 62.50 62.45 62.40 62.35 62.30 62.25 62.20 62.15 62.10 62.05 62.00 61.95 61.90 61.85 61.80 61.75 61.70 61.65 61.60 61.55 61.50 61.45 61.40 61.35 61.30 61.25 61.20 61.15 61.10 61.05 61.00 60.95 60.90 60.85 60.80 60.75 60.70 60.65 60.60 60.55 60.50 60.45 60.40 60.35 60.30 60.25 60.20 60.15 60.10 60.05 60.00 59.95 59.90 59.85 59.80 59.75 59.70 59.65 59.60 59.55 59.50 59.45 59.40 59.35 59.30 59.25 59.20 59.15 59.10 59.05 59.00 58.95 58.90 58.85 58.80 58.75 58.70 58.65 58.60 58.55 58.50 58.45 58.40 58.35 58.30 58.25 58.20 58.15 58.10 58.05 58.00 57.95 57.90 57.85 57.80 57.75 57.70 57.65 57.60 57.55 57.50 57.45 57.40 57.35 57.30 57.25 57.20 57.15 57.10 57.05 57.00 56.95 56.90 56.85 56.80 56.75 56.70 56.65 56.60 56.55 56.50 56.45 56.40 56.35 56.30 56.25 56.20 56.15 56.10 56.05 56.00 55.95 55.90 55.85 55.80 55.75 55.70 55.65 55.60 55.55 55.50 55.45 55.40 55.35 55.30 55.25 55.20 55.15 55.10 55.05 55.00 54.95 54.90 54.85 54.80 54.75 54.70 54.65 54.60 54.55 54.50 54.45 54.40 54.35 54.30 54.25 54.20 54.15 54.10 54.05 54.00 53.95 53.90 53.85 53.80 53.75 53.70 53.65 53.60 53.55 53.50 53.45 53.40 53.35 53.30
72.50 72.45 72.40 72.35 72.30 72.25 72.20 72.15 72.10 72.05 72.00 71.95 71.90 71.85 71.80 71.75 71.70 71.65 71.60 71.55 71.50 71.45 71.40 71.35 71.30 71.25 71.20 71.15 71.10 71.05 71.00 70.95 70.90 70.85 70.80 70.75 70.70 70.65 70.60 70.55 70.50 70.45 70.40 70.35 70.30 70.25 70.20 70.15 70.10 70.05 70.00 69.95 69.90 69.85 69.80 69.75 69.70 69.65 69.60 69.55 69.50 69.45 69.40 69.35 69.30 69.25 69.20 69.15 69.10 69.05 69.00 68.95 68.90 68.85 68.80 68.75 68.70 68.65 68.60 68.55 68.50 68.45 68.40 68.35 68.30 68.25 68.20 68.15 68.10 68.05 68.00 67.95 67.90 67.85 67.80 67.75 67.70 67.65 67.60 67.55 67.50 67.45 67.40 67.35 67.30 67.25 67.20 67.15 67.10 67.05 67.00 66.95 66.90 66.85 66.80 66.75 66.70 66.65 66.60 66.55 66.50 66.45 66.40 66.35 66.30 66.25 66.20 66.15 66.10 66.05 66.00 65.95 65.90 65.85 65.80 65.75 65.70 65.65 65.60 65.55 65.50 65.45 65.40 65.35 65.30 65.25 65.20 65.15 65.10 65.05 65.00 64.95 64.90 64.85 64.80 64.75 64.70 64.65 64.60 64.55 64.50 64.45 64.40 64.35 64.30 64.25 64.20 64.15 64.10 64.05 64.00 63.95 63.90 63.85 63.80 63.75 63.70 63.65 63.60 63.55 63.50 63.45 63.40 63.35 63.30 63.25 63.20 63.15 63.10 63.05 63.00 62.95 62.90 62.85 62.80 62.75 62.70 62.65 62.60 62.55 62.50 62.45 62.40 62.35 62.30 62.25 62.20 62.15 62.10 62.05 62.00 61.95 61.90 61.85 61.80 61.75 61.70 61.65 61.60 61.55 61.50 61.45 61.40 61.35 61.30 61.25 61.20 61.15 61.10 61.05 61.00 60.95 60.90 60.85 60.80 60.75 60.70 60.65 60.60 60.55 60.50 60.45 60.40 60.35 60.30 60.25 60.20 60.15 60.10 60.05 60.00 59.95 59.90 59.85 59.80 59.75 59.70 59.65 59.60 59.55 59.50 59.45 59.40 59.35 59.30 59.25 59.20 59.15 59.10 59.05 59.00 58.95 58.90 58.85 58.80 58.75 58.70 58.65 58.60 58.55 58.50 58.45 58.40 58.35 58.30 58.25 58.20 58.15 58.10 58.05 58.00 57.95 57.90 57.85 57.80 57.75 57.70 57.65 57.60 57.55 57.50 57.45 57.40 57.35 57.30 57.25 57.20 57.15 57.10 57.05 57.00 56.95 56.90 56.85 56.80 56.75 56.70 56.65 56.60 56.55 56.50 56.45 56.40 56.35 56.30 56.25 56.20 56.15 56.10 56.05 56.00 55.95 55.90 55.85 55.80 55.75 55.70 55.65 55.60 55.55 55.50 55.45 55.40 55.35 55.30 55.25 55.20 55.15 55.10 55.05 55.00 54.95 54.90 54.85 54.80 54.75 54.70 54.65 54.60 54.55 54.50 54.45 54.40 54.35 54.30 54.25 54.20 54.15 54.10 54.05 54.00 53.95 53.90 53.85 53.80 53.75 53.70 53.65 53.60 53.55 53.50 53.45 53.40 53.35 53.30 53.25 53.20 53.15 53.10 53.05 53.00 52.95 52.90 52.85 52.80 52.75 52.70 52.65 52.60 52.55
71.75 71.70 71.65 71.60 71.55 71.50 71.45 71.40 71.35 71.30 71.25 71.20 71.15 71.10 71.05 71.00 70.95 70.90 70.85 70.80 70.75 70.70 70.65 70.60 70.55 70.50 70.45 70.40 70.35 70.30 70.25 70.20 70.15 70.10 70.05 70.00 69.95 69.90 69.85 69.80 69.75 69.70 69.65 69.60 69.55 69.50 69.45 69.40 69.35 69.30 69.25 69.20 69.15 69.10 69.05 69.00 68.95 68.90 68.85 68.80 68.75 68.70 68.65 68.60 68.55 68.50 68.45 68.40 68.35 68.30 68.25 68.20 68.15 68.10 68.05 68.00 67.95 67.90 67.85 67.80 67.75 67.70 67.65 67.60 67.55 67.50 67.45 67.40 67.35 67.30 67.25 67.20 67.15 67.10 67.05 67.00 66.95 66.90 66.85 66.80 66.75 66.70 66.65 66.60 66.55 66.50 66.45 66.40 66.35 66.30 66.25 66.20 66.15 66.10 66.05 66.00 65.95 65.90 65.85 65.80 65.75 65.70 65.65 65.60 65.55 65.50 65.45 65.40 65.35 65.30 65.25 65.20 65.15 65.10 65.05 65.00 64.95 64.90 64.85 64.80 64.75 64.70 64.65 64.60 64.55 64.50 64.45 64.40 64.35 64.30 64.25 64.20 64.15 64.10 64.05 64.00 63.95 63.90 63.85 63.80 63.75 63.70 63.65 63.60 63.55 63.50 63.45 63.40 63.35 63.30 63.25 63.20 63.15 63.10 63.05 63.00 62.95 62.90 62.85 62.80 62.75 62.70 62.65 62.60 62.55 62.50 62.45 62.40 62.35 62.30 62.25 62.20 62.15 62.10 62.05 62.00 61.95 61.90 61.85 61.80 61.75 61.70 61.65 61.60 61.55 61.50 61.45 61.40 61.35 61.30 61.25 61.20 61.15 61.10 61.05 61.00 60.95 60.90 60.85 60.80 60.75 60.70 60.65 60.60 60.55 60.50 60.45 60.40 60.35 60.30 60.25 60.20 60.15 60.10 60.05 60.00 59.95 59.90 59.85 59.80 59.75 59.70 59.65 59.60 59.55 59.50 59.45 59.40 59.35 59.30 59.25 59.20 59.15 59.10 59.05 59.00 58.95 58.90 58.85 58.80 58.75 58.70 58.65 58.60 58.55 58.50 58.45 58.40 58.35 58.30 58.25 58.20 58.15 58.10 58.05 58.00 57.95 57.90 57.85 57.80 57.75 57.70 57.65 57.60 57.55 57.50 57.45 57.40 57.35 57.30 57.25 57.20 57.15 57.10 57.05 57.00 56.95 56.90 56.85 56.80 56.75 56.70 56.65 56.60 56.55 56.50 56.45 56.40 56.35 56.30 56.25 56.20 56.15 56.10 56.05 56.00 55.95 55.90 55.85 55.80 55.75 55.70 55.65 55.60 55.55 55.50 55.45 55.40 55.35 55.30 55.25 55.20 55.15 55.10 55.05 55.00 54.95 54.90 54.85 54.80 54.75 54.70 54.65 54.60 54.55 54.50 54.45 54.40 54.35 54.30 54.25 54.20 54.15 54.10 54.05 54.00 53.95 53.90 53.85 53.80 53.75 53.70 53.65 53.60 53.55 53.50 53.45 53.40 53.35 53.30 53.25 53.20 53.15 53.10 53.05 53.00 52.95 52.90 52.85 52.80 52.75 52.70 52.65 52.60 52.55 52.50 52.45 52.40 52.35 52.30 52.25 52.20 52.15 52.10 52.05 52.00 51.95 51.90 51.85 51.80
71.00 70.95 70.90 70.85 70.80 70.75 70.70 70.65 70.60 70.55 70.50 70.45 70.40 70.35 70.30 70.25 70.20 70.15 70.10 70.05 70.00 69.95 69.90 69.85 69.80 69.75 69.70 69.65 69.60 69.55 69.50 69.45 69.40 69.35 69.30 69.25 69.20 69.15 69.10 69.05 69.00 68.95 68.90 68.85 68.80 68.75 68.70 68.65 68.60 68.55 68.50 68.45 68.40 68.35 68.30 68.25 68.20 68.15 68.10 68.05 68.00 67.95 67.90 67.85 67.80 67.75 67.70 67.65 67.60 67.55 67.50 67.45 67.40 67.35 67.30 67.25 67.20 67.15 67.10 67.05 67.00 66.95 66.90 66.85 66.80 66.75 66.70 66.65 66.60 66.55 66.50 66.45 66.40 66.35 66.30 66.25 66.20 66.15 66.10 66.05 66.00 65.95 65.90 65.85 65.80 65.75 65.70 65.65 65.60 65.55 65.50 65.45 65.40 65.35 65.30 65.25 65.20 65.15 65.10 65.05 65.00 64.95 64.90 64.85 64.80 64.75 64.70 64.65 64.60 64.55 64.50 64.45 64.40 64.35 64.30 64.25 64.20 64.15 64.10 64.05 64.00 63.95 63.90 63.85 63.80 63.75 63.70 63.65 63.60 63.55 63.50 63.45 63.40 63.35 63.30 63.25 63.20 63.15 63.10 63.05 63.00 62.95 62.90 62.85 62.80 62.75 62.70 62.65 62.60 62.55 62.50 62.45 62.40 62.35 62.30 62.25 62.20 62.15 62.10 62.05 62.00 61.95 61.90 61.85 61.80 61.75 61.70 61.65 61.60 61.55 61.50 61.45 61.40 61.35 61.30 61.25 61.20 61.15 61.10 61.05 61.00 60.95 60.90 60.85 60.80 60.75 60.70 60.65 60.60 60.55 60.50 60.45 60.40 60.35 60.30 60.25 60.20 60.15 60.10 60.05 60.00 59.95 59.90 59.85 59.80 59.75 59.70 59.65 59.60 59.55 59.50 59.45 59.40 59.35 59.30 59.25 59.20 59.15 59.10 59.05 59.00 58.95 58.90 58.85 58.80 58.75 58.70 58.65 58.60 58.55 58.50 58.45 58.40 58.35 58.30 58.25 58.20 58.15 58.10 58.05 58.00 57.95 57.90 57.85 57.80 57.75 57.70 57.65 57.60 57.55 57.50 57.45 57.40 57.35 57.30 57.25 57.20 57.15 57.10 57.05 57.00 56.95 56.90 56.85 56.80 56.75 56.70 56.65 56.60 56.55 56.50 56.45 56.40 56.35 56.30 56.25 56.20 56.15 56.10 56.05 56.00 55.95 55.90 55.85 55.80 55.75 55.70 55.65 55.60 55.55 55.50 55.45 55.40 55.35 55.30 55.25 55.20 55.15 55.10 55.05 55.00 54.95 54.90 54.85 54.80 54.75 54.70 54.65 54.60 54.55 54.50 54.45 54.40 54.35 54.30 54.25 54.20 54.15 54.10 54.05 54.00 53.95 53.90 53.85 53.80 53.75 53.70 53.65 53.60 53.55 53.50 53.45 53.40 53.35 53.30 53.25 53.20 53.15 53.10 53.05 53.00 52.95 52.90 52.85 52.80 52.75 52.70 52.65 52.60 52.55 52.50 52.45 52.40 52.35 52.30 52.25 52.20 52.15 52.10 52.05 52.00 51.95 51.90 51.85 51.80 51.75 51.70 51.65 51.60 51.55 51.50 51.45 51.40 51.35 51.30 51.25 51.20 51.15 51.10 51.05
70.25 70.20 70.15 70.10 70.05 70.00 69.95 69.90 69.85 69.80 69.75 69.70 69.65 69.60 69.55 69.50 69.45 69.40 69.35 69.30 69.25 69.20 69.15 69.10 69.05 69.00 68.95 68.90 68.85 68.80 68.75 68.70 68.65 68.60 68.55 68.50 68.45 68.40 68.35 68.30 68.25 68.20 68.15 68.10 68.05 68.00 67.95 67.90 67.85 67.80 67.75 67.70 67.65 67.60 67.55 67.50 67.45 67.40 67.35 67.30 67.25 67.20 67.15 67.10 67.05 67.00 66.95 66.90 66.85 66.80 66.75 66.70 66.65 66.60 66.55 66.50 66.45 66.40 66.35 66.30 66.25 66.20 66.15 66.10 66.05 66.00 65.95 65.90 65.85 65.80 65.75 65.70 65.65 65.60 65.55 65.50 65.45 65.40 65.35 65.30 65.25 65.20 65.15 65.10 65.05 65.00 64.95 64.90 64.85 64.80 64.75 64.70 64.65 64.60 64.55 64.50 64.45 64.40 64.35 64.30 64.25 64.20 64.15 64.10 64.05 64.00 63.95 63.90 63.85 63.80 63.75 63.70 63.65 63.60 63.55 63.50 63.45 63.40 63.35 63.30 63.25 63.20 63.15 63.10 63.05 63.00 62.95 62.90 62.85 62.80 62.75 62.70 62.65 62.60 62.55 62.50 62.45 62.40 62.35 62.30 62.25 62.20 62.15 62.10 62.05 62.00 61.95 61.90 61.85 61.80 61.75 61.70 61.65 61.60 61.55 61.50 61.45 61.40 61.35 61.30 61.25 61.20 61.15 61.10 61.05 61.00 60.95 60.90 60.85 60.80 60.75 60.70 60.65 60.60 60.55 60.50 60.45 60.40 60.35 60.30 60.25 60.20 60.15 60.10 60.05 60.00 59.95 59.90 59.85 59.80 59.75 59.70 59.65 59.60 59.55 59.50 59.45 59.40 59.35 59.30 59.25 59.20 59.15 59.10 59.05 59.00 58.95 58.90 58.85 58.80 58.75 58.70 58.65 58.60 58.55 58.50 58.45 58.40 58.35 58.30 58.25 58.20 58.15 58.10 58.05 58.00 57.95 57.90 57.85 57.80 57.75 57.70 57.65 57.60 57.55 57.50 57.45 57.40 57.35 57.30 57.25 57.20 57.15 57.10 57.05 57.00 56.95 56.90 56.85 56.80 56.75 56.70 56.65 56.60 56.55 56.50 56.45 56.40 56.35 56.30 56.25 56.20 56.15 56.10 56.05 56.00 55.95 55.90 55.85 55.80 55.75 55.70 55.65 55.60 55.55 55.50 55.45 55.40 55.35 55.30 55.25 55.20 55.15 55.10 55.05 55.00 54.95 54.90 54.85 54.80 54.75 54.70 54.65 54.60 54.55 54.50 54.45 54.40 54.35 54.30 54.25 54.20 54.15 54.10 54.05 54.00 53.95 53.90 53.85 53.80 53.75 53.70 53.65 53.60 53.55 53.50 53.45 53.40 53.35 53.30 53.25 53.20 53.15 53.10 53.05 53.00 52.95 52.90 52.85 52.80 52.75 52.70 52.65 52.60 52.55 52.50 52.45 52.40 52.35 52.30 52.25 52.20 52.15 52.10 52.05 52.00 51.95 51.90 51.85 51.80 51.75 51.70 51.65 51.60 51.55 51.50 51.45 51.40 51.35 51.30 51.25 51.20 51.15 51.10 51.05 51.00 50.95 50.90 50.85 50.80 50.75 50.70 50.65 50.60 50.55 50.50 50.45 50.40 50.35 50.30
69.50 69.45 69.40 69.35 69.30 69.25 69.20 69.15 69.10 69.05 69.00 68.95 68.90 68.85 68.80 68.75 68.70 68.65 68.60 68.55 68.50 68.45 68.40 68.35 68.30 68.25 68.20 68.15 68.10 68.05 68.00 67.95 67.90 67.85 67.80 67.75 67.70 67.65 67.60 67.55 67.50 67.45 67.40 67.35 67.30 67.25 67.20 67.15 67.10 67.05 67.00 66.95 66.90 66.85 66.80 66.75 66.70 66.65 66.60 66.55 66.50 66.45 66.40 66.35 66.30 66.25 66.20 66.15 66.10 66.05 66.00 65.95 65.90 65.85 65.80 65.75 65.70 65.65 65.60 65.55 65.50 65.45 65.40 65.35 65.30 65.25 65.20 65.15 65.10 65.05 65.00 64.95 64.90 64.85 64.80 64.75 64.70 64.65 64.60 64.55 64.50 64.45 64.40 64.35 64.30 64.25 64.20 64.15 64.10 64.05 64.00 63.95 63.90 63.85 63.80 63.75 63.70 63.65 63.60 63.55 63.50 63.45 63.40 63.35 63.30 63.25 63.20 63.15 63.10 63.05 63.00 62.95 62.90 62.85 62.80 62.75 62.70 62.65 62.60 62.55 62.50 62.45 62.40 62.35 62.30 62.25 62.20 62.15 62.10 62.05 62.00 61.95 61.90 61.85 61.80 61.75 61.70 61.65 61.60 61.55 61.50 61.45 61.40 61.35 61.30 61.25 61.20 61.15 61.10 61.05 61.00 60.95 60.90 60.85 60.80 60.75 60.70 60.65 60.60 60.55 60.50 60.45 60.40 60.35 60.30 60.25 60.20 60.15 60.10 60.05 60.00 59.95 59.90 59.85 59.80 59.75 59.70 59.65 59.60 59.55 59.50 59.45 59.40 59.35 59.30 59.25 59.20 59.15 59.10 59.05 59.00 58.95 58.90 58.85 58.80 58.75 58.70 58.65 58.60 58.55 58.50 58.45 58.40 58.35 58.30 58.25 58.20 58.15 58.10 58.05 58.00 57.95 57.90 57.85 57.80 57.75 57.70 57.65 57.60 57.55 57.50 57.45 57.40 57.35 57.30 57.25 57.20 57.15 57.10 57.05 57.00 56.95 56.90 56.85 56.80 56.75 56.70 56.65 56.60 56.55 56.50 56.45 56.40 56.35 56.30 56.25 56.20 56.15 56.10 56.05 56.00 55.95 55.90 55.85 55.80 55.75 55.70 55.65 55.60 55.55 55.50 55.45 55.40 55.35 55.30 55.25 55.20 55.15 55.10 55.05 55.00 54.95 54.90 54.85 54.80 54.75 54.70 54.65 54.60 54.55 54.50 54.45 54.40 54.35 54.30 54.25 54.20 54.15 54.10 54.05 54.00 53.95 53.90 53.85 53.80 53.75 53.70 53.65 53.60 53.55 53.50 53.45 53.40 53.35 53.30 53.25 53.20 53.15 53.10 53.05 53.00 52.95 52.90 52.85 52.80 52.75 52.70 52.65 52.60 52.55 52.50 52.45 52.40 52.35 52.30 52.25 52.20 52.15 52.10 52.05 52.00 51.95 51.90 51.85 51.80 51.75 51.70 51.65 51.60 51.55 51.50 51.45 51.40 51.35 51.30 51.25 51.20 51.15 51.10 51.05 51.00 50.95 50.90 50.85 50.80 50.75 50.70 50.65 50.60 50.55 50.50 50.45 50.40 50.35 50.30 50.25 50.20 50.15 50.10 50.05 50.00 49.95 49.90 49.85 49.80 49.75 49.70 49.65 49.60 49.55
68.75 68.70 68.65 68.60 68.55 68.50 68.45 68.40 68.35 68.30 68.25 68.20 68.15 68.10 68.05 68.00 67.95 67.90 67.85 67.80 67.75 67.70 67.65 67.60 67.55 67.50 67.45 67.40 67.35 67.30 67.25 67.20 67.15 67.10 67.05 67.00 66.95 66.90 66.85 66.80 66.75 66.70 66.65 66.60 66.55 66.50 66.45 66.40 66.35 66.30 66.25 66.20 66.15 66.10 66.05 66.00 65.95 65.90 65.85 65.80 65.75 65.70 65.65 65.60 65.55 65.50 65.45 65.40 65.35 65.30 65.25 65.20 65.15 65.10 65.05 65.00 64.95 64.90 64.85 64.80 64.75 64.70 64.65 64.60 64.55 64.50 64.45 64.40 64.35 64.30 64.25 64.20 64.15 64.10 64.05 64.00 63.95 63.90 63.85 63.80 63.75 63.70 63.65 63.60 63.55 63.50 63.45 63.40 63.35 63.30 63.25 63.20 63.15 63.10 63.05 63.00 62.95 62.90 62.85 62.80 62.75 62.70 62.65 62.60 62.55 62.50 62.45 62.40 62.35 62.30 62.25 62.20 62.15 62.10 62.05 62.00 61.95 61.90 61.85 61.80 61.75 61.70 61.65 61.60 61.55 61.50 61.45 61.40 61.35 61.30 61.25 61.20 61.15 61.10 61.05 61.00 60.95 60.90 60.85 60.80 60.75 60.70 60.65 60.60 60.55 60.50 60.45 60.40 60.35 60.30 60.25 60.20 60.15 60.10 60.05 60.00 59.95 59.90 59.85 59.80 59.75 59.70 59.65 59.60 59.55 59.50 59.45 59.40 59.35 59.30 59.25 59.20 59.15 59.10 59.05 59.00 58.95 58.90 58.85 58.80 58.75 58.70 58.65 58.60 58.55 58.50 58.45 58.40 58.35 58.30 58.25 58.20 58.15 58.10 58.05 58.00 57.95 57.90 57.85 57.80 57.75 57.70 57.65 57.60 57.55 57.50 57.45 57.40 57.35 57.30 57.25 57.20 57.15 57.10 57.05 57.00 56.95 56.90 56.85 56.80 56.75 56.70 56.65 56.60 56.55 56.50 56.45 56.40 56.35 56.30 56.25 56.20 56.15 56.10 56.05 56.00 55.95 55.90 55.85 55.80 55.75 55.70 55.65 55.60 55.55 55.50 55.45 55.40 55.35 55.30 55.25 55.20 55.15 55.10 55.05 55.00 54.95 54.90 54.85 54.80 54.75 54.70 54.65 54.60 54.55 54.50 54.45 54.40 54.35 54.30 54.25 54.20 54.15 54.10 54.05 54.00 53.95 53.90 53.85 53.80 53.75 53.70 53.65 53.60 53.55 53.50 53.45 53.40 53.35 53.30 53.25 53.20 53.15 53.10 53.05 53.00 52.95 52.90 52.85 52.80 52.75 52.70 52.65 52.60 52.55 52.50 52.45 52.40 52.35 52.30 52.25 52.20 52.15 52.10 52.05 52.00 51.95 51.90 51.85 51.80 51.75 51.70 51.65 51.60 51.55 51.50 51.45 51.40 51.35 51.30 51.25 51.20 51.15 51.10 51.05 51.00 50.95 50.90 50.85 50.80 50.75 50.70 50.65 50.60 50.55 50.50 50.45 50.40 50.35 50.30 50.25 50.20 50.15 50.10 50.05 50.00 49.95 49.90 49.85 49.80 49.75 49.70 49.65 49.60 49.55 49.50 49.45 49.40 49.35 49.30 49.25 49.20 49.15 49.10 49.05 49.00 48.95 48.90 48.85 48.80
68.00 67.95 67.90 67.85 67.80 67.75 67.70 67.65 67.60 67.55 67.50 67.45 67.40 67.35 67.30 67.25 67.20 67.15 67.10 67.05 67.00 66.95 66.90 66.85 66.80 66.75 66.70 66.65 66.60 66.55 66.50 66.45 66.40 66.35 66.30 66.25 66.20 66.15 66.10 66.05 66.00 65.95 65.90 65.85 65.80 65.75 65.70 65.65 65.60 65.55 65.50 65.45 65.40 65.35 65.30 65.25 65.20 65.15 65.10 65.05 65.00 64.95 64.90 64.85 64.80 64.75 64.70 64.65 64.60 64.55 64.50 64.45 64.40 64.35 64.30 64.25 64.20 64.15 64.10 64.05 64.00 63.95 63.90 63.85 63.80 63.75 63.70 63.65 63.60 63.55 63.50 63.45 63.40 63.35 63.30 63.25 63.20 63.15 63.10 63.05 63.00 62.95 62.90 62.85 62.80 62.75 62.70 62.65 62.60 62.55 62.50 62.45 62.40 62.35 62.30 62.25 62.20 62.15 62.10 62.05 62.00 61.95 61.90 61.85 61.80 61.75 61.70 61.65 61.60 61.55 61.50 61.45 61.40 61.35 61.30 61.25 61.20 61.15 61.10 61.05 61.00 60.95 60.90 60.85 60.80 60.75 60.70 60.65 60.60 60.55 60.50 60.45 60.40 60.35 60.30 60.25 60.20 60.15 60.10 60.05 60.00 59.95 59.90 59.85 59.80 59.75 59.70 59.65 59.60 59.55 59.50 59.45 59.40 59.35 59.30 59.25 59.20 59.15 59.10 59.05 59.00 58.95 58.90 58.85 58.80 58.75 58.70 58.65 58.60 58.55 58.50 58.45 58.40 58.35 58.30 58.25 58.20 58.15 58.10 58.05 58.00 57.95 57.90 57.85 57.80 57.75 57.70 57.65 57.60 57.55 57.50 57.45 57.40 57.35 57.30 57.25 57.20 57.15 57.10 57.05 57.00 56.95 56.90 56.85 56.80 56.75 56.70 56.65 56.60 56.55 56.50 56.45 56.40 56.35 56.30 56.25 56.20 56.15 56.10 56.05 56.00 55.95 55.90 55.85 55.80 55.75 55.70 55.65 55.60 55.55 55.50 55.45 55.40 55.35 55.30 55.25 55.20 55.15 55.10 55.05 55.00 54.95 54.90 54.85 54.80 54.75 54.70 54.65 54.60 54.55 54.50 54.45 54.40 54.35 54.30 54.25 54.20 54.15 54.10 54.05 54.00 53.95 53.90 53.85 53.80 53.75 53.70 53.65 53.60 53.55 53.50 53.45 53.40 53.35 53.30 53.25 53.20 53.15 53.10 53.05 53.00 52.95 52.90 52.85 52.80 52.75 52.70 52.65 52.60 52.55 52.50 52.45 52.40 52.35 52.30 52.25 52.20 52.15 52.10 52.05 52.00 51.95 51.90 51.85 51.80 51.75 51.70 51.65 51.60 51.55 51.50 51.45 51.40 51.35 51.30 51.25 51.20 51.15 51.10 51.05 51.00 50.95 50.90 50.85 50.80 50.75 50.70 50.65 50.60 50.55 50.50 50.45 50.40 50.35 50.30 50.25 50.20 50.15 50.10 50.05 50.00 49.95 49.90 49.85 49.80 49.75 49.70 49.65 49.60 49.55 49.50 49.45 49.40 49.35 49.30 49.25 49.20 49.15 49.10 49.05 49.00 48.95 48.90 48.85 48.80 48.75 48.70 48.65 48.60 48.55 48.50 48.45 48.40 48.35 48.30 48.25 48.20 48.15 48.10 48.05
67.25 67.20 67.15 67.10 67.05 67.00 66.95 66.90 66.85 66.80 66.75 66.70 66.65 66.60 66.55 66.50 66.45 66.40 66.35 66.30 66.25 66.20 66.15 66.10 66.05 66.00 65.95 65.90 65.85 65.80 65.75 65.70 65.65 65.60 65.55 65.50 65.45 65.40 65.35 65.30 65.25 65.20 65.15 65.10 65.05 65.00 64.95 64.90 64.85 64.80 64.75 64.70 64.65 64.60 64.55 64.50 64.45 64.40 64.35 64.30 64.25 64.20 64.15 64.10 64.05 64.00 63.95 63.90 63.85 63.80 63.75 63.70 63.65 63.60 63.55 63.50 63.45 63.40 63.35 63.30 63.25 63.20 63.15 63.10 63.05 63.00 62.95 62.90 62.85 62.80 62.75 62.70 62.65 62.60 62.55 62.50 62.45 62.40 62.35 62.30 62.25 62.20 62.15 62.10 62.05 62.00 61.95 61.90 61.85 61.80 61.75 61.70 61.65 61.60 61.55 61.50 61.45 61.40 61.35 61.30 61.25 61.20 61.15 61.10 61.05 61.00 60.95 60.90 60.85 60.80 60.75 60.70 60.65 60.60 60.55 60.50 60.45 60.40 60.35 60.30 60.25 60.20 60.15 60.10 60.05 60.00 59.95 59.90 59.85 59.80 59.75 59.70 59.65 59.60 59.55 59.50 59.45 59.40 59.35 59.30 59.25 59.20 59.15 59.10 59.05 59.00 58.95 58.90 58.85 58.80 58.75 58.70 58.65 58.60 58.55 58.50 58.45 58.40 58.35 58.30 58.25 58.20 58.15 58.10 58.05 58.00 57.95 57.90 57.85 57.80 57.75 57.70 57.65 57.60 57.55 57.50 57.45 57.40 57.35 57.30 57.25 57.20 57.15 57.10 57.05 57.00 56.95 56.90 56.85 56.80 56.75 56.70 56.65 56.60 56.55 56.50 56.45 56.40 56.35 56.30 56.25 56.20 56.15 56.10 56.05 56.00 55.95 55.90 55.85 55.80 55.75 55.70 55.65 55.60 55.55 55.50 55.45 55.40 55.35 55.30 55.25 55.20 55.15 55.10 55.05 55.00 54.95 54.90 54.85 54.80 54.75 54.70 54.65 54.60 54.55 54.50 54.45 54.40 54.35 54.30 54.25 54.20 54.15 54.10 54.05 54.00 53.95 53.90 53.85 53.80 53.75 53.70 53.65 53.60 53.55 53.50 53.45 53.40 53.35 53.30 53.25 53.20 53.15 53.10 53.05 53.00 52.95 52.90 52.85 52.80 52.75 52.70 52.65 52.60 52.55 52.50 52.45 52.40 52.35 52.30 52.25 52.20 52.15 52.10 52.05 52.00 51.95 51.90 51.85 51.80 51.75 51.70 51.65 51.60 51.55 51.50 51.45 51.40 51.35 51.30 51.25 51.20 51.15 51.10 51.05 51.00 50.95 50.90 50.85 50.80 50.75 50.70 50.65 50.60 50.55 50.50 50.45 50.40 50.35 50.30 50.25 50.20 50.15 50.10 50.05 50.00 49.95 49.90 49.85 49.80 49.75 49.70 49.65 49.60 49.55 49.50 49.45 49.40 49.35 49.30 49.25 49.20 49.15 49.10 49.05 49.00 48.95 48.90 48.85 48.80 48.75 48.70 48.65 48.60 48.55 48.50 48.45 48.40 48.35 48.30 48.25 48.20 48.15 48.10 48.05 48.00 47.95 47.90 47.85 47.80 47.75 47.70 47.65 47.60 47.55 47.50 47.45 47.40 47.35 47.30
66.50 66.45 66.40 66.35 66.30 66.25 66.20 66.15 66.10 66.05 66.00 65.95 65.90 65.85 65.80 65.75 65.70 65.65 65.60 65.55 65.50 65.45 65.40 65.35 65.30 65.25 65.20 65.15 65.10 65.05 65.00 64.95 64.90 64.85 64.80 64.75 64.70 64.65 64.60 64.55 64.50 64.45 64.40 64.35 64.30 64.25 64.20 64.15 64.10 64.05 64.00 63.95 63.90 63.85 63.80 63.75 63.70 63.65 63.60 63.55 63.50 63.45 63.40 63.35 63.30 63.25 63.20 63.15 63.10 63.05 63.00 62.95 62.90 62.85 62.80 62.75 62.70 62.65 62.60 62.55 62.50 62.45 62.40 62.35 62.30 62.25 62.20 62.15 62.10 62.05 62.00 61.95 61.90 61.85 61.80 61.75 61.70 61.65 61.60 61.55 61.50 61.45 61.40 61.35 61.30 61.25 61.20 61.15 61.10 61.05 61.00 60.95 60.90 60.85 60.80 60.75 60.70 60.65 60.60 60.55 60.50 60.45 60.40 60.35 60.30 60.25 60.20 60.15 60.10 60.05 60.00 59.95 59.90 59.85 59.80 59.75 59.70 59.65 59.60 59.55 59.50 59.45 59.40 59.35 59.30 59.25 59.20 59.15 59.10 59.05 59.00 58.95 58.90 58.85 58.80 58.75 58.70 58.65 58.60 58.55 58.50 58.45 58.40 58.35 58.30 58.25 58.20 58.15 58.10 58.05 58.00 57.95 57.90 57.85 57.80 57.75 57.70 57.65 57.60 57.55 57.50 57.45 57.40 57.35 57.30 57.25 57.20 57.15 57.10 57.05 57.00 56.95 56.90 56.85 56.80 56.75 56.70 56.65 56.60 56.55 56.50 56.45 56.40 56.35 56.30 56.25 56.20 56.15 56.10 56.05 56.00 55.95 55.90 55.85 55.80 55.75 55.70 55.65 55.60 55.55 55.50 55.45 55.40 55.35 55.30 55.25 55.20 55.15 55.10 55.05 55.00 54.95 54.90 54.85 54.80 54.75 54.70 54.65 54.60 54.55 54.50 54.45 54.40 54.35 54.30 54.25 54.20 54.15 54.10 54.05 54.00 53.95 53.90 53.85 53.80 53.75 53.70 53.65 53.60 53.55 53.50 53.45 53.40 53.35 53.30 53.25 53.20 53.15 53.10 53.05 53.00 52.95 52.90 52.85 52.80 52.75 52.70 52.65 52.60 52.55 52.50 52.45 52.40 52.35 52.30 52.25 52.20 52.15 52.10 52.05 52.00 51.95 51.90 51.85 51.80 51.75 51.70 51.65 51.60 51.55 51.50 51.45 51.40 51.35 51.30 51.25 51.20 51.15 51.10 51.05 51.00 50.95 50.90 50.85 50.80 50.75 50.70 50.65 50.60 50.55 50.50 50.45 50.40 50.35 50.30 50.25 50.20 50.15 50.10 50.05 50.00 49.95 49.90 49.85 49.80 49.75 49.70 49.65 49.60 49.55 49.50 49.45 49.40 49.35 49.30 49.25 49.20 49.15 49.10 49.05 49.00 48.95 48.90 48.85 48.80 48.75 48.70 48.65 48.60 48.55 48.50 48.45 48.40 48.35 48.30 48.25 48.20 48.15 48.10 48.05 48.00 47.95 47.90 47.85 47.80 47.75 47.70 47.65 47.60 47.55 47.50 47.45 47.40 47.35 47.30 47.25 47.20 47.15 47.10 47.05 47.00 46.95 46.90 46.85 46.80 46.75 46.70 46.65 46.60 46.55
65.75 65.70 65.65 65.60 65.55 65.50 65.45 65.40 65.35 65.30 65.25 65.20 65.15 65.10 65.05 65.00 64.95 64.90 64.85 64.80 64.75 64.70 64.65 64.60 64.55 64.50 64.45 64.40 64.35 64.30 64.25 64.20 64.15 64.10 64.05 64.00 63.95 63.90 63.85 63.80 63.75 63.70 63.65 63.60 63.55 63.50 63.45 63.40 63.35 63.30 63.25 63.20 63.15 63.10 63.05 63.00 62.95 62.90 62.85 62.80 62.75 62.70 62.65 62.60 62.55 62.50 62.45 62.40 62.35 62.30 62.25 62.20 62.15 62.10 62.05 62.00 61.95 61.90 61.85 61.80 61.75 61.70 61.65 61.60 61.55 61.50 61.45 61.40 61.35 61.30 61.25 61.20 61.15 61.10 61.05 61.00 60.95 60.90 60.85 60.80 60.75 60.70 60.65 60.60 60.55 60.50 60.45 60.40 60.35 60.30 60.25 60.20 60.15 60.10 60.05 60.00 59.95 59.90 59.85 59.80 59.75 59.70 59.65 59.60 59.55 59.50 59.45 59.40 59.35 59.30 59.25 59.20 59.15 59.10 59.05 59.00 58.95 58.90 58.85 58.80 58.75 58.70 58.65 58.60 58.55 58.50 58.45 58.40 58.35 58.30 58.25 58.20 58.15 58.10 58.05 58.00 57.95 57.90 57.85 57.80 57.75 57.70 57.65 57.60 57.55 57.50 57.45 57.40 57.35 57.30 57.25 57.20 57.15 57.10 57.05 57.00 56.95 56.90 56.85 56.80 56.75 56.70 56.65 56.60 56.55 56.50 56.45 56.40 56.35 56.30 56.25 56.20 56.15 56.10 56.05 56.00 55.95 55.90 55.85 55.80 55.75 55.70 55.65 55.60 55.55 55.50 55.45 55.40 55.35 55.30 55.25 55.20 55.15 55.10 55.05 55.00 54.95 54.90 54.85 54.80 54.75 54.70 54.65 54.60 54.55 54.50 54.45 54.40 54.35 54.30 54.25 54.20 54.15 54.10 54.05 54.00 53.95 53.90 53.85 53.80 53.75 53.70 53.65 53.60 53.55 53.50 53.45 53.40 53.35 53.30 53.25 53.20 53.15 53.10 53.05 53.00 52.95 52.90 52.85 52.80 52.75 52.70 52.65 52.60 52.55 52.50 52.45 52.40 52.35 52.30 52.25 52.20 52.15 52.10 52.05 52.00 51.95 51.90 51.85 51.80 51.75 51.70 51.65 51.60 51.55 51.50 51.45 51.40 51.35 51.30 51.25 51.20 51.15 51.10 51.05 51.00 50.95 50.90 50.85 50.80 50.75 50.70 50.65 50.60 50.55 50.50 50.45 50.40 50.35 50.30 50.25 50.20 50.15 50.10 50.05 50.00 49.95 49.90 49.85 49.80 49.75 49.70 49.65 49.60 49.55 49.50 49.45 49.40 49.35 49.30 49.25 49.20 49.15 49.10 49.05 49.00 48.95 48.90 48.85 48.80 48.75 48.70 48.65 48.60 48.55 48.50 48.45 48.40 48.35 48.30 48.25 48.20 48.15 48.10 48.05 48.00 47.95 47.90 47.85 47.80 47.75 47.70 47.65 47.60 47.55 47.50 47.45 47.40 47.35 47.30 47.25 47.20 47.15 47.10 47.05 47.00 46.95 46.90 46.85 46.80 46.75 46.70 46.65 46.60 46.55 46.50 46.45 46.40 46.35 46.30 46.25 46.20 46.15 46.10 46.05 46.00 45.95 45.90 45.85 45.80
65.00 64.95 64.90 64.85 64.80 64.75 64.70 64.65 64.60 64.55 64.50 64.45 64.40 64.35 64.30 64.25 64.20 64.15 64.10 64.05 64.00 63.95 63.90 63.85 63.80 63.75 63.70 63.65 63.60 63.55 63.50 63.45 63.40 63.35 63.30 63.25 63.20 63.15 63.10 63.05 63.00 62.95 62.90 62.85 62.80 62.75 62.70 62.65 62.60 62.55 62.50 62.45 62.40 62.35 62.30 62.25 62.20 62.15 62.10 62.05 62.00 61.95 61.90 61.85 61.80 61.75 61.70 61.65 61.60 61.55 61.50 61.45 61.40 61.35 61.30 61.25 61.20 61.15 61.10 61.05 61.00 60.95 60.90 60.85 60.80 60.75 60.70 60.65 60.60 60.55 60.50 60.45 60.40 60.35 60.30 60.25 60.20 60.15 60.10 60.05 60.00 59.95 59.90 59.85 59.80 59.75 59.70 59.65 59.60 59.55 59.50 59.45 59.40 59.35 59.30 59.25 59.20 59.15 59.10 59.05 59.00 58.95 58.90 58.85 58.80 58.75 58.70 58.65 58.60 58.55 58.50 58.45 58.40 58.35 58.30 58.25 58.20 58.15 58.10 58.05 58.00 57.95 57.90 57.85 57.80 57.75 57.70 57.65 57.60 57.55 57.50 57.45 57.40 57.35 57.30 57.25 57.20 57.15 57.10 57.05 57.00 56.95 56.90 56.85 56.80 56.75 56.70 56.65 56.60 56.55 56.50 56.45 56.40 56.35 56.30 56.25 56.20 56.15 56.10 56.05 56.00 55.95 55.90 55.85 55.80 55.75 55.70 55.65 55.60 55.55 55.50 55.45 55.40 55.35 55.30 55.25 55.20 55.15 55.10 55.05 55.00 54.95 54.90 54.85 54.80 54.75 54.70 54.65 54.60 54.55 54.50 54.45 54.40 54.35 54.30 54.25 54.20 54.15 54.10 54.05 54.00 53.95 53.90 53.85 53.80 53.75 53.70 53.65 53.60 53.55 53.50 53.45 53.40 53.35 53.30 53.25 53.20 53.15 53.10 53.05 53.00 52.95 52.90 52.85 52.80 52.75 52.70 52.65 52.60 52.55 52.50 52.45 52.40 52.35 52.30 52.25 52.20 52.15 52.10 52.05 52.00 51.95 51.90 51.85 51.80 51.75 51.70 51.65 51.60 51.55 51.50 51.45 51.40 51.35 51.30 51.25 51.20 51.15 51.10 51.05 51.00 50.95 50.90 50.85 50.80 50.75 50.70 50.65 50.60 50.55 50.50 50.45 50.40 50.35 50.30 50.25 50.20 50.15 50.10 50.05 50.00 49.95 49.90 49.85 49.80 49.75 49.70 49.65 49.60 49.55 49.50 49.45 49.40 49.35 49.30 49.25 49.20 49.15 49.10 49.05 49.00 48.95 48.90 48.85 48.80 48.75 48.70 48.65 48.60 48.55 48.50 48.45 48.40 48.35 48.30 48.25 48.20 48.15 48.10 48.05 48.00 47.95 47.90 47.85 47.80 47.75 47.70 47.65 47.60 47.55 47.50 47.45 47.40 47.35 47.30 47.25 47.20 47.15 47.10 47.05 47.00 46.95 46.90 46.85 46.80 46.75 46.70 46.65 46.60 46.55 46.50 46.45 46.40 46.35 46.30 46.25 46.20 46.15 46.10 46.05 46.00 45.95 45.90 45.85 45.80 45.75 45.70 45.65 45.60 45.55 45.50 45.45 45.40 45.35 45.30 45.25 45.20 45.15 45.10 45.05
64.25 64.20 64.15 64.10 64.05 64.00 63.95 63.90 63.85 63.80 63.75 63.70 63.65 63.60 63.55 63.50 63.45 63.40 63.35 63.30 63.25 63.20 63.15 63.10 63.05 63.00 62.95 62.90 62.85 62.80 62.75 62.70 62.65 62.60 62.55 62.50 62.45 62.40 62.35 62.30 62.25 62.20 62.15 62.10 62.05 62.00 61.95 61.90 61.85 61.80 61.75 61.70 61.65 61.60 61.55 61.50 61.45 61.40 61.35 61.30 61.25 61.20 61.15 61.10 61.05 61.00 60.95 60.90 60.85 60.80 60.75 60.70 60.65 60.60 60.55 60.50 60.45 60.40 60.35 60.30 60.25 60.20 60.15 60.10 60.05 60.00 59.95 59.90 59.85 59.80 59.75 59.70 59.65 59.60 59.55 59.50 59.45 59.40 59.35 59.30 59.25 59.20 59.15 59.10 59.05 59.00 58.95 58.90 58.85 58.80 58.75 58.70 58.65 58.60 58.55 58.50 58.45 58.40 58.35 58.30 58.25 58.20 58.15 58.10 58.05 58.00 57.95 57.90 57.85 57.80 57.75 57.70 57.65 57.60 57.55 57.50 57.45 57.40 57.35 57.30 57.25 57.20 57.15 57.10 57.05 57.00 56.95 56.90 56.85 56.80 56.75 56.70 56.65 56.60 56.55 56.50 56.45 56.40 56.35 56.30 56.25 56.20 56.15 56.10 56.05 56.00 55.95 55.90 55.85 55.80 55.75 55.70 55.65 55.60 55.55 55.50 55.45 55.40 55.35 55.30 55.25 55.20 55.15 55.10 55.05 55.00 54.95 54.90 54.85 54.80 54.75 54.70 54.65 54.60 54.55 54.50 54.45 54.40 54.35 54.30 54.25 54.20 54.15 54.10 54.05 54.00 53.95 53.90 53.85 53.80 53.75 53.70 53.65 53.60 53.55 53.50 53.45 53.40 53.35 53.30 53.25 53.20 53.15 53.10 53.05 53.00 52.95 52.90 52.85 52.80 52.75 52.70 52.65 52.60 52.55 52.50 52.45 52.40 52.35 52.30 52.25 52.20 52.15 52.10 52.05 52.00 51.95 51.90 51.85 51.80 51.75 51.70 51.65 51.60 51.55 51.50 51.45 51.40 51.35 51.30 51.25 51.20 51.15 51.10 51.05 51.00 50.95 50.90 50.85 50.80 50.75 50.70 50.65 50.60 50.55 50.50 50.45 50.40 50.35 50.30 50.25 50.20 50.15 50.10 50.05 50.00 49.95 49.90 49.85 49.80 49.75 49.70 49.65 49.60 49.55 49.50 49.45 49.40 49.35 49.30 49.25 49.20 49.15 49.10 49.05 49.00 48.95 48.90 48.85 48.80 48.75 48.70 48.65 48.60 48.55 48.50 48.45 48.40 48.35 48.30 48.25 48.20 48.15 48.10 48.05 48.00 47.95 47.90 47.85 47.80 47.75 47.70 47.65 47.60 47.55 47.50 47.45 47.40 47.35 47.30 47.25 47.20 47.15 47.10 47.05 47.00 46.95 46.90 46.85 46.80 46.75 46.70 46.65 46.60 46.55 46.50 46.45 46.40 46.35 46.30 46.25 46.20 46.15 46.10 46.05 46.00 45.95 45.90 45.85 45.80 45.75 45.70 45.65 45.60 45.55 45.50 45.45 45.40 45.35 45.30 45.25 45.20 45.15 45.10 45.05 45.00 44.95 44.90 44.85 44.80 44.75 44.70 44.65 44.60 44.55 44.50 44.45 44.40 44.35 44.30
63.50 63.45 63.40 63.35 63.30 63.25 63.20 63.15 63.10 63.05 63.00 62.95 62.90 62.85 62.80 62.75 62.70 62.65 62.60 62.55 62.50 62.45 62.40 62.35 62.30 62.25 62.20 62.15 62.10 62.05 62.00 61.95 61.90 61.85 61.80 61.75 61.70 61.65 61.60 61.55 61.50 61.45 61.40 61.35 61.30 61.25 61.20 61.15 61.10 61.05 61.00 60.95 60.90 60.85 60.80 60.75 60.70 60.65 60.60 60.55 60.50 60.45 60.40 60.35 60.30 60.25 60.20 60.15 60.10 60.05 60.00 59.95 59.90 59.85 59.80 59.75 59.70 59.65 59.60 59.55 59.50 59.45 59.40 59.35 59.30 59.25 59.20 59.15 59.10 59.05 59.00 58.95 58.90 58.85 58.80 58.75 58.70 58.65 58.60 58.55 58.50 58.45 58.40 58.35 58.30 58.25 58.20 58.15 58.10 58.05 58.00 57.95 57.90 57.85 57.80 57.75 57.70 57.65 57.60 57.55 57.50 57.45 57.40 57.35 57.30 57.25 57.20 57.15 57.10 57.05 57.00 56.95 56.90 56.85 56.80 56.75 56.70 56.65 56.60 56.55 56.50 56.45 56.40 56.35 56.30 56.25 56.20 56.15 56.10 56.05 56.00 55.95 55.90 55.85 55.80 55.75 55.70 55.65 55.60 55.55 55.50 55.45 55.40 55.35 55.30 55.25 55.20 55.15 55.10 55.05 55.00 54.95 54.90 54.85 54.80 54.75 54.70 54.65 54.60 54.55 54.50 54.45 54.40 54.35 54.30 54.25 54.20 54.15 54.10 54.05 54.00 53.95 53.90 53.85 53.80 53.75 53.70 53.65 53.60 53.55 53.50 53.45 53.40 53.35 53.30 53.25 53.20 53.15 53.10 53.05 53.00 52.95 52.90 52.85 52.80 52.75 52.70 52.65 52.60 52.55 52.50 52.45 52.40 52.35 52.30 52.25 52.20 52.15 52.10 52.05 52.00 51.95 51.90 51.85 51.80 51.75 51.70 51.65 51.60 51.55 51.50 51.45 51.40 51.35 51.30 51.25 51.20 51.15 51.10 51.05 51.00 50.95 50.90 50.85 50.80 50.75 50.70 50.65 50.60 50.55 50.50 50.45 50.40 50.35 50.30 50.25 50.20 50.15 50.10 50.05 50.00 49.95 49.90 49.85 49.80 49.75 49.70 49.65 49.60 49.55 49.50 49.45 49.40 49.35 49.30 49.25 49.20 49.15 49.10 49.05 49.00 48.95 48.90 48.85 48.80 48.75 48.70 48.65 48.60 48.55 48.50 48.45 48.40 48.35 48.30 48.25 48.20 48.15 48.10 48.05 48.00 47.95 47.90 47.85 47.80 47.75 47.70 47.65 47.60 47.55 47.50 47.45 47.40 47.35 47.30 47.25 47.20 47.15 47.10 47.05 47.00 46.95 46.90 46.85 46.80 46.75 46.70 46.65 46.60 46.55 46.50 46.45 46.40 46.35 46.30 46.25 46.20 46.15 46.10 46.05 46.00 45.95 45.90 45.85 45.80 45.75 45.70 45.65 45.60 45.55 45.50 45.45 45.40 45.35 45.30 45.25 45.20 45.15 45.10 45.05 45.00 44.95 44.90 44.85 44.80 44.75 44.70 44.65 44.60 44.55 44.50 44.45 44.40 44.35 44.30 44.25 44.20 44.15 44.10 44.05 44.00 43.95 43.90 43.85 43.80 43.75 43.70 43.65 43.60 43.55
62.75 62.70 62.65 62.60 62.55 62.50 62.45 62.40 62.35 62.30 62.25 62.20 62.15 62.10 62.05 62.00 61.95 61.90 61.85 61.80 61.75 61.70 61.65 61.60 61.55 61.50 61.45 61.40 61.35 61.30 61.25 61.20 61.15 61.10 61.05 61.00 60.95 60.90 60.85 60.80 60.75 60.70 60.65 60.60 60.55 60.50 60.45 60.40 60.35 60.30 60.25 60.20 60.15 60.10 60.05 60.00 59.95 59.90 59.85 59.80 59.75 59.70 59.65 59.60 59.55 59.50 59.45 59.40 59.35 59.30 59.25 59.20 59.15 59.10 59.05 59.00 58.95 58.90 58.85 58.80 58.75 58.70 58.65 58.60 58.55 58.50 58.45 58.40 58.35 58.30 58.25 58.20 58.15 58.10 58.05 58.00 57.95 57.90 57.85 57.80 57.75 57.70 57.65 57.60 57.55 57.50 57.45 57.40 57.35 57.30 57.25 57.20 57.15 57.10 57.05 57.00 56.95 56.90 56.85 56.80 56.75 56.70 56.65 56.60 56.55 56.50 56.45 56.40 56.35 56.30 56.25 56.20 56.15 56.10 56.05 56.00 55.95 55.90 55.85 55.80 55.75 55.70 55.65 55.60 55.55 55.50 55.45 55.40 55.35 55.30 55.25 55.20 55.15 55.10 55.05 55.00 54.95 54.90 54.85 54.80 54.75 54.70 54.65 54.60 54.55 54.50 54.45 54.40 54.35 54.30 54.25 54.20 54.15 54.10 54.05 54.00 53.95 53.90 53.85 53.80 53.75 53.70 53.65 53.60 53.55 53.50 53.45 53.40 53.35 53.30 53.25 53.20 53.15 53.10 53.05 53.00 52.95 52.90 52.85 52.80 52.75 52.70 52.65 52.60 52.55 52.50 52.45 52.40 52.35 52.30 52.25 52.20 52.15 52.10 52.05 52.00 51.95 51.90 51.85 51.80 51.75 51.70 51.65 51.60 51.55 51.50 51.45 51.40 51.35 51.30 51.25 51.20 51.15 51.10 51.05 51.00 50.95 50.90 50.85 50.80 50.75 50.70 50.65 50.60 50.55 50.50 50.45 50.40 50.35 50.30 50.25 50.20 50.15 50.10 50.05 50.00 49.95 49.90 49.85 49.80 49.75 49.70 49.65 49.60 49.55 49.50 49.45 49.40 49.35 49.30 49.25 49.20 49.15 49.10 49.05 49.00 48.95 48.90 48.85 48.80 48.75 48.70 48.65 48.60 48.55 48.50 48.45 48.40 48.35 48.30 48.25 48.20 48.15 48.10 48.05 48.00 47.95 47.90 47.85 47.80 47.75 47.70 47.65 47.60 47.55 47.50 47.45 47.40 47.35 47.30 47.25 47.20 47.15 47.10 47.05 47.00 46.95 46.90 46.85 46.80 46.75 46.70 46.65 46.60 46.55 46.50 46.45 46.40 46.35 46.30 46.25 46.20 46.15 46.10 46.05 46.00 45.95 45.90 45.85 45.80 45.75 45.70 45.65 45.60 45.55 45.50 45.45 45.40 45.35 45.30 45.25 45.20 45.15 45.10 45.05 45.00 44.95 44.90 44.85 44.80 44.75 44.70 44.65 44.60 44.55 44.50 44.45 44.40 44.35 44.30 44.25 44.20 44.15 44.10 44.05 44.00 43.95 43.90 43.85 43.80 43.75 43.70 43.65 43.60 43.55 43.50 43.45 43.40 43.35 43.30 43.25 43.20 43.15 43.10 43.05 43.00 42.95 42.90 42.85 42.80
62.00 61.95 61.90 61.85 61.80 61.75 61.70 61.65 61.60 61.55 61.50 61.45 61.40 61.35 61.30 61.25 61.20 61.15 61.10 61.05 61.00 60.95 60.90 60.85 60.80 60.75 60.70 60.65 60.60 60.55 60.50 60.45 60.40 60.35 60.30 60.25 60.20 60.15 60.10 60.05 60.00 59.95 59.90 59.85 59.80 59.75 59.70 59.65 59.60 59.55 59.50 59.45 59.40 59.35 59.30 59.25 59.20 59.15 59.10 59.05 59.00 58.95 58.90 58.85 58.80 58.75 58.70 58.65 58.60 58.55 58.50 58.45 58.40 58.35 58.30 58.25 58.20 58.15 58.10 58.05 58.00 57.95 57.90 57.85 57.80 57.75 57.70 57.65 57.60 57.55 57.50 57.45 57.40 57.35 57.30 57.25 57.20 57.15 57.10 57.05 57.00 56.95 56.90 56.85 56.80 56.75 56.70 56.65 56.60 56.55 56.50 56.45 56.40 56.35 56.30 56.25 56.20 56.15 56.10 56.05 56.00 55.95 55.90 55.85 55.80 55.75 55.70 55.65 55.60 55.55 55.50 55.45 55.40 55.35 55.30 55.25 55.20 55.15 55.10 55.05 55.00 54.95 54.90 54.85 54.80 54.75 54.70 54.65 54.60 54.55 54.50 54.45 54.40 54.35 54.30 54.25 54.20 54.15 54.10 54.05 54.00 53.95 53.90 53.85 53.80 53.75 53.70 53.65 53.60 53.55 53.50 53.45 53.40 53.35 53.30 53.25 53.20 53.15 53.10 53.05 53.00 52.95 52.90 52.85 52.80 52.75 52.70 52.65 52.60 52.55 52.50 52.45 52.40 52.35 52.30 52.25 52.20 52.15 52.10 52.05 52.00 51.95 51.90 51.85 51.80 51.75 51.70 51.65 51.60 51.55 51.50 51.45 51.40 51.35 51.30 51.25 51.20 51.15 51.10 51.05 51.00 50.95 50.90 50.85 50.80 50.75 50.70 50.65 50.60 50.55 50.50 50.45 50.40 50.35 50.30 50.25 50.20 50.15 50.10 50.05 50.00 49.95 49.90 49.85 49.80 49.75 49.70 49.65 49.60 49.55 49.50 49.45 49.40 49.35 49.30 49.25 49.20 49.15 49.10 49.05 49.00 48.95 48.90 48.85 48.80 48.75 48.70 48.65 48.60 48.55 48.50 48.45 48.40 48.35 48.30 48.25 48.20 48.15 48.10 48.05 48.00 47.95 47.90 47.85 47.80 47.75 47.70 47.65 47.60 47.55 47.50 47.45 47.40 47.35 47.30 47.25 47.20 47.15 47.10 47.05 47.00 46.95 46.90 46.85 46.80 46.75 46.70 46.65 46.60 46.55 46.50 46.45 46.40 46.35 46.30 46.25 46.20 46.15 46.10 46.05 46.00 45.95 45.90 45.85 45.80 45.75 45.70 45.65 45.60 45.55 45.50 45.45 45.40 45.35 45.30 45.25 45.20 45.15 45.10 45.05 45.00 44.95 44.90 44.85 44.80 44.75 44.70 44.65 44.60 44.55 44.50 44.45 44.40 44.35 44.30 44.25 44.20 44.15 44.10 44.05 44.00 43.95 43.90 43.85 43.80 43.75 43.70 43.65 43.60 43.55 43.50 43.45 43.40 43.35 43.30 43.25 43.20 43.15 43.10 43.05 43.00 42.95 42.90 42.85 42.80 42.75 42.70 42.65 42.60 42.55 42.50 42.45 42.40 42.35 42.30 42.25 42.20 42.15 42.10 42.05
61.25 61.20 61.15 61.10 61.05 61.00 60.95 60.90 60.85 60.80 60.75 60.70 60.65 60.60 60.55 60.50 60.45 60.40 60.35 60.30 60.25 60.20 60.15 60.10 60.05 60.00 59.95 59.90 59.85 59.80 59.75 59.70 59.65 59.60 59.55 59.50 59.45 59.40 59.35 59.30 59.25 59.20 59.15 59.10 59.05 59.00 58.95 58.90 58.85 58.80 58.75 58.70 58.65 58.60 58.55 58.50 58.45 58.40 58.35 58.30 58.25 58.20 58.15 58.10 58.05 58.00 57.95 57.90 57.85 57.80 57.75 57.70 57.65 57.60 57.55 57.50 57.45 57.40 57.35 57.30 57.25 57.20 57.15 57.10 57.05 57.00 56.95 56.90 56.85 56.80 56.75 56.70 56.65 56.60 56.55 56.50 56.45 56.40 56.35 56.30 56.25 56.20 56.15 56.10 56.05 56.00 55.95 55.90 55.85 55.80 55.75 55.70 55.65 55.60 55.55 55.50 55.45 55.40 55.35 55.30 55.25 55.20 55.15 55.10 55.05 55.00 54.95 54.90 54.85 54.80 54.75 54.70 54.65 54.60 54.55 54.50 54.45 54.40 54.35 54.30 54.25 54.20 54.15 54.10 54.05 54.00 53.95 53.90 53.85 53.80 53.75 53.70 53.65 53.60 53.55 53.50 53.45 53.40 53.35 53.30 53.25 53.20 53.15 53.10 53.05 53.00 52.95 52.90 52.85 52.80 52.75 52.70 52.65 52.60 52.55 52.50 52.45 52.40 52.35 52.30 52.25 52.20 52.15 52.10 52.05 52.00 51.95 51.90 51.85 51.80 51.75 51.70 51.65 51.60 51.55 51.50 51.45 51.40 51.35 51.30 51.25 51.20 51.15 51.10 51.05 51.00 50.95 50.90 50.85 50.80 50.75 50.70 50.65 50.60 50.55 50.50 50.45 50.40 50.35 50.30 50.25 50.20 50.15 50.10 50.05 50.00 49.95 49.90 49.85 49.80 49.75 49.70 49.65 49.60 49.55 49.50 49.45 49.40 49.35 49.30 49.25 49.20 49.15 49.10 49.05 49.00 48.95 48.90 48.85 48.80 48.75 48.70 48.65 48.60 48.55 48.50 48.45 48.40 48.35 48.30 48.25 48.20 48.15 48.10 48.05 48.00 47.95 47.90 47.85 47.80 47.75 47.70 47.65 47.60 47.55 47.50 47.45 47.40 47.35 47.30 47.25 47.20 47.15 47.10 47.05 47.00 46.95 46.90 46.85 46.80 46.75 46.70 46.65 46.60 46.55 46.50 46.45 46.40 46.35 46.30 46.25 46.20 46.15 46.10 46.05 46.00 45.95 45.90 45.85 45.80 45.75 45.70 45.65 45.60 45.55 45.50 45.45 45.40 45.35 45.30 45.25 45.20 45.15 45.10 45.05 45.00 44.95 44.90 44.85 44.80 44.75 44.70 44.65 44.60 44.55 44.50 44.45 44.40 44.35 44.30 44.25 44.20 44.15 44.10 44.05 44.00 43.95 43.90 43.85 43.80 43.75 43.70 43.65 43.60 43.55 43.50 43.45 43.40 43.35 43.30 43.25 43.20 43.15 43.10 43.05 43.00 42.95 42.90 42.85 42.80 42.75 42.70 42.65 42.60 42.55 42.50 42.45 42.40 42.35 42.30 42.25 42.20 42.15 42.10 42.05 42.00 41.95 41.90 41.85 41.80 41.75 41.70 41.65 41.60 41.55 41.50 41.45 41.40 41.35 41.30
60.50 60.45 60.40 60.35 60.30 60.25 60.20 60.15 60.10 60.05 60.00 59.95 59.90 59.85 59.80 59.75 59.70 59.65 59.60 59.55 59.50 59.45 59.40 59.35 59.30 59.25 59.20 59.15 59.10 59.05 59.00 58.95 58.90 58.85 58.80 58.75 58.70 58.65 58.60 58.55 58.50 58.45 58.40 58.35 58.30 58.25 58.20 58.15 58.10 58.05 58.00 57.95 57.90 57.85 57.80 57.75 57.70 57.65 57.60 57.55 57.50 57.45 57.40 57.35 57.30 57.25 57.20 57.15 57.10 57.05 57.00 56.95 56.90 56.85 56.80 56.75 56.70 56.65 56.60 56.55 56.50 56.45 56.40 56.35 56.30 56.25 56.20 56.15 56.10 56.05 56.00 55.95 55.90 55.85 55.80 55.75 55.70 55.65 55.60 55.55 55.50 55.45 55.40 55.35 55.30 55.25 55.20 55.15 55.10 55.05 55.00 54.95 54.90 54.85 54.80 54.75 54.70 54.65 54.60 54.55 54.50 54.45 54.40 54.35 54.30 54.25 54.20 54.15 54.10 54.05 54.00 53.95 53.90 53.85 53.80 53.75 53.70 53.65 53.60 53.55 53.50 53.45 53.40 53.35 53.30 53.25 53.20 53.15 53.10 53.05 53.00 52.95 52.90 52.85 52.80 52.75 52.70 52.65 52.60 52.55 52.50 52.45 52.40 52.35 52.30 52.25 52.20 52.15 52.10 52.05 52.00 51.95 51.90 51.85 51.80 51.75 51.70 51.65 51.60 51.55 51.50 51.45 51.40 51.35 51.30 51.25 51.20 51.15 51.10 51.05 51.00 50.95 50.90 50.85 50.80 50.75 50.70 50.65 50.60 50.55 50.50 50.45 50.40 50.35 50.30 50.25 50.20 50.15 50.10 50.05 50.00 49.95 49.90 49.85 49.80 49.75 49.70 49.65 49.60 49.55 49.50 49.45 49.40 49.35 49.30 49.25 49.20 49.15 49.10 49.05 49.00 48.95 48.90 48.85 48.80 48.75 48.70 48.65 48.60 48.55 48.50 48.45 48.40 48.35 48.30 48.25 48.20 48.15 48.10 48.05 48.00 47.95 47.90 47.85 47.80 47.75 47.70 47.65 47.60 47.55 47.50 47.45 47.40 47.35 47.30 47.25 47.20 47.15 47.10 47.05 47.00 46.95 46.90 46.85 46.80 46.75 46.70 46.65 46.60 46.55 46.50 46.45 46.40 46.35 46.30 46.25 46.20 46.15 46.10 46.05 46.00 45.95 45.90 45.85 45.80 45.75 45.70 45.65 45.60 45.55 45.50 45.45 45.40 45.35 45.30 45.25 45.20 45.15 45.10 45.05 45.00 44.95 44.90 44.85 44.80 44.75 44.70 44.65 44.60 44.55 44.50 44.45 44.40 44.35 44.30 44.25 44.20 44.15 44.10 44.05 44.00 43.95 43.90 43.85 43.80 43.75 43.70 43.65 43.60 43.55 43.50 43.45 43.40 43.35 43.30 43.25 43.20 43.15 43.10 43.05 43.00 42.95 42.90 42.85 42.80 42.75 42.70 42.65 42.60 42.55 42.50 42.45 42.40 42.35 42.30 42.25 42.20 42.15 42.10 42.05 42.00 41.95 41.90 41.85 41.80 41.75 41.70 41.65 41.60 41.55 41.50 41.45 41.40 41.35 41.30 41.25 41.20 41.15 41.10 41.05 41.00 40.95 40.90 40.85 40.80 40.75 40.70 40.65 40.60 40.55
59.75 59.70 59.65 59.60 59.55 59.50 59.45 59.40 59.35 59.30 59.25 59.20 59.15 59.10 59.05 59.00 58.95 58.90 58.85 58.80 58.75 58.70 58.65 58.60 58.55 58.50 58.45 58.40 58.35 58.30 58.25 58.20 58.15 58.10 58.05 58.00 57.95 57.90 57.85 57.80 57.75 57.70 57.65 57.60 57.55 57.50 57.45 57.40 57.35 57.30 57.25 57.20 57.15 57.10 57.05 57.00 56.95 56.90 56.85 56.80 56.75 56.70 56.65 56.60 56.55 56.50 56.45 56.40 56.35 56.30 56.25 56.20 56.15 56.10 56.05 56.00 55.95 55.90 55.85 55.80 55.75 55.70 55.65 55.60 55.55 55.50 55.45 55.40 55.35 55.30 55.25 55.20 55.15 55.10 55.05 55.00 54.95 54.90 54.85 54.80 54.75 54.70 54.65 54.60 54.55 54.50 54.45 54.40 54.35 54.30 54.25 54.20 54.15 54.10 54.05 54.00 53.95 53.90 53.85 53.80 53.75 53.70 53.65 53.60 53.55 53.50 53.45 53.40 53.35 53.30 53.25 53.20 53.15 53.10 53.05 53.00 52.95 52.90 52.85 52.80 52.75 52.70 52.65 52.60 52.55 52.50 52.45 52.40 52.35 52.30 52.25 52.20 52.15 52.10 52.05 52.00 51.95 51.90 51.85 51.80 51.75 51.70 51.65 51.60 51.55 51.50 51.45 51.40 51.35 51.30 51.25 51.20 51.15 51.10 51.05 51.00 50.95 50.90 50.85 50.80 50.75 50.70 50.65 50.60 50.55 50.50 50.45 50.40 50.35 50.30 50.25 50.20 50.15 50.10 50.05 50.00 49.95 49.90 49.85 49.80 49.75 49.70 49.65 49.60 49.55 49.50 49.45 49.40 49.35 49.30 49.25 49.20 49.15 49.10 49.05 49.00 48.95 48.90 48.85 48.80 48.75 48.70 48.65 48.60 48.55 48.50 48.45 48.40 48.35 48.30 48.25 48.20 48.15 48.10 48.05 48.00 47.95 47.90 47.85 47.80 47.75 47.70 47.65 47.60 47.55 47.50 47.45 47.40 47.35 47.30 47.25 47.20 47.15 47.10 47.05 47.00 46.95 46.90 46.85 46.80 46.75 46.70 46.65 46.60 46.55 46.50 46.45 46.40 46.35 46.30 46.25 46.20 46.15 46.10 46.05 46.00 45.95 45.90 45.85 45.80 45.75 45.70 45.65 45.60 45.55 45.50 45.45 45.40 45.35 45.30 45.25 45.20 45.15 45.10 45.05 45.00 44.95 44.90 44.85 44.80 44.75 44.70 44.65 44.60 44.55 44.50 44.45 44.40 44.35 44.30 44.25 44.20 44.15 44.10 44.05 44.00 43.95 43.90 43.85 43.80 43.75 43.70 43.65 43.60 43.55 43.50 43.45 43.40 43.35 43.30 43.25 43.20 43.15 43.10 43.05 43.00 42.95 42.90 42.85 42.80 42.75 42.70 42.65 42.60 42.55 42.50 42.45 42.40 42.35 42.30 42.25 42.20 42.15 42.10 42.05 42.00 41.95 41.90 41.85 41.80 41.75 41.70 41.65 41.60 41.55 41.50 41.45 41.40 41.35 41.30 41.25 41.20 41.15 41.10 41.05 41.00 40.95 40.90 40.85 40.80 40.75 40.70 40.65 40.60 40.55 40.50 40.45 40.40 40.35 40.30 40.25 40.20 40.15 40.10 40.05 40.00 39.95 39.90 39.85 39.80
59.00 58.95 58.90 58.85 58.80 58.75 58.70 58.65 58.60 58.55 58.50 58.45 58.40 58.35 58.30 58.25 58.20 58.15 58.10 58.05 58.00 57.95 57.90 57.85 57.80 57.75 57.70 57.65 57.60 57.55 57.50 57.45 57.40 57.35 57.30 57.25 57.20 57.15 57.10 57.05 57.00 56.95 56.90 56.85 56.80 56.75 56.70 56.65 56.60 56.55 56.50 56.45 56.40 56.35 56.30 56.25 56.20 56.15 56.10 56.05 56.00 55.95 55.90 55.85 55.80 55.75 55.70 55.65 55.60 55.55 55.50 55.45 55.40 55.35 55.30 55.25 55.20 55.15 55.10 55.05 55.00 54.95 54.90 54.85 54.80 54.75 54.70 54.65 54.60 54.55 54.50 54.45 54.40 54.35 54.30 54.25 54.20 54.15 54.10 54.05 54.00 53.95 53.90 53.85 53.80 53.75 53.70 53.65 53.60 53.55 53.50 53.45 53.40 53.35 53.30 53.25 53.20 53.15 53.10 53.05 53.00 52.95 52.90 52.85 52.80 52.75 52.70 52.65 52.60 52.55 52.50 52.45 52.40 52.35 52.30 52.25 52.20 52.15 52.10 52.05 52.00 51.95 51.90 51.85 51.80 51.75 51.70 51.65 51.60 51.55 51.50 51.45 51.40 51.35 51.30 51.25 51.20 51.15 51.10 51.05 51.00 50.95 50.90 50.85 50.80 50.75 50.70 50.65 50.60 50.55 50.50 50.45 50.40 50.35 50.30 50.25 50.20 50.15 50.10 50.05 50.00 49.95 49.90 49.85 49.80 49.75 49.70 49.65 49.60 49.55 49.50 49.45 49.40 49.35 49.30 49.25 49.20 49.15 49.10 49.05 49.00 48.95 48.90 48.85 48.80 48.75 48.70 48.65 48.60 48.55 48.50 48.45 48.40 48.35 48.30 48.25 48.20 48.15 48.10 48.05 48.00 47.95 47.90 47.85 47.80 47.75 47.70 47.65 47.60 47.55 47.50 47.45 47.40 47.35 47.30 47.25 47.20 47.15 47.10 47.05 47.00 46.95 46.90 46.85 46.80 46.75 46.70 46.65 46.60 46.55 46.50 46.45 46.40 46.35 46.30 46.25 46.20 46.15 46.10 46.05 46.00 45.95 45.90 45.85 45.80 45.75 45.70 45.65 45.60 45.55 45.50 45.45 45.40 45.35 45.30 45.25 45.20 45.15 45.10 45.05 45.00 44.95 44.90 44.85 44.80 44.75 44.70 44.65 44.60 44.55 44.50 44.45 44.40 44.35 44.30 44.25 44.20 44.15 44.10 44.05 44.00 43.95 43.90 43.85 43.80 43.75 43.70 43.65 43.60 43.55 43.50 43.45 43.40 43.35 43.30 43.25 43.20 43.15 43.10 43.05 43.00 42.95 42.90 42.85 42.80 42.75 42.70 42.65 42.60 42.55 42.50 42.45 42.40 42.35 42.30 42.25 42.20 42.15 42.10 42.05 42.00 41.95 41.90 41.85 41.80 41.75 41.70 41.65 41.60 41.55 41.50 41.45 41.40 41.35 41.30 41.25 41.20 41.15 41.10 41.05 41.00 40.95 40.90 40.85 40.80 40.75 40.70 40.65 40.60 40.55 40.50 40.45 40.40 40.35 40.30 40.25 40.20 40.15 40.10 40.05 40.00 39.95 39.90 39.85 39.80 39.75 39.70 39.65 39.60 39.55 39.50 39.45 39.40 39.35 39.30 39.25 39.20 39.15 39.10 39.05
58.25 58.20 58.15 58.10 58.05 58.00 57.95 57.90 57.85 57.80 57.75 57.70 57.65 57.60 57.55 57.50 57.45 57.40 57.35 57.30 57.25 57.20 57.15 57.10 57.05 57.00 56.95 56.90 56.85 56.80 56.75 56.70 56.65 56.60 56.55 56.50 56.45 56.40 56.35 56.30 56.25 56.20 56.15 56.10 56.05 56.00 55.95 55.90 55.85 55.80 55.75 55.70 55.65 55.60 55.55 55.50 55.45 55.40 55.35 55.30 55.25 55.20 55.15 55.10 55.05 55.00 54.95 54.90 54.85 54.80 54.75 54.70 54.65 54.60 54.55 54.50 54.45 54.40 54.35 54.30 54.25 54.20 54.15 54.10 54.05 54.00 53.95 53.90 53.85 53.80 53.75 53.70 53.65 53.60 53.55 53.50 53.45 53.40 53.35 53.30 53.25 53.20 53.15 53.10 53.05 53.00 52.95 52.90 52.85 52.80 52.75 52.70 52.65 52.60 52.55 52.50 52.45 52.40 52.35 52.30 52.25 52.20 52.15 52.10 52.05 52.00 51.95 51.90 51.85 51.80 51.75 51.70 51.65 51.60 51.55 51.50 51.45 51.40 51.35 51.30 51.25 51.20 51.15 51.10 51.05 51.00 50.95 50.90 50.85 50.80 50.75 50.70 50.65 50.60 50.55 50.50 50.45 50.40 50.35 50.30 50.25 50.20 50.15 50.10 50.05 50.00 49.95 49.90 49.85 49.80 49.75 49.70 49.65 49.60 49.55 49.50 49.45 49.40 49.35 49.30 49.25 49.20 49.15 49.10 49.05 49.00 48.95 48.90 48.85 48.80 48.75 48.70 48.65 48.60 48.55 48.50 48.45 48.40 48.35 48.30 48.25 48.20 48.15 48.10 48.05 48.00 47.95 47.90 47.85 47.80 47.75 47.70 47.65 47.60 47.55 47.50 47.45 47.40 47.35 47.30 47.25 47.20 47.15 47.10 47.05 47.00 46.95 46.90 46.85 46.80 46.75 46.70 46.65 46.60 46.55 46.50 46.45 46.40 46.35 46.30 46.25 46.20 46.15 46.10 46.05 46.00 45.95 45.90 45.85 45.80 45.75 45.70 45.65 45.60 45.55 45.50 45.45 45.40 45.35 45.30 45.25 45.20 45.15 45.10 45.05 45.00 44.95 44.90 44.85 44.80 44.75 44.70 44.65 44.60 44.55 44.50 44.45 44.40 44.35 44.30 44.25 44.20 44.15 44.10 44.05 44.00 43.95 43.90 43.85 43.80 43.75 43.70 43.65 43.60 43.55 43.50 43.45 43.40 43.35 43.30 43.25 43.20 43.15 43.10 43.05 43.00 42.95 42.90 42.85 42.80 42.75 42.70 42.65 42.60 42.55 42.50 42.45 42.40 42.35 42.30 42.25 42.20 42.15 42.10 42.05 42.00 41.95 41.90 41.85 41.80 41.75 41.70 41.65 41.60 41.55 41.50 41.45 41.40 41.35 41.30 41.25 41.20 41.15 41.10 41.05 41.00 40.95 40.90 40.85 40.80 40.75 40.70 40.65 40.60 40.55 40.50 40.45 40.40 40.35 40.30 40.25 40.20 40.15 40.10 40.05 40.00 39.95 39.90 39.85 39.80 39.75 39.70 39.65 39.60 39.55 39.50 39.45 39.40 39.35 39.30 39.25 39.20 39.15 39.10 39.05 39.00 38.95 38.90 38.85 38.80 38.75 38.70 38.65 38.60 38.55 38.50 38.45 38.40 38.35 38.30
57.50 57.45 57.40 57.35 57.30 57.25 57.20 57.15 57.10 57.05 57.00 56.95 56.90 56.85 56.80 56.75 56.70 56.65 56.60 56.55 56.50 56.45 56.40 56.35 56.30 56.25 56.20 56.15 56.10 56.05 56.00 55.95 55.90 55.85 55.80 55.75 55.70 55.65 55.60 55.55 55.50 55.45 55.40 55.35 55.30 55.25 55.20 55.15 55.10 55.05 55.00 54.95 54.90 54.85 54.80 54.75 54.70 54.65 54.60 54.55 54.50 54.45 54.40 54.35 54.30 54.25 54.20 54.15 54.10 54.05 54.00 53.95 53.90 53.85 53.80 53.75 53.70 53.65 53.60 53.55 53.50 53.45 53.40 53.35 53.30 53.25 53.20 53.15 53.10 53.05 53.00 52.95 52.90 52.85 52.80 52.75 52.70 52.65 52.60 52.55 52.50 52.45 52.40 52.35 52.30 52.25 52.20 52.15 52.10 52.05 52.00 51.95 51.90 51.85 51.80 51.75 51.70 51.65 51.60 51.55 51.50 51.45 51.40 51.35 51.30 51.25 51.20 51.15 51.10 51.05 51.00 50.95 50.90 50.85 50.80 50.75 50.70 50.65 50.60 50.55 50.50 50.45 50.40 50.35 50.30 50.25 50.20 50.15 50.10 50.05 50.00 49.95 49.90 49.85 49.80 49.75 49.70 49.65 49.60 49.55 49.50 49.45 49.40 49.35 49.30 49.25 49.20 49.15 49.10 49.05 49.00 48.95 48.90 48.85 48.80 48.75 48.70 48.65 48.60 48.55 48.50 48.45 48.40 48.35 48.30 48.25 48.20 48.15 48.10 48.05 48.00 47.95 47.90 47.85 47.80 47.75 47.70 47.65 47.60 47.55 47.50 47.45 47.40 47.35 47.30 47.25 47.20 47.15 47.10 47.05 47.00 46.95 46.90 46.85 46.80 46.75 46.70 46.65 46.60 46.55 46.50 46.45 46.40 46.35 46.30 46.25 46.20 46.15 46.10 46.05 46.00 45.95 45.90 45.85 45.80 45.75 45.70 45.65 45.60 45.55 45.50 45.45 45.40 45.35 45.30 45.25 45.20 45.15 45.10 45.05 45.00 44.95 44.90 44.85 44.80 44.75 44.70 44.65 44.60 44.55 44.50 44.45 44.40 44.35 44.30 44.25 44.20 44.15 44.10 44.05 44.00 43.95 43.90 43.85 43.80 43.75 43.70 43.65 43.60 43.55 43.50 43.45 43.40 43.35 43.30 43.25 43.20 43.15 43.10 43.05 43.00 42.95 42.90 42.85 42.80 42.75 42.70 42.65 42.60 42.55 42.50 42.45 42.40 42.35 42.30 42.25 42.20 42.15 42.10 42.05 42.00 41.95 41.90 41.85 41.80 41.75 41.70 41.65 41.60 41.55 41.50 41.45 41.40 41.35 41.30 41.25 41.20 41.15 41.10 41.05 41.00 40.95 40.90 40.85 40.80 40.75 40.70 40.65 40.60 40.55 40.50 40.45 40.40 40.35 40.30 40.25 40.20 40.15 40.10 40.05 40.00 39.95 39.90 39.85 39.80 39.75 39.70 39.65 39.60 39.55 39.50 39.45 39.40 39.35 39.30 39.25 39.20 39.15 39.10 39.05 39.00 38.95 38.90 38.85 38.80 38.75 38.70 38.65 38.60 38.55 38.50 38.45 38.40 38.35 38.30 38.25 38.20 38.15 38.10 38.05 38.00 37.95 37.90 37.85 37.80 37.75 37.70 37.65 37.60 37.55
56.75 56.70 56.65 56.60 56.55 56.50 56.45 56.40 56.35 56.30 56.25 56.20 56.15 56.10 56.05 56.00 55.95 55.90 55.85 55.80 55.75 55.70 55.65 55.60 55.55 55.50 55.45 55.40 55.35 55.30 55.25 55.20 55.15 55.10 55.05 55.00 54.95 54.90 54.85 54.80 54.75 54.70 54.65 54.60 54.55 54.50 54.45 54.40 54.35 54.30 54.25 54.20 54.15 54.10 54.05 54.00 53.95 53.90 53.85 53.80 53.75 53.70 53.65 53.60 53.55 53.50 53.45 53.40 53.35 53.30 53.25 53.20 53.15 53.10 53.05 53.00 52.95 52.90 52.85 52.80 52.75 52.70 52.65 52.60 52.55 52.50 52.45 52.40 52.35 52.30 52.25 52.20 52.15 52.10 52.05 52.00 51.95 51.90 51.85 51.80 51.75 51.70 51.65 51.60 51.55 51.50 51.45 51.40 51.35 51.30 51.25 51.20 51.15 51.10 51.05 51.00 50.95 50.90 50.85 50.80 50.75 50.70 50.65 50.60 50.55 50.50 50.45 50.40 50.35 50.30 50.25 50.20 50.15 50.10 50.05 50.00 49.95 49.90 49.85 49.80 49.75 49.70 49.65 49.60 49.55 49.50 49.45 49.40 49.35 49.30 49.25 49.20 49.15 49.10 49.05 49.00 48.95 48.90 48.85 48.80 48.75 48.70 48.65 48.60 48.55 48.50 48.45 48.40 48.35 48.30 48.25 48.20 48.15 48.10 48.05 48.00 47.95 47.90 47.85 47.80 47.75 47.70 47.65 47.60 47.55 47.50 47.45 47.40 47.35 47.30 47.25 47.20 47.15 47.10 47.05 47.00 46.95 46.90 46.85 46.80 46.75 46.70 46.65 46.60 46.55 46.50 46.45 46.40 46.35 46.30 46.25 46.20 46.15 46.10 46.05 46.00 45.95 45.90 45.85 45.80 45.75 45.70 45.65 45.60 45.55 45.50 45.45 45.40 45.35 45.30 45.25 45.20 45.15 45.10 45.05 45.00 44.95 44.90 44.85 44.80 44.75 44.70 44.65 44.60 44.55 44.50 44.45 44.40 44.35 44.30 44.25 44.20 44.15 44.10 44.05 44.00 43.95 43.90 43.85 43.80 43.75 43.70 43.65 43.60 43.55 43.50 43.45 43.40 43.35 43.30 43.25 43.20 43.15 43.10 43.05 43.00 42.95 42.90 42.85 42.80 42.75 42.70 42.65 42.60 42.55 42.50 42.45 42.40 42.35 42.30 42.25 42.20 42.15 42.10 42.05 42.00 41.95 41.90 41.85 41.80 41.75 41.70 41.65 41.60 41.55 41.50 41.45 41.40 41.35 41.30 41.25 41.20 41.15 41.10 41.05 41.00 40.95 40.90 40.85 40.80 40.75 40.70 40.65 40.60 40.55 40.50 40.45 40.40 40.35 40.30 40.25 40.20 40.15 40.10 40.05 40.00 39.95 39.90 39.85 39.80 39.75 39.70 39.65 39.60 39.55 39.50 39.45 39.40 39.35 39.30 39.25 39.20 39.15 39.10 39.05 39.00 38.95 38.90 38.85 38.80 38.75 38.70 38.65 38.60 38.55 38.50 38.45 38.40 38.35 38.30 38.25 38.20 38.15 38.10 38.05 38.00 37.95 37.90 37.85 37.80 37.75 37.70 37.65 37.60 37.55 37.50 37.45 37.40 37.35 37.30 37.25 37.20 37.15 37.10 37.05 37.00 36.95 36.90 36.85 36.80
56.00 55.95 55.90 55.85 55.80 55.75 55.70 55.65 55.60 55.55 55.50 55.45 55.40 55.35 55.30 55.25 55.20 55.15 55.10 55.05 55.00 54.95 54.90 54.85 54.80 54.75 54.70 54.65 54.60 54.55 54.50 54.45 54.40 54.35 54.30 54.25 54.20 54.15 54.10 54.05 54.00 53.95 53.90 53.85 53.80 53.75 53.70 53.65 53.60 53.55 53.50 53.45 53.40 53.35 53.30 53.25 53.20 53.15 53.10 53.05 53.00 52.95 52.90 52.85 52.80 52.75 52.70 52.65 52.60 52.55 52.50 52.45 52.40 52.35 52.30 52.25 52.20 52.15 52.10 52.05 52.00 51.95 51.90 51.85 51.80 51.75 51.70 51.65 51.60 51.55 51.50 51.45 51.40 51.35 51.30 51.25 51.20 51.15 51.10 51.05 51.00 50.95 50.90 50.85 50.80 50.75 50.70 50.65 50.60 50.55 50.50 50.45 50.40 50.35 50.30 50.25 50.20 50.15 50.10 50.05 50.00 49.95 49.90 49.85 49.80 49.75 49.70 49.65 49.60 49.55 49.50 49.45 49.40 49.35 49.30 49.25 49.20 49.15 49.10 49.05 49.00 48.95 48.90 48.85 48.80 48.75 48.70 48.65 48.60 48.55 48.50 48.45 48.40 48.35 48.30 48.25 48.20 48.15 48.10 48.05 48.00 47.95 47.90 47.85 47.80 47.75 47.70 47.65 47.60 47.55 47.50 47.45 47.40 47.35 47.30 47.25 47.20 47.15 47.10 47.05 47.00 46.95 46.90 46.85 46.80 46.75 46.70 46.65 46.60 46.55 46.50 46.45 46.40 46.35 46.30 46.25 46.20 46.15 46.10 46.05 46.00 45.95 45.90 45.85 45.80 45.75 45.70 45.65 45.60 45.55 45.50 45.45 45.40 45.35 45.30 45.25 45.20 45.15 45.10 45.05 45.00 44.95 44.90 44.85 44.80 44.75 44.70 44.65 44.60 44.55 44.50 44.45 44.40 44.35 44.30 44.25 44.20 44.15 44.10 44.05 44.00 43.95 43.90 43.85 43.80 43.75 43.70 43.65 43.60 43.55 43.50 43.45 43.40 43.35 43.30 43.25 43.20 43.15 43.10 43.05 43.00 42.95 42.90 42.85 42.80 42.75 42.70 42.65 42.60 42.55 42.50 42.45 42.40 42.35 42.30 42.25 42.20 42.15 42.10 42.05 42.00 41.95 41.90 41.85 41.80 41.75 41.70 41.65 41.60 41.55 41.50 41.45 41.40 41.35 41.30 41.25 41.20 41.15 41.10 41.05 41.00 40.95 40.90 40.85 40.80 40.75 40.70 40.65 40.60 40.55 40.50 40.45 40.40 40.35 40.30 40.25 40.20 40.15 40.10 40.05 40.00 39.95 39.90 39.85 39.80 39.75 39.70 39.65 39.60 39.55 39.50 39.45 39.40 39.35 39.30 39.25 39.20 39.15 39.10 39.05 39.00 38.95 38.90 38.85 38.80 38.75 38.70 38.65 38.60 38.55 38.50 38.45 38.40 38.35 38.30 38.25 38.20 38.15 38.10 38.05 38.00 37.95 37.90 37.85 37.80 37.75 37.70 37.65 37.60 37.55 37.50 37.45 37.40 37.35 37.30 37.25 37.20 37.15 37.10 37.05 37.00 36.95 36.90 36.85 36.80 36.75 36.70 36.65 36.60 36.55 36.50 36.45 36.40 36.35 36.30 36.25 36.20 36.15 36.10 36.05
55.25 55.20 55.15 55.10 55.05 55.00 54.95 54.90 54.85 54.80 54.75 54.70 54.65 54.60 54.55 54.50 54.45 54.40 54.35 54.30 54.25 54.20 54.15 54.10 54.05 54.00 53.95 53.90 53.85 53.80 53.75 53.70 53.65 53.60 53.55 53.50 53.45 53.40 53.35 53.30 53.25 53.20 53.15 53.10 53.05 53.00 52.95 52.90 52.85 52.80 52.75 52.70 52.65 52.60 52.55 52.50 52.45 52.40 52.35 52.30 52.25 52.20 52.15 52.10 52.05 52.00 51.95 51.90 51.85 51.80 51.75 51.70 51.65 51.60 51.55 51.50 51.45 51.40 51.35 51.30 51.25 51.20 51.15 51.10 51.05 51.00 50.95 50.90 50.85 50.80 50.75 50.70 50.65 50.60 50.55 50.50 50.45 50.40 50.35 50.30 50.25 50.20 50.15 50.10 50.05 50.00 49.95 49.90 49.85 49.80 49.75 49.70 49.65 49.60 49.55 49.50 49.45 49.40 49.35 49.30 49.25 49.20 49.15 49.10 49.05 49.00 48.95 48.90 48.85 48.80 48.75 48.70 48.65 48.60 48.55 48.50 48.45 48.40 48.35 48.30 48.25 48.20 48.15 48.10 48.05 48.00 47.95 47.90 47.85 47.80 47.75 47.70 47.65 47.60 47.55 47.50 47.45 47.40 47.35 47.30 47.25 47.20 47.15 47.10 47.05 47.00 46.95 46.90 46.85 46.80 46.75 46.70 46.65 46.60 46.55 46.50 46.45 46.40 46.35 46.30 46.25 46.20 46.15 46.10 46.05 46.00 45.95 45.90 45.85 45.80 45.75 45.70 45.65 45.60 45.55 45.50 45.45 45.40 45.35 45.30 45.25 45.20 45.15 45.10 45.05 45.00 44.95 44.90 44.85 44.80 44.75 44.70 44.65 44.60 44.55 44.50 44.45 44.40 44.35 44.30 44.25 44.20 44.15 44.10 44.05 44.00 43.95 43.90 43.85 43.80 43.75 43.70 43.65 43.60 43.55 43.50 43.45 43.40 43.35 43.30 43.25 43.20 43.15 43.10 43.05 43.00 42.95 42.90 42.85 42.80 42.75 42.70 42.65 42.60 42.55 42.50 42.45 42.40 42.35 42.30 42.25 42.20 42.15 42.10 42.05 42.00 41.95 41.90 41.85 41.80 41.75 41.70 41.65 41.60 41.55 41.50 41.45 41.40 41.35 41.30 41.25 41.20 41.15 41.10 41.05 41.00 40.95 40.90 40.85 40.80 40.75 40.70 40.65 40.60 40.55 40.50 40.45 40.40 40.35 40.30 40.25 40.20 40.15 40.10 40.05 40.00 39.95 39.90 39.85 39.80 39.75 39.70 39.65 39.60 39.55 39.50 39.45 39.40 39.35 39.30 39.25 39.20 39.15 39.10 39.05 39.00 38.95 38.90 38.85 38.80 38.75 38.70 38.65 38.60 38.55 38.50 38.45 38.40 38.35 38.30 38.25 38.20 38.15 38.10 38.05 38.00 37.95 37.90 37.85 37.80 37.75 37.70 37.65 37.60 37.55 37.50 37.45 37.40 37.35 37.30 37.25 37.20 37.15 37.10 37.05 37.00 36.95 36.90 36.85 36.80 36.75 36.70 36.65 36.60 36.55 36.50 36.45 36.40 36.35 36.30 36.25 36.20 36.15 36.10 36.05 36.00 35.95 35.90 35.85 35.80 35.75 35.70 35.65 35.60 35.55 35.50 35.45 35.40 35.35 35.30
54.50 54.45 54.40 54.35 54.30 54.25 54.20 54.15 54.10 54.05 54.00 53.95 53.90 53.85 53.80 53.75 53.70 53.65 53.60 53.55 53.50 53.45 53.40 53.35 53.30 53.25 53.20 53.15 53.10 53.05 53.00 52.95 52.90 52.85 52.80 52.75 52.70 52.65 52.60 52.55 52.50 52.45 52.40 52.35 52.30 52.25 52.20 52.15 52.10 52.05 52.00 51.95 51.90 51.85 51.80 51.75 51.70 51.65 51.60 51.55 51.50 51.45 51.40 51.35 51.30 51.25 51.20 51.15 51.10 51.05 51.00 50.95 50.90 50.85 50.80 50.75 50.70 50.65 50.60 50.55 50.50 50.45 50.40 50.35 50.30 50.25 50.20 50.15 50.10 50.05 50.00 49.95 49.90 49.85 49.80 49.75 49.70 49.65 49.60 49.55 49.50 49.45 49.40 49.35 49.30 49.25 49.20 49.15 49.10 49.05 49.00 48.95 48.90 48.85 48.80 48.75 48.70 48.65 48.60 48.55 48.50 48.45 48.40 48.35 48.30 48.25 48.20 48.15 48.10 48.05 48.00 47.95 47.90 47.85 47.80 47.75 47.70 47.65 47.60 47.55 47.50 47.45 47.40 47.35 47.30 47.25 47.20 47.15 47.10 47.05 47.00 46.95 46.90 46.85 46.80 46.75 46.70 46.65 46.60 46.55 46.50 46.45 46.40 46.35 46.30 46.25 46.20 46.15 46.10 46.05 46.00 45.95 45.90 45.85 45.80 45.75 45.70 45.65 45.60 45.55 45.50 45.45 45.40 45.35 45.30 45.25 45.20 45.15 45.10 45.05 45.00 44.95 44.90 44.85 44.80 44.75 44.70 44.65 44.60 44.55 44.50 44.45 44.40 44.35 44.30 44.25 44.20 44.15 44.10 44.05 44.00 43.95 43.90 43.85 43.80 43.75 43.70 43.65 43.60 43.55 43.50 43.45 43.40 43.35 43.30 43.25 43.20 43.15 43.10 43.05 43.00 42.95 42.90 42.85 42.80 42.75 42.70 42.65 42.60 42.55 42.50 42.45 42.40 42.35 42.30 42.25 42.20 42.15 42.10 42.05 42.00 41.95 41.90 41.85 41.80 41.75 41.70 41.65 41.60 41.55 41.50 41.45 41.40 41.35 41.30 41.25 41.20 41.15 41.10 41.05 41.00 40.95 40.90 40.85 40.80 40.75 40.70 40.65 40.60 40.55 40.50 40.45 40.40 40.35 40.30 40.25 40.20 40.15 40.10 40.05 40.00 39.95 39.90 39.85 39.80 39.75 39.70 39.65 39.60 39.55 39.50 39.45 39.40 39.35 39.30 39.25 39.20 39.15 39.10 39.05 39.00 38.95 38.90 38.85 38.80 38.75 38.70 38.65 38.60 38.55 38.50 38.45 38.40 38.35 38.30 38.25 38.20 38.15 38.10 38.05 38.00 37.95 37.90 37.85 37.80 37.75 37.70 37.65 37.60 37.55 37.50 37.45 37.40 37.35 37.30 37.25 37.20 37.15 37.10 37.05 37.00 36.95 36.90 36.85 36.80 36.75 36.70 36.65 36.60 36.55 36.50 36.45 36.40 36.35 36.30 36.25 36.20 36.15 36.10 36.05 36.00 35.95 35.90 35.85 35.80 35.75 35.70 35.65 35.60 35.55 35.50 35.45 35.40 35.35 35.30 35.25 35.20 35.15 35.10 35.05 35.00 34.95 34.90 34.85 34.80 34.75 34.70 34.65 34.60 34.55
53.75 53.70 53.65 53.60 53.55 53.50 53.45 53.40 53.35 53.30 53.25 53.20 53.15 53.10 53.05 53.00 52.95 52.90 52.85 52.80 52.75 52.70 52.65 52.60 52.55 52.50 52.45 52.40 52.35 52.30 52.25 52.20 52.15 52.10 52.05 52.00 51.95 51.90 51.85 51.80 51.75 51.70 51.65 51.60 51.55 51.50 51.45 51.40 51.35 51.30 51.25 51.20 51.15 51.10 51.05 51.00 50.95 50.90 50.85 50.80 50.75 50.70 50.65 50.60 50.55 50.50 50.45 50.40 50.35 50.30 50.25 50.20 50.15 50.10 50.05 50.00 49.95 49.90 49.85 49.80 49.75 49.70 49.65 49.60 49.55 49.50 49.45 49.40 49.35 49.30 49.25 49.20 49.15 49.10 49.05 49.00 48.95 48.90 48.85 48.80 48.75 48.70 48.65 48.60 48.55 48.50 48.45 48.40 48.35 48.30 48.25 48.20 48.15 48.10 48.05 48.00 47.95 47.90 47.85 47.80 47.75 47.70 47.65 47.60 47.55 47.50 47.45 47.40 47.35 47.30 47.25 47.20 47.15 47.10 47.05 47.00 46.95 46.90 46.85 46.80 46.75 46.70 46.65 46.60 46.55 46.50 46.45 46.40 46.35 46.30 46.25 46.20 46.15 46.10 46.05 46.00 45.95 45.90 45.85 45.80 45.75 45.70 45.65 45.60 45.55 45.50 45.45 45.40 45.35 45.30 45.25 45.20 45.15 45.10 45.05 45.00 44.95 44.90 44.85 44.80 44.75 44.70 44.65 44.60 44.55 44.50 44.45 44.40 44.35 44.30 44.25 44.20 44.15 44.10 44.05 44.00 43.95 43.90 43.85 43.80 43.75 43.70 43.65 43.60 43.55 43.50 43.45 43.40 43.35 43.30 43.25 43.20 43.15 43.10 43.05 43.00 42.95 42.90 42.85 42.80 42.75 42.70 42.65 42.60 42.55 42.50 42.45 42.40 42.35 42.30 42.25 42.20 42.15 42.10 42.05 42.00 41.95 41.90 41.85 41.80 41.75 41.70 41.65 41.60 41.55 41.50 41.45 41.40 41.35 41.30 41.25 41.20 41.15 41.10 41.05 41.00 40.95 40.90 40.85 40.80 40.75 40.70 40.65 40.60 40.55 40.50 40.45 40.40 40.35 40.30 40.25 40.20 40.15 40.10 40.05 40.00 39.95 39.90 39.85 39.80 39.75 39.70 39.65 39.60 39.55 39.50 39.45 39.40 39.35 39.30 39.25 39.20 39.15 39.10 39.05 39.00 38.95 38.90 38.85 38.80 38.75 38.70 38.65 38.60 38.55 38.50 38.45 38.40 38.35 38.30 38.25 38.20 38.15 38.10 38.05 38.00 37.95 37.90 37.85 37.80 37.75 37.70 37.65 37.60 37.55 37.50 37.45 37.40 37.35 37.30 37.25 37.20 37.15 37.10 37.05 37.00 36.95 36.90 36.85 36.80 36.75 36.70 36.65 36.60 36.55 36.50 36.45 36.40 36.35 36.30 36.25 36.20 36.15 36.10 36.05 36.00 35.95 35.90 35.85 35.80 35.75 35.70 35.65 35.60 35.55 35.50 35.45 35.40 35.35 35.30 35.25 35.20 35.15 35.10 35.05 35.00 34.95 34.90 34.85 34.80 34.75 34.70 34.65 34.60 34.55 34.50 34.45 34.40 34.35 34.30 34.25 34.20 34.15 34.10 34.05 34.00 33.95 33.90 33.85 33.80
53.00 52.95 52.90 52.85 52.80 52.75 52.70 52.65 52.60 52.55 52.50 52.45 52.40 52.35 52.30 52.25 52.20 52.15 52.10 52.05 52.00 51.95 51.90 51.85 51.80 51.75 51.70 51.65 51.60 51.55 51.50 51.45 51.40 51.35 51.30 51.25 51.20 51.15 51.10 51.05 51.00 50.95 50.90 50.85 50.80 50.75 50.70 50.65 50.60 50.55 50.50 50.45 50.40 50.35 50.30 50.25 50.20 50.15 50.10 50.05 50.00 49.95 49.90 49.85 49.80 49.75 49.70 49.65 49.60 49.55 49.50 49.45 49.40 49.35 49.30 49.25 49.20 49.15 49.10 49.05 49.00 48.95 48.90 48.85 48.80 48.75 48.70 48.65 48.60 48.55 48.50 48.45 48.40 48.35 48.30 48.25 48.20 48.15 48.10 48.05 48.00 47.95 47.90 47.85 47.80 47.75 47.70 47.65 47.60 47.55 47.50 47.45 47.40 47.35 47.30 47.25 47.20 47.15 47.10 47.05 47.00 46.95 46.90 46.85 46.80 46.75 46.70 46.65 46.60 46.55 46.50 46.45 46.40 46.35 46.30 46.25 46.20 46.15 46.10 46.05 46.00 45.95 45.90 45.85 45.80 45.75 45.70 45.65 45.60 45.55 45.50 45.45 45.40 45.35 45.30 45.25 45.20 45.15 45.10 45.05 45.00 44.95 44.90 44.85 44.80 44.75 44.70 44.65 44.60 44.55 44.50 44.45 44.40 44.35 44.30 44.25 44.20 44.15 44.10 44.05 44.00 43.95 43.90 43.85 43.80 43.75 43.70 43.65 43.60 43.55 43.50 43.45 43.40 43.35 43.30 43.25 43.20 43.15 43.10 43.05 43.00 42.95 42.90 42.85 42.80 42.75 42.70 42.65 42.60 42.55 42.50 42.45 42.40 42.35 42.30 42.25 42.20 42.15 42.10 42.05 42.00 41.95 41.90 41.85 41.80 41.75 41.70 41.65 41.60 41.55 41.50 41.45 41.40 41.35 41.30 41.25 41.20 41.15 41.10 41.05 41.00 40.95 40.90 40.85 40.80 40.75 40.70 40.65 40.60 40.55 40.50 40.45 40.40 40.35 40.30 40.25 40.20 40.15 40.10 40.05 40.00 39.95 39.90 39.85 39.80 39.75 39.70 39.65 39.60 39.55 39.50 39.45 39.40 39.35 39.30 39.25 39.20 39.15 39.10 39.05 39.00 38.95 38.90 38.85 38.80 38.75 38.70 38.65 38.60 38.55 38.50 38.45 38.40 38.35 38.30 38.25 38.20 38.15 38.10 38.05 38.00 37.95 37.90 37.85 37.80 37.75 37.70 37.65 37.60 37.55 37.50 37.45 37.40 37.35 37.30 37.25 37.20 37.15 37.10 37.05 37.00 36.95 36.90 36.85 36.80 36.75 36.70 36.65 36.60 36.55 36.50 36.45 36.40 36.35 36.30 36.25 36.20 36.15 36.10 36.05 36.00 35.95 35.90 35.85 35.80 35.75 35.70 35.65 35.60 35.55 35.50 35.45 35.40 35.35 35.30 35.25 35.20 35.15 35.10 35.05 35.00 34.95 34.90 34.85 34.80 34.75 34.70 34.65 34.60 34.55 34.50 34.45 34.40 34.35 34.30 34.25 34.20 34.15 34.10 34.05 34.00 33.95 33.90 33.85 33.80 33.75 33.70 33.65 33.60 33.55 33.50 33.45 33.40 33.35 33.30 33.25 33.20 33.15 33.10 33.05
52.25 52.20 52.15 52.10 52.05 52.00 51.95 51.90 51.85 51.80 51.75 51.70 51.65 51.60 51.55 51.50 51.45 51.40 51.35 51.30 51.25 51.20 51.15 51.10 51.05 51.00 50.95 50.90 50.85 50.80 50.75 50.70 50.65 50.60 50.55 50.50 50.45 50.40 50.35 50.30 50.25 50.20 50.15 50.10 50.05 50.00 49.95 49.90 49.85 49.80 49.75 49.70 49.65 49.60 49.55 49.50 49.45 49.40 49.35 49.30 49.25 49.20 49.15 49.10 49.05 49.00 48.95 48.90 48.85 48.80 48.75 48.70 48.65 48.60 48.55 48.50 48.45 48.40 48.35 48.30 48.25 48.20 48.15 48.10 48.05 48.00 47.95 47.90 47.85 47.80 47.75 47.70 47.65 47.60 47.55 47.50 47.45 47.40 47.35 47.30 47.25 47.20 47.15 47.10 47.05 47.00 46.95 46.90 46.85 46.80 46.75 46.70 46.65 46.60 46.55 46.50 46.45 46.40 46.35 46.30 46.25 46.20 46.15 46.10 46.05 46.00 45.95 45.90 45.85 45.80 45.75 45.70 45.65 45.60 45.55 45.50 45.45 45.40 45.35 45.30 45.25 45.20 45.15 45.10 45.05 45.00 44.95 44.90 44.85 44.80 44.75 44.70 44.65 44.60 44.55 44.50 44.45 44.40 44.35 44.30 44.25 44.20 44.15 44.10 44.05 44.00 43.95 43.90 43.85 43.80 43.75 43.70 43.65 43.60 43.55 43.50 43.45 43.40 43.35 43.30 43.25 43.20 43.15 43.10 43.05 43.00 42.95 42.90 42.85 42.80 42.75 42.70 42.65 42.60 42.55 42.50 42.45 42.40 42.35 42.30 42.25 42.20 42.15 42.10 42.05 42.00 41.95 41.90 41.85 41.80 41.75 41.70 41.65 41.60 41.55 41.50 41.45 41.40 41.35 41.30 41.25 41.20 41.15 41.10 41.05 41.00 40.95 40.90 40.85 40.80 40.75 40.70 40.65 40.60 40.55 40.50 40.45 40.40 40.35 40.30 40.25 40.20 40.15 40.10 40.05 40.00 39.95 39.90 39.85 39.80 39.75 39.70 39.65 39.60 39.55 39.50 39.45 39.40 39.35 39.30 39.25 39.20 39.15 39.10 39.05 39.00 38.95 38.90 38.85 38.80 38.75 38.70 38.65 38.60 38.55 38.50 38.45 38.40 38.35 38.30 38.25 38.20 38.15 38.10 38.05 38.00 37.95 37.90 37.85 37.80 37.75 37.70 37.65 37.60 37.55 37.50 37.45 37.40 37.35 37.30 37.25 37.20 37.15 37.10 37.05 37.00 36.95 36.90 36.85 36.80 36.75 36.70 36.65 36.60 36.55 36.50 36.45 36.40 36.35 36.30 36.25 36.20 36.15 36.10 36.05 36.00 35.95 35.90 35.85 35.80 35.75 35.70 35.65 35.60 35.55 35.50 35.45 35.40 35.35 35.30 35.25 35.20 35.15 35.10 35.05 35.00 34.95 34.90 34.85 34.80 34.75 34.70 34.65 34.60 34.55 34.50 34.45 34.40 34.35 34.30 34.25 34.20 34.15 34.10 34.05 34.00 33.95 33.90 33.85 33.80 33.75 33.70 33.65 33.60 33.55 33.50 33.45 33.40 33.35 33.30 33.25 33.20 33.15 33.10 33.05 33.00 32.95 32.90 32.85 32.80 32.75 32.70 32.65 32.60 32.55 32.50 32.45 32.40 32.35 32.30
51.50 51.45 51.40 51.35 51.30 51.25 51.20 51.15 51.10 51.05 51.00 50.95 50.90 50.85 50.80 50.75 50.70 50.65 50.60 50.55 50.50 50.45 50.40 50.35 50.30 50.25 50.20 50.15 50.10 50.05 50.00 49.95 49.90 49.85 49.80 49.75 49.70 49.65 49.60 49.55 49.50 49.45 49.40 49.35 49.30 49.25 49.20 49.15 49.10 49.05 49.00 48.95 48.90 48.85 48.80 48.75 48.70 48.65 48.60 48.55 48.50 48.45 48.40 48.35 48.30 48.25 48.20 48.15 48.10 48.05 48.00 47.95 47.90 47.85 47.80 47.75 47.70 47.65 47.60 47.55 47.50 47.45 47.40 47.35 47.30 47.25 47.20 47.15 47.10 47.05 47.00 46.95 46.90 46.85 46.80 46.75 46.70 46.65 46.60 46.55 46.50 46.45 46.40 46.35 46.30 46.25 46.20 46.15 46.10 46.05 46.00 45.95 45.90 45.85 45.80 45.75 45.70 45.65 45.60 45.55 45.50 45.45 45.40 45.35 45.30 45.25 45.20 45.15 45.10 45.05 45.00 44.95 44.90 44.85 44.80 44.75 44.70 44.65 44.60 44.55 44.50 44.45 44.40 44.35 44.30 44.25 44.20 44.15 44.10 44.05 44.00 43.95 43.90 43.85 43.80 43.75 43.70 43.65 43.60 43.55 43.50 43.45 43.40 43.35 43.30 43.25 43.20 43.15 43.10 43.05 43.00 42.95 42.90 42.85 42.80 42.75 42.70 42.65 42.60 42.55 42.50 42.45 42.40 42.35 42.30 42.25 42.20 42.15 42.10 42.05 42.00 41.95 41.90 41.85 41.80 41.75 41.70 41.65 41.60 41.55 41.50 41.45 41.40 41.35 41.30 41.25 41.20 41.15 41.10 41.05 41.00 40.95 40.90 40.85 40.80 40.75 40.70 40.65 40.60 40.55 40.50 40.45 40.40 40.35 40.30 40.25 40.20 40.15 40.10 40.05 40.00 39.95 39.90 39.85 39.80 39.75 39.70 39.65 39.60 39.55 39.50 39.45 39.40 39.35 39.30 39.25 39.20 39.15 39.10 39.05 39.00 38.95 38.90 38.85 38.80 38.75 38.70 38.65 38.60 38.55 38.50 38.45 38.40 38.35 38.30 38.25 38.20 38.15 38.10 38.05 38.00 37.95 37.90 37.85 37.80 37.75 37.70 37.65 37.60 37.55 37.50 37.45 37.40 37.35 37.30 37.25 37.20 37.15 37.10 37.05 37.00 36.95 36.90 36.85 36.80 36.75 36.70 36.65 36.60 36.55 36.50 36.45 36.40 36.35 36.30 36.25 36.20 36.15 36.10 36.05 36.00 35.95 35.90 35.85 35.80 35.75 35.70 35.65 35.60 35.55 35.50 35.45 35.40 35.35 35.30 35.25 35.20 35.15 35.10 35.05 35.00 34.95 34.90 34.85 34.80 34.75 34.70 34.65 34.60 34.55 34.50 34.45 34.40 34.35 34.30 34.25 34.20 34.15 34.10 34.05 34.00 33.95 33.90 33.85 33.80 33.75 33.70 33.65 33.60 33.55 33.50 33.45 33.40 33.35 33.30 33.25 33.20 33.15 33.10 33.05 33.00 32.95 32.90 32.85 32.80 32.75 32.70 32.65 32.60 32.55 32.50 32.45 32.40 32.35 32.30 32.25 32.20 32.15 32.10 32.05 32.00 31.95 31.90 31.85 31.80 31.75 31.70 31.65 31.60 31.55
50.75 50.70 50.65 50.60 50.55 50.50 50.45 50.40 50.35 50.30 50.25 50.20 50.15 50.10 50.05 50.00 49.95 49.90 49.85 49.80 49.75 49.70 49.65 49.60 49.55 49.50 49.45 49.40 49.35 49.30 49.25 49.20 49.15 49.10 49.05 49.00 48.95 48.90 48.85 48.80 48.75 48.70 48.65 48.60 48.55 48.50 48.45 48.40 48.35 48.30 48.25 48.20 48.15 48.10 48.05 48.00 47.95 47.90 47.85 47.80 47.75 47.70 47.65 47.60 47.55 47.50 47.45 47.40 47.35 47.30 47.25 47.20 47.15 47.10 47.05 47.00 46.95 46.90 46.85 46.80 46.75 46.70 46.65 46.60 46.55 46.50 46.45 46.40 46.35 46.30 46.25 46.20 46.15 46.10 46.05 46.00 45.95 45.90 45.85 45.80 45.75 45.70 45.65 45.60 45.55 45.50 45.45 45.40 45.35 45.30 45.25 45.20 45.15 45.10 45.05 45.00 44.95 44.90 44.85 44.80 44.75 44.70 44.65 44.60 44.55 44.50 44.45 44.40 44.35 44.30 44.25 44.20 44.15 44.10 44.05 44.00 43.95 43.90 43.85 43.80 43.75 43.70 43.65 43.60 43.55 43.50 43.45 43.40 43.35 43.30 43.25 43.20 43.15 43.10 43.05 43.00 42.95 42.90 42.85 42.80 42.75 42.70 42.65 42.60 42.55 42.50 42.45 42.40 42.35 42.30 42.25 42.20 42.15 42.10 42.05 42.00 41.95 41.90 41.85 41.80 41.75 41.70 41.65 41.60 41.55 41.50 41.45 41.40 41.35 41.30 41.25 41.20 41.15 41.10 41.05 41.00 40.95 40.90 40.85 40.80 40.75 40.70 40.65 40.60 40.55 40.50 40.45 40.40 40.35 40.30 40.25 40.20 40.15 40.10 40.05 40.00 39.95 39.90 39.85 39.80 39.75 39.70 39.65 39.60 39.55 39.50 39.45 39.40 39.35 39.30 39.25 39.20 39.15 39.10 39.05 39.00 38.95 38.90 38.85 38.80 38.75 38.70 38.65 38.60 38.55 38.50 38.45 38.40 38.35 38.30 38.25 38.20 38.15 38.10 38.05 38.00 37.95 37.90 37.85 37.80 37.75 37.70 37.65 37.60 37.55 37.50 37.45 37.40 37.35 37.30 37.25 37.20 37.15 37.10 37.05 37.00 36.95 36.90 36.85 36.80 36.75 36.70 36.65 36.60 36.55 36.50 36.45 36.40 36.35 36.30 36.25 36.20 36.15 36.10 36.05 36.00 35.95 35.90 35.85 35.80 35.75 35.70 35.65 35.60 35.55 35.50 35.45 35.40 35.35 35.30 35.25 35.20 35.15 35.10 35.05 35.00 34.95 34.90 34.85 34.80 34.75 34.70 34.65 34.60 34.55 34.50 34.45 34.40 34.35 34.30 34.25 34.20 34.15 34.10 34.05 34.00 33.95 33.90 33.85 33.80 33.75 33.70 33.65 33.60 33.55 33.50 33.45 33.40 33.35 33.30 33.25 33.20 33.15 33.10 33.05 33.00 32.95 32.90 32.85 32.80 32.75 32.70 32.65 32.60 32.55 32.50 32.45 32.40 32.35 32.30 32.25 32.20 32.15 32.10 32.05 32.00 31.95 31.90 31.85 31.80 31.75 31.70 31.65 31.60 31.55 31.50 31.45 31.40 31.35 31.30 31.25 31.20 31.15 31.10 31.05 31.00 30.95 30.90 30.85 30.80
50.00 49.95 49.90 49.85 49.80 49.75 49.70 49.65 49.60 49.55 49.50 49.45 49.40 49.35 49.30 49.25 49.20 49.15 49.10 49.05 49.00 48.95 48.90 48.85 48.80 48.75 48.70 48.65 48.60 48.55 48.50 48.45 48.40 48.35 48.30 48.25 48.20 48.15 48.10 48.05 48.00 47.95 47.90 47.85 47.80 47.75 47.70 47.65 47.60 47.55 47.50 47.45 47.40 47.35 47.30 47.25 47.20 47.15 47.10 47.05 47.00 46.95 46.90 46.85 46.80 46.75 46.70 46.65 46.60 46.55 46.50 46.45 46.40 46.35 46.30 46.25 46.20 46.15 46.10 46.05 46.00 45.95 45.90 45.85 45.80 45.75 45.70 45.65 45.60 45.55 45.50 45.45 45.40 45.35 45.30 45.25 45.20 45.15 45.10 45.05 45.00 44.95 44.90 44.85 44.80 44.75 44.70 44.65 44.60 44.55 44.50 44.45 44.40 44.35 44.30 44.25 44.20 44.15 44.10 44.05 44.00 43.95 43.90 43.85 43.80 43.75 43.70 43.65 43.60 43.55 43.50 43.45 43.40 43.35 43.30 43.25 43.20 43.15 43.10 43.05 43.00 42.95 42.90 42.85 42.80 42.75 42.70 42.65 42.60 42.55 42.50 42.45 42.40 42.35 42.30 42.25 42.20 42.15 42.10 42.05 42.00 41.95 41.90 41.85 41.80 41.75 41.70 41.65 41.60 41.55 41.50 41.45 41.40 41.35 41.30 41.25 41.20 41.15 41.10 41.05 41.00 40.95 40.90 40.85 40.80 40.75 40.70 40.65 40.60 40.55 40.50 40.45 40.40 40.35 40.30 40.25 40.20 40.15 40.10 40.05 40.00 39.95 39.90 39.85 39.80 39.75 39.70 39.65 39.60 39.55 39.50 39.45 39.40 39.35 39.30 39.25 39.20 39.15 39.10 39.05 39.00 38.95 38.90 38.85 38.80 38.75 38.70 38.65 38.60 38.55 38.50 38.45 38.40 38.35 38.30 38.25 38.20 38.15 38.10 38.05 38.00 37.95 37.90 37.85 37.80 37.75 37.70 37.65 37.60 37.55 37.50 37.45 37.40 37.35 37.30 37.25 37.20 37.15 37.10 37.05 37.00 36.95 36.90 36.85 36.80 36.75 36.70 36.65 36.60 36.55 36.50 36.45 36.40 36.35 36.30 36.25 36.20 36.15 36.10 36.05 36.00 35.95 35.90 35.85 35.80 35.75 35.70 35.65 35.60 35.55 35.50 35.45 35.40 35.35 35.30 35.25 35.20 35.15 35.10 35.05 35.00 34.95 34.90 34.85 34.80 34.75 34.70 34.65 34.60 34.55 34.50 34.45 34.40 34.35 34.30 34.25 34.20 34.15 34.10 34.05 34.00 33.95 33.90 33.85 33.80 33.75 33.70 33.65 33.60 33.55 33.50 33.45 33.40 33.35 33.30 33.25 33.20 33.15 33.10 33.05 33.00 32.95 32.90 32.85 32.80 32.75 32.70 32.65 32.60 32.55 32.50 32.45 32.40 32.35 32.30 32.25 32.20 32.15 32.10 32.05 32.00 31.95 31.90 31.85 31.80 31.75 31.70 31.65 31.60 31.55 31.50 31.45 31.40 31.35 31.30 31.25 31.20 31.15 31.10 31.05 31.00 30.95 30.90 30.85 30.80 30.75 30.70 30.65 30.60 30.55 30.50 30.45 30.40 30.35 30.30 30.25 30.20 30.15 30.10 30.05
50.00 49.95 49.90 49.85 49.80 49.75 49.70 49.65 49.60 49.55 49.50 49.45 49.40 49.35 49.30 49.25 49.20 49.15 49.10 49.05 49.00 48.95 48.90 48.85 48.80 48.75 48.70 48.65 48.60 48.55 48.50 48.45 48.40 48.35 48.30 48.25 48.20 48.15 48.10 48.05 48.00 47.95 47.90 47.85 47.80 47.75 47.70 47.65 47.60 47.55 47.50 47.45 47.40 47.35 47.30 47.25 47.20 47.15 47.10 47.05 47.00 46.95 46.90 46.85 46.80 46.75 46.70 46.65 46.60 46.55 46.50 46.45 46.40 46.35 46.30 46.25 46.20 46.15 46.10 46.05 46.00 45.95 45.90 45.85 45.80 45.75 45.70 45.65 45.60 45.55 45.50 45.45 45.40 45.35 45.30 45.25 45.20 45.15 45.10 45.05 45.00 44.95 44.90 44.85 44.80 44.75 44.70 44.65 44.60 44.55 44.50 44.45 44.40 44.35 44.30 44.25 44.20 44.15 44.10 44.05 44.00 43.95 43.90 43.85 43.80 43.75 43.70 43.65 43.60 43.55 43.50 43.45 43.40 43.35 43.30 43.25 43.20 43.15 43.10 43.05 43.00 42.95 42.90 42.85 42.80 42.75 42.70 42.65 42.60 42.55 42.50 42.45 42.40 42.35 42.30 42.25 42.20 42.15 42.10 42.05 42.00 41.95 41.90 41.85 41.80 41.75 41.70 41.65 41.60 41.55 41.50 41.45 41.40 41.35 41.30 41.25 41.20 41.15 41.10 41.05 41.00 40.95 40.90 40.85 40.80 40.75 40.70 40.65 40.60 40.55 40.50 40.45 40.40 40.35 40.30 40.25 40.20 40.15 40.10 40.05 40.00 39.95 39.90 39.85 39.80 39.75 39.70 39.65 39.60 39.55 39.50 39.45 39.40 39.35 39.30 39.25 39.20 39.15 39.10 39.05 39.00 38.95 38.90 38.85 38.80 38.75 38.70 38.65 38.60 38.55 38.50 38.45 38.40 38.35 38.30 38.25 38.20 38.15 38.10 38.05 38.00 37.95 37.90 37.85 37.80 37.75 37.70 37.65 37.60 37.55 37.50 37.45 37.40 37.35 37.30 37.25 37.20 37.15 37.10 37.05 37.00 36.95 36.90 36.85 36.80 36.75 36.70 36.65 36.60 36.55 36.50 36.45 36.40 36.35 36.30 36.25 36.20 36.15 36.10 36.05 36.00 35.95 35.90 35.85 35.80 35.75 35.70 35.65 35.60 35.55 35.50 35.45 35.40 35.35 35.30 35.25 35.20 35.15 35.10 35.05 35.00 34.95 34.90 34.85 34.80 34.75 34.70 34.65 34.60 34.55 34.50 34.45 34.40 34.35 34.30 34.25 34.20 34.15 34.10 34.05 34.00 33.95 33.90 33.85 33.80 33.75 33.70 33.65 33.60 33.55 33.50 33.45 33.40 33.35 33.30 33.25 33.20 33.15 33.10 33.05 33.00 32.95 32.90 32.85 32.80 32.75 32.70 32.65 32.60 32.55 32.50 32.45 32.40 32.35 32.30 32.25 32.20 32.15 32.10 32.05 32.00 31.95 31.90 31.85 31.80 31.75 31.70 31.65 31.60 31.55 31.50 31.45 31.40 31.35 31.30 31.25 31.20 31.15 31.10 31.05 31.00 30.95 30.90 30.85 30.80 30.75 30.70 30.65 30.60 30.55 30.50 30.45 30.40 30.35 30.30 30.25 30.20 30.15 30.10 30.05
50.00 49.95 49.90 49.85 49.80 49.75 49.70 49.65 49.60 49.55 49.50 49.45 49.40 49.35 49.30 49.25 49.20 49.15 49.10 49.05 49.00 48.95 48.90 48.85 48.80 48.75 48.70 48.65 48.60 48.55 48.50 48.45 48.40 48.35 48.30 48.25 48.20 48.15 48.10 48.05 48.00 47.95 47.90 47.85 47.80 47.75 47.70 47.65 47.60 47.55 47.50 47.45 47.40 47.35 47.30 47.25 47.20 47.15 47.10 47.05 47.00 46.95 46.90 46.85 46.80 46.75 46.70 46.65 46.60 46.55 46.50 46.45 46.40 46.35 46.30 46.25 46.20 46.15 46.10 46.05 46.00 45.95 45.90 45.85 45.80 45.75 45.70 45.65 45.60 45.55 45.50 45.45 45.40 45.35 45.30 45.25 45.20 45.15 45.10 45.05 45.00 44.95 44.90 44.85 44.80 44.75 44.70 44.65 44.60 44.55 44.50 44.45 44.40 44.35 44.30 44.25 44.20 44.15 44.10 44.05 44.00 43.95 43.90 43.85 43.80 43.75 43.70 43.65 43.60 43.55 43.50 43.45 43.40 43.35 43.30 43.25 43.20 43.15 43.10 43.05 43.00 42.95 42.90 42.85 42.80 42.75 42.70 42.65 42.60 42.55 42.50 42.45 42.40 42.35 42.30 42.25 42.20 42.15 42.10 42.05 42.00 41.95 41.90 41.85 41.80 41.75 41.70 41.65 41.60 41.55 41.50 41.45 41.40 41.35 41.30 41.25 41.20 41.15 41.10 41.05 41.00 40.95 40.90 40.85 40.80 40.75 40.70 40.65 40.60 40.55 40.50 40.45 40.40 40.35 40.30 40.25 40.20 40.15 40.10 40.05 40.00 39.95 39.90 39.85 39.80 39.75 39.70 39.65 39.60 39.55 39.50 39.45 39.40 39.35 39.30 39.25 39.20 39.15 39.10 39.05 39.00 38.95 38.90 38.85 38.80 38.75 38.70 38.65 38.60 38.55 38.50 38.45 38.40 38.35 38.30 38.25 38.20 38.15 38.10 38.05 38.00 37.95 37.90 37.85 37.80 37.75 37.70 37.65 37.60 37.55 37.50 37.45 37.40 37.35 37.30 37.25 37.20 37.15 37.10 37.05 37.00 36.95 36.90 36.85 36.80 36.75 36.70 36.65 36.60 36.55 36.50 36.45 36.40 36.35 36.30 36.25 36.20 36.15 36.10 36.05 36.00 35.95 35.90 35.85 35.80 35.75 35.70 35.65 35.60 35.55 35.50 35.45 35.40 35.35 35.30 35.25 35.20 35.15 35.10 35.05 35.00 34.95 34.90 34.85 34.80 34.75 34.70 34.65 34.60 34.55 34.50 34.45 34.40 34.35 34.30 34.25 34.20 34.15 34.10 34.05 34.00 33.95 33.90 33.85 33.80 33.75 33.70 33.65 33.60 33.55 33.50 33.45 33.40 33.35 33.30 33.25 33.20 33.15 33.10 33.05 33.00 32.95 32.90 32.85 32.80 32.75 32.70 32.65 32.60 32.55 32.50 32.45 32.40 32.35 32.30 32.25 32.20 32.15 32.10 32.05 32.00 31.95 31.90 31.85 31.80 31.75 31.70 31.65 31.60 31.55 31.50 31.45 31.40 31.35 31.30 31.25 31.20 31.15 31.10 31.05 31.00 30.95 30.90 30.85 30.80 30.75 30.70 30.65 30.60 30.55 30.50 30.45 30.40 30.35 30.30 30.25 30.20 30.15 30.10 30.05
50.00 49.95 49.90 49.85 49.80 49.75 49.70 49.65 49.60 49.55 49.50 49.45 49.40 49.35 49.30 49.25 49.20 49.15 49.10 49.05 49.00 48.95 48.90 48.85 48.80 48.75 48.70 48.65 48.60 48.55 48.50 48.45 48.40 48.35 48.30 48.25 48.20 48.15 48.10 48.05 48.00 47.95 47.90 47.85 47.80 47.75 47.70 47.65 47.60 47.55 47.50 47.45 47.40 47.35 47.30 47.25 47.20 47.15 47.10 47.05 47.00 46.95 46.90 46.85 46.80 46.75 46.70 46.65 46.60 46.55 46.50 46.45 46.40 46.35 46.30 46.25 46.20 46.15 46.10 46.05 46.00 45.95 45.90 45.85 45.80 45.75 45.70 45.65 45.60 45.55 45.50 45.45 45.40 45.35 45.30 45.25 45.20 45.15 45.10 45.05 45.00 44.95 44.90 44.85 44.80 44.75 44.70 44.65 44.60 44.55 44.50 44.45 44.40 44.35 44.30 44.25 44.20 44.15 44.10 44.05 44.00 43.95 43.90 43.85 43.80 43.75 43.70 43.65 43.60 43.55 43.50 43.45 43.40 43.35 43.30 43.25 43.20 43.15 43.10 43.05 43.00 42.95 42.90 42.85 42.80 42.75 42.70 42.65 42.60 42.55 42.50 42.45 42.40 42.35 42.30 42.25 42.20 42.15 42.10 42.05 42.00 41.95 41.90 41.85 41.80 41.75 41.70 41.65 41.60 41.55 41.50 41.45 41.40 41.35 41.30 41.25 41.20 41.15 41.10 41.05 41.00 40.95 40.90 40.85 40.80 40.75 40.70 40.65 40.60 40.55 40.50 40.45 40.40 40.35 40.30 40.25 40.20 40.15 40.10 40.05 40.00 39.95 39.90 39.85 39.80 39.75 39.70 39.65 39.60 39.55 39.50 39.45 39.40 39.35 39.30 39.25 39.20 39.15 39.10 39.05 39.00 38.95 38.90 38.85 38.80 38.75 38.70 38.65 38.60 38.55 38.50 38.45 38.40 38.35 38.30 38.25 38.20 38.15 38.10 38.05 38.00 37.95 37.90 37.85 37.80 37.75 37.70 37.65 37.60 37.55 37.50 37.45 37.40 37.35 37.30 37.25 37.20 37.15 37.10 37.05 37.00 36.95 36.90 36.85 36.80 36.75 36.70 36.65 36.60 36.55 36.50 36.45 36.40 36.35 36.30 36.25 36.20 36.15 36.10 36.05 36.00 35.95 35.90 35.85 35.80 35.75 35.70 35.65 35.60 35.55 35.50 35.45 35.40 35.35 35.30 35.25 35.20 35.15 35.10 35.05 35.00 34.95 34.90 34.85 34.80 34.75 34.70 34.65 34.60 34.55 34.50 34.45 34.40 34.35 34.30 34.25 34.20 34.15 34.10 34.05 34.00 33.95 33.90 33.85 33.80 33.75 33.70 33.65 33.60 33.55 33.50 33.45 33.40 33.35 33.30 33.25 33.20 33.15 33.10 33.05 33.00 32.95 32.90 32.85 32.80 32.75 32.70 32.65 32.60 32.55 32.50 32.45 32.40 32.35 32.30 32.25 32.20 32.15 32.10 32.05 32.00 31.95 31.90 31.85 31.80 31.75 31.70 31.65 31.60 31.55 31.50 31.45 31.40 31.35 31.30 31.25 31.20 31.15 31.10 31.05 31.00 30.95 30.90 30.85 30.80 30.75 30.70 30.65 30.60 30.55 30.50 30.45 30.40 30.35 30.30 30.25 30.20 30.15 30.10 30.05
50.00 49.95 49.90 49.85 49.80 49.75 49.70 49.65 49.60 49.55 49.50 49.45 49.40 49.35 49.30 49.25 49.20 49.15 49.10 49.05 49.00 48.95 48.90 48.85 48.80 48.75 48.70 48.65 48.60 48.55 48.50 48.45 48.40 48.35 48.30 48.25 48.20 48.15 48.10 48.05 48.00 47.95 47.90 47.85 47.80 47.75 47.70 47.65 47.60 47.55 47.50 47.45 47.40 47.35 47.30 47.25 47.20 47.15 47.10 47.05 47.00 46.95 46.90 46.85 46.80 46.75 46.70 46.65 46.60 46.55 46.50 46.45 46.40 46.35 46.30 46.25 46.20 46.15 46.10 46.05 46.00 45.95 45.90 45.85 45.80 45.75 45.70 45.65 45.60 45.55 45.50 45.45 45.40 45.35 45.30 45.25 45.20 45.15 45.10 45.05 45.00 44.95 44.90 44.85 44.80 44.75 44.70 44.65 44.60 44.55 44.50 44.45 44.40 44.35 44.30 44.25 44.20 44.15 44.10 44.05 44.00 43.95 43.90 43.85 43.80 43.75 43.70 43.65 43.60 43.55 43.50 43.45 43.40 43.35 43.30 43.25 43.20 43.15 43.10 43.05 43.00 42.95 42.90 42.85 42.80 42.75 42.70 42.65 42.60 42.55 42.50 42.45 42.40 42.35 42.30 42.25 42.20 42.15 42.10 42.05 42.00 41.95 41.90 41.85 41.80 41.75 41.70 41.65 41.60 41.55 41.50 41.45 41.40 41.35 41.30 41.25 41.20 41.15 41.10 41.05 41.00 40.95 40.90 40.85 40.80 40.75 40.70 40.65 40.60 40.55 40.50 40.45 40.40 40.35 40.30 40.25 40.20 40.15 40.10 40.05 40.00 39.95 39.90 39.85 39.80 39.75 39.70 39.65 39.60 39.55 39.50 39.45 39.40 39.35 39.30 39.25 39.20 39.15 39.10 39.05 39.00 38.95 38.90 38.85 38.80 38.75 38.70 38.65 38.60 38.55 38.50 38.45 38.40 38.35 38.30 38.25 38.20 38.15 38.10 38.05 38.00 37.95 37.90 37.85 37.80 37.75 37.70 37.65 37.60 37.55 37.50 37.45 37.40 37.35 37.30 37.25 37.20 37.15 37.10 37.05 37.00 36.95 36.90 36.85 36.80 36.75 36.70 36.65 36.60 36.55 36.50 36.45 36.40 36.35 36.30 36.25 36.20 36.15 36.10 36.05 36.00 35.95 35.90 35.85 35.80 35.75 35.70 35.65 35.60 35.55 35.50 35.45 35.40 35.35 35.30 35.25 35.20 35.15 35.10 35.05 35.00 34.95 34.90 34.85 34.80 34.75 34.70 34.65 34.60 34.55 34.50 34.45 34.40 34.35 34.30 34.25 34.20 34.15 34.10 34.05 34.00 33.95 33.90 33.85 33.80 33.75 33.70 33.65 33.60 33.55 33.50 33.45 33.40 33.35 33.30 33.25 33.20 33.15 33.10 33.05 33.00 32.95 32.90 32.85 32.80 32.75 32.70 32.65 32.60 32.55 32.50 32.45 32.40 32.35 32.30 32.25 32.20 32.15 32.10 32.05 32.00 31.95 31.90 31.85 31.80 31.75 31.70 31.65 31.60 31.55 31.50 31.45 31.40 31.35 31.30 31.25 31.20 31.15 31.10 31.05 31.00 30.95 30.90 30.85 30.80 30.75 30.70 30.65 30.60 30.55 30.50 30.45 30.40 30.35 30.30 30.25 30.20 30.15 30.10 30.05
50.00 49.95 49.90 49.85 49.80 49.75 49.70 49.65 49.60 49.55 49.50 49.45 49.40 49.35 49.30 49.25 49.20 49.15 49.10 49.05 49.00 48.95 48.90 48.85 48.80 48.75 48.70 48.65 48.60 48.55 48.50 48.45 48.40 48.35 48.30 48.25 48.20 48.15 48.10 48.05 48.00 47.95 47.90 47.85 47.80 47.75 47.70 47.65 47.60 47.55 47.50 47.45 47.40 47.35 47.30 47.25 47.20 47.15 47.10 47.05 47.00 46.95 46.90 46.85 46.80 46.75 46.70 46.65 46.60 46.55 46.50 46.45 46.40 46.35 46.30 46.25 46.20 46.15 46.10 46.05 46.00 45.95 45.90 45.85 45.80 45.75 45.70 45.65 45.60 45.55 45.50 45.45 45.40 45.35 45.30 45.25 45.20 45.15 45.10 45.05 45.00 44.95 44.90 44.85 44.80 44.75 44.70 44.65 44.60 44.55 44.50 44.45 44.40 44.35 44.30 44.25 44.20 44.15 44.10 44.05 44.00 43.95 43.90 43.85 43.80 43.75 43.70 43.65 43.60 43.55 43.50 43.45 43.40 43.35 43.30 43.25 43.20 43.15 43.10 43.05 43.00 42.95 42.90 42.85 42.80 42.75 42.70 42.65 42.60 42.55 42.50 42.45 42.40 42.35 42.30 42.25 42.20 42.15 42.10 42.05 42.00 41.95 41.90 41.85 41.80 41.75 41.70 41.65 41.60 41.55 41.50 41.45 41.40 41.35 41.30 41.25 41.20 41.15 41.10 41.05 41.00 40.95 40.90 40.85 40.80 40.75 40.70 40.65 40.60 40.55 40.50 40.45 40.40 40.35 40.30 40.25 40.20 40.15 40.10 40.05 40.00 39.95 39.90 39.85 39.80 39.75 39.70 39.65 39.60 39.55 39.50 39.45 39.40 39.35 39.30 39.25 39.20 39.15 39.10 39.05 39.00 38.95 38.90 38.85 38.80 38.75 38.70 38.65 38.60 38.55 38.50 38.45 38.40 38.35 38.30 38.25 38.20 38.15 38.10 38.05 38.00 37.95 37.90 37.85 37.80 37.75 37.70 37.65 37.60 37.55 37.50 37.45 37.40 37.35 37.30 37.25 37.20 37.15 37.10 37.05 37.00 36.95 36.90 36.85 36.80 36.75 36.70 36.65 36.60 36.55 36.50 36.45 36.40 36.35 36.30 36.25 36.20 36.15 36.10 36.05 36.00 35.95 35.90 35.85 35.80 35.75 35.70 35.65 35.60 35.55 35.50 35.45 35.40 35.35 35.30 35.25 35.20 35.15 35.10 35.05 35.00 34.95 34.90 34.85 34.80 34.75 34.70 34.65 34.60 34.55 34.50 34.45 34.40 34.35 34.30 34.25 34.20 34.15 34.10 34.05 34.00 33.95 33.90 33.85 33.80 33.75 33.70 33.65 33.60 33.55 33.50 33.45 33.40 33.35 33.30 33.25 33.20 33.15 33.10 33.05 33.00 32.95 32.90 32.85 32.80 32.75 32.70 32.65 32.60 32.55 32.50 32.45 32.40 32.35 32.30 32.25 32.20 32.15 32.10 32.05 32.00 31.95 31.90 31.85 31.80 31.75 31.70 31.65 31.60 31.55 31.50 31.45 31.40 31.35 31.30 31.25 31.20 31.15 31.10 31.05 31.00 30.95 30.90 30.85 30.80 30.75 30.70 30.65 30.60 30.55 30.50 30.45 30.40 30.35 30.30 30.25 30.20 30.15 30.10 30.05
50.00 49.95 49.90 49.85 49.80 49.75 49.70 49.65 49.60 49.55 49.50 49.45 49.40 49.35 49.30 49.25 49.20 49.15 49.10 49.05 49.00 48.95 48.90 48.85 48.80 48.75 48.70 48.65 48.60 48.55 48.50 48.45 48.40 48.35 48.30 48.25 48.20 48.15 48.10 48.05 48.00 47.95 47.90 47.85 47.80 47.75 47.70 47.65 47.60 47.55 47.50 47.45 47.40 47.35 47.30 47.25 47.20 47.15 47.10 47.05 47.00 46.95 46.90 46.85 46.80 46.75 46.70 46.65 46.60 46.55 46.50 46.45 46.40 46.35 46.30 46.25 46.20 46.15 46.10 46.05 46.00 45.95 45.90 45.85 45.80 45.75 45.70 45.65 45.60 45.55 45.50 45.45 45.40 45.35 45.30 45.25 45.20 45.15 45.10 45.05 45.00 44.95 44.90 44.85 44.80 44.75 44.70 44.65 44.60 44.55 44.50 44.45 44.40 44.35 44.30 44.25 44.20 44.15 44.10 44.05 44.00 43.95 43.90 43.85 43.80 43.75 43.70 43.65 43.60 43.55 43.50 43.45 43.40 43.35 43.30 43.25 43.20 43.15 43.10 43.05 43.00 42.95 42.90 42.85 42.80 42.75 42.70 42.65 42.60 42.55 42.50 42.45 42.40 42.35 42.30 42.25 42.20 42.15 42.10 42.05 42.00 41.95 41.90 41.85 41.80 41.75 41.70 41.65 41.60 41.55 41.50 41.45 41.40 41.35 41.30 41.25 41.20 41.15 41.10 41.05 41.00 40.95 40.90 40.85 40.80 40.75 40.70 40.65 40.60 40.55 40.50 40.45 40.40 40.35 40.30 40.25 40.20 40.15 40.10 40.05 40.00 39.95 39.90 39.85 39.80 39.75 39.70 39.65 39.60 39.55 39.50 39.45 39.40 39.35 39.30 39.25 39.20 39.15 39.10 39.05 39.00 38.95 38.90 38.85 38.80 38.75 38.70 38.65 38.60 38.55 38.50 38.45 38.40 38.35 38.30 38.25 38.20 38.15 38.10 38.05 38.00 37.95 37.90 37.85 37.80 37.75 37.70 37.65 37.60 37.55 37.50 37.45 37.40 37.35 37.30 37.25 37.20 37.15 37.10 37.05 37.00 36.95 36.90 36.85 36.80 36.75 36.70 36.65 36.60 36.55 36.50 36.45 36.40 36.35 36.30 36.25 36.20 36.15 36.10 36.05 36.00 35.95 35.90 35.85 35.80 35.75 35.70 35.65 35.60 35.55 35.50 35.45 35.40 35.35 35.30 35.25 35.20 35.15 35.10 35.05 35.00 34.95 34.90 34.85 34.80 34.75 34.70 34.65 34.60 34.55 34.50 34.45 34.40 34.35 34.30 34.25 34.20 34.15 34.10 34.05 34.00 33.95 33.90 33.85 33.80 33.75 33.70 33.65 33.60 33.55 33.50 33.45 33.40 33.35 33.30 33.25 33.20 33.15 33.10 33.05 33.00 32.95 32.90 32.85 32.80 32.75 32.70 32.65 32.60 32.55 32.50 32.45 32.40 32.35 32.30 32.25 32.20 32.15 32.10 32.05 32.00 31.95 31.90 31.85 31.80 31.75 31.70 31.65 31.60 31.55 31.50 31.45 31.40 31.35 31.30 31.25 31.20 31.15 31.10 31.05 31.00 30.95 30.90 30.85 30.80 30.75 30.70 30.65 30.60 30.55 30.50 30.45 30.40 30.35 30.30 30.25 30.20 30.15 30.10 30.05
50.00 49.95 49.90 49.85 49.80 49.75 49.70 49.65 49.60 49.55 49.50 49.45 49.40 49.35 49.30 49.25 49.20 49.15 49.10 49.05 49.00 48.95 48.90 48.85 48.80 48.75 48.70 48.65 48.60 48.55 48.50 48.45 48.40 48.35 48.30 48.25 48.20 48.15 48.10 48.05 48.00 47.95 47.90 47.85 47.80 47.75 47.70 47.65 47.60 47.55 47.50 47.45 47.40 47.35 47.30 47.25 47.20 47.15 47.10 47.05 47.00 46.95 46.90 46.85 46.80 46.75 46.70 46.65 46.60 46.55 46.50 46.45 46.40 46.35 46.30 46.25 46.20 46.15 46.10 46.05 46.00 45.95 45.90 45.85 45.80 45.75 45.70 45.65 45.60 45.55 45.50 45.45 45.40 45.35 45.30 45.25 45.20 45.15 45.10 45.05 45.00 44.95 44.90 44.85 44.80 44.75 44.70 44.65 44.60 44.55 44.50 44.45 44.40 44.35 44.30 44.25 44.20 44.15 44.10 44.05 44.00 43.95 43.90 43.85 43.80 43.75 43.70 43.65 43.60 43.55 43.50 43.45 43.40 43.35 43.30 43.25 43.20 43.15 43.10 43.05 43.00 42.95 42.90 42.85 42.80 42.75 42.70 42.65 42.60 42.55 42.50 42.45 42.40 42.35 42.30 42.25 42.20 42.15 42.10 42.05 42.00 41.95 41.90 41.85 41.80 41.75 41.70 41.65 41.60 41.55 41.50 41.45 41.40 41.35 41.30 41.25 41.20 41.15 41.10 41.05 41.00 40.95 40.90 40.85 40.80 40.75 40.70 40.65 40.60 40.55 40.50 40.45 40.40 40.35 40.30 40.25 40.20 40.15 40.10 40.05 40.00 39.95 39.90 39.85 39.80 39.75 39.70 39.65 39.60 39.55 39.50 39.45 39.40 39.35 39.30 39.25 39.20 39.15 39.10 39.05 39.00 38.95 38.90 38.85 38.80 38.75 38.70 38.65 38.60 38.55 38.50 38.45 38.40 38.35 38.30 38.25 38.20 38.15 38.10 38.05 38.00 37.95 37.90 37.85 37.80 37.75 37.70 37.65 37.60 37.55 37.50 37.45 37.40 37.35 37.30 37.25 37.20 37.15 37.10 37.05 37.00 36.95 36.90 36.85 36.80 36.75 36.70 36.65 36.60 36.55 36.50 36.45 36.40 36.35 36.30 36.25 36.20 36.15 36.10 36.05 36.00 35.95 35.90 35.85 35.80 35.75 35.70 35.65 35.60 35.55 35.50 35.45 35.40 35.35 35.30 35.25 35.20 35.15 35.10 35.05 35.00 34.95 34.90 34.85 34.80 34.75 34.70 34.65 34.60 34.55 34.50 34.45 34.40 34.35 34.30 34.25 34.20 34.15 34.10 34.05 34.00 33.95 33.90 33.85 33.80 33.75 33.70 33.65 33.60 33.55 33.50 33.45 33.40 33.35 33.30 33.25 33.20 33.15 33.10 33.05 33.00 32.95 32.90 32.85 32.80 32.75 32.70 32.65 32.60 32.55 32.50 32.45 32.40 32.35 32.30 32.25 32.20 32.15 32.10 32.05 32.00 31.95 31.90 31.85 31.80 31.75 31.70 31.65 31.60 31.55 31.50 31.45 31.40 31.35 31.30 31.25 31.20 31.15 31.10 31.05 31.00 30.95 30.90 30.85 30.80 30.75 30.70 30.65 30.60 30.55 30.50 30.45 30.40 30.35 30.30 30.25 30.20 30.15 30.10 30.05
50.00 49.95 49.90 49.85 49.80 49.75 49.70 49.65 49.60 49.55 49.50 49.45 49.40 49.35 49.30 49.25 49.20 49.15 49.10 49.05 49.00 48.95 48.90 48.85 48.80 48.75 48.70 48.65 48.60 48.55 48.50 48.45 48.40 48.35 48.30 48.25 48.20 48.15 48.10 48.05 48.00 47.95 47.90 47.85 47.80 47.75 47.70 47.65 47.60 47.55 47.50 47.45 47.40 47.35 47.30 47.25 47.20 47.15 47.10 47.05 47.00 46.95 46.90 46.85 46.80 46.75 46.70 46.65 46.60 46.55 46.50 46.45 46.40 46.35 46.30 46.25 46.20 46.15 46.10 46.05 46.00 45.95 45.90 45.85 45.80 45.75 45.70 45.65 45.60 45.55 45.50 45.45 45.40 45.35 45.30 45.25 45.20 45.15 45.10 45.05 45.00 44.95 44.90 44.85 44.80 44.75 44.70 44.65 44.60 44.55 44.50 44.45 44.40 44.35 44.30 44.25 44.20 44.15 44.10 44.05 44.00 43.95 43.90 43.85 43.80 43.75 43.70 43.65 43.60 43.55 43.50 43.45 43.40 43.35 43.30 43.25 43.20 43.15 43.10 43.05 43.00 42.95 42.90 42.85 42.80 42.75 42.70 42.65 42.60 42.55 42.50 42.45 42.40 42.35 42.30 42.25 42.20 42.15 42.10 42.05 42.00 41.95 41.90 41.85 41.80 41.75 41.70 41.65 41.60 41.55 41.50 41.45 41.40 41.35 41.30 41.25 41.20 41.15 41.10 41.05 41.00 40.95 40.90 40.85 40.80 40.75 40.70 40.65 40.60 40.55 40.50 40.45 40.40 40.35 40.30 40.25 40.20 40.15 40.10 40.05 40.00 39.95 39.90 39.85 39.80 39.75 39.70 39.65 39.60 39.55 39.50 39.45 39.40 39.35 39.30 39.25 39.20 39.15 39.10 39.05 39.00 38.95 38.90 38.85 38.80 38.75 38.70 38.65 38.60 38.55 38.50 38.45 38.40 38.35 38.30 38.25 38.20 38.15 38.10 38.05 38.00 37.95 37.90 37.85 37.80 37.75 37.70 37.65 37.60 37.55 37.50 37.45 37.40 37.35 37.30 37.25 37.20 37.15 37.10 37.05 37.00 36.95 36.90 36.85 36.80 36.75 36.70 36.65 36.60 36.55 36.50 36.45 36.40 36.35 36.30 36.25 36.20 36.15 36.10 36.05 36.00 35.95 35.90 35.85 35.80 35.75 35.70 35.65 35.60 35.55 35.50 35.45 35.40 35.35 35.30 35.25 35.20 35.15 35.10 35.05 35.00 34.95 34.90 34.85 34.80 34.75 34.70 34.65 34.60 34.55 34.50 34.45 34.40 34.35 34.30 34.25 34.20 34.15 34.10 34.05 34.00 33.95 33.90 33.85 33.80 33.75 33.70 33.65 33.60 33.55 33.50 33.45 33.40 33.35 33.30 33.25 33.20 33.15 33.10 33.05 33.00 32.95 32.90 32.85 32.80 32.75 32.70 32.65 32.60 32.55 32.50 32.45 32.40 32.35 32.30 32.25 32.20 32.15 32.10 32.05 32.00 31.95 31.90 31.85 31.80 31.75 31.70 31.65 31.60 31.55 31.50 31.45 31.40 31.35 31.30 31.25 31.20 31.15 31.10 31.05 31.00 30.95 30.90 30.85 30.80 30.75 30.70 30.65 30.60 30.55 30.50 30.45 30.40 30.35 30.30 30.25 30.20 30.15 30.10 30.05
50.00 49.95 49.90 49.85 49.80 49.75 49.70 49.65 49.60 49.55 49.50 49.45 49.40 49.35 49.30 49.25 49.20 49.15 49.10 49.05 49.00 48.95 48.90 48.85 48.80 48.75 48.70 48.65 48.60 48.55 48.50 48.45 48.40 48.35 48.30 48.25 48.20 48.15 48.10 48.05 48.00 47.95 47.90 47.85 47.80 47.75 47.70 47.65 47.60 47.55 47.50 47.45 47.40 47.35 47.30 47.25 47.20 47.15 47.10 47.05 47.00 46.95 46.90 46.85 46.80 46.75 46.70 46.65 46.60 46.55 46.50 46.45 46.40 46.35 46.30 46.25 46.20 46.15 46.10 46.05 46.00 45.95 45.90 45.85 45.80 45.75 45.70 45.65 45.60 45.55 45.50 45.45 45.40 45.35 45.30 45.25 45.20 45.15 45.10 45.05 45.00 44.95 44.90 44.85 44.80 44.75 44.70 44.65 44.60 44.55 44.50 44.45 44.40 44.35 44.30 44.25 44.20 44.15 44.10 44.05 44.00 43.95 43.90 43.85 43.80 43.75 43.70 43.65 43.60 43.55 43.50 43.45 43.40 43.35 43.30 43.25 43.20 43.15 43.10 43.05 43.00 42.95 42.90 42.85 42.80 42.75 42.70 42.65 42.60 42.55 42.50 42.45 42.40 42.35 42.30 42.25 42.20 42.15 42.10 42.05 42.00 41.95 41.90 41.85 41.80 41.75 41.70 41.65 41.60 41.55 41.50 41.45 41.40 41.35 41.30 41.25 41.20 41.15 41.10 41.05 41.00 40.95 40.90 40.85 40.80 40.75 40.70 40.65 40.60 40.55 40.50 40.45 40.40 40.35 40.30 40.25 40.20 40.15 40.10 40.05 40.00 39.95 39.90 39.85 39.80 39.75 39.70 39.65 39.60 39.55 39.50 39.45 39.40 39.35 39.30 39.25 39.20 39.15 39.10 39.05 39.00 38.95 38.90 38.85 38.80 38.75 38.70 38.65 38.60 38.55 38.50 38.45 38.40 38.35 38.30 38.25 38.20 38.15 38.10 38.05 38.00 37.95 37.90 37.85 37.80 37.75 37.70 37.65 37.60 37.55 37.50 37.45 37.40 37.35 37.30 37.25 37.20 37.15 37.10 37.05 37.00 36.95 36.90 36.85 36.80 36.75 36.70 36.65 36.60 36.55 36.50 36.45 36.40 36.35 36.30 36.25 36.20 36.15 36.10 36.05 36.00 35.95 35.90 35.85 35.80 35.75 35.70 35.65 35.60 35.55 35.50 35.45 35.40 35.35 35.30 35.25 35.20 35.15 35.10 35.05 35.00 34.95 34.90 34.85 34.80 34.75 34.70 34.65 34.60 34.55 34.50 34.45 34.40 34.35 34.30 34.25 34.20 34.15 34.10 34.05 34.00 33.95 33.90 33.85 33.80 33.75 33.70 33.65 33.60 33.55 33.50 33.45 33.40 33.35 33.30 33.25 33.20 33.15 33.10 33.05 33.00 32.95 32.90 32.85 32.80 32.75 32.70 32.65 32.60 32.55 32.50 32.45 32.40 32.35 32.30 32.25 32.20 32.15 32.10 32.05 32.00 31.95 31.90 31.85 31.80 31.75 31.70 31.65 31.60 31.55 31.50 31.45 31.40 31.35 31.30 31.25 31.20 31.15 31.10 31.05 31.00 30.95 30.90 30.85 30.80 30.75 30.70 30.65 30.60 30.55 30.50 30.45 30.40 30.35 30.30 30.25 30.20 30.15 30.10 30.05
50.00 49.95 49.90 49.85 49.80 49.75 49.70 49.65 49.60 49.55 49.50 49.45 49.40 49.35 49.30 49.25 49.20 49.15 49.10 49.05 49.00 48.95 48.90 48.85 48.80 48.75 48.70 48.65 48.60 48.55 48.50 48.45 48.40 48.35 48.30 48.25 48.20 48.15 48.10 48.05 48.00 47.95 47.90 47.85 47.80 47.75 47.70 47.65 47.60 47.55 47.50 47.45 47.40 47.35 47.30 47.25 47.20 47.15 47.10 47.05 47.00 46.95 46.90 46.85 46.80 46.75 46.70 46.65 46.60 46.55 46.50 46.45 46.40 46.35 46.30 46.25 46.20 46.15 46.10 46.05 46.00 45.95 45.90 45.85 45.80 45.75 45.70 45.65 45.60 45.55 45.50 45.45 45.40 45.35 45.30 45.25 45.20 45.15 45.10 45.05 45.00 44.95 44.90 44.85 44.80 44.75 44.70 44.65 44.60 44.55 44.50 44.45 44.40 44.35 44.30 44.25 44.20 44.15 44.10 44.05 44.00 43.95 43.90 43.85 43.80 43.75 43.70 43.65 43.60 43.55 43.50 43.45 43.40 43.35 43.30 43.25 43.20 43.15 43.10 43.05 43.00 42.95 42.90 42.85 42.80 42.75 42.70 42.65 42.60 42.55 42.50 42.45 42.40 42.35 42.30 42.25 42.20 42.15 42.10 42.05 42.00 41.95 41.90 41.85 41.80 41.75 41.70 41.65 41.60 41.55 41.50 41.45 41.40 41.35 41.30 41.25 41.20 41.15 41.10 41.05 41.00 40.95 40.90 40.85 40.80 40.75 40.70 40.65 40.60 40.55 40.50 40.45 40.40 40.35 40.30 40.25 40.20 40.15 40.10 40.05 40.00 39.95 39.90 39.85 39.80 39.75 39.70 39.65 39.60 39.55 39.50 39.45 39.40 39.35 39.30 39.25 39.20 39.15 39.10 39.05 39.00 38.95 38.90 38.85 38.80 38.75 38.70 38.65 38.60 38.55 38.50 38.45 38.40 38.35 38.30 38.25 38.20 38.15 38.10 38.05 38.00 37.95 37.90 37.85 37.80 37.75 37.70 37.65 37.60 37.55 37.50 37.45 37.40 37.35 37.30 37.25 37.20 37.15 37.10 37.05 37.00 36.95 36.90 36.85 36.80 36.75 36.70 36.65 36.60 36.55 36.50 36.45 36.40 36.35 36.30 36.25 36.20 36.15 36.10 36.05 36.00 35.95 35.90 35.85 35.80 35.75 35.70 35.65 35.60 35.55 35.50 35.45 35.40 35.35 35.30 35.25 35.20 35.15 35.10 35.05 35.00 34.95 34.90 34.85 34.80 34.75 34.70 34.65 34.60 34.55 34.50 34.45 34.40 34.35 34.30 34.25 34.20 34.15 34.10 34.05 34.00 33.95 33.90 33.85 33.80 33.75 33.70 33.65 33.60 33.55 33.50 33.45 33.40 33.35 33.30 33.25 33.20 33.15 33.10 33.05 33.00 32.95 32.90 32.85 32.80 32.75 32.70 32.65 32.60 32.55 32.50 32.45 32.40 32.35 32.30 32.25 32.20 32.15 32.10 32.05 32.00 31.95 31.90 31.85 31.80 31.75 31.70 31.65 31.60 31.55 31.50 31.45 31.40 31.35 31.30 31.25 31.20 31.15 31.10 31.05 31.00 30.95 30.90 30.85 30.80 30.75 30.70 30.65 30.60 30.55 30.50 30.45 30.40 30.35 30.30 30.25 30.20 30.15 30.10 30.05
50.00 49.95 49.90 49.85 49.80 49.75 49.70 49.65 49.60 49.55 49.50 49.45 49.40 49.35 49.30 49.25 49.20 49.15 49.10 49.05 49.00 48.95 48.90 48.85 48.80 48.75 48.70 48.65 48.60 48.55 48.50 48.45 48.40 48.35 48.30 48.25 48.20 48.15 48.10 48.05 48.00 47.95 47.90 47.85 47.80 47.75 47.70 47.65 47.60 47.55 47.50 47.45 47.40 47.35 47.30 47.25 47.20 47.15 47.10 47.05 47.00 46.95 46.90 46.85 46.80 46.75 46.70 46.65 46.60 46.55 46.50 46.45 46.40 46.35 46.30 46.25 46.20 46.15 46.10 46.05 46.00 45.95 45.90 45.85 45.80 45.75 45.70 45.65 45.60 45.55 45.50 45.45 45.40 45.35 45.30 45.25 45.20 45.15 45.10 45.05 45.00 44.95 44.90 44.85 44.80 44.75 44.70 44.65 44.60 44.55 44.50 44.45 44.40 44.35 44.30 44.25 44.20 44.15 44.10 44.05 44.00 43.95 43.90 43.85 43.80 43.75 43.70 43.65 43.60 43.55 43.50 43.45 43.40 43.35 43.30 43.25 43.20 43.15 43.10 43.05 43.00 42.95 42.90 42.85 42.80 42.75 42.70 42.65 42.60 42.55 42.50 42.45 42.40 42.35 42.30 42.25 42.20 42.15 42.10 42.05 42.00 41.95 41.90 41.85 41.80 41.75 41.70 41.65 41.60 41.55 41.50 41.45 41.40 41.35 41.30 41.25 41.20 41.15 41.10 41.05 41.00 40.95 40.90 40.85 40.80 40.75 40.70 40.65 40.60 40.55 40.50 40.45 40.40 40.35 40.30 40.25 40.20 40.15 40.10 40.05 40.00 39.95 39.90 39.85 39.80 39.75 39.70 39.65 39.60 39.55 39.50 39.45 39.40 39.35 39.30 39.25 39.20 39.15 39.10 39.05 39.00 38.95 38.90 38.85 38.80 38.75 38.70 38.65 38.60 38.55 38.50 38.45 38.40 38.35 38.30 38.25 38.20 38.15 38.10 38.05 38.00 37.95 37.90 37.85 37.80 37.75 37.70 37.65 37.60 37.55 37.50 37.45 37.40 37.35 37.30 37.25 37.20 37.15 37.10 37.05 37.00 36.95 36.90 36.85 36.80 36.75 36.70 36.65 36.60 36.55 36.50 36.45 36.40 36.35 36.30 36.25 36.20 36.15 36.10 36.05 36.00 35.95 35.90 35.85 35.80 35.75 35.70 35.65 35.60 35.55 35.50 35.45 35.40 35.35 35.30 35.25 35.20 35.15 35.10 35.05 35.00 34.95 34.90 34.85 34.80 34.75 34.70 34.65 34.60 34.55 34.50 34.45 34.40 34.35 34.30 34.25 34.20 34.15 34.10 34.05 34.00 33.95 33.90 33.85 33.80 33.75 33.70 33.65 33.60 33.55 33.50 33.45 33.40 33.35 33.30 33.25 33.20 33.15 33.10 33.05 33.00 32.95 32.90 32.85 32.80 32.75 32.70 32.65 32.60 32.55 32.50 32.45 32.40 32.35 32.30 32.25 32.20 32.15 32.10 32.05 32.00 31.95 31.90 31.85 31.80 31.75 31.70 31.65 31.60 31.55 31.50 31.45 31.40 31.35 31.30 31.25 31.20 31.15 31.10 31.05 31.00 30.95 30.90 30.85 30.80 30.75 30.70 30.65 30.60 30.55 30.50 30.45 30.40 30.35 30.30 30.25 30.20 30.15 30.10 30.05
50.00 49.95 49.90 49.85 49.80 49.75 49.70 49.65 49.60 49.55 49.50 49.45 49.40 49.35 49.30 49.25 49.20 49.15 49.10 49.05 49.00 48.95 48.90 48.85 48.80 48.75 48.70 48.65 48.60 48.55 48.50 48.45 48.40 48.35 48.30 48.25 48.20 48.15 48.10 48.05 48.00 47.95 47.90 47.85 47.80 47.75 47.70 47.65 47.60 47.55 47.50 47.45 47.40 47.35 47.30 47.25 47.20 47.15 47.10 47.05 47.00 46.95 46.90 46.85 46.80 46.75 46.70 46.65 46.60 46.55 46.50 46.45 46.40 46.35 46.30 46.25 46.20 46.15 46.10 46.05 46.00 45.95 45.90 45.85 45.80 45.75 45.70 45.65 45.60 45.55 45.50 45.45 45.40 45.35 45.30 45.25 45.20 45.15 45.10 45.05 45.00 44.95 44.90 44.85 44.80 44.75 44.70 44.65 44.60 44.55 44.50 44.45 44.40 44.35 44.30 44.25 44.20 44.15 44.10 44.05 44.00 43.95 43.90 43.85 43.80 43.75 43.70 43.65 43.60 43.55 43.50 43.45 43.40 43.35 43.30 43.25 43.20 43.15 43.10 43.05 43.00 42.95 42.90 42.85 42.80 42.75 42.70 42.65 42.60 42.55 42.50 42.45 42.40 42.35 42.30 42.25 42.20 42.15 42.10 42.05 42.00 41.95 41.90 41.85 41.80 41.75 41.70 41.65 41.60 41.55 41.50 41.45 41.40 41.35 41.30 41.25 41.20 41.15 41.10 41.05 41.00 40.95 40.90 40.85 40.80 40.75 40.70 40.65 40.60 40.55 40.50 40.45 40.40 40.35 40.30 40.25 40.20 40.15 40.10 40.05 40.00 39.95 39.90 39.85 39.80 39.75 39.70 39.65 39.60 39.55 39.50 39.45 39.40 39.35 39.30 39.25 39.20 39.15 39.10 39.05 39.00 38.95 38.90 38.85 38.80 38.75 38.70 38.65 38.60 38.55 38.50 38.45 38.40 38.35 38.30 38.25 38.20 38.15 38.10 38.05 38.00 37.95 37.90 37.85 37.80 37.75 37.70 37.65 37.60 37.55 37.50 37.45 37.40 37.35 37.30 37.25 37.20 37.15 37.10 37.05 37.00 36.95 36.90 36.85 36.80 36.75 36.70 36.65 36.60 36.55 36.50 36.45 36.40 36.35 36.30 36.25 36.20 36.15 36.10 36.05 36.00 35.95 35.90 35.85 35.80 35.75 35.70 35.65 35.60 35.55 35.50 35.45 35.40 35.35 35.30 35.25 35.20 35.15 35.10 35.05 35.00 34.95 34.90 34.85 34.80 34.75 34.70 34.65 34.60 34.55 34.50 34.45 34.40 34.35 34.30 34.25 34.20 34.15 34.10 34.05 34.00 33.95 33.90 33.85 33.80 33.75 33.70 33.65 33.60 33.55 33.50 33.45 33.40 33.35 33.30 33.25 33.20 33.15 33.10 33.05 33.00 32.95 32.90 32.85 32.80 32.75 32.70 32.65 32.60 32.55 32.50 32.45 32.40 32.35 32.30 32.25 32.20 32.15 32.10 32.05 32.00 31.95 31.90 31.85 31.80 31.75 31.70 31.65 31.60 31.55 31.50 31.45 31.40 31.35 31.30 31.25 31.20 31.15 31.10 31.05 31.00 30.95 30.90 30.85 30.80 30.75 30.70 30.65 30.60 30.55 30.50 30.45 30.40 30.35 30.30 30.25 30.20 30.15 30.10 30.05
50.00 49.95 49.90 49.85 49.80 49.75 49.70 49.65 49.60 49.55 49.50 49.45 49.40 49.35 49.30 49.25 49.20 49.15 49.10 49.05 49.00 48.95 48.90 48.85 48.80 48.75 48.70 48.65 48.60 48.55 48.50 48.45 48.40 48.35 48.30 48.25 48.20 48.15 48.10 48.05 48.00 47.95 47.90 47.85 47.80 47.75 47.70 47.65 47.60 47.55 47.50 47.45 47.40 47.35 47.30 47.25 47.20 47.15 47.10 47.05 47.00 46.95 46.90 46.85 46.80 46.75 46.70 46.65 46.60 46.55 46.50 46.45 46.40 46.35 46.30 46.25 46.20 46.15 46.10 46.05 46.00 45.95 45.90 45.85 45.80 45.75 45.70 45.65 45.60 45.55 45.50 45.45 45.40 45.35 45.30 45.25 45.20 45.15 45.10 45.05 45.00 44.95 44.90 44.85 44.80 44.75 44.70 44.65 44.60 44.55 44.50 44.45 44.40 44.35 44.30 44.25 44.20 44.15 44.10 44.05 44.00 43.95 43.90 43.85 43.80 43.75 43.70 43.65 43.60 43.55 43.50 43.45 43.40 43.35 43.30 43.25 43.20 43.15 43.10 43.05 43.00 42.95 42.90 42.85 42.80 42.75 42.70 42.65 42.60 42.55 42.50 42.45 42.40 42.35 42.30 42.25 42.20 42.15 42.10 42.05 42.00 41.95 41.90 41.85 41.80 41.75 41.70 41.65 41.60 41.55 41.50 41.45 41.40 41.35 41.30 41.25 41.20 41.15 41.10 41.05 41.00 40.95 40.90 40.85 40.80 40.75 40.70 40.65 40.60 40.55 40.50 40.45 40.40 40.35 40.30 40.25 40.20 40.15 40.10 40.05 40.00 39.95 39.90 39.85 39.80 39.75 39.70 39.65 39.60 39.55 39.50 39.45 39.40 39.35 39.30 39.25 39.20 39.15 39.10 39.05 39.00 38.95 38.90 38.85 38.80 38.75 38.70 38.65 38.60 38.55 38.50 38.45 38.40 38.35 38.30 38.25 38.20 38.15 38.10 38.05 38.00 37.95 37.90 37.85 37.80 37.75 37.70 37.65 37.60 37.55 37.50 37.45 37.40 37.35 37.30 37.25 37.20 37.15 37.10 37.05 37.00 36.95 36.90 36.85 36.80 36.75 36.70 36.65 36.60 36.55 36.50 36.45 36.40 36.35 36.30 36.25 36.20 36.15 36.10 36.05 36.00 35.95 35.90 35.85 35.80 35.75 35.70 35.65 35.60 35.55 35.50 35.45 35.40 35.35 35.30 35.25 35.20 35.15 35.10 35.05 35.00 34.95 34.90 34.85 34.80 34.75 34.70 34.65 34.60 34.55 34.50 34.45 34.40 34.35 34.30 34.25 34.20 34.15 34.10 34.05 34.00 33.95 33.90 33.85 33.80 33.75 33.70 33.65 33.60 33.55 33.50 33.45 33.40 33.35 33.30 33.25 33.20 33.15 33.10 33.05 33.00 32.95 32.90 32.85 32.80 32.75 32.70 32.65 32.60 32.55 32.50 32.45 32.40 32.35 32.30 32.25 32.20 32.15 32.10 32.05 32.00 31.95 31.90 31.85 31.80 31.75 31.70 31.65 31.60 31.55 31.50 31.45 31.40 31.35 31.30 31.25 31.20 31.15 31.10 31.05 31.00 30.95 30.90 30.85 30.80 30.75 30.70 30.65 30.60 30.55 30.50 30.45 30.40 30.35 30.30 30.25 30.20 30.15 30.10 30.05
50.00 49.95 49.90 49.85 49.80 49.75 49.70 49.65 49.60 49.55 49.50 49.45 49.40 49.35 49.30 49.25 49.20 49.15 49.10 49.05 49.00 48.95 48.90 48.85 48.80 48.75 48.70 48.65 48.60 48.55 48.50 48.45 48.40 48.35 48.30 48.25 48.20 48.15 48.10 48.05 48.00 47.95 47.90 47.85 47.80 47.75 47.70 47.65 47.60 47.55 47.50 47.45 47.40 47.35 47.30 47.25 47.20 47.15 47.10 47.05 47.00 46.95 46.90 46.85 46.80 46.75 46.70 46.65 46.60 46.55 46.50 46.45 46.40 46.35 46.30 46.25 46.20 46.15 46.10 46.05 46.00 45.95 45.90 45.85 45.80 45.75 45.70 45.65 45.60 45.55 45.50 45.45 45.40 45.35 45.30 45.25 45.20 45.15 45.10 45.05 45.00 44.95 44.90 44.85 44.80 44.75 44.70 44.65 44.60 44.55 44.50 44.45 44.40 44.35 44.30 44.25 44.20 44.15 44.10 44.05 44.00 43.95 43.90 43.85 43.80 43.75 43.70 43.65 43.60 43.55 43.50 43.45 43.40 43.35 43.30 43.25 43.20 43.15 43.10 43.05 43.00 42.95 42.90 42.85 42.80 42.75 42.70 42.65 42.60 42.55 42.50 42.45 42.40 42.35 42.30 42.25 42.20 42.15 42.10 42.05 42.00 41.95 41.90 41.85 41.80 41.75 41.70 41.65 41.60 41.55 41.50 41.45 41.40 41.35 41.30 41.25 41.20 41.15 41.10 41.05 41.00 40.95 40.90 40.85 40.80 40.75 40.70 40.65 40.60 40.55 40.50 40.45 40.40 40.35 40.30 40.25 40.20 40.15 40.10 40.05 40.00 39.95 39.90 39.85 39.80 39.75 39.70 39.65 39.60 39.55 39.50 39.45 39.40 39.35 39.30 39.25 39.20 39.15 39.10 39.05 39.00 38.95 38.90 38.85 38.80 38.75 38.70 38.65 38.60 38.55 38.50 38.45 38.40 38.35 38.30 38.25 38.20 38.15 38.10 38.05 38.00 37.95 37.90 37.85 37.80 37.75 37.70 37.65 37.60 37.55 37.50 37.45 37.40 37.35 37.30 37.25 37.20 37.15 37.10 37.05 37.00 36.95 36.90 36.85 36.80 36.75 36.70 36.65 36.60 36.55 36.50 36.45 36.40 36.35 36.30 36.25 36.20 36.15 36.10 36.05 36.00 35.95 35.90 35.85 35.80 35.75 35.70 35.65 35.60 35.55 35.50 35.45 35.40 35.35 35.30 35.25 35.20 35.15 35.10 35.05 35.00 34.95 34.90 34.85 34.80 34.75 34.70 34.65 34.60 34.55 34.50 34.45 34.40 34.35 34.30 34.25 34.20 34.15 34.10 34.05 34.00 33.95 33.90 33.85 33.80 33.75 33.70 33.65 33.60 33.55 33.50 33.45 33.40 33.35 33.30 33.25 33.20 33.15 33.10 33.05 33.00 32.95 32.90 32.85 32.80 32.75 32.70 32.65 32.60 32.55 32.50 32.45 32.40 32.35 32.30 32.25 32.20 32.15 32.10 32.05 32.00 31.95 31.90 31.85 31.80 31.75 31.70 31.65 31.60 31.55 31.50 31.45 31.40 31.35 31.30 31.25 31.20 31.15 31.10 31.05 31.00 30.95 30.90 30.85 30.80 30.75 30.70 30.65 30.60 30.55 30.50 30.45 30.40 30.35 30.30 30.25 30.20 30.15 30.10 30.05
50.00 49.95 49.90 49.85 49.80 49.75 49.70 49.65 49.60 49.55 49.50 49.45 49.40 49.35 49.30 49.25 49.20 49.15 49.10 49.05 49.00 48.95 48.90 48.85 48.80 48.75 48.70 48.65 48.60 48.55 48.50 48.45 48.40 48.35 48.30 48.25 48.20 48.15 48.10 48.05 48.00 47.95 47.90 47.85 47.80 47.75 47.70 47.65 47.60 47.55 47.50 47.45 47.40 47.35 47.30 47.25 47.20 47.15 47.10 47.05 47.00 46.95 46.90 46.85 46.80 46.75 46.70 46.65 46.60 46.55 46.50 46.45 46.40 46.35 46.30 46.25 46.20 46.15 46.10 46.05 46.00 45.95 45.90 45.85 45.80 45.75 45.70 45.65 45.60 45.55 45.50 45.45 45.40 45.35 45.30 45.25 45.20 45.15 45.10 45.05 45.00 44.95 44.90 44.85 44.80 44.75 44.70 44.65 44.60 44.55 44.50 44.45 44.40 44.35 44.30 44.25 44.20 44.15 44.10 44.05 44.00 43.95 43.90 43.85 43.80 43.75 43.70 43.65 43.60 43.55 43.50 43.45 43.40 43.35 43.30 43.25 43.20 43.15 43.10 43.05 43.00 42.95 42.90 42.85 42.80 42.75 42.70 42.65 42.60 42.55 42.50 42.45 42.40 42.35 42.30 42.25 42.20 42.15 42.10 42.05 42.00 41.95 41.90 41.85 41.80 41.75 41.70 41.65 41.60 41.55 41.50 41.45 41.40 41.35 41.30 41.25 41.20 41.15 41.10 41.05 41.00 40.95 40.90 40.85 40.80 40.75 40.70 40.65 40.60 40.55 40.50 40.45 40.40 40.35 40.30 40.25 40.20 40.15 40.10 40.05 40.00 39.95 39.90 39.85 39.80 39.75 39.70 39.65 39.60 39.55 39.50 39.45 39.40 39.35 39.30 39.25 39.20 39.15 39.10 39.05 39.00 38.95 38.90 38.85 38.80 38.75 38.70 38.65 38.60 38.55 38.50 38.45 38.40 38.35 38.30 38.25 38.20 38.15 38.10 38.05 38.00 37.95 37.90 37.85 37.80 37.75 37.70 37.65 37.60 37.55 37.50 37.45 37.40 37.35 37.30 37.25 37.20 37.15 37.10 37.05 37.00 36.95 36.90 36.85 36.80 36.75 36.70 36.65 36.60 36.55 36.50 36.45 36.40 36.35 36.30 36.25 36.20 36.15 36.10 36.05 36.00 35.95 35.90 35.85 35.80 35.75 35.70 35.65 35.60 35.55 35.50 35.45 35.40 35.35 35.30 35.25 35.20 35.15 35.10 35.05 35.00 34.95 34.90 34.85 34.80 34.75 34.70 34.65 34.60 34.55 34.50 34.45 34.40 34.35 34.30 34.25 34.20 34.15 34.10 34.05 34.00 33.95 33.90 33.85 33.80 33.75 33.70 33.65 33.60 33.55 33.50 33.45 33.40 33.35 33.30 33.25 33.20 33.15 33.10 33.05 33.00 32.95 32.90 32.85 32.80 32.75 32.70 32.65 32.60 32.55 32.50 32.45 32.40 32.35 32.30 32.25 32.20 32.15 32.10 32.05 32.00 31.95 31.90 31.85 31.80 31.75 31.70 31.65 31.60 31.55 31.50 31.45 31.40 31.35 31.30 31.25 31.20 31.15 31.10 31.05 31.00 30.95 30.90 30.85 30.80 30.75 30.70 30.65 30.60 30.55 30.50 30.45 30.40 30.35 30.30 30.25 30.20 30.15 30.10 30.05
50.00 49.95 49.90 49.85 49.80 49.75 49.70 49.65 49.60 49.55 49.50 49.45 49.40 49.35 49.30 49.25 49.20 49.15 49.10 49.05 49.00 48.95 48.90 48.85 48.80 48.75 48.70 48.65 48.60 48.55 48.50 48.45 48.40 48.35 48.30 48.25 48.20 48.15 48.10 48.05 48.00 47.95 47.90 47.85 47.80 47.75 47.70 47.65 47.60 47.55 47.50 47.45 47.40 47.35 47.30 47.25 47.20 47.15 47.10 47.05 47.00 46.95 46.90 46.85 46.80 46.75 46.70 46.65 46.60 46.55 46.50 46.45 46.40 46.35 46.30 46.25 46.20 46.15 46.10 46.05 46.00 45.95 45.90 45.85 45.80 45.75 45.70 45.65 45.60 45.55 45.50 45.45 45.40 45.35 45.30 45.25 45.20 45.15 45.10 45.05 45.00 44.95 44.90 44.85 44.80 44.75 44.70 44.65 44.60 44.55 44.50 44.45 44.40 44.35 44.30 44.25 44.20 44.15 44.10 44.05 44.00 43.95 43.90 43.85 43.80 43.75 43.70 43.65 43.60 43.55 43.50 43.45 43.40 43.35 43.30 43.25 43.20 43.15 43.10 43.05 43.00 42.95 42.90 42.85 42.80 42.75 42.70 42.65 42.60 42.55 42.50 42.45 42.40 42.35 42.30 42.25 42.20 42.15 42.10 42.05 42.00 41.95 41.90 41.85 41.80 41.75 41.70 41.65 41.60 41.55 41.50 41.45 41.40 41.35 41.30 41.25 41.20 41.15 41.10 41.05 41.00 40.95 40.90 40.85 40.80 40.75 40.70 40.65 40.60 40.55 40.50 40.45 40.40 40.35 40.30 40.25 40.20 40.15 40.10 40.05 40.00 39.95 39.90 39.85 39.80 39.75 39.70 39.65 39.60 39.55 39.50 39.45 39.40 39.35 39.30 39.25 39.20 39.15 39.10 39.05 39.00 38.95 38.90 38.85 38.80 38.75 38.70 38.65 38.60 38.55 38.50 38.45 38.40 38.35 38.30 38.25 38.20 38.15 38.10 38.05 38.00 37.95 37.90 37.85 37.80 37.75 37.70 37.65 37.60 37.55 37.50 37.45 37.40 37.35 37.30 37.25 37.20 37.15 37.10 37.05 37.00 36.95 36.90 36.85 36.80 36.75 36.70 36.65 36.60 36.55 36.50 36.45 36.40 36.35 36.30 36.25 36.20 36.15 36.10 36.05 36.00 35.95 35.90 35.85 35.80 35.75 35.70 35.65 35.60 35.55 35.50 35.45 35.40 35.35 35.30 35.25 35.20 35.15 35.10 35.05 35.00 34.95 34.90 34.85 34.80 34.75 34.70 34.65 34.60 34.55 34.50 34.45 34.40 34.35 34.30 34.25 34.20 34.15 34.10 34.05 34.00 33.95 33.90 33.85 33.80 33.75 33.70 33.65 33.60 33.55 33.50 33.45 33.40 33.35 33.30 33.25 33.20 33.15 33.10 33.05 33.00 32.95 32.90 32.85 32.80 32.75 32.70 32.65 32.60 32.55 32.50 32.45 32.40 32.35 32.30 32.25 32.20 32.15 32.10 32.05 32.00 31.95 31.90 31.85 31.80 31.75 31.70 31.65 31.60 31.55 31.50 31.45 31.40 31.35 31.30 31.25 31.20 31.15 31.10 31.05 31.00 30.95 30.90 30.85 30.80 30.75 30.70 30.65 30.60 30.55 30.50 30.45 30.40 30.35 30.30 30.25 30.20 30.15 30.10 30.05
50.00 49.95 49.90 49.85 49.80 49.75 49.70 49.65 49.60 49.55 49.50 49.45 49.40 49.35 49.30 49.25 49.20 49.15 49.10 49.05 49.00 48.95 48.90 48.85 48.80 48.75 48.70 48.65 48.60 48.55 48.50 48.45 48.40 48.35 48.30 48.25 48.20 48.15 48.10 48.05 48.00 47.95 47.90 47.85 47.80 47.75 47.70 47.65 47.60 47.55 47.50 47.45 47.40 47.35 47.30 47.25 47.20 47.15 47.10 47.05 47.00 46.95 46.90 46.85 46.80 46.75 46.70 46.65 46.60 46.55 46.50 46.45 46.40 46.35 46.30 46.25 46.20 46.15 46.10 46.05 46.00 45.95 45.90 45.85 45.80 45.75 45.70 45.65 45.60 45.55 45.50 45.45 45.40 45.35 45.30 45.25 45.20 45.15 45.10 45.05 45.00 44.95 44.90 44.85 44.80 44.75 44.70 44.65 44.60 44.55 44.50 44.45 44.40 44.35 44.30 44.25 44.20 44.15 44.10 44.05 44.00 43.95 43.90 43.85 43.80 43.75 43.70 43.65 43.60 43.55 43.50 43.45 43.40 43.35 43.30 43.25 43.20 43.15 43.10 43.05 43.00 42.95 42.90 42.85 42.80 42.75 42.70 42.65 42.60 42.55 42.50 42.45 42.40 42.35 42.30 42.25 42.20 42.15 42.10 42.05 42.00 41.95 41.90 41.85 41.80 41.75 41.70 41.65 41.60 41.55 41.50 41.45 41.40 41.35 41.30 41.25 41.20 41.15 41.10 41.05 41.00 40.95 40.90 40.85 40.80 40.75 40.70 40.65 40.60 40.55 40.50 40.45 40.40 40.35 40.30 40.25 40.20 40.15 40.10 40.05 40.00 39.95 39.90 39.85 39.80 39.75 39.70 39.65 39.60 39.55 39.50 39.45 39.40 39.35 39.30 39.25 39.20 39.15 39.10 39.05 39.00 38.95 38.90 38.85 38.80 38.75 38.70 38.65 38.60 38.55 38.50 38.45 38.40 38.35 38.30 38.25 38.20 38.15 38.10 38.05 38.00 37.95 37.90 37.85 37.80 37.75 37.70 37.65 37.60 37.55 37.50 37.45 37.40 37.35 37.30 37.25 37.20 37.15 37.10 37.05 37.00 36.95 36.90 36.85 36.80 36.75 36.70 36.65 36.60 36.55 36.50 36.45 36.40 36.35 36.30 36.25 36.20 36.15 36.10 36.05 36.00 35.95 35.90 35.85 35.80 35.75 35.70 35.65 35.60 35.55 35.50 35.45 35.40 35.35 35.30 35.25 35.20 35.15 35.10 35.05 35.00 34.95 34.90 34.85 34.80 34.75 34.70 34.65 34.60 34.55 34.50 34.45 34.40 34.35 34.30 34.25 34.20 34.15 34.10 34.05 34.00 33.95 33.90 33.85 33.80 33.75 33.70 33.65 33.60 33.55 33.50 33.45 33.40 33.35 33.30 33.25 33.20 33.15 33.10 33.05 33.00 32.95 32.90 32.85 32.80 32.75 32.70 32.65 32.60 32.55 32.50 32.45 32.40 32.35 32.30 32.25 32.20 32.15 32.10 32.05 32.00 31.95 31.90 31.85 31.80 31.75 31.70 31.65 31.60 31.55 31.50 31.45 31.40 31.35 31.30 31.25 31.20 31.15 31.10 31.05 31.00 30.95 30.90 30.85 30.80 30.75 30.70 30.65 30.60 30.55 30.50 30.45 30.40 30.35 30.30 30.25 30.20 30.15 30.10 30.05
50.00 49.95 49.90 49.85 49.80 49.75 49.70 49.65 49.60 49.55 49.50 49.45 49.40 49.35 49.30 49.25 49.20 49.15 49.10 49.05 49.00 48.95 48.90 48.85 48.80 48.75 48.70 48.65 48.60 48.55 48.50 48.45 48.40 48.35 48.30 48.25 48.20 48.15 48.10 48.05 48.00 47.95 47.90 47.85 47.80 47.75 47.70 47.65 47.60 47.55 47.50 47.45 47.40 47.35 47.30 47.25 47.20 47.15 47.10 47.05 47.00 46.95 46.90 46.85 46.80 46.75 46.70 46.65 46.60 46.55 46.50 46.45 46.40 46.35 46.30 46.25 46.20 46.15 46.10 46.05 46.00 45.95 45.90 45.85 45.80 45.75 45.70 45.65 45.60 45.55 45.50 45.45 45.40 45.35 45.30 45.25 45.20 45.15 45.10 45.05 45.00 44.95 44.90 44.85 44.80 44.75 44.70 44.65 44.60 44.55 44.50 44.45 44.40 44.35 44.30 44.25 44.20 44.15 44.10 44.05 44.00 43.95 43.90 43.85 43.80 43.75 43.70 43.65 43.60 43.55 43.50 43.45 43.40 43.35 43.30 43.25 43.20 43.15 43.10 43.05 43.00 42.95 42.90 42.85 42.80 42.75 42.70 42.65 42.60 42.55 42.50 42.45 42.40 42.35 42.30 42.25 42.20 42.15 42.10 42.05 42.00 41.95 41.90 41.85 41.80 41.75 41.70 41.65 41.60 41.55 41.50 41.45 41.40 41.35 41.30 41.25 41.20 41.15 41.10 41.05 41.00 40.95 40.90 40.85 40.80 40.75 40.70 40.65 40.60 40.55 40.50 40.45 40.40 40.35 40.30 40.25 40.20 40.15 40.10 40.05 40.00 39.95 39.90 39.85 39.80 39.75 39.70 39.65 39.60 39.55 39.50 39.45 39.40 39.35 39.30 39.25 39.20 39.15 39.10 39.05 39.00 38.95 38.90 38.85 38.80 38.75 38.70 38.65 38.60 38.55 38.50 38.45 38.40 38.35 38.30 38.25 38.20 38.15 38.10 38.05 38.00 37.95 37.90 37.85 37.80 37.75 37.70 37.65 37.60 37.55 37.50 37.45 37.40 37.35 37.30 37.25 37.20 37.15 37.10 37.05 37.00 36.95 36.90 36.85 36.80 36.75 36.70 36.65 36.60 36.55 36.50 36.45 36.40 36.35 36.30 36.25 36.20 36.15 36.10 36.05 36.00 35.95 35.90 35.85 35.80 35.75 35.70 35.65 35.60 35.55 35.50 35.45 35.40 35.35 35.30 35.25 35.20 35.15 35.10 35.05 35.00 34.95 34.90 34.85 34.80 34.75 34.70 34.65 34.60 34.55 34.50 34.45 34.40 34.35 34.30 34.25 34.20 34.15 34.10 34.05 34.00 33.95 33.90 33.85 33.80 33.75 33.70 33.65 33.60 33.55 33.50 33.45 33.40 33.35 33.30 33.25 33.20 33.15 33.10 33.05 33.00 32.95 32.90 32.85 32.80 32.75 32.70 32.65 32.60 32.55 32.50 32.45 32.40 32.35 32.30 32.25 32.20 32.15 32.10 32.05 32.00 31.95 31.90 31.85 31.80 31.75 31.70 31.65 31.60 31.55 31.50 31.45 31.40 31.35 31.30 31.25 31.20 31.15 31.10 31.05 31.00 30.95 30.90 30.85 30.80 30.75 30.70 30.65 30.60 30.55 30.50 30.45 30.40 30.35 30.30 30.25 30.20 30.15 30.10 30.05
50.00 49.95 49.90 49.85 49.80 49.75 49.70 49.65 49.60 49.55 49.50 49.45 49.40 49.35 49.30 49.25 49.20 49.15 49.10 49.05 49.00 48.95 48.90 48.85 48.80 48.75 48.70 48.65 48.60 48.55 48.50 48.45 48.40 48.35 48.30 48.25 48.20 48.15 48.10 48.05 48.00 47.95 47.90 47.85 47.80 47.75 47.70 47.65 47.60 47.55 47.50 47.45 47.40 47.35 47.30 47.25 47.20 47.15 47.10 47.05 47.00 46.95 46.90 46.85 46.80 46.75 46.70 46.65 46.60 46.55 46.50 46.45 46.40 46.35 46.30 46.25 46.20 46.15 46.10 46.05 46.00 45.95 45.90 45.85 45.80 45.75 45.70 45.65 45.60 45.55 45.50 45.45 45.40 45.35 45.30 45.25 45.20 45.15 45.10 45.05 45.00 44.95 44.90 44.85 44.80 44.75 44.70 44.65 44.60 44.55 44.50 44.45 44.40 44.35 44.30 44.25 44.20 44.15 44.10 44.05 44.00 43.95 43.90 43.85 43.80 43.75 43.70 43.65 43.60 43.55 43.50 43.45 43.40 43.35 43.30 43.25 43.20 43.15 43.10 43.05 43.00 42.95 42.90 42.85 42.80 42.75 42.70 42.65 42.60 42.55 42.50 42.45 42.40 42.35 42.30 42.25 42.20 42.15 42.10 42.05 42.00 41.95 41.90 41.85 41.80 41.75 41.70 41.65 41.60 41.55 41.50 41.45 41.40 41.35 41.30 41.25 41.20 41.15 41.10 41.05 41.00 40.95 40.90 40.85 40.80 40.75 40.70 40.65 40.60 40.55 40.50 40.45 40.40 40.35 40.30 40.25 40.20 40.15 40.10 40.05 40.00 39.95 39.90 39.85 39.80 39.75 39.70 39.65 39.60 39.55 39.50 39.45 39.40 39.35 39.30 39.25 39.20 39.15 39.10 39.05 39.00 38.95 38.90 38.85 38.80 38.75 38.70 38.65 38.60 38.55 38.50 38.45 38.40 38.35 38.30 38.25 38.20 38.15 38.10 38.05 38.00 37.95 37.90 37.85 37.80 37.75 37.70 37.65 37.60 37.55 37.50 37.45 37.40 37.35 37.30 37.25 37.20 37.15 37.10 37.05 37.00 36.95 36.90 36.85 36.80 36.75 36.70 36.65 36.60 36.55 36.50 36.45 36.40 36.35 36.30 36.25 36.20 36.15 36.10 36.05 36.00 35.95 35.90 35.85 35.80 35.75 35.70 35.65 35.60 35.55 35.50 35.45 35.40 35.35 35.30 35.25 35.20 35.15 35.10 35.05 35.00 34.95 34.90 34.85 34.80 34.75 34.70 34.65 34.60 34.55 34.50 34.45 34.40 34.35 34.30 34.25 34.20 34.15 34.10 34.05 34.00 33.95 33.90 33.85 33.80 33.75 33.70 33.65 33.60 33.55 33.50 33.45 33.40 33.35 33.30 33.25 33.20 33.15 33.10 33.05 33.00 32.95 32.90 32.85 32.80 32.75 32.70 32.65 32.60 32.55 32.50 32.45 32.40 32.35 32.30 32.25 32.20 32.15 32.10 32.05 32.00 31.95 31.90 31.85 31.80 31.75 31.70 31.65 31.60 31.55 31.50 31.45 31.40 31.35 31.30 31.25 31.20 31.15 31.10 31.05 31.00 30.95 30.90 30.85 30.80 30.75 30.70 30.65 30.60 30.55 30.50 30.45 30.40 30.35 30.30 30.25 30.20 30.15 30.10 30.05
50.00 49.95 49.90 49.85 49.80 49.75 49.70 49.65 49.60 49.55 49.50 49.45 49.40 49.35 49.30 49.25 49.20 49.15 49.10 49.05 49.00 48.95 48.90 48.85 48.80 48.75 48.70 48.65 48.60 48.55 48.50 48.45 48.40 48.35 48.30 48.25 48.20 48.15 48.10 48.05 48.00 47.95 47.90 47.85 47.80 47.75 47.70 47.65 47.60 47.55 47.50 47.45 47.40 47.35 47.30 47.25 47.20 47.15 47.10 47.05 47.00 46.95 46.90 46.85 46.80 46.75 46.70 46.65 46.60 46.55 46.50 46.45 46.40 46.35 46.30 46.25 46.20 46.15 46.10 46.05 46.00 45.95 45.90 45.85 45.80 45.75 45.70 45.65 45.60 45.55 45.50 45.45 45.40 45.35 45.30 45.25 45.20 45.15 45.10 45.05 45.00 44.95 44.90 44.85 44.80 44.75 44.70 44.65 44.60 44.55 44.50 44.45 44.40 44.35 44.30 44.25 44.20 44.15 44.10 44.05 44.00 43.95 43.90 43.85 43.80 43.75 43.70 43.65 43.60 43.55 43.50 43.45 43.40 43.35 43.30 43.25 43.20 43.15 43.10 43.05 43.00 42.95 42.90 42.85 42.80 42.75 42.70 42.65 42.60 42.55 42.50 42.45 42.40 42.35 42.30 42.25 42.20 42.15 42.10 42.05 42.00 41.95 41.90 41.85 41.80 41.75 41.70 41.65 41.60 41.55 41.50 41.45 41.40 41.35 41.30 41.25 41.20 41.15 41.10 41.05 41.00 40.95 40.90 40.85 40.80 40.75 40.70 40.65 40.60 40.55 40.50 40.45 40.40 40.35 40.30 40.25 40.20 40.15 40.10 40.05 40.00 39.95 39.90 39.85 39.80 39.75 39.70 39.65 39.60 39.55 39.50 39.45 39.40 39.35 39.30 39.25 39.20 39.15 39.10 39.05 39.00 38.95 38.90 38.85 38.80 38.75 38.70 38.65 38.60 38.55 38.50 38.45 38.40 38.35 38.30 38.25 38.20 38.15 38.10 38.05 38.00 37.95 37.90 37.85 37.80 37.75 37.70 37.65 37.60 37.55 37.50 37.45 37.40 37.35 37.30 37.25 37.20 37.15 37.10 37.05 37.00 36.95 36.90 36.85 36.80 36.75 36.70 36.65 36.60 36.55 36.50 36.45 36.40 36.35 36.30 36.25 36.20 36.15 36.10 36.05 36.00 35.95 35.90 35.85 35.80 35.75 35.70 35.65 35.60 35.55 35.50 35.45 35.40 35.35 35.30 35.25 35.20 35.15 35.10 35.05 35.00 34.95 34.90 34.85 34.80 34.75 34.70 34.65 34.60 34.55 34.50 34.45 34.40 34.35 34.30 34.25 34.20 34.15 34.10 34.05 34.00 33.95 33.90 33.85 33.80 33.75 33.70 33.65 33.60 33.55 33.50 33.45 33.40 33.35 33.30 33.25 33.20 33.15 33.10 33.05 33.00 32.95 32.90 32.85 32.80 32.75 32.70 32.65 32.60 32.55 32.50 32.45 32.40 32.35 32.30 32.25 32.20 32.15 32.10 32.05 32.00 31.95 31.90 31.85 31.80 31.75 31.70 31.65 31.60 31.55 31.50 31.45 31.40 31.35 31.30 31.25 31.20 31.15 31.10 31.05 31.00 30.95 30.90 30.85 30.80 30.75 30.70 30.65 30.60 30.55 30.50 30.45 30.40 30.35 30.30 30.25 30.20 30.15 30.10 30.05
50.00 49.95 49.90 49.85 49.80 49.75 49.70 49.65 49.60 49.55 49.50 49.45 49.40 49.35 49.30 49.25 49.20 49.15 49.10 49.05 49.00 48.95 48.90 48.85 48.80 48.75 48.70 48.65 48.60 48.55 48.50 48.45 48.40 48.35 48.30 48.25 48.20 48.15 48.10 48.05 48.00 47.95 47.90 47.85 47.80 47.75 47.70 47.65 47.60 47.55 47.50 47.45 47.40 47.35 47.30 47.25 47.20 47.15 47.10 47.05 47.00 46.95 46.90 46.85 46.80 46.75 46.70 46.65 46.60 46.55 46.50 46.45 46.40 46.35 46.30 46.25 46.20 46.15 46.10 46.05 46.00 45.95 45.90 45.85 45.80 45.75 45.70 45.65 45.60 45.55 45.50 45.45 45.40 45.35 45.30 45.25 45.20 45.15 45.10 45.05 45.00 44.95 44.90 44.85 44.80 44.75 44.70 44.65 44.60 44.55 44.50 44.45 44.40 44.35 44.30 44.25 44.20 44.15 44.10 44.05 44.00 43.95 43.90 43.85 43.80 43.75 43.70 43.65 43.60 43.55 43.50 43.45 43.40 43.35 43.30 43.25 43.20 43.15 43.10 43.05 43.00 42.95 42.90 42.85 42.80 42.75 42.70 42.65 42.60 42.55 42.50 42.45 42.40 42.35 42.30 42.25 42.20 42.15 42.10 42.05 42.00 41.95 41.90 41.85 41.80 41.75 41.70 41.65 41.60 41.55 41.50 41.45 41.40 41.35 41.30 41.25 41.20 41.15 41.10 41.05 41.00 40.95 40.90 40.85 40.80 40.75 40.70 40.65 40.60 40.55 40.50 40.45 40.40 40.35 40.30 40.25 40.20 40.15 40.10 40.05 40.00 39.95 39.90 39.85 39.80 39.75 39.70 39.65 39.60 39.55 39.50 39.45 39.40 39.35 39.30 39.25 39.20 39.15 39.10 39.05 39.00 38.95 38.90 38.85 38.80 38.75 38.70 38.65 38.60 38.55 38.50 38.45 38.40 38.35 38.30 38.25 38.20 38.15 38.10 38.05 38.00 37.95 37.90 37.85 37.80 37.75 37.70 37.65 37.60 37.55 37.50 37.45 37.40 37.35 37.30 37.25 37.20 37.15 37.10 37.05 37.00 36.95 36.90 36.85 36.80 36.75 36.70 36.65 36.60 36.55 36.50 36.45 36.40 36.35 36.30 36.25 36.20 36.15 36.10 36.05 36.00 35.95 35.90 35.85 35.80 35.75 35.70 35.65 35.60 35.55 35.50 35.45 35.40 35.35 35.30 35.25 35.20 35.15 35.10 35.05 35.00 34.95 34.90 34.85 34.80 34.75 34.70 34.65 34.60 34.55 34.50 34.45 34.40 34.35 34.30 34.25 34.20 34.15 34.10 34.05 34.00 33.95 33.90 33.85 33.80 33.75 33.70 33.65 33.60 33.55 33.50 33.45 33.40 33.35 33.30 33.25 33.20 33.15 33.10 33.05 33.00 32.95 32.90 32.85 32.80 32.75 32.70 32.65 32.60 32.55 32.50 32.45 32.40 32.35 32.30 32.25 32.20 32.15 32.10 32.05 32.00 31.95 31.90 31.85 31.80 31.75 31.70 31.65 31.60 31.55 31.50 31.45 31.40 31.35 31.30 31.25 31.20 31.15 31.10 31.05 31.00 30.95 30.90 30.85 30.80 30.75 30.70 30.65 30.60 30.55 30.50 30.45 30.40 30.35 30.30 30.25 30.20 30.15 30.10 30.05
50.00 49.95 49.90 49.85 49.80 49.75 49.70 49.65 49.60 49.55 49.50 49.45 49.40 49.35 49.30 49.25 49.20 49.15 49.10 49.05 49.00 48.95 48.90 48.85 48.80 48.75 48.70 48.65 48.60 48.55 48.50 48.45 48.40 48.35 48.30 48.25 48.20 48.15 48.10 48.05 48.00 47.95 47.90 47.85 47.80 47.75 47.70 47.65 47.60 47.55 47.50 47.45 47.40 47.35 47.30 47.25 47.20 47.15 47.10 47.05 47.00 46.95 46.90 46.85 46.80 46.75 46.70 46.65 46.60 46.55 46.50 46.45 46.40 46.35 46.30 46.25 46.20 46.15 46.10 46.05 46.00 45.95 45.90 45.85 45.80 45.75 45.70 45.65 45.60 45.55 45.50 45.45 45.40 45.35 45.30 45.25 45.20 45.15 45.10 45.05 45.00 44.95 44.90 44.85 44.80 44.75 44.70 44.65 44.60 44.55 44.50 44.45 44.40 44.35 44.30 44.25 44.20 44.15 44.10 44.05 44.00 43.95 43.90 43.85 43.80 43.75 43.70 43.65 43.60 43.55 43.50 43.45 43.40 43.35 43.30 43.25 43.20 43.15 43.10 43.05 43.00 42.95 42.90 42.85 42.80 42.75 42.70 42.65 42.60 42.55 42.50 42.45 42.40 42.35 42.30 42.25 42.20 42.15 42.10 42.05 42.00 41.95 41.90 41.85 41.80 41.75 41.70 41.65 41.60 41.55 41.50 41.45 41.40 41.35 41.30 41.25 41.20 41.15 41.10 41.05 41.00 40.95 40.90 40.85 40.80 40.75 40.70 40.65 40.60 40.55 40.50 40.45 40.40 40.35 40.30 40.25 40.20 40.15 40.10 40.05 40.00 39.95 39.90 39.85 39.80 39.75 39.70 39.65 39.60 39.55 39.50 39.45 39.40 39.35 39.30 39.25 39.20 39.15 39.10 39.05 39.00 38.95 38.90 38.85 38.80 38.75 38.70 38.65 38.60 38.55 38.50 38.45 38.40 38.35 38.30 38.25 38.20 38.15 38.10 38.05 38.00 37.95 37.90 37.85 37.80 37.75 37.70 37.65 37.60 37.55 37.50 37.45 37.40 37.35 37.30 37.25 37.20 37.15 37.10 37.05 37.00 36.95 36.90 36.85 36.80 36.75 36.70 36.65 36.60 36.55 36.50 36.45 36.40 36.35 36.30 36.25 36.20 36.15 36.10 36.05 36.00 35.95 35.90 35.85 35.80 35.75 35.70 35.65 35.60 35.55 35.50 35.45 35.40 35.35 35.30 35.25 35.20 35.15 35.10 35.05 35.00 34.95 34.90 34.85 34.80 34.75 34.70 34.65 34.60 34.55 34.50 34.45 34.40 34.35 34.30 34.25 34.20 34.15 34.10 34.05 34.00 33.95 33.90 33.85 33.80 33.75 33.70 33.65 33.60 33.55 33.50 33.45 33.40 33.35 33.30 33.25 33.20 33.15 33.10 33.05 33.00 32.95 32.90 32.85 32.80 32.75 32.70 32.65 32.60 32.55 32.50 32.45 32.40 32.35 32.30 32.25 32.20 32.15 32.10 32.05 32.00 31.95 31.90 31.85 31.80 31.75 31.70 31.65 31.60 31.55 31.50 31.45 31.40 31.35 31.30 31.25 31.20 31.15 31.10 31.05 31.00 30.95 30.90 30.85 30.80 30.75 30.70 30.65 30.60 30.55 30.50 30.45 30.40 30.35 30.30 30.25 30.20 30.15 30.10 30.05
50.00 49.95 49.90 49.85 49.80 49.75 49.70 49.65 49.60 49.55 49.50 49.45 49.40 49.35 49.30 49.25 49.20 49.15 49.10 49.05 49.00 48.95 48.90 48.85 48.80 48.75 48.70 48.65 48.60 48.55 48.50 48.45 48.40 48.35 48.30 48.25 48.20 48.15 48.10 48.05 48.00 47.95 47.90 47.85 47.80 47.75 47.70 47.65 47.60 47.55 47.50 47.45 47.40 47.35 47.30 47.25 47.20 47.15 47.10 47.05 47.00 46.95 46.90 46.85 46.80 46.75 46.70 46.65 46.60 46.55 46.50 46.45 46.40 46.35 46.30 46.25 46.20 46.15 46.10 46.05 46.00 45.95 45.90 45.85 45.80 45.75 45.70 45.65 45.60 45.55 45.50 45.45 45.40 45.35 45.30 45.25 45.20 45.15 45.10 45.05 45.00 44.95 44.90 44.85 44.80 44.75 44.70 44.65 44.60 44.55 44.50 44.45 44.40 44.35 44.30 44.25 44.20 44.15 44.10 44.05 44.00 43.95 43.90 43.85 43.80 43.75 43.70 43.65 43.60 43.55 43.50 43.45 43.40 43.35 43.30 43.25 43.20 43.15 43.10 43.05 43.00 42.95 42.90 42.85 42.80 42.75 42.70 42.65 42.60 42.55 42.50 42.45 42.40 42.35 42.30 42.25 42.20 42.15 42.10 42.05 42.00 41.95 41.90 41.85 41.80 41.75 41.70 41.65 41.60 41.55 41.50 41.45 41.40 41.35 41.30 41.25 41.20 41.15 41.10 41.05 41.00 40.95 40.90 40.85 40.80 40.75 40.70 40.65 40.60 40.55 40.50 40.45 40.40 40.35 40.30 40.25 40.20 40.15 40.10 40.05 40.00 39.95 39.90 39.85 39.80 39.75 39.70 39.65 39.60 39.55 39.50 39.45 39.40 39.35 39.30 39.25 39.20 39.15 39.10 39.05 39.00 38.95 38.90 38.85 38.80 38.75 38.70 38.65 38.60 38.55 38.50 38.45 38.40 38.35 38.30 38.25 38.20 38.15 38.10 38.05 38.00 37.95 37.90 37.85 37.80 37.75 37.70 37.65 37.60 37.55 37.50 37.45 37.40 37.35 37.30 37.25 37.20 37.15 37.10 37.05 37.00 36.95 36.90 36.85 36.80 36.75 36.70 36.65 36.60 36.55 36.50 36.45 36.40 36.35 36.30 36.25 36.20 36.15 36.10 36.05 36.00 35.95 35.90 35.85 35.80 35.75 35.70 35.65 35.60 35.55 35.50 35.45 35.40 35.35 35.30 35.25 35.20 35.15 35.10 35.05 35.00 34.95 34.90 34.85 34.80 34.75 34.70 34.65 34.60 34.55 34.50 34.45 34.40 34.35 34.30 34.25 34.20 34.15 34.10 34.05 34.00 33.95 33.90 33.85 33.80 33.75 33.70 33.65 33.60 33.55 33.50 33.45 33.40 33.35 33.30 33.25 33.20 33.15 33.10 33.05 33.00 32.95 32.90 32.85 32.80 32.75 32.70 32.65 32.60 32.55 32.50 32.45 32.40 32.35 32.30 32.25 32.20 32.15 32.10 32.05 32.00 31.95 31.90 31.85 31.80 31.75 31.70 31.65 31.60 31.55 31.50 31.45 31.40 31.35 31.30 31.25 31.20 31.15 31.10 31.05 31.00 30.95 30.90 30.85 30.80 30.75 30.70 30.65 30.60 30.55 30.50 30.45 30.40 30.35 30.30 30.25 30.20 30.15 30.10 30.05
50.00 49.95 49.90 49.85 49.80 49.75 49.70 49.65 49.60 49.55 49.50 49.45 49.40 49.35 49.30 49.25 49.20 49.15 49.10 49.05 49.00 48.95 48.90 48.85 48.80 48.75 48.70 48.65 48.60 48.55 48.50 48.45 48.40 48.35 48.30 48.25 48.20 48.15 48.10 48.05 48.00 47.95 47.90 47.85 47.80 47.75 47.70 47.65 47.60 47.55 47.50 47.45 47.40 47.35 47.30 47.25 47.20 47.15 47.10 47.05 47.00 46.95 46.90 46.85 46.80 46.75 46.70 46.65 46.60 46.55 46.50 46.45 46.40 46.35 46.30 46.25 46.20 46.15 46.10 46.05 46.00 45.95 45.90 45.85 45.80 45.75 45.70 45.65 45.60 45.55 45.50 45.45 45.40 45.35 45.30 45.25 45.20 45.15 45.10 45.05 45.00 44.95 44.90 44.85 44.80 44.75 44.70 44.65 44.60 44.55 44.50 44.45 44.40 44.35 44.30 44.25 44.20 44.15 44.10 44.05 44.00 43.95 43.90 43.85 43.80 43.75 43.70 43.65 43.60 43.55 43.50 43.45 43.40 43.35 43.30 43.25 43.20 43.15 43.10 43.05 43.00 42.95 42.90 42.85 42.80 42.75 42.70 42.65 42.60 42.55 42.50 42.45 42.40 42.35 42.30 42.25 42.20 42.15 42.10 42.05 42.00 41.95 41.90 41.85 41.80 41.75 41.70 41.65 41.60 41.55 41.50 41.45 41.40 41.35 41.30 41.25 41.20 41.15 41.10 41.05 41.00 40.95 40.90 40.85 40.80 40.75 40.70 40.65 40.60 40.55 40.50 40.45 40.40 40.35 40.30 40.25 40.20 40.15 40.10 40.05 40.00 39.95 39.90 39.85 39.80 39.75 39.70 39.65 39.60 39.55 39.50 39.45 39.40 39.35 39.30 39.25 39.20 39.15 39.10 39.05 39.00 38.95 38.90 38.85 38.80 38.75 38.70 38.65 38.60 38.55 38.50 38.45 38.40 38.35 38.30 38.25 38.20 38.15 38.10 38.05 38.00 37.95 37.90 37.85 37.80 37.75 37.70 37.65 37.60 37.55 37.50 37.45 37.40 37.35 37.30 37.25 37.20 37.15 37.10 37.05 37.00 36.95 36.90 36.85 36.80 36.75 36.70 36.65 36.60 36.55 36.50 36.45 36.40 36.35 36.30 36.25 36.20 36.15 36.10 36.05 36.00 35.95 35.90 35.85 35.80 35.75 35.70 35.65 35.60 35.55 35.50 35.45 35.40 35.35 35.30 35.25 35.20 35.15 35.10 35.05 35.00 34.95 34.90 34.85 34.80 34.75 34.70 34.65 34.60 34.55 34.50 34.45 34.40 34.35 34.30 34.25 34.20 34.15 34.10 34.05 34.00 33.95 33.90 33.85 33.80 33.75 33.70 33.65 33.60 33.55 33.50 33.45 33.40 33.35 33.30 33.25 33.20 33.15 33.10 33.05 33.00 32.95 32.90 32.85 32.80 32.75 32.70 32.65 32.60 32.55 32.50 32.45 32.40 32.35 32.30 32.25 32.20 32.15 32.10 32.05 32.00 31.95 31.90 31.85 31.80 31.75 31.70 31.65 31.60 31.55 31.50 31.45 31.40 31.35 31.30 31.25 31.20 31.15 31.10 31.05 31.00 30.95 30.90 30.85 30.80 30.75 30.70 30.65 30.60 30.55 30.50 30.45 30.40 30.35 30.30 30.25 30.20 30.15 30.10 30.05
50.00 49.95 49.90 49.85 49.80 49.75 49.70 49.65 49.60 49.55 49.50 49.45 49.40 49.35 49.30 49.25 49.20 49.15 49.10 49.05 49.00 48.95 48.90 48.85 48.80 48.75 48.70 48.65 48.60 48.55 48.50 48.45 48.40 48.35 48.30 48.25 48.20 48.15 48.10 48.05 48.00 47.95 47.90 47.85 47.80 47.75 47.70 47.65 47.60 47.55 47.50 47.45 47.40 47.35 47.30 47.25 47.20 47.15 47.10 47.05 47.00 46.95 46.90 46.85 46.80 46.75 46.70 46.65 46.60 46.55 46.50 46.45 46.40 46.35 46.30 46.25 46.20 46.15 46.10 46.05 46.00 45.95 45.90 45.85 45.80 45.75 45.70 45.65 45.60 45.55 45.50 45.45 45.40 45.35 45.30 45.25 45.20 45.15 45.10 45.05 45.00 44.95 44.90 44.85 44.80 44.75 44.70 44.65 44.60 44.55 44.50 44.45 44.40 44.35 44.30 44.25 44.20 44.15 44.10 44.05 44.00 43.95 43.90 43.85 43.80 43.75 43.70 43.65 43.60 43.55 43.50 43.45 43.40 43.35 43.30 43.25 43.20 43.15 43.10 43.05 43.00 42.95 42.90 42.85 42.80 42.75 42.70 42.65 42.60 42.55 42.50 42.45 42.40 42.35 42.30 42.25 42.20 42.15 42.10 42.05 42.00 41.95 41.90 41.85 41.80 41.75 41.70 41.65 41.60 41.55 41.50 41.45 41.40 41.35 41.30 41.25 41.20 41.15 41.10 41.05 41.00 40.95 40.90 40.85 40.80 40.75 40.70 40.65 40.60 40.55 40.50 40.45 40.40 40.35 40.30 40.25 40.20 40.15 40.10 40.05 40.00 39.95 39.90 39.85 39.80 39.75 39.70 39.65 39.60 39.55 39.50 39.45 39.40 39.35 39.30 39.25 39.20 39.15 39.10 39.05 39.00 38.95 38.90 38.85 38.80 38.75 38.70 38.65 38.60 38.55 38.50 38.45 38.40 38.35 38.30 38.25 38.20 38.15 38.10 38.05 38.00 37.95 37.90 37.85 37.80 37.75 37.70 37.65 37.60 37.55 37.50 37.45 37.40 37.35 37.30 37.25 37.20 37.15 37.10 37.05 37.00 36.95 36.90 36.85 36.80 36.75 36.70 36.65 36.60 36.55 36.50 36.45 36.40 36.35 36.30 36.25 36.20 36.15 36.10 36.05 36.00 35.95 35.90 35.85 35.80 35.75 35.70 35.65 35.60 35.55 35.50 35.45 35.40 35.35 35.30 35.25 35.20 35.15 35.10 35.05 35.00 34.95 34.90 34.85 34.80 34.75 34.70 34.65 34.60 34.55 34.50 34.45 34.40 34.35 34.30 34.25 34.20 34.15 34.10 34.05 34.00 33.95 33.90 33.85 33.80 33.75 33.70 33.65 33.60 33.55 33.50 33.45 33.40 33.35 33.30 33.25 33.20 33.15 33.10 33.05 33.00 32.95 32.90 32.85 32.80 32.75 32.70 32.65 32.60 32.55 32.50 32.45 32.40 32.35 32.30 32.25 32.20 32.15 32.10 32.05 32.00 31.95 31.90 31.85 31.80 31.75 31.70 31.65 31.60 31.55 31.50 31.45 31.40 31.35 31.30 31.25 31.20 31.15 31.10 31.05 31.00 30.95 30.90 30.85 30.80 30.75 30.70 30.65 30.60 30.55 30.50 30.45 30.40 30.35 30.30 30.25 30.20 30.15 30.10 30.05
50.00 49.95 49.90 49.85 49.80 49.75 49.70 49.65 49.60 49.55 49.50 49.45 49.40 49.35 49.30 49.25 49.20 49.15 49.10 49.05 49.00 48.95 48.90 48.85 48.80 48.75 48.70 48.65 48.60 48.55 48.50 48.45 48.40 48.35 48.30 48.25 48.20 48.15 48.10 48.05 48.00 47.95 47.90 47.85 47.80 47.75 47.70 47.65 47.60 47.55 47.50 47.45 47.40 47.35 47.30 47.25 47.20 47.15 47.10 47.05 47.00 46.95 46.90 46.85 46.80 46.75 46.70 46.65 46.60 46.55 46.50 46.45 46.40 46.35 46.30 46.25 46.20 46.15 46.10 46.05 46.00 45.95 45.90 45.85 45.80 45.75 45.70 45.65 45.60 45.55 45.50 45.45 45.40 45.35 45.30 45.25 45.20 45.15 45.10 45.05 45.00 44.95 44.90 44.85 44.80 44.75 44.70 44.65 44.60 44.55 44.50 44.45 44.40 44.35 44.30 44.25 44.20 44.15 44.10 44.05 44.00 43.95 43.90 43.85 43.80 43.75 43.70 43.65 43.60 43.55 43.50 43.45 43.40 43.35 43.30 43.25 43.20 43.15 43.10 43.05 43.00 42.95 42.90 42.85 42.80 42.75 42.70 42.65 42.60 42.55 42.50 42.45 42.40 42.35 42.30 42.25 42.20 42.15 42.10 42.05 42.00 41.95 41.90 41.85 41.80 41.75 41.70 41.65 41.60 41.55 41.50 41.45 41.40 41.35 41.30 41.25 41.20 41.15 41.10 41.05 41.00 40.95 40.90 40.85 40.80 40.75 40.70 40.65 40.60 40.55 40.50 40.45 40.40 40.35 40.30 40.25 40.20 40.15 40.10 40.05 40.00 39.95 39.90 39.85 39.80 39.75 39.70 39.65 39.60 39.55 39.50 39.45 39.40 39.35 39.30 39.25 39.20 39.15 39.10 39.05 39.00 38.95 38.90 38.85 38.80 38.75 38.70 38.65 38.60 38.55 38.50 38.45 38.40 38.35 38.30 38.25 38.20 38.15 38.10 38.05 38.00 37.95 37.90 37.85 37.80 37.75 37.70 37.65 37.60 37.55 37.50 37.45 37.40 37.35 37.30 37.25 37.20 37.15 37.10 37.05 37.00 36.95 36.90 36.85 36.80 36.75 36.70 36.65 36.60 36.55 36.50 36.45 36.40 36.35 36.30 36.25 36.20 36.15 36.10 36.05 36.00 35.95 35.90 35.85 35.80 35.75 35.70 35.65 35.60 35.55 35.50 35.45 35.40 35.35 35.30 35.25 35.20 35.15 35.10 35.05 35.00 34.95 34.90 34.85 34.80 34.75 34.70 34.65 34.60 34.55 34.50 34.45 34.40 34.35 34.30 34.25 34.20 34.15 34.10 34.05 34.00 33.95 33.90 33.85 33.80 33.75 33.70 33.65 33.60 33.55 33.50 33.45 33.40 33.35 33.30 33.25 33.20 33.15 33.10 33.05 33.00 32.95 32.90 32.85 32.80 32.75 32.70 32.65 32.60 32.55 32.50 32.45 32.40 32.35 32.30 32.25 32.20 32.15 32.10 32.05 32.00 31.95 31.90 31.85 31.80 31.75 31.70 31.65 31.60 31.55 31.50 31.45 31.40 31.35 31.30 31.25 31.20 31.15 31.10 31.05 31.00 30.95 30.90 30.85 30.80 30.75 30.70 30.65 30.60 30.55 30.50 30.45 30.40 30.35 30.30 30.25 30.20 30.15 30.10 30.05
50.00 49.95 49.90 49.85 49.80 49.75 49.70 49.65 49.60 49.55 49.50 49.45 49.40 49.35 49.30 49.25 49.20 49.15 49.10 49.05 49.00 48.95 48.90 48.85 48.80 48.75 48.70 48.65 48.60 48.55 48.50 48.45 48.40 48.35 48.30 48.25 48.20 48.15 48.10 48.05 48.00 47.95 47.90 47.85 47.80 47.75 47.70 47.65 47.60 47.55 47.50 47.45 47.40 47.35 47.30 47.25 47.20 47.15 47.10 47.05 47.00 46.95 46.90 46.85 46.80 46.75 46.70 46.65 46.60 46.55 46.50 46.45 46.40 46.35 46.30 46.25 46.20 46.15 46.10 46.05 46.00 45.95 45.90 45.85 45.80 45.75 45.70 45.65 45.60 45.55 45.50 45.45 45.40 45.35 45.30 45.25 45.20 45.15 45.10 45.05 45.00 44.95 44.90 44.85 44.80 44.75 44.70 44.65 44.60 44.55 44.50 44.45 44.40 44.35 44.30 44.25 44.20 44.15 44.10 44.05 44.00 43.95 43.90 43.85 43.80 43.75 43.70 43.65 43.60 43.55 43.50 43.45 43.40 43.35 43.30 43.25 43.20 43.15 43.10 43.05 43.00 42.95 42.90 42.85 42.80 42.75 42.70 42.65 42.60 42.55 42.50 42.45 42.40 42.35 42.30 42.25 42.20 42.15 42.10 42.05 42.00 41.95 41.90 41.85 41.80 41.75 41.70 41.65 41.60 41.55 41.50 41.45 41.40 41.35 41.30 41.25 41.20 41.15 41.10 41.05 41.00 40.95 40.90 40.85 40.80 40.75 40.70 40.65 40.60 40.55 40.50 40.45 40.40 40.35 40.30 40.25 40.20 40.15 40.10 40.05 40.00 39.95 39.90 39.85 39.80 39.75 39.70 39.65 39.60 39.55 39.50 39.45 39.40 39.35 39.30 39.25 39.20 39.15 39.10 39.05 39.00 38.95 38.90 38.85 38.80 38.75 38.70 38.65 38.60 38.55 38.50 38.45 38.40 38.35 38.30 38.25 38.20 38.15 38.10 38.05 38.00 37.95 37.90 37.85 37.80 37.75 37.70 37.65 37.60 37.55 37.50 37.45 37.40 37.35 37.30 37.25 37.20 37.15 37.10 37.05 37.00 36.95 36.90 36.85 36.80 36.75 36.70 36.65 36.60 36.55 36.50 36.45 36.40 36.35 36.30 36.25 36.20 36.15 36.10 36.05 36.00 35.95 35.90 35.85 35.80 35.75 35.70 35.65 35.60 35.55 35.50 35.45 35.40 35.35 35.30 35.25 35.20 35.15 35.10 35.05 35.00 34.95 34.90 34.85 34.80 34.75 34.70 34.65 34.60 34.55 34.50 34.45 34.40 34.35 34.30 34.25 34.20 34.15 34.10 34.05 34.00 33.95 33.90 33.85 33.80 33.75 33.70 33.65 33.60 33.55 33.50 33.45 33.40 33.35 33.30 33.25 33.20 33.15 33.10 33.05 33.00 32.95 32.90 32.85 32.80 32.75 32.70 32.65 32.60 32.55 32.50 32.45 32.40 32.35 32.30 32.25 32.20 32.15 32.10 32.05 32.00 31.95 31.90 31.85 31.80 31.75 31.70 31.65 31.60 31.55 31.50 31.45 31.40 31.35 31.30 31.25 31.20 31.15 31.10 31.05 31.00 30.95 30.90 30.85 30.80 30.75 30.70 30.65 30.60 30.55 30.50 30.45 30.40 30.35 30.30 30.25 30.20 30.15 30.10 30.05
50.00 49.95 49.90 49.85 49.80 49.75 49.70 49.65 49.60 49.55 49.50 49.45 49.40 49.35 49.30 49.25 49.20 49.15 49.10 49.05 49.00 48.95 48.90 48.85 48.80 48.75 48.70 48.65 48.60 48.55 48.50 48.45 48.40 48.35 48.30 48.25 48.20 48.15 48.10 48.05 48.00 47.95 47.90 47.85 47.80 47.75 47.70 47.65 47.60 47.55 47.50 47.45 47.40 47.35 47.30 47.25 47.20 47.15 47.10 47.05 47.00 46.95 46.90 46.85 46.80 46.75 46.70 46.65 46.60 46.55 46.50 46.45 46.40 46.35 46.30 46.25 46.20 46.15 46.10 46.05 46.00 45.95 45.90 45.85 45.80 45.75 45.70 45.65 45.60 45.55 45.50 45.45 45.40 45.35 45.30 45.25 45.20 45.15 45.10 45.05 45.00 44.95 44.90 44.85 44.80 44.75 44.70 44.65 44.60 44.55 44.50 44.45 44.40 44.35 44.30 44.25 44.20 44.15 44.10 44.05 44.00 43.95 43.90 43.85 43.80 43.75 43.70 43.65 43.60 43.55 43.50 43.45 43.40 43.35 43.30 43.25 43.20 43.15 43.10 43.05 43.00 42.95 42.90 42.85 42.80 42.75 42.70 42.65 42.60 42.55 42.50 42.45 42.40 42.35 42.30 42.25 42.20 42.15 42.10 42.05 42.00 41.95 41.90 41.85 41.80 41.75 41.70 41.65 41.60 41.55 41.50 41.45 41.40 41.35 41.30 41.25 41.20 41.15 41.10 41.05 41.00 40.95 40.90 40.85 40.80 40.75 40.70 40.65 40.60 40.55 40.50 40.45 40.40 40.35 40.30 40.25 40.20 40.15 40.10 40.05 40.00 39.95 39.90 39.85 39.80 39.75 39.70 39.65 39.60 39.55 39.50 39.45 39.40 39.35 39.30 39.25 39.20 39.15 39.10 39.05 39.00 38.95 38.90 38.85 38.80 38.75 38.70 38.65 38.60 38.55 38.50 38.45 38.40 38.35 38.30 38.25 38.20 38.15 38.10 38.05 38.00 37.95 37.90 37.85 37.80 37.75 37.70 37.65 37.60 37.55 37.50 37.45 37.40 37.35 37.30 37.25 37.20 37.15 37.10 37.05 37.00 36.95 36.90 36.85 36.80 36.75 36.70 36.65 36.60 36.55 36.50 36.45 36.40 36.35 36.30 36.25 36.20 36.15 36.10 36.05 36.00 35.95 35.90 35.85 35.80 35.75 35.70 35.65 35.60 35.55 35.50 35.45 35.40 35.35 35.30 35.25 35.20 35.15 35.10 35.05 35.00 34.95 34.90 34.85 34.80 34.75 34.70 34.65 34.60 34.55 34.50 34.45 34.40 34.35 34.30 34.25 34.20 34.15 34.10 34.05 34.00 33.95 33.90 33.85 33.80 33.75 33.70 33.65 33.60 33.55 33.50 33.45 33.40 33.35 33.30 33.25 33.20 33.15 33.10 33.05 33.00 32.95 32.90 32.85 32.80 32.75 32.70 32.65 32.60 32.55 32.50 32.45 32.40 32.35 32.30 32.25 32.20 32.15 32.10 32.05 32.00 31.95 31.90 31.85 31.80 31.75 31.70 31.65 31.60 31.55 31.50 31.45 31.40 31.35 31.30 31.25 31.20 31.15 31.10 31.05 31.00 30.95 30.90 30.85 30.80 30.75 30.70 30.65 30.60 30.55 30.50 30.45 30.40 30.35 30.30 30.25 30.20 30.15 30.10 30.05
50.00 49.95 49.90 49.85 49.80 49.75 49.70 49.65 49.60 49.55 49.50 49.45 49.40 49.35 49.30 49.25 49.20 49.15 49.10 49.05 49.00 48.95 48.90 48.85 48.80 48.75 48.70 48.65 48.60 48.55 48.50 48.45 48.40 48.35 48.30 48.25 48.20 48.15 48.10 48.05 48.00 47.95 47.90 47.85 47.80 47.75 47.70 47.65 47.60 47.55 47.50 47.45 47.40 47.35 47.30 47.25 47.20 47.15 47.10 47.05 47.00 46.95 46.90 46.85 46.80 46.75 46.70 46.65 46.60 46.55 46.50 46.45 46.40 46.35 46.30 46.25 46.20 46.15 46.10 46.05 46.00 45.95 45.90 45.85 45.80 45.75 45.70 45.65 45.60 45.55 45.50 45.45 45.40 45.35 45.30 45.25 45.20 45.15 45.10 45.05 45.00 44.95 44.90 44.85 44.80 44.75 44.70 44.65 44.60 44.55 44.50 44.45 44.40 44.35 44.30 44.25 44.20 44.15 44.10 44.05 44.00 43.95 43.90 43.85 43.80 43.75 43.70 43.65 43.60 43.55 43.50 43.45 43.40 43.35 43.30 43.25 43.20 43.15 43.10 43.05 43.00 42.95 42.90 42.85 42.80 42.75 42.70 42.65 42.60 42.55 42.50 42.45 42.40 42.35 42.30 42.25 42.20 42.15 42.10 42.05 42.00 41.95 41.90 41.85 41.80 41.75 41.70 41.65 41.60 41.55 41.50 41.45 41.40 41.35 41.30 41.25 41.20 41.15 41.10 41.05 41.00 40.95 40.90 40.85 40.80 40.75 40.70 40.65 40.60 40.55 40.50 40.45 40.40 40.35 40.30 40.25 40.20 40.15 40.10 40.05 40.00 39.95 39.90 39.85 39.80 39.75 39.70 39.65 39.60 39.55 39.50 39.45 39.40 39.35 39.30 39.25 39.20 39.15 39.10 39.05 39.00 38.95 38.90 38.85 38.80 38.75 38.70 38.65 38.60 38.55 38.50 38.45 38.40 38.35 38.30 38.25 38.20 38.15 38.10 38.05 38.00 37.95 37.90 37.85 37.80 37.75 37.70 37.65 37.60 37.55 37.50 37.45 37.40 37.35 37.30 37.25 37.20 37.15 37.10 37.05 37.00 36.95 36.90 36.85 36.80 36.75 36.70 36.65 36.60 36.55 36.50 36.45 36.40 36.35 36.30 36.25 36.20 36.15 36.10 36.05 36.00 35.95 35.90 35.85 35.80 35.75 35.70 35.65 35.60 35.55 35.50 35.45 35.40 35.35 35.30 35.25 35.20 35.15 35.10 35.05 35.00 34.95 34.90 34.85 34.80 34.75 34.70 34.65 34.60 34.55 34.50 34.45 34.40 34.35 34.30 34.25 34.20 34.15 34.10 34.05 34.00 33.95 33.90 33.85 33.80 33.75 33.70 33.65 33.60 33.55 33.50 33.45 33.40 33.35 33.30 33.25 33.20 33.15 33.10 33.05 33.00 32.95 32.90 32.85 32.80 32.75 32.70 32.65 32.60 32.55 32.50 32.45 32.40 32.35 32.30 32.25 32.20 32.15 32.10 32.05 32.00 31.95 31.90 31.85 31.80 31.75 31.70 31.65 31.60 31.55 31.50 31.45 31.40 31.35 31.30 31.25 31.20 31.15 31.10 31.05 31.00 30.95 30.90 30.85 30.80 30.75 30.70 30.65 30.60 30.55 30.50 30.45 30.40 30.35 30.30 30.25 30.20 30.15 30.10 30.05
50.00 49.95 49.90 49.85 49.80 49.75 49.70 49.65 49.60 49.55 49.50 49.45 49.40 49.35 49.30 49.25 49.20 49.15 49.10 49.05 49.00 48.95 48.90 48.85 48.80 48.75 48.70 48.65 48.60 48.55 48.50 48.45 48.40 48.35 48.30 48.25 48.20 48.15 48.10 48.05 48.00 47.95 47.90 47.85 47.80 47.75 47.70 47.65 47.60 47.55 47.50 47.45 47.40 47.35 47.30 47.25 47.20 47.15 47.10 47.05 47.00 46.95 46.90 46.85 46.80 46.75 46.70 46.65 46.60 46.55 46.50 46.45 46.40 46.35 46.30 46.25 46.20 46.15 46.10 46.05 46.00 45.95 45.90 45.85 45.80 45.75 45.70 45.65 45.60 45.55 45.50 45.45 45.40 45.35 45.30 45.25 45.20 45.15 45.10 45.05 45.00 44.95 44.90 44.85 44.80 44.75 44.70 44.65 44.60 44.55 44.50 44.45 44.40 44.35 44.30 44.25 44.20 44.15 44.10 44.05 44.00 43.95 43.90 43.85 43.80 43.75 43.70 43.65 43.60 43.55 43.50 43.45 43.40 43.35 43.30 43.25 43.20 43.15 43.10 43.05 43.00 42.95 42.90 42.85 42.80 42.75 42.70 42.65 42.60 42.55 42.50 42.45 42.40 42.35 42.30 42.25 42.20 42.15 42.10 42.05 42.00 41.95 41.90 41.85 41.80 41.75 41.70 41.65 41.60 41.55 41.50 41.45 41.40 41.35 41.30 41.25 41.20 41.15 41.10 41.05 41.00 40.95 40.90 40.85 40.80 40.75 40.70 40.65 40.60 40.55 40.50 40.45 40.40 40.35 40.30 40.25 40.20 40.15 40.10 40.05 40.00 39.95 39.90 39.85 39.80 39.75 39.70 39.65 39.60 39.55 39.50 39.45 39.40 39.35 39.30 39.25 39.20 39.15 39.10 39.05 39.00 38.95 38.90 38.85 38.80 38.75 38.70 38.65 38.60 38.55 38.50 38.45 38.40 38.35 38.30 38.25 38.20 38.15 38.10 38.05 38.00 37.95 37.90 37.85 37.80 37.75 37.70 37.65 37.60 37.55 37.50 37.45 37.40 37.35 37.30 37.25 37.20 37.15 37.10 37.05 37.00 36.95 36.90 36.85 36.80 36.75 36.70 36.65 36.60 36.55 36.50 36.45 36.40 36.35 36.30 36.25 36.20 36.15 36.10 36.05 36.00 35.95 35.90 35.85 35.80 35.75 35.70 35.65 35.60 35.55 35.50 35.45 35.40 35.35 35.30 35.25 35.20 35.15 35.10 35.05 35.00 34.95 34.90 34.85 34.80 34.75 34.70 34.65 34.60 34.55 34.50 34.45 34.40 34.35 34.30 34.25 34.20 34.15 34.10 34.05 34.00 33.95 33.90 33.85 33.80 33.75 33.70 33.65 33.60 33.55 33.50 33.45 33.40 33.35 33.30 33.25 33.20 33.15 33.10 33.05 33.00 32.95 32.90 32.85 32.80 32.75 32.70 32.65 32.60 32.55 32.50 32.45 32.40 32.35 32.30 32.25 32.20 32.15 32.10 32.05 32.00 31.95 31.90 31.85 31.80 31.75 31.70 31.65 31.60 31.55 31.50 31.45 31.40 31.35 31.30 31.25 31.20 31.15 31.10 31.05 31.00 30.95 30.90 30.85 30.80 30.75 30.70 30.65 30.60 30.55 30.50 30.45 30.40 30.35 30.30 30.25 30.20 30.15 30.10 30.05
50.00 49.95 49.90 49.85 49.80 49.75 49.70 49.65 49.60 49.55 49.50 49.45 49.40 49.35 49.30 49.25 49.20 49.15 49.10 49.05 49.00 48.95 48.90 48.85 48.80 48.75 48.70 48.65 48.60 48.55 48.50 48.45 48.40 48.35 48.30 48.25 48.20 48.15 48.10 48.05 48.00 47.95 47.90 47.85 47.80 47.75 47.70 47.65 47.60 47.55 47.50 47.45 47.40 47.35 47.30 47.25 47.20 47.15 47.10 47.05 47.00 46.95 46.90 46.85 46.80 46.75 46.70 46.65 46.60 46.55 46.50 46.45 46.40 46.35 46.30 46.25 46.20 46.15 46.10 46.05 46.00 45.95 45.90 45.85 45.80 45.75 45.70 45.65 45.60 45.55 45.50 45.45 45.40 45.35 45.30 45.25 45.20 45.15 45.10 45.05 45.00 44.95 44.90 44.85 44.80 44.75 44.70 44.65 44.60 44.55 44.50 44.45 44.40 44.35 44.30 44.25 44.20 44.15 44.10 44.05 44.00 43.95 43.90 43.85 43.80 43.75 43.70 43.65 43.60 43.55 43.50 43.45 43.40 43.35 43.30 43.25 43.20 43.15 43.10 43.05 43.00 42.95 42.90 42.85 42.80 42.75 42.70 42.65 42.60 42.55 42.50 42.45 42.40 42.35 42.30 42.25 42.20 42.15 42.10 42.05 42.00 41.95 41.90 41.85 41.80 41.75 41.70 41.65 41.60 41.55 41.50 41.45 41.40 41.35 41.30 41.25 41.20 41.15 41.10 41.05 41.00 40.95 40.90 40.85 40.80 40.75 40.70 40.65 40.60 40.55 40.50 40.45 40.40 40.35 40.30 40.25 40.20 40.15 40.10 40.05 40.00 39.95 39.90 39.85 39.80 39.75 39.70 39.65 39.60 39.55 39.50 39.45 39.40 39.35 39.30 39.25 39.20 39.15 39.10 39.05 39.00 38.95 38.90 38.85 38.80 38.75 38.70 38.65 38.60 38.55 38.50 38.45 38.40 38.35 38.30 38.25 38.20 38.15 38.10 38.05 38.00 37.95 37.90 37.85 37.80 37.75 37.70 37.65 37.60 37.55 37.50 37.45 37.40 37.35 37.30 37.25 37.20 37.15 37.10 37.05 37.00 36.95 36.90 36.85 36.80 36.75 36.70 36.65 36.60 36.55 36.50 36.45 36.40 36.35 36.30 36.25 36.20 36.15 36.10 36.05 36.00 35.95 35.90 35.85 35.80 35.75 35.70 35.65 35.60 35.55 35.50 35.45 35.40 35.35 35.30 35.25 35.20 35.15 35.10 35.05 35.00 34.95 34.90 34.85 34.80 34.75 34.70 34.65 34.60 34.55 34.50 34.45 34.40 34.35 34.30 34.25 34.20 34.15 34.10 34.05 34.00 33.95 33.90 33.85 33.80 33.75 33.70 33.65 33.60 33.55 33.50 33.45 33.40 33.35 33.30 33.25 33.20 33.15 33.10 33.05 33.00 32.95 32.90 32.85 32.80 32.75 32.70 32.65 32.60 32.55 32.50 32.45 32.40 32.35 32.30 32.25 32.20 32.15 32.10 32.05 32.00 31.95 31.90 31.85 31.80 31.75 31.70 31.65 31.60 31.55 31.50 31.45 31.40 31.35 31.30 31.25 31.20 31.15 31.10 31.05 31.00 30.95 30.90 30.85 30.80 30.75 30.70 30.65 30.60 30.55 30.50 30.45 30.40 30.35 30.30 30.25 30.20 30.15 30.10 30.05
50.00 49.95 49.90 49.85 49.80 49.75 49.70 49.65 49.60 49.55 49.50 49.45 49.40 49.35 49.30 49.25 49.20 49.15 49.10 49.05 49.00 48.95 48.90 48.85 48.80 48.75 48.70 48.65 48.60 48.55 48.50 48.45 48.40 48.35 48.30 48.25 48.20 48.15 48.10 48.05 48.00 47.95 47.90 47.85 47.80 47.75 47.70 47.65 47.60 47.55 47.50 47.45 47.40 47.35 47.30 47.25 47.20 47.15 47.10 47.05 47.00 46.95 46.90 46.85 46.80 46.75 46.70 46.65 46.60 46.55 46.50 46.45 46.40 46.35 46.30 46.25 46.20 46.15 46.10 46.05 46.00 45.95 45.90 45.85 45.80 45.75 45.70 45.65 45.60 45.55 45.50 45.45 45.40 45.35 45.30 45.25 45.20 45.15 45.10 45.05 45.00 44.95 44.90 44.85 44.80 44.75 44.70 44.65 44.60 44.55 44.50 44.45 44.40 44.35 44.30 44.25 44.20 44.15 44.10 44.05 44.00 43.95 43.90 43.85 43.80 43.75 43.70 43.65 43.60 43.55 43.50 43.45 43.40 43.35 43.30 43.25 43.20 43.15 43.10 43.05 43.00 42.95 42.90 42.85 42.80 42.75 42.70 42.65 42.60 42.55 42.50 42.45 42.40 42.35 42.30 42.25 42.20 42.15 42.10 42.05 42.00 41.95 41.90 41.85 41.80 41.75 41.70 41.65 41.60 41.55 41.50 41.45 41.40 41.35 41.30 41.25 41.20 41.15 41.10 41.05 41.00 40.95 40.90 40.85 40.80 40.75 40.70 40.65 40.60 40.55 40.50 40.45 40.40 40.35 40.30 40.25 40.20 40.15 40.10 40.05 40.00 39.95 39.90 39.85 39.80 39.75 39.70 39.65 39.60 39.55 39.50 39.45 39.40 39.35 39.30 39.25 39.20 39.15 39.10 39.05 39.00 38.95 38.90 38.85 38.80 38.75 38.70 38.65 38.60 38.55 38.50 38.45 38.40 38.35 38.30 38.25 38.20 38.15 38.10 38.05 38.00 37.95 37.90 37.85 37.80 37.75 37.70 37.65 37.60 37.55 37.50 37.45 37.40 37.35 37.30 37.25 37.20 37.15 37.10 37.05 37.00 36.95 36.90 36.85 36.80 36.75 36.70 36.65 36.60 36.55 36.50 36.45 36.40 36.35 36.30 36.25 36.20 36.15 36.10 36.05 36.00 35.95 35.90 35.85 35.80 35.75 35.70 35.65 35.60 35.55 35.50 35.45 35.40 35.35 35.30 35.25 35.20 35.15 35.10 35.05 35.00 34.95 34.90 34.85 34.80 34.75 34.70 34.65 34.60 34.55 34.50 34.45 34.40 34.35 34.30 34.25 34.20 34.15 34.10 34.05 34.00 33.95 33.90 33.85 33.80 33.75 33.70 33.65 33.60 33.55 33.50 33.45 33.40 33.35 33.30 33.25 33.20 33.15 33.10 33.05 33.00 32.95 32.90 32.85 32.80 32.75 32.70 32.65 32.60 32.55 32.50 32.45 32.40 32.35 32.30 32.25 32.20 32.15 32.10 32.05 32.00 31.95 31.90 31.85 31.80 31.75 31.70 31.65 31.60 31.55 31.50 31.45 31.40 31.35 31.30 31.25 31.20 31.15 31.10 31.05 31.00 30.95 30.90 30.85 30.80 30.75 30.70 30.65 30.60 30.55 30.50 30.45 30.40 30.35 30.30 30.25 30.20 30.15 30.10 30.05
50.00 49.95 49.90 49.85 49.80 49.75 49.70 49.65 49.60 49.55 49.50 49.45 49.40 49.35 49.30 49.25 49.20 49.15 49.10 49.05 49.00 48.95 48.90 48.85 48.80 48.75 48.70 48.65 48.60 48.55 48.50 48.45 48.40 48.35 48.30 48.25 48.20 48.15 48.10 48.05 48.00 47.95 47.90 47.85 47.80 47.75 47.70 47.65 47.60 47.55 47.50 47.45 47.40 47.35 47.30 47.25 47.20 47.15 47.10 47.05 47.00 46.95 46.90 46.85 46.80 46.75 46.70 46.65 46.60 46.55 46.50 46.45 46.40 46.35 46.30 46.25 46.20 46.15 46.10 46.05 46.00 45.95 45.90 45.85 45.80 45.75 45.70 45.65 45.60 45.55 45.50 45.45 45.40 45.35 45.30 45.25 45.20 45.15 45.10 45.05 45.00 44.95 44.90 44.85 44.80 44.75 44.70 44.65 44.60 44.55 44.50 44.45 44.40 44.35 44.30 44.25 44.20 44.15 44.10 44.05 44.00 43.95 43.90 43.85 43.80 43.75 43.70 43.65 43.60 43.55 43.50 43.45 43.40 43.35 43.30 43.25 43.20 43.15 43.10 43.05 43.00 42.95 42.90 42.85 42.80 42.75 42.70 42.65 42.60 42.55 42.50 42.45 42.40 42.35 42.30 42.25 42.20 42.15 42.10 42.05 42.00 41.95 41.90 41.85 41.80 41.75 41.70 41.65 41.60 41.55 41.50 41.45 41.40 41.35 41.30 41.25 41.20 41.15 41.10 41.05 41.00 40.95 40.90 40.85 40.80 40.75 40.70 40.65 40.60 40.55 40.50 40.45 40.40 40.35 40.30 40.25 40.20 40.15 40.10 40.05 40.00 39.95 39.90 39.85 39.80 39.75 39.70 39.65 39.60 39.55 39.50 39.45 39.40 39.35 39.30 39.25 39.20 39.15 39.10 39.05 39.00 38.95 38.90 38.85 38.80 38.75 38.70 38.65 38.60 38.55 38.50 38.45 38.40 38.35 38.30 38.25 38.20 38.15 38.10 38.05 38.00 37.95 37.90 37.85 37.80 37.75 37.70 37.65 37.60 37.55 37.50 37.45 37.40 37.35 37.30 37.25 37.20 37.15 37.10 37.05 37.00 36.95 36.90 36.85 36.80 36.75 36.70 36.65 36.60 36.55 36.50 36.45 36.40 36.35 36.30 36.25 36.20 36.15 36.10 36.05 36.00 35.95 35.90 35.85 35.80 35.75 35.70 35.65 35.60 35.55 35.50 35.45 35.40 35.35 35.30 35.25 35.20 35.15 35.10 35.05 35.00 34.95 34.90 34.85 34.80 34.75 34.70 34.65 34.60 34.55 34.50 34.45 34.40 34.35 34.30 34.25 34.20 34.15 34.10 34.05 34.00 33.95 33.90 33.85 33.80 33.75 33.70 33.65 33.60 33.55 33.50 33.45 33.40 33.35 33.30 33.25 33.20 33.15 33.10 33.05 33.00 32.95 32.90 32.85 32.80 32.75 32.70 32.65 32.60 32.55 32.50 32.45 32.40 32.35 32.30 32.25 32.20 32.15 32.10 32.05 32.00 31.95 31.90 31.85 31.80 31.75 31.70 31.65 31.60 31.55 31.50 31.45 31.40 31.35 31.30 31.25 31.20 31.15 31.10 31.05 31.00 30.95 30.90 30.85 30.80 30.75 30.70 30.65 30.60 30.55 30.50 30.45 30.40 30.35 30.30 30.25 30.20 30.15 30.10 30.05
50.00 49.95 49.90 49.85 49.80 49.75 49.70 49.65 49.60 49.55 49.50 49.45 49.40 49.35 49.30 49.25 49.20 49.15 49.10 49.05 49.00 48.95 48.90 48.85 48.80 48.75 48.70 48.65 48.60 48.55 48.50 48.45 48.40 48.35 48.30 48.25 48.20 48.15 48.10 48.05 48.00 47.95 47.90 47.85 47.80 47.75 47.70 47.65 47.60 47.55 47.50 47.45 47.40 47.35 47.30 47.25 47.20 47.15 47.10 47.05 47.00 46.95 46.90 46.85 46.80 46.75 46.70 46.65 46.60 46.55 46.50 46.45 46.40 46.35 46.30 46.25 46.20 46.15 46.10 46.05 46.00 45.95 45.90 45.85 45.80 45.75 45.70 45.65 45.60 45.55 45.50 45.45 45.40 45.35 45.30 45.25 45.20 45.15 45.10 45.05 45.00 44.95 44.90 44.85 44.80 44.75 44.70 44.65 44.60 44.55 44.50 44.45 44.40 44.35 44.30 44.25 44.20 44.15 44.10 44.05 44.00 43.95 43.90 43.85 43.80 43.75 43.70 43.65 43.60 43.55 43.50 43.45 43.40 43.35 43.30 43.25 43.20 43.15 43.10 43.05 43.00 42.95 42.90 42.85 42.80 42.75 42.70 42.65 42.60 42.55 42.50 42.45 42.40 42.35 42.30 42.25 42.20 42.15 42.10 42.05 42.00 41.95 41.90 41.85 41.80 41.75 41.70 41.65 41.60 41.55 41.50 41.45 41.40 41.35 41.30 41.25 41.20 41.15 41.10 41.05 41.00 40.95 40.90 40.85 40.80 40.75 40.70 40.65 40.60 40.55 40.50 40.45 40.40 40.35 40.30 40.25 40.20 40.15 40.10 40.05 40.00 39.95 39.90 39.85 39.80 39.75 39.70 39.65 39.60 39.55 39.50 39.45 39.40 39.35 39.30 39.25 39.20 39.15 39.10 39.05 39.00 38.95 38.90 38.85 38.80 38.75 38.70 38.65 38.60 38.55 38.50 38.45 38.40 38.35 38.30 38.25 38.20 38.15 38.10 38.05 38.00 37.95 37.90 37.85 37.80 37.75 37.70 37.65 37.60 37.55 37.50 37.45 37.40 37.35 37.30 37.25 37.20 37.15 37.10 37.05 37.00 36.95 36.90 36.85 36.80 36.75 36.70 36.65 36.60 36.55 36.50 36.45 36.40 36.35 36.30 36.25 36.20 36.15 36.10 36.05 36.00 35.95 35.90 35.85 35.80 35.75 35.70 35.65 35.60 35.55 35.50 35.45 35.40 35.35 35.30 35.25 35.20 35.15 35.10 35.05 35.00 34.95 34.90 34.85 34.80 34.75 34.70 34.65 34.60 34.55 34.50 34.45 34.40 34.35 34.30 34.25 34.20 34.15 34.10 34.05 34.00 33.95 33.90 33.85 33.80 33.75 33.70 33.65 33.60 33.55 33.50 33.45 33.40 33.35 33.30 33.25 33.20 33.15 33.10 33.05 33.00 32.95 32.90 32.85 32.80 32.75 32.70 32.65 32.60 32.55 32.50 32.45 32.40 32.35 32.30 32.25 32.20 32.15 32.10 32.05 32.00 31.95 31.90 31.85 31.80 31.75 31.70 31.65 31.60 31.55 31.50 31.45 31.40 31.35 31.30 31.25 31.20 31.15 31.10 31.05 31.00 30.95 30.90 30.85 30.80 30.75 30.70 30.65 30.60 30.55 30.50 30.45 30.40 30.35 30.30 30.25 30.20 30.15 30.10 30.05
50.00 49.95 49.90 49.85 49.80 49.75 49.70 49.65 49.60 49.55 49.50 49.45 49.40 49.35 49.30 49.25 49.20 49.15 49.10 49.05 49.00 48.95 48.90 48.85 48.80 48.75 48.70 48.65 48.60 48.55 48.50 48.45 48.40 48.35 48.30 48.25 48.20 48.15 48.10 48.05 48.00 47.95 47.90 47.85 47.80 47.75 47.70 47.65 47.60 47.55 47.50 47.45 47.40 47.35 47.30 47.25 47.20 47.15 47.10 47.05 47.00 46.95 46.90 46.85 46.80 46.75 46.70 46.65 46.60 46.55 46.50 46.45 46.40 46.35 46.30 46.25 46.20 46.15 46.10 46.05 46.00 45.95 45.90 45.85 45.80 45.75 45.70 45.65 45.60 45.55 45.50 45.45 45.40 45.35 45.30 45.25 45.20 45.15 45.10 45.05 45.00 44.95 44.90 44.85 44.80 44.75 44.70 44.65 44.60 44.55 44.50 44.45 44.40 44.35 44.30 44.25 44.20 44.15 44.10 44.05 44.00 43.95 43.90 43.85 43.80 43.75 43.70 43.65 43.60 43.55 43.50 43.45 43.40 43.35 43.30 43.25 43.20 43.15 43.10 43.05 43.00 42.95 42.90 42.85 42.80 42.75 42.70 42.65 42.60 42.55 42.50 42.45 42.40 42.35 42.30 42.25 42.20 42.15 42.10 42.05 42.00 41.95 41.90 41.85 41.80 41.75 41.70 41.65 41.60 41.55 41.50 41.45 41.40 41.35 41.30 41.25 41.20 41.15 41.10 41.05 41.00 40.95 40.90 40.85 40.80 40.75 40.70 40.65 40.60 40.55 40.50 40.45 40.40 40.35 40.30 40.25 40.20 40.15 40.10 40.05 40.00 39.95 39.90 39.85 39.80 39.75 39.70 39.65 39.60 39.55 39.50 39.45 39.40 39.35 39.30 39.25 39.20 39.15 39.10 39.05 39.00 38.95 38.90 38.85 38.80 38.75 38.70 38.65 38.60 38.55 38.50 38.45 38.40 38.35 38.30 38.25 38.20 38.15 38.10 38.05 38.00 37.95 37.90 37.85 37.80 37.75 37.70 37.65 37.60 37.55 37.50 37.45 37.40 37.35 37.30 37.25 37.20 37.15 37.10 37.05 37.00 36.95 36.90 36.85 36.80 36.75 36.70 36.65 36.60 36.55 36.50 36.45 36.40 36.35 36.30 36.25 36.20 36.15 36.10 36.05 36.00 35.95 35.90 35.85 35.80 35.75 35.70 35.65 35.60 35.55 35.50 35.45 35.40 35.35 35.30 35.25 35.20 35.15 35.10 35.05 35.00 34.95 34.90 34.85 34.80 34.75 34.70 34.65 34.60 34.55 34.50 34.45 34.40 34.35 34.30 34.25 34.20 34.15 34.10 34.05 34.00 33.95 33.90 33.85 33.80 33.75 33.70 33.65 33.60 33.55 33.50 33.45 33.40 33.35 33.30 33.25 33.20 33.15 33.10 33.05 33.00 32.95 32.90 32.85 32.80 32.75 32.70 32.65 32.60 32.55 32.50 32.45 32.40 32.35 32.30 32.25 32.20 32.15 32.10 32.05 32.00 31.95 31.90 31.85 31.80 31.75 31.70 31.65 31.60 31.55 31.50 31.45 31.40 31.35 31.30 31.25 31.20 31.15 31.10 31.05 31.00 30.95 30.90 30.85 30.80 30.75 30.70 30.65 30.60 30.55 30.50 30.45 30.40 30.35 30.30 30.25 30.20 30.15 30.10 30.05
50.00 49.95 49.90 49.85 49.80 49.75 49.70 49.65 49.60 49.55 49.50 49.45 49.40 49.35 49.30 49.25 49.20 49.15 49.10 49.05 49.00 48.95 48.90 48.85 48.80 48.75 48.70 48.65 48.60 48.55 48.50 48.45 48.40 48.35 48.30 48.25 48.20 48.15 48.10 48.05 48.00 47.95 47.90 47.85 47.80 47.75 47.70 47.65 47.60 47.55 47.50 47.45 47.40 47.35 47.30 47.25 47.20 47.15 47.10 47.05 47.00 46.95 46.90 46.85 46.80 46.75 46.70 46.65 46.60 46.55 46.50 46.45 46.40 46.35 46.30 46.25 46.20 46.15 46.10 46.05 46.00 45.95 45.90 45.85 45.80 45.75 45.70 45.65 45.60 45.55 45.50 45.45 45.40 45.35 45.30 45.25 45.20 45.15 45.10 45.05 45.00 44.95 44.90 44.85 44.80 44.75 44.70 44.65 44.60 44.55 44.50 44.45 44.40 44.35 44.30 44.25 44.20 44.15 44.10 44.05 44.00 43.95 43.90 43.85 43.80 43.75 43.70 43.65 43.60 43.55 43.50 43.45 43.40 43.35 43.30 43.25 43.20 43.15 43.10 43.05 43.00 42.95 42.90 42.85 42.80 42.75 42.70 42.65 42.60 42.55 42.50 42.45 42.40 42.35 42.30 42.25 42.20 42.15 42.10 42.05 42.00 41.95 41.90 41.85 41.80 41.75 41.70 41.65 41.60 41.55 41.50 41.45 41.40 41.35 41.30 41.25 41.20 41.15 41.10 41.05 41.00 40.95 40.90 40.85 40.80 40.75 40.70 40.65 40.60 40.55 40.50 40.45 40.40 40.35 40.30 40.25 40.20 40.15 40.10 40.05 40.00 39.95 39.90 39.85 39.80 39.75 39.70 39.65 39.60 39.55 39.50 39.45 39.40 39.35 39.30 39.25 39.20 39.15 39.10 39.05 39.00 38.95 38.90 38.85 38.80 38.75 38.70 38.65 38.60 38.55 38.50 38.45 38.40 38.35 38.30 38.25 38.20 38.15 38.10 38.05 38.00 37.95 37.90 37.85 37.80 37.75 37.70 37.65 37.60 37.55 37.50 37.45 37.40 37.35 37.30 37.25 37.20 37.15 37.10 37.05 37.00 36.95 36.90 36.85 36.80 36.75 36.70 36.65 36.60 36.55 36.50 36.45 36.40 36.35 36.30 36.25 36.20 36.15 36.10 36.05 36.00 35.95 35.90 35.85 35.80 35.75 35.70 35.65 35.60 35.55 35.50 35.45 35.40 35.35 35.30 35.25 35.20 35.15 35.10 35.05 35.00 34.95 34.90 34.85 34.80 34.75 34.70 34.65 34.60 34.55 34.50 34.45 34.40 34.35 34.30 34.25 34.20 34.15 34.10 34.05 34.00 33.95 33.90 33.85 33.80 33.75 33.70 33.65 33.60 33.55 33.50 33.45 33.40 33.35 33.30 33.25 33.20 33.15 33.10 33.05 33.00 32.95 32.90 32.85 32.80 32.75 32.70 32.65 32.60 32.55 32.50 32.45 32.40 32.35 32.30 32.25 32.20 32.15 32.10 32.05 32.00 31.95 31.90 31.85 31.80 31.75 31.70 31.65 31.60 31.55 31.50 31.45 31.40 31.35 31.30 31.25 31.20 31.15 31.10 31.05 31.00 30.95 30.90 30.85 30.80 30.75 30.70 30.65 30.60 30.55 30.50 30.45 30.40 30.35 30.30 30.25 30.20 30.15 30.10 30.05
50.00 49.95 49.90 49.85 49.80 49.75 49.70 49.65 49.60 49.55 49.50 49.45 49.40 49.35 49.30 49.25 49.20 49.15 49.10 49.05 49.00 48.95 48.90 48.85 48.80 48.75 48.70 48.65 48.60 48.55 48.50 48.45 48.40 48.35 48.30 48.25 48.20 48.15 48.10 48.05 48.00 47.95 47.90 47.85 47.80 47.75 47.70 47.65 47.60 47.55 47.50 47.45 47.40 47.35 47.30 47.25 47.20 47.15 47.10 47.05 47.00 46.95 46.90 46.85 46.80 46.75 46.70 46.65 46.60 46.55 46.50 46.45 46.40 46.35 46.30 46.25 46.20 46.15 46.10 46.05 46.00 45.95 45.90 45.85 45.80 45.75 45.70 45.65 45.60 45.55 45.50 45.45 45.40 45.35 45.30 45.25 45.20 45.15 45.10 45.05 45.00 44.95 44.90 44.85 44.80 44.75 44.70 44.65 44.60 44.55 44.50 44.45 44.40 44.35 44.30 44.25 44.20 44.15 44.10 44.05 44.00 43.95 43.90 43.85 43.80 43.75 43.70 43.65 43.60 43.55 43.50 43.45 43.40 43.35 43.30 43.25 43.20 43.15 43.10 43.05 43.00 42.95 42.90 42.85 42.80 42.75 42.70 42.65 42.60 42.55 42.50 42.45 42.40 42.35 42.30 42.25 42.20 42.15 42.10 42.05 42.00 41.95 41.90 41.85 41.80 41.75 41.70 41.65 41.60 41.55 41.50 41.45 41.40 41.35 41.30 41.25 41.20 41.15 41.10 41.05 41.00 40.95 40.90 40.85 40.80 40.75 40.70 40.65 40.60 40.55 40.50 40.45 40.40 40.35 40.30 40.25 40.20 40.15 40.10 40.05 40.00 39.95 39.90 39.85 39.80 39.75 39.70 39.65 39.60 39.55 39.50 39.45 39.40 39.35 39.30 39.25 39.20 39.15 39.10 39.05 39.00 38.95 38.90 38.85 38.80 38.75 38.70 38.65 38.60 38.55 38.50 38.45 38.40 38.35 38.30 38.25 38.20 38.15 38.10 38.05 38.00 37.95 37.90 37.85 37.80 37.75 37.70 37.65 37.60 37.55 37.50 37.45 37.40 37.35 37.30 37.25 37.20 37.15 37.10 37.05 37.00 36.95 36.90 36.85 36.80 36.75 36.70 36.65 36.60 36.55 36.50 36.45 36.40 36.35 36.30 36.25 36.20 36.15 36.10 36.05 36.00 35.95 35.90 35.85 35.80 35.75 35.70 35.65 35.60 35.55 35.50 35.45 35.40 35.35 35.30 35.25 35.20 35.15 35.10 35.05 35.00 34.95 34.90 34.85 34.80 34.75 34.70 34.65 34.60 34.55 34.50 34.45 34.40 34.35 34.30 34.25 34.20 34.15 34.10 34.05 34.00 33.95 33.90 33.85 33.80 33.75 33.70 33.65 33.60 33.55 33.50 33.45 33.40 33.35 33.30 33.25 33.20 33.15 33.10 33.05 33.00 32.95 32.90 32.85 32.80 32.75 32.70 32.65 32.60 32.55 32.50 32.45 32.40 32.35 32.30 32.25 32.20 32.15 32.10 32.05 32.00 31.95 31.90 31.85 31.80 31.75 31.70 31.65 31.60 31.55 31.50 31.45 31.40 31.35 31.30 31.25 31.20 31.15 31.10 31.05 31.00 30.95 30.90 30.85 30.80 30.75 30.70 30.65 30.60 30.55 30.50 30.45 30.40 30.35 30.30 30.25 30.20 30.15 30.10 30.05
50.00 49.95 49.90 49.85 49.80 49.75 49.70 49.65 49.60 49.55 49.50 49.45 49.40 49.35 49.30 49.25 49.20 49.15 49.10 49.05 49.00 48.95 48.90 48.85 48.80 48.75 48.70 48.65 48.60 48.55 48.50 48.45 48.40 48.35 48.30 48.25 48.20 48.15 48.10 48.05 48.00 47.95 47.90 47.85 47.80 47.75 47.70 47.65 47.60 47.55 47.50 47.45 47.40 47.35 47.30 47.25 47.20 47.15 47.10 47.05 47.00 46.95 46.90 46.85 46.80 46.75 46.70 46.65 46.60 46.55 46.50 46.45 46.40 46.35 46.30 46.25 46.20 46.15 46.10 46.05 46.00 45.95 45.90 45.85 45.80 45.75 45.70 45.65 45.60 45.55 45.50 45.45 45.40 45.35 45.30 45.25 45.20 45.15 45.10 45.05 45.00 44.95 44.90 44.85 44.80 44.75 44.70 44.65 44.60 44.55 44.50 44.45 44.40 44.35 44.30 44.25 44.20 44.15 44.10 44.05 44.00 43.95 43.90 43.85 43.80 43.75 43.70 43.65 43.60 43.55 43.50 43.45 43.40 43.35 43.30 43.25 43.20 43.15 43.10 43.05 43.00 42.95 42.90 42.85 42.80 42.75 42.70 42.65 42.60 42.55 42.50 42.45 42.40 42.35 42.30 42.25 42.20 42.15 42.10 42.05 42.00 41.95 41.90 41.85 41.80 41.75 41.70 41.65 41.60 41.55 41.50 41.45 41.40 41.35 41.30 41.25 41.20 41.15 41.10 41.05 41.00 40.95 40.90 40.85 40.80 40.75 40.70 40.65 40.60 40.55 40.50 40.45 40.40 40.35 40.30 40.25 40.20 40.15 40.10 40.05 40.00 39.95 39.90 39.85 39.80 39.75 39.70 39.65 39.60 39.55 39.50 39.45 39.40 39.35 39.30 39.25 39.20 39.15 39.10 39.05 39.00 38.95 38.90 38.85 38.80 38.75 38.70 38.65 38.60 38.55 38.50 38.45 38.40 38.35 38.30 38.25 38.20 38.15 38.10 38.05 38.00 37.95 37.90 37.85 37.80 37.75 37.70 37.65 37.60 37.55 37.50 37.45 37.40 37.35 37.30 37.25 37.20 37.15 37.10 37.05 37.00 36.95 36.90 36.85 36.80 36.75 36.70 36.65 36.60 36.55 36.50 36.45 36.40 36.35 36.30 36.25 36.20 36.15 36.10 36.05 36.00 35.95 35.90 35.85 35.80 35.75 35.70 35.65 35.60 35.55 35.50 35.45 35.40 35.35 35.30 35.25 35.20 35.15 35.10 35.05 35.00 34.95 34.90 34.85 34.80 34.75 34.70 34.65 34.60 34.55 34.50 34.45 34.40 34.35 34.30 34.25 34.20 34.15 34.10 34.05 34.00 33.95 33.90 33.85 33.80 33.75 33.70 33.65 33.60 33.55 33.50 33.45 33.40 33.35 33.30 33.25 33.20 33.15 33.10 33.05 33.00 32.95 32.90 32.85 32.80 32.75 32.70 32.65 32.60 32.55 32.50 32.45 32.40 32.35 32.30 32.25 32.20 32.15 32.10 32.05 32.00 31.95 31.90 31.85 31.80 31.75 31.70 31.65 31.60 31.55 31.50 31.45 31.40 31.35 31.30 31.25 31.20 31.15 31.10 31.05 31.00 30.95 30.90 30.85 30.80 30.75 30.70 30.65 30.60 30.55 30.50 30.45 30.40 30.35 30.30 30.25 30.20 30.15 30.10 30.05
50.00 49.95 49.90 49.85 49.80 49.75 49.70 49.65 49.60 49.55 49.50 49.45 49.40 49.35 49.30 49.25 49.20 49.15 49.10 49.05 49.00 48.95 48.90 48.85 48.80 48.75 48.70 48.65 48.60 48.55 48.50 48.45 48.40 48.35 48.30 48.25 48.20 48.15 48.10 48.05 48.00 47.95 47.90 47.85 47.80 47.75 47.70 47.65 47.60 47.55 47.50 47.45 47.40 47.35 47.30 47.25 47.20 47.15 47.10 47.05 47.00 46.95 46.90 46.85 46.80 46.75 46.70 46.65 46.60 46.55 46.50 46.45 46.40 46.35 46.30 46.25 46.20 46.15 46.10 46.05 46.00 45.95 45.90 45.85 45.80 45.75 45.70 45.65 45.60 45.55 45.50 45.45 45.40 45.35 45.30 45.25 45.20 45.15 45.10 45.05 45.00 44.95 44.90 44.85 44.80 44.75 44.70 44.65 44.60 44.55 44.50 44.45 44.40 44.35 44.30 44.25 44.20 44.15 44.10 44.05 44.00 43.95 43.90 43.85 43.80 43.75 43.70 43.65 43.60 43.55 43.50 43.45 43.40 43.35 43.30 43.25 43.20 43.15 43.10 43.05 43.00 42.95 42.90 42.85 42.80 42.75 42.70 42.65 42.60 42.55 42.50 42.45 42.40 42.35 42.30 42.25 42.20 42.15 42.10 42.05 42.00 41.95 41.90 41.85 41.80 41.75 41.70 41.65 41.60 41.55 41.50 41.45 41.40 41.35 41.30 41.25 41.20 41.15 41.10 41.05 41.00 40.95 40.90 40.85 40.80 40.75 40.70 40.65 40.60 40.55 40.50 40.45 40.40 40.35 40.30 40.25 40.20 40.15 40.10 40.05 40.00 39.95 39.90 39.85 39.80 39.75 39.70 39.65 39.60 39.55 39.50 39.45 39.40 39.35 39.30 39.25 39.20 39.15 39.10 39.05 39.00 38.95 38.90 38.85 38.80 38.75 38.70 38.65 38.60 38.55 38.50 38.45 38.40 38.35 38.30 38.25 38.20 38.15 38.10 38.05 38.00 37.95 37.90 37.85 37.80 37.75 37.70 37.65 37.60 37.55 37.50 37.45 37.40 37.35 37.30 37.25 37.20 37.15 37.10 37.05 37.00 36.95 36.90 36.85 36.80 36.75 36.70 36.65 36.60 36.55 36.50 36.45 36.40 36.35 36.30 36.25 36.20 36.15 36.10 36.05 36.00 35.95 35.90 35.85 35.80 35.75 35.70 35.65 35.60 35.55 35.50 35.45 35.40 35.35 35.30 35.25 35.20 35.15 35.10 35.05 35.00 34.95 34.90 34.85 34.80 34.75 34.70 34.65 34.60 34.55 34.50 34.45 34.40 34.35 34.30 34.25 34.20 34.15 34.10 34.05 34.00 33.95 33.90 33.85 33.80 33.75 33.70 33.65 33.60 33.55 33.50 33.45 33.40 33.35 33.30 33.25 33.20 33.15 33.10 33.05 33.00 32.95 32.90 32.85 32.80 32.75 32.70 32.65 32.60 32.55 32.50 32.45 32.40 32.35 32.30 32.25 32.20 32.15 32.10 32.05 32.00 31.95 31.90 31.85 31.80 31.75 31.70 31.65 31.60 31.55 31.50 31.45 31.40 31.35 31.30 31.25 31.20 31.15 31.10 31.05 31.00 30.95 30.90 30.85 30.80 30.75 30.70 30.65 30.60 30.55 30.50 30.45 30.40 30.35 30.30 30.25 30.20 30.15 30.10 30.05
50.00 49.95 49.90 49.85 49.80 49.75 49.70 49.65 49.60 49.55 49.50 49.45 49.40 49.35 49.30 49.25 49.20 49.15 49.10 49.05 49.00 48.95 48.90 48.85 48.80 48.75 48.70 48.65 48.60 48.55 48.50 48.45 48.40 48.35 48.30 48.25 48.20 48.15 48.10 48.05 48.00 47.95 47.90 47.85 47.80 47.75 47.70 47.65 47.60 47.55 47.50 47.45 47.40 47.35 47.30 47.25 47.20 47.15 47.10 47.05 47.00 46.95 46.90 46.85 46.80 46.75 46.70 46.65 46.60 46.55 46.50 46.45 46.40 46.35 46.30 46.25 46.20 46.15 46.10 46.05 46.00 45.95 45.90 45.85 45.80 45.75 45.70 45.65 45.60 45.55 45.50 45.45 45.40 45.35 45.30 45.25 45.20 45.15 45.10 45.05 45.00 44.95 44.90 44.85 44.80 44.75 44.70 44.65 44.60 44.55 44.50 44.45 44.40 44.35 44.30 44.25 44.20 44.15 44.10 44.05 44.00 43.95 43.90 43.85 43.80 43.75 43.70 43.65 43.60 43.55 43.50 43.45 43.40 43.35 43.30 43.25 43.20 43.15 43.10 43.05 43.00 42.95 42.90 42.85 42.80 42.75 42.70 42.65 42.60 42.55 42.50 42.45 42.40 42.35 42.30 42.25 42.20 42.15 42.10 42.05 42.00 41.95 41.90 41.85 41.80 41.75 41.70 41.65 41.60 41.55 41.50 41.45 41.40 41.35 41.30 41.25 41.20 41.15 41.10 41.05 41.00 40.95 40.90 40.85 40.80 40.75 40.70 40.65 40.60 40.55 40.50 40.45 40.40 40.35 40.30 40.25 40.20 40.15 40.10 40.05 40.00 39.95 39.90 39.85 39.80 39.75 39.70 39.65 39.60 39.55 39.50 39.45 39.40 39.35 39.30 39.25 39.20 39.15 39.10 39.05 39.00 38.95 38.90 38.85 38.80 38.75 38.70 38.65 38.60 38.55 38.50 38.45 38.40 38.35 38.30 38.25 38.20 38.15 38.10 38.05 38.00 37.95 37.90 37.85 37.80 37.75 37.70 37.65 37.60 37.55 37.50 37.45 37.40 37.35 37.30 37.25 37.20 37.15 37.10 37.05 37.00 36.95 36.90 36.85 36.80 36.75 36.70 36.65 36.60 36.55 36.50 36.45 36.40 36.35 36.30 36.25 36.20 36.15 36.10 36.05 36.00 35.95 35.90 35.85 35.80 35.75 35.70 35.65 35.60 35.55 35.50 35.45 35.40 35.35 35.30 35.25 35.20 35.15 35.10 35.05 35.00 34.95 34.90 34.85 34.80 34.75 34.70 34.65 34.60 34.55 34.50 34.45 34.40 34.35 34.30 34.25 34.20 34.15 34.10 34.05 34.00 33.95 33.90 33.85 33.80 33.75 33.70 33.65 33.60 33.55 33.50 33.45 33.40 33.35 33.30 33.25 33.20 33.15 33.10 33.05 33.00 32.95 32.90 32.85 32.80 32.75 32.70 32.65 32.60 32.55 32.50 32.45 32.40 32.35 32.30 32.25 32.20 32.15 32.10 32.05 32.00 31.95 31.90 31.85 31.80 31.75 31.70 31.65 31.60 31.55 31.50 31.45 31.40 31.35 31.30 31.25 31.20 31.15 31.10 31.05 31.00 30.95 30.90 30.85 30.80 30.75 30.70 30.65 30.60 30.55 30.50 30.45 30.40 30.35 30.30 30.25 30.20 30.15 30.10 30.05
50.00 49.95 49.90 49.85 49.80 49.75 49.70 49.65 49.60 49.55 49.50 49.45 49.40 49.35 49.30 49.25 49.20 49.15 49.10 49.05 49.00 48.95 48.90 48.85 48.80 48.75 48.70 48.65 48.60 48.55 48.50 48.45 48.40 48.35 48.30 48.25 48.20 48.15 48.10 48.05 48.00 47.95 47.90 47.85 47.80 47.75 47.70 47.65 47.60 47.55 47.50 47.45 47.40 47.35 47.30 47.25 47.20 47.15 47.10 47.05 47.00 46.95 46.90 46.85 46.80 46.75 46.70 46.65 46.60 46.55 46.50 46.45 46.40 46.35 46.30 46.25 46.20 46.15 46.10 46.05 46.00 45.95 45.90 45.85 45.80 45.75 45.70 45.65 45.60 45.55 45.50 45.45 45.40 45.35 45.30 45.25 45.20 45.15 45.10 45.05 45.00 44.95 44.90 44.85 44.80 44.75 44.70 44.65 44.60 44.55 44.50 44.45 44.40 44.35 44.30 44.25 44.20 44.15 44.10 44.05 44.00 43.95 43.90 43.85 43.80 43.75 43.70 43.65 43.60 43.55 43.50 43.45 43.40 43.35 43.30 43.25 43.20 43.15 43.10 43.05 43.00 42.95 42.90 42.85 42.80 42.75 42.70 42.65 42.60 42.55 42.50 42.45 42.40 42.35 42.30 42.25 42.20 42.15 42.10 42.05 42.00 41.95 41.90 41.85 41.80 41.75 41.70 41.65 41.60 41.55 41.50 41.45 41.40 41.35 41.30 41.25 41.20 41.15 41.10 41.05 41.00 40.95 40.90 40.85 40.80 40.75 40.70 40.65 40.60 40.55 40.50 40.45 40.40 40.35 40.30 40.25 40.20 40.15 40.10 40.05 40.00 39.95 39.90 39.85 39.80 39.75 39.70 39.65 39.60 39.55 39.50 39.45 39.40 39.35 39.30 39.25 39.20 39.15 39.10 39.05 39.00 38.95 38.90 38.85 38.80 38.75 38.70 38.65 38.60 38.55 38.50 38.45 38.40 38.35 38.30 38.25 38.20 38.15 38.10 38.05 38.00 37.95 37.90 37.85 37.80 37.75 37.70 37.65 37.60 37.55 37.50 37.45 37.40 37.35 37.30 37.25 37.20 37.15 37.10 37.05 37.00 36.95 36.90 36.85 36.80 36.75 36.70 36.65 36.60 36.55 36.50 36.45 36.40 36.35 36.30 36.25 36.20 36.15 36.10 36.05 36.00 35.95 35.90 35.85 35.80 35.75 35.70 35.65 35.60 35.55 35.50 35.45 35.40 35.35 35.30 35.25 35.20 35.15 35.10 35.05 35.00 34.95 34.90 34.85 34.80 34.75 34.70 34.65 34.60 34.55 34.50 34.45 34.40 34.35 34.30 34.25 34.20 34.15 34.10 34.05 34.00 33.95 33.90 33.85 33.80 33.75 33.70 33.65 33.60 33.55 33.50 33.45 33.40 33.35 33.30 33.25 33.20 33.15 33.10 33.05 33.00 32.95 32.90 32.85 32.80 32.75 32.70 32.65 32.60 32.55 32.50 32.45 32.40 32.35 32.30 32.25 32.20 32.15 32.10 32.05 32.00 31.95 31.90 31.85 31.80 31.75 31.70 31.65 31.60 31.55 31.50 31.45 31.40 31.35 31.30 31.25 31.20 31.15 31.10 31.05 31.00 30.95 30.90 30.85 30.80 30.75 30.70 30.65 30.60 30.55 30.50 30.45 30.40 30.35 30.30 30.25 30.20 30.15 30.10 30.05
50.00 49.95 49.90 49.85 49.80 49.75 49.70 49.65 49.60 49.55 49.50 49.45 49.40 49.35 49.30 49.25 49.20 49.15 49.10 49.05 49.00 48.95 48.90 48.85 48.80 48.75 48.70 48.65 48.60 48.55 48.50 48.45 48.40 48.35 48.30 48.25 48.20 48.15 48.10 48.05 48.00 47.95 47.90 47.85 47.80 47.75 47.70 47.65 47.60 47.55 47.50 47.45 47.40 47.35 47.30 47.25 47.20 47.15 47.10 47.05 47.00 46.95 46.90 46.85 46.80 46.75 46.70 46.65 46.60 46.55 46.50 46.45 46.40 46.35 46.30 46.25 46.20 46.15 46.10 46.05 46.00 45.95 45.90 45.85 45.80 45.75 45.70 45.65 45.60 45.55 45.50 45.45 45.40 45.35 45.30 45.25 45.20 45.15 45.10 45.05 45.00 44.95 44.90 44.85 44.80 44.75 44.70 44.65 44.60 44.55 44.50 44.45 44.40 44.35 44.30 44.25 44.20 44.15 44.10 44.05 44.00 43.95 43.90 43.85 43.80 43.75 43.70 43.65 43.60 43.55 43.50 43.45 43.40 43.35 43.30 43.25 43.20 43.15 43.10 43.05 43.00 42.95 42.90 42.85 42.80 42.75 42.70 42.65 42.60 42.55 42.50 42.45 42.40 42.35 42.30 42.25 42.20 42.15 42.10 42.05 42.00 41.95 41.90 41.85 41.80 41.75 41.70 41.65 41.60 41.55 41.50 41.45 41.40 41.35 41.30 41.25 41.20 41.15 41.10 41.05 41.00 40.95 40.90 40.85 40.80 40.75 40.70 40.65 40.60 40.55 40.50 40.45 40.40 40.35 40.30 40.25 40.20 40.15 40.10 40.05 40.00 39.95 39.90 39.85 39.80 39.75 39.70 39.65 39.60 39.55 39.50 39.45 39.40 39.35 39.30 39.25 39.20 39.15 39.10 39.05 39.00 38.95 38.90 38.85 38.80 38.75 38.70 38.65 38.60 38.55 38.50 38.45 38.40 38.35 38.30 38.25 38.20 38.15 38.10 38.05 38.00 37.95 37.90 37.85 37.80 37.75 37.70 37.65 37.60 37.55 37.50 37.45 37.40 37.35 37.30 37.25 37.20 37.15 37.10 37.05 37.00 36.95 36.90 36.85 36.80 36.75 36.70 36.65 36.60 36.55 36.50 36.45 36.40 36.35 36.30 36.25 36.20 36.15 36.10 36.05 36.00 35.95 35.90 35.85 35.80 35.75 35.70 35.65 35.60 35.55 35.50 35.45 35.40 35.35 35.30 35.25 35.20 35.15 35.10 35.05 35.00 34.95 34.90 34.85 34.80 34.75 34.70 34.65 34.60 34.55 34.50 34.45 34.40 34.35 34.30 34.25 34.20 34.15 34.10 34.05 34.00 33.95 33.90 33.85 33.80 33.75 33.70 33.65 33.60 33.55 33.50 33.45 33.40 33.35 33.30 33.25 33.20 33.15 33.10 33.05 33.00 32.95 32.90 32.85 32.80 32.75 32.70 32.65 32.60 32.55 32.50 32.45 32.40 32.35 32.30 32.25 32.20 32.15 32.10 32.05 32.00 31.95 31.90 31.85 31.80 31.75 31.70 31.65 31.60 31.55 31.50 31.45 31.40 31.35 31.30 31.25 31.20 31.15 31.10 31.05 31.00 30.95 30.90 30.85 30.80 30.75 30.70 30.65 30.60 30.55 30.50 30.45 30.40 30.35 30.30 30.25 30.20 30.15 30.10 30.05
50.00 49.95 49.90 49.85 49.80 49.75 49.70 49.65 49.60 49.55 49.50 49.45 49.40 49.35 49.30 49.25 49.20 49.15 49.10 49.05 49.00 48.95 48.90 48.85 48.80 48.75 48.70 48.65 48.60 48.55 48.50 48.45 48.40 48.35 48.30 48.25 48.20 48.15 48.10 48.05 48.00 47.95 47.90 47.85 47.80 47.75 47.70 47.65 47.60 47.55 47.50 47.45 47.40 47.35 47.30 47.25 47.20 47.15 47.10 47.05 47.00 46.95 46.90 46.85 46.80 46.75 46.70 46.65 46.60 46.55 46.50 46.45 46.40 46.35 46.30 46.25 46.20 46.15 46.10 46.05 46.00 45.95 45.90 45.85 45.80 45.75 45.70 45.65 45.60 45.55 45.50 45.45 45.40 45.35 45.30 45.25 45.20 45.15 45.10 45.05 45.00 44.95 44.90 44.85 44.80 44.75 44.70 44.65 44.60 44.55 44.50 44.45 44.40 44.35 44.30 44.25 44.20 44.15 44.10 44.05 44.00 43.95 43.90 43.85 43.80 43.75 43.70 43.65 43.60 43.55 43.50 43.45 43.40 43.35 43.30 43.25 43.20 43.15 43.10 43.05 43.00 42.95 42.90 42.85 42.80 42.75 42.70 42.65 42.60 42.55 42.50 42.45 42.40 42.35 42.30 42.25 42.20 42.15 42.10 42.05 42.00 41.95 41.90 41.85 41.80 41.75 41.70 41.65 41.60 41.55 41.50 41.45 41.40 41.35 41.30 41.25 41.20 41.15 41.10 41.05 41.00 40.95 40.90 40.85 40.80 40.75 40.70 40.65 40.60 40.55 40.50 40.45 40.40 40.35 40.30 40.25 40.20 40.15 40.10 40.05 40.00 39.95 39.90 39.85 39.80 39.75 39.70 39.65 39.60 39.55 39.50 39.45 39.40 39.35 39.30 39.25 39.20 39.15 39.10 39.05 39.00 38.95 38.90 38.85 38.80 38.75 38.70 38.65 38.60 38.55 38.50 38.45 38.40 38.35 38.30 38.25 38.20 38.15 38.10 38.05 38.00 37.95 37.90 37.85 37.80 37.75 37.70 37.65 37.60 37.55 37.50 37.45 37.40 37.35 37.30 37.25 37.20 37.15 37.10 37.05 37.00 36.95 36.90 36.85 36.80 36.75 36.70 36.65 36.60 36.55 36.50 36.45 36.40 36.35 36.30 36.25 36.20 36.15 36.10 36.05 36.00 35.95 35.90 35.85 35.80 35.75 35.70 35.65 35.60 35.55 35.50 35.45 35.40 35.35 35.30 35.25 35.20 35.15 35.10 35.05 35.00 34.95 34.90 34.85 34.80 34.75 34.70 34.65 34.60 34.55 34.50 34.45 34.40 34.35 34.30 34.25 34.20 34.15 34.10 34.05 34.00 33.95 33.90 33.85 33.80 33.75 33.70 33.65 33.60 33.55 33.50 33.45 33.40 33.35 33.30 33.25 33.20 33.15 33.10 33.05 33.00 32.95 32.90 32.85 32.80 32.75 32.70 32.65 32.60 32.55 32.50 32.45 32.40 32.35 32.30 32.25 32.20 32.15 32.10 32.05 32.00 31.95 31.90 31.85 31.80 31.75 31.70 31.65 31.60 31.55 31.50 31.45 31.40 31.35 31.30 31.25 31.20 31.15 31.10 31.05 31.00 30.95 30.90 30.85 30.80 30.75 30.70 30.65 30.60 30.55 30.50 30.45 30.40 30.35 30.30 30.25 30.20 30.15 30.10 30.05
50.00 49.95 49.90 49.85 49.80 49.75 49.70 49.65 49.60 49.55 49.50 49.45 49.40 49.35 49.30 49.25 49.20 49.15 49.10 49.05 49.00 48.95 48.90 48.85 48.80 48.75 48.70 48.65 48.60 48.55 48.50 48.45 48.40 48.35 48.30 48.25 48.20 48.15 48.10 48.05 48.00 47.95 47.90 47.85 47.80 47.75 47.70 47.65 47.60 47.55 47.50 47.45 47.40 47.35 47.30 47.25 47.20 47.15 47.10 47.05 47.00 46.95 46.90 46.85 46.80 46.75 46.70 46.65 46.60 46.55 46.50 46.45 46.40 46.35 46.30 46.25 46.20 46.15 46.10 46.05 46.00 45.95 45.90 45.85 45.80 45.75 45.70 45.65 45.60 45.55 45.50 45.45 45.40 45.35 45.30 45.25 45.20 45.15 45.10 45.05 45.00 44.95 44.90 44.85 44.80 44.75 44.70 44.65 44.60 44.55 44.50 44.45 44.40 44.35 44.30 44.25 44.20 44.15 44.10 44.05 44.00 43.95 43.90 43.85 43.80 43.75 43.70 43.65 43.60 43.55 43.50 43.45 43.40 43.35 43.30 43.25 43.20 43.15 43.10 43.05 43.00 42.95 42.90 42.85 42.80 42.75 42.70 42.65 42.60 42.55 42.50 42.45 42.40 42.35 42.30 42.25 42.20 42.15 42.10 42.05 42.00 41.95 41.90 41.85 41.80 41.75 41.70 41.65 41.60 41.55 41.50 41.45 41.40 41.35 41.30 41.25 41.20 41.15 41.10 41.05 41.00 40.95 40.90 40.85 40.80 40.75 40.70 40.65 40.60 40.55 40.50 40.45 40.40 40.35 40.30 40.25 40.20 40.15 40.10 40.05 40.00 39.95 39.90 39.85 39.80 39.75 39.70 39.65 39.60 39.55 39.50 39.45 39.40 39.35 39.30 39.25 39.20 39.15 39.10 39.05 39.00 38.95 38.90 38.85 38.80 38.75 38.70 38.65 38.60 38.55 38.50 38.45 38.40 38.35 38.30 38.25 38.20 38.15 38.10 38.05 38.00 37.95 37.90 37.85 37.80 37.75 37.70 37.65 37.60 37.55 37.50 37.45 37.40 37.35 37.30 37.25 37.20 37.15 37.10 37.05 37.00 36.95 36.90 36.85 36.80 36.75 36.70 36.65 36.60 36.55 36.50 36.45 36.40 36.35 36.30 36.25 36.20 36.15 36.10 36.05 36.00 35.95 35.90 35.85 35.80 35.75 35.70 35.65 35.60 35.55 35.50 35.45 35.40 35.35 35.30 35.25 35.20 35.15 35.10 35.05 35.00 34.95 34.90 34.85 34.80 34.75 34.70 34.65 34.60 34.55 34.50 34.45 34.40 34.35 34.30 34.25 34.20 34.15 34.10 34.05 34.00 33.95 33.90 33.85 33.80 33.75 33.70 33.65 33.60 33.55 33.50 33.45 33.40 33.35 33.30 33.25 33.20 33.15 33.10 33.05 33.00 32.95 32.90 32.85 32.80 32.75 32.70 32.65 32.60 32.55 32.50 32.45 32.40 32.35 32.30 32.25 32.20 32.15 32.10 32.05 32.00 31.95 31.90 31.85 31.80 31.75 31.70 31.65 31.60 31.55 31.50 31.45 31.40 31.35 31.30 31.25 31.20 31.15 31.10 31.05 31.00 30.95 30.90 30.85 30.80 30.75 30.70 30.65 30.60 30.55 30.50 30.45 30.40 30.35 30.30 30.25 30.20 30.15 30.10 30.05
50.00 49.95 49.90 49.85 49.80 49.75 49.70 49.65 49.60 49.55 49.50 49.45 49.40 49.35 49.30 49.25 49.20 49.15 49.10 49.05 49.00 48.95 48.90 48.85 48.80 48.75 48.70 48.65 48.60 48.55 48.50 48.45 48.40 48.35 48.30 48.25 48.20 48.15 48.10 48.05 48.00 47.95 47.90 47.85 47.80 47.75 47.70 47.65 47.60 47.55 47.50 47.45 47.40 47.35 47.30 47.25 47.20 47.15 47.10 47.05 47.00 46.95 46.90 46.85 46.80 46.75 46.70 46.65 46.60 46.55 46.50 46.45 46.40 46.35 46.30 46.25 46.20 46.15 46.10 46.05 46.00 45.95 45.90 45.85 45.80 45.75 45.70 45.65 45.60 45.55 45.50 45.45 45.40 45.35 45.30 45.25 45.20 45.15 45.10 45.05 45.00 44.95 44.90 44.85 44.80 44.75 44.70 44.65 44.60 44.55 44.50 44.45 44.40 44.35 44.30 44.25 44.20 44.15 44.10 44.05 44.00 43.95 43.90 43.85 43.80 43.75 43.70 43.65 43.60 43.55 43.50 43.45 43.40 43.35 43.30 43.25 43.20 43.15 43.10 43.05 43.00 42.95 42.90 42.85 42.80 42.75 42.70 42.65 42.60 42.55 42.50 42.45 42.40 42.35 42.30 42.25 42.20 42.15 42.10 42.05 42.00 41.95 41.90 41.85 41.80 41.75 41.70 41.65 41.60 41.55 41.50 41.45 41.40 41.35 41.30 41.25 41.20 41.15 41.10 41.05 41.00 40.95 40.90 40.85 40.80 40.75 40.70 40.65 40.60 40.55 40.50 40.45 40.40 40.35 40.30 40.25 40.20 40.15 40.10 40.05 40.00 39.95 39.90 39.85 39.80 39.75 39.70 39.65 39.60 39.55 39.50 39.45 39.40 39.35 39.30 39.25 39.20 39.15 39.10 39.05 39.00 38.95 38.90 38.85 38.80 38.75 38.70 38.65 38.60 38.55 38.50 38.45 38.40 38.35 38.30 38.25 38.20 38.15 38.10 38.05 38.00 37.95 37.90 37.85 37.80 37.75 37.70 37.65 37.60 37.55 37.50 37.45 37.40 37.35 37.30 37.25 37.20 37.15 37.10 37.05 37.00 36.95 36.90 36.85 36.80 36.75 36.70 36.65 36.60 36.55 36.50 36.45 36.40 36.35 36.30 36.25 36.20 36.15 36.10 36.05 36.00 35.95 35.90 35.85 35.80 35.75 35.70 35.65 35.60 35.55 35.50 35.45 35.40 35.35 35.30 35.25 35.20 35.15 35.10 35.05 35.00 34.95 34.90 34.85 34.80 34.75 34.70 34.65 34.60 34.55 34.50 34.45 34.40 34.35 34.30 34.25 34.20 34.15 34.10 34.05 34.00 33.95 33.90 33.85 33.80 33.75 33.70 33.65 33.60 33.55 33.50 33.45 33.40 33.35 33.30 33.25 33.20 33.15 33.10 33.05 33.00 32.95 32.90 32.85 32.80 32.75 32.70 32.65 32.60 32.55 32.50 32.45 32.40 32.35 32.30 32.25 32.20 32.15 32.10 32.05 32.00 31.95 31.90 31.85 31.80 31.75 31.70 31.65 31.60 31.55 31.50 31.45 31.40 31.35 31.30 31.25 31.20 31.15 31.10 31.05 31.00 30.95 30.90 30.85 30.80 30.75 30.70 30.65 30.60 30.55 30.50 30.45 30.40 30.35 30.30 30.25 30.20 30.15 30.10 30.05
50.00 49.95 49.90 49.85 49.80 49.75 49.70 49.65 49.60 49.55 49.50 49.45 49.40 49.35 49.30 49.25 49.20 49.15 49.10 49.05 49.00 48.95 48.90 48.85 48.80 48.75 48.70 48.65 48.60 48.55 48.50 48.45 48.40 48.35 48.30 48.25 48.20 48.15 48.10 48.05 48.00 47.95 47.90 47.85 47.80 47.75 47.70 47.65 47.60 47.55 47.50 47.45 47.40 47.35 47.30 47.25 47.20 47.15 47.10 47.05 47.00 46.95 46.90 46.85 46.80 46.75 46.70 46.65 46.60 46.55 46.50 46.45 46.40 46.35 46.30 46.25 46.20 46.15 46.10 46.05 46.00 45.95 45.90 45.85 45.80 45.75 45.70 45.65 45.60 45.55 45.50 45.45 45.40 45.35 45.30 45.25 45.20 45.15 45.10 45.05 45.00 44.95 44.90 44.85 44.80 44.75 44.70 44.65 44.60 44.55 44.50 44.45 44.40 44.35 44.30 44.25 44.20 44.15 44.10 44.05 44.00 43.95 43.90 43.85 43.80 43.75 43.70 43.65 43.60 43.55 43.50 43.45 43.40 43.35 43.30 43.25 43.20 43.15 43.10 43.05 43.00 42.95 42.90 42.85 42.80 42.75 42.70 42.65 42.60 42.55 42.50 42.45 42.40 42.35 42.30 42.25 42.20 42.15 42.10 42.05 42.00 41.95 41.90 41.85 41.80 41.75 41.70 41.65 41.60 41.55 41.50 41.45 41.40 41.35 41.30 41.25 41.20 41.15 41.10 41.05 41.00 40.95 40.90 40.85 40.80 40.75 40.70 40.65 40.60 40.55 40.50 40.45 40.40 40.35 40.30 40.25 40.20 40.15 40.10 40.05 40.00 39.95 39.90 39.85 39.80 39.75 39.70 39.65 39.60 39.55 39.50 39.45 39.40 39.35 39.30 39.25 39.20 39.15 39.10 39.05 39.00 38.95 38.90 38.85 38.80 38.75 38.70 38.65 38.60 38.55 38.50 38.45 38.40 38.35 38.30 38.25 38.20 38.15 38.10 38.05 38.00 37.95 37.90 37.85 37.80 37.75 37.70 37.65 37.60 37.55 37.50 37.45 37.40 37.35 37.30 37.25 37.20 37.15 37.10 37.05 37.00 36.95 36.90 36.85 36.80 36.75 36.70 36.65 36.60 36.55 36.50 36.45 36.40 36.35 36.30 36.25 36.20 36.15 36.10 36.05 36.00 35.95 35.90 35.85 35.80 35.75 35.70 35.65 35.60 35.55 35.50 35.45 35.40 35.35 35.30 35.25 35.20 35.15 35.10 35.05 35.00 34.95 34.90 34.85 34.80 34.75 34.70 34.65 34.60 34.55 34.50 34.45 34.40 34.35 34.30 34.25 34.20 34.15 34.10 34.05 34.00 33.95 33.90 33.85 33.80 33.75 33.70 33.65 33.60 33.55 33.50 33.45 33.40 33.35 33.30 33.25 33.20 33.15 33.10 33.05 33.00 32.95 32.90 32.85 32.80 32.75 32.70 32.65 32.60 32.55 32.50 32.45 32.40 32.35 32.30 32.25 32.20 32.15 32.10 32.05 32.00 31.95 31.90 31.85 31.80 31.75 31.70 31.65 31.60 31.55 31.50 31.45 31.40 31.35 31.30 31.25 31.20 31.15 31.10 31.05 31.00 30.95 30.90 30.85 30.80 30.75 30.70 30.65 30.60 30.55 30.50 30.45 30.40 30.35 30.30 30.25 30.20 30.15 30.10 30.05
50.00 49.95 49.90 49.85 49.80 49.75 49.70 49.65 49.60 49.55 49.50 49.45 49.40 49.35 49.30 49.25 49.20 49.15 49.10 49.05 49.00 48.95 48.90 48.85 48.80 48.75 48.70 48.65 48.60 48.55 48.50 48.45 48.40 48.35 48.30 48.25 48.20 48.15 48.10 48.05 48.00 47.95 47.90 47.85 47.80 47.75 47.70 47.65 47.60 47.55 47.50 47.45 47.40 47.35 47.30 47.25 47.20 47.15 47.10 47.05 47.00 46.95 46.90 46.85 46.80 46.75 46.70 46.65 46.60 46.55 46.50 46.45 46.40 46.35 46.30 46.25 46.20 46.15 46.10 46.05 46.00 45.95 45.90 45.85 45.80 45.75 45.70 45.65 45.60 45.55 45.50 45.45 45.40 45.35 45.30 45.25 45.20 45.15 45.10 45.05 45.00 44.95 44.90 44.85 44.80 44.75 44.70 44.65 44.60 44.55 44.50 44.45 44.40 44.35 44.30 44.25 44.20 44.15 44.10 44.05 44.00 43.95 43.90 43.85 43.80 43.75 43.70 43.65 43.60 43.55 43.50 43.45 43.40 43.35 43.30 43.25 43.20 43.15 43.10 43.05 43.00 42.95 42.90 42.85 42.80 42.75 42.70 42.65 42.60 42.55 42.50 42.45 42.40 42.35 42.30 42.25 42.20 42.15 42.10 42.05 42.00 41.95 41.90 41.85 41.80 41.75 41.70 41.65 41.60 41.55 41.50 41.45 41.40 41.35 41.30 41.25 41.20 41.15 41.10 41.05 41.00 40.95 40.90 40.85 40.80 40.75 40.70 40.65 40.60 40.55 40.50 40.45 40.40 40.35 40.30 40.25 40.20 40.15 40.10 40.05 40.00 39.95 39.90 39.85 39.80 39.75 39.70 39.65 39.60 39.55 39.50 39.45 39.40 39.35 39.30 39.25 39.20 39.15 39.10 39.05 39.00 38.95 38.90 38.85 38.80 38.75 38.70 38.65 38.60 38.55 38.50 38.45 38.40 38.35 38.30 38.25 38.20 38.15 38.10 38.05 38.00 37.95 37.90 37.85 37.80 37.75 37.70 37.65 37.60 37.55 37.50 37.45 37.40 37.35 37.30 37.25 37.20 37.15 37.10 37.05 37.00 36.95 36.90 36.85 36.80 36.75 36.70 36.65 36.60 36.55 36.50 36.45 36.40 36.35 36.30 36.25 36.20 36.15 36.10 36.05 36.00 35.95 35.90 35.85 35.80 35.75 35.70 35.65 35.60 35.55 35.50 35.45 35.40 35.35 35.30 35.25 35.20 35.15 35.10 35.05 35.00 34.95 34.90 34.85 34.80 34.75 34.70 34.65 34.60 34.55 34.50 34.45 34.40 34.35 34.30 34.25 34.20 34.15 34.10 34.05 34.00 33.95 33.90 33.85 33.80 33.75 33.70 33.65 33.60 33.55 33.50 33.45 33.40 33.35 33.30 33.25 33.20 33.15 33.10 33.05 33.00 32.95 32.90 32.85 32.80 32.75 32.70 32.65 32.60 32.55 32.50 32.45 32.40 32.35 32.30 32.25 32.20 32.15 32.10 32.05 32.00 31.95 31.90 31.85 31.80 31.75 31.70 31.65 31.60 31.55 31.50 31.45 31.40 31.35 31.30 31.25 31.20 31.15 31.10 31.05 31.00 30.95 30.90 30.85 30.80 30.75 30.70 30.65 30.60 30.55 30.50 30.45 30.40 30.35 30.30 30.25 30.20 30.15 30.10 30.05
50.00 49.95 49.90 49.85 49.80 49.75 49.70 49.65 49.60 49.55 49.50 49.45 49.40 49.35 49.30 49.25 49.20 49.15 49.10 49.05 49.00 48.95 48.90 48.85 48.80 48.75 48.70 48.65 48.60 48.55 48.50 48.45 48.40 48.35 48.30 48.25 48.20 48.15 48.10 48.05 48.00 47.95 47.90 47.85 47.80 47.75 47.70 47.65 47.60 47.55 47.50 47.45 47.40 47.35 47.30 47.25 47.20 47.15 47.10 47.05 47.00 46.95 46.90 46.85 46.80 46.75 46.70 46.65 46.60 46.55 46.50 46.45 46.40 46.35 46.30 46.25 46.20 46.15 46.10 46.05 46.00 45.95 45.90 45.85 45.80 45.75 45.70 45.65 45.60 45.55 45.50 45.45 45.40 45.35 45.30 45.25 45.20 45.15 45.10 45.05 45.00 44.95 44.90 44.85 44.80 44.75 44.70 44.65 44.60 44.55 44.50 44.45 44.40 44.35 44.30 44.25 44.20 44.15 44.10 44.05 44.00 43.95 43.90 43.85 43.80 43.75 43.70 43.65 43.60 43.55 43.50 43.45 43.40 43.35 43.30 43.25 43.20 43.15 43.10 43.05 43.00 42.95 42.90 42.85 42.80 42.75 42.70 42.65 42.60 42.55 42.50 42.45 42.40 42.35 42.30 42.25 42.20 42.15 42.10 42.05 42.00 41.95 41.90 41.85 41.80 41.75 41.70 41.65 41.60 41.55 41.50 41.45 41.40 41.35 41.30 41.25 41.20 41.15 41.10 41.05 41.00 40.95 40.90 40.85 40.80 40.75 40.70 40.65 40.60 40.55 40.50 40.45 40.40 40.35 40.30 40.25 40.20 40.15 40.10 40.05 40.00 39.95 39.90 39.85 39.80 39.75 39.70 39.65 39.60 39.55 39.50 39.45 39.40 39.35 39.30 39.25 39.20 39.15 39.10 39.05 39.00 38.95 38.90 38.85 38.80 38.75 38.70 38.65 38.60 38.55 38.50 38.45 38.40 38.35 38.30 38.25 38.20 38.15 38.10 38.05 38.00 37.95 37.90 37.85 37.80 37.75 37.70 37.65 37.60 37.55 37.50 37.45 37.40 37.35 37.30 37.25 37.20 37.15 37.10 37.05 37.00 36.95 36.90 36.85 36.80 36.75 36.70 36.65 36.60 36.55 36.50 36.45 36.40 36.35 36.30 36.25 36.20 36.15 36.10 36.05 36.00 35.95 35.90 35.85 35.80 35.75 35.70 35.65 35.60 35.55 35.50 35.45 35.40 35.35 35.30 35.25 35.20 35.15 35.10 35.05 35.00 34.95 34.90 34.85 34.80 34.75 34.70 34.65 34.60 34.55 34.50 34.45 34.40 34.35 34.30 34.25 34.20 34.15 34.10 34.05 34.00 33.95 33.90 33.85 33.80 33.75 33.70 33.65 33.60 33.55 33.50 33.45 33.40 33.35 33.30 33.25 33.20 33.15 33.10 33.05 33.00 32.95 32.90 32.85 32.80 32.75 32.70 32.65 32.60 32.55 32.50 32.45 32.40 32.35 32.30 32.25 32.20 32.15 32.10 32.05 32.00 31.95 31.90 31.85 31.80 31.75 31.70 31.65 31.60 31.55 31.50 31.45 31.40 31.35 31.30 31.25 31.20 31.15 31.10 31.05 31.00 30.95 30.90 30.85 30.80 30.75 30.70 30.65 30.60 30.55 30.50 30.45 30.40 30.35 30.30 30.25 30.20 30.15 30.10 30.05
50.00 49.95 49.90 49.85 49.80 49.75 49.70 49.65 49.60 49.55 49.50 49.45 49.40 49.35 49.30 49.25 49.20 49.15 49.10 49.05 49.00 48.95 48.90 48.85 48.80 48.75 48.70 48.65 48.60 48.55 48.50 48.45 48.40 48.35 48.30 48.25 48.20 48.15 48.10 48.05 48.00 47.95 47.90 47.85 47.80 47.75 47.70 47.65 47.60 47.55 47.50 47.45 47.40 47.35 47.30 47.25 47.20 47.15 47.10 47.05 47.00 46.95 46.90 46.85 46.80 46.75 46.70 46.65 46.60 46.55 46.50 46.45 46.40 46.35 46.30 46.25 46.20 46.15 46.10 46.05 46.00 45.95 45.90 45.85 45.80 45.75 45.70 45.65 45.60 45.55 45.50 45.45 45.40 45.35 45.30 45.25 45.20 45.15 45.10 45.05 45.00 44.95 44.90 44.85 44.80 44.75 44.70 44.65 44.60 44.55 44.50 44.45 44.40 44.35 44.30 44.25 44.20 44.15 44.10 44.05 44.00 43.95 43.90 43.85 43.80 43.75 43.70 43.65 43.60 43.55 43.50 43.45 43.40 43.35 43.30 43.25 43.20 43.15 43.10 43.05 43.00 42.95 42.90 42.85 42.80 42.75 42.70 42.65 42.60 42.55 42.50 42.45 42.40 42.35 42.30 42.25 42.20 42.15 42.10 42.05 42.00 41.95 41.90 41.85 41.80 41.75 41.70 41.65 41.60 41.55 41.50 41.45 41.40 41.35 41.30 41.25 41.20 41.15 41.10 41.05 41.00 40.95 40.90 40.85 40.80 40.75 40.70 40.65 40.60 40.55 40.50 40.45 40.40 40.35 40.30 40.25 40.20 40.15 40.10 40.05 40.00 39.95 39.90 39.85 39.80 39.75 39.70 39.65 39.60 39.55 39.50 39.45 39.40 39.35 39.30 39.25 39.20 39.15 39.10 39.05 39.00 38.95 38.90 38.85 38.80 38.75 38.70 38.65 38.60 38.55 38.50 38.45 38.40 38.35 38.30 38.25 38.20 38.15 38.10 38.05 38.00 37.95 37.90 37.85 37.80 37.75 37.70 37.65 37.60 37.55 37.50 37.45 37.40 37.35 37.30 37.25 37.20 37.15 37.10 37.05 37.00 36.95 36.90 36.85 36.80 36.75 36.70 36.65 36.60 36.55 36.50 36.45 36.40 36.35 36.30 36.25 36.20 36.15 36.10 36.05 36.00 35.95 35.90 35.85 35.80 35.75 35.70 35.65 35.60 35.55 35.50 35.45 35.40 35.35 35.30 35.25 35.20 35.15 35.10 35.05 35.00 34.95 34.90 34.85 34.80 34.75 34.70 34.65 34.60 34.55 34.50 34.45 34.40 34.35 34.30 34.25 34.20 34.15 34.10 34.05 34.00 33.95 33.90 33.85 33.80 33.75 33.70 33.65 33.60 33.55 33.50 33.45 33.40 33.35 33.30 33.25 33.20 33.15 33.10 33.05 33.00 32.95 32.90 32.85 32.80 32.75 32.70 32.65 32.60 32.55 32.50 32.45 32.40 32.35 32.30 32.25 32.20 32.15 32.10 32.05 32.00 31.95 31.90 31.85 31.80 31.75 31.70 31.65 31.60 31.55 31.50 31.45 31.40 31.35 31.30 31.25 31.20 31.15 31.10 31.05 31.00 30.95 30.90 30.85 30.80 30.75 30.70 30.65 30.60 30.55 30.50 30.45 30.40 30.35 30.30 30.25 30.20 30.15 30.10 30.05
50.00 49.95 49.90 49.85 49.80 49.75 49.70 49.65 49.60 49.55 49.50 49.45 49.40 49.35 49.30 49.25 49.20 49.15 49.10 49.05 49.00 48.95 48.90 48.85 48.80 48.75 48.70 48.65 48.60 48.55 48.50 48.45 48.40 48.35 48.30 48.25 48.20 48.15 48.10 48.05 48.00 47.95 47.90 47.85 47.80 47.75 47.70 47.65 47.60 47.55 47.50 47.45 47.40 47.35 47.30 47.25 47.20 47.15 47.10 47.05 47.00 46.95 46.90 46.85 46.80 46.75 46.70 46.65 46.60 46.55 46.50 46.45 46.40 46.35 46.30 46.25 46.20 46.15 46.10 46.05 46.00 45.95 45.90 45.85 45.80 45.75 45.70 45.65 45.60 45.55 45.50 45.45 45.40 45.35 45.30 45.25 45.20 45.15 45.10 45.05 45.00 44.95 44.90 44.85 44.80 44.75 44.70 44.65 44.60 44.55 44.50 44.45 44.40 44.35 44.30 44.25 44.20 44.15 44.10 44.05 44.00 43.95 43.90 43.85 43.80 43.75 43.70 43.65 43.60 43.55 43.50 43.45 43.40 43.35 43.30 43.25 43.20 43.15 43.10 43.05 43.00 42.95 42.90 42.85 42.80 42.75 42.70 42.65 42.60 42.55 42.50 42.45 42.40 42.35 42.30 42.25 42.20 42.15 42.10 42.05 42.00 41.95 41.90 41.85 41.80 41.75 41.70 41.65 41.60 41.55 41.50 41.45 41.40 41.35 41.30 41.25 41.20 41.15 41.10 41.05 41.00 40.95 40.90 40.85 40.80 40.75 40.70 40.65 40.60 40.55 40.50 40.45 40.40 40.35 40.30 40.25 40.20 40.15 40.10 40.05 40.00 39.95 39.90 39.85 39.80 39.75 39.70 39.65 39.60 39.55 39.50 39.45 39.40 39.35 39.30 39.25 39.20 39.15 39.10 39.05 39.00 38.95 38.90 38.85 38.80 38.75 38.70 38.65 38.60 38.55 38.50 38.45 38.40 38.35 38.30 38.25 38.20 38.15 38.10 38.05 38.00 37.95 37.90 37.85 37.80 37.75 37.70 37.65 37.60 37.55 37.50 37.45 37.40 37.35 37.30 37.25 37.20 37.15 37.10 37.05 37.00 36.95 36.90 36.85 36.80 36.75 36.70 36.65 36.60 36.55 36.50 36.45 36.40 36.35 36.30 36.25 36.20 36.15 36.10 36.05 36.00 35.95 35.90 35.85 35.80 35.75 35.70 35.65 35.60 35.55 35.50 35.45 35.40 35.35 35.30 35.25 35.20 35.15 35.10 35.05 35.00 34.95 34.90 34.85 34.80 34.75 34.70 34.65 34.60 34.55 34.50 34.45 34.40 34.35 34.30 34.25 34.20 34.15 34.10 34.05 34.00 33.95 33.90 33.85 33.80 33.75 33.70 33.65 33.60 33.55 33.50 33.45 33.40 33.35 33.30 33.25 33.20 33.15 33.10 33.05 33.00 32.95 32.90 32.85 32.80 32.75 32.70 32.65 32.60 32.55 32.50 32.45 32.40 32.35 32.30 32.25 32.20 32.15 32.10 32.05 32.00 31.95 31.90 31.85 31.80 31.75 31.70 31.65 31.60 31.55 31.50 31.45 31.40 31.35 31.30 31.25 31.20 31.15 31.10 31.05 31.00 30.95 30.90 30.85 30.80 30.75 30.70 30.65 30.60 30.55 30.50 30.45 30.40 30.35 30.30 30.25 30.20 30.15 30.10 30.05
50.00 49.95 49.90 49.85 49.80 49.75 49.70 49.65 49.60 49.55 49.50 49.45 49.40 49.35 49.30 49.25 49.20 49.15 49.10 49.05 49.00 48.95 48.90 48.85 48.80 48.75 48.70 48.65 48.60 48.55 48.50 48.45 48.40 48.35 48.30 48.25 48.20 48.15 48.10 48.05 48.00 47.95 47.90 47.85 47.80 47.75 47.70 47.65 47.60 47.55 47.50 47.45 47.40 47.35 47.30 47.25 47.20 47.15 47.10 47.05 47.00 46.95 46.90 46.85 46.80 46.75 46.70 46.65 46.60 46.55 46.50 46.45 46.40 46.35 46.30 46.25 46.20 46.15 46.10 46.05 46.00 45.95 45.90 45.85 45.80 45.75 45.70 45.65 45.60 45.55 45.50 45.45 45.40 45.35 45.30 45.25 45.20 45.15 45.10 45.05 45.00 44.95 44.90 44.85 44.80 44.75 44.70 44.65 44.60 44.55 44.50 44.45 44.40 44.35 44.30 44.25 44.20 44.15 44.10 44.05 44.00 43.95 43.90 43.85 43.80 43.75 43.70 43.65 43.60 43.55 43.50 43.45 43.40 43.35 43.30 43.25 43.20 43.15 43.10 43.05 43.00 42.95 42.90 42.85 42.80 42.75 42.70 42.65 42.60 42.55 42.50 42.45 42.40 42.35 42.30 42.25 42.20 42.15 42.10 42.05 42.00 41.95 41.90 41.85 41.80 41.75 41.70 41.65 41.60 41.55 41.50 41.45 41.40 41.35 41.30 41.25 41.20 41.15 41.10 41.05 41.00 40.95 40.90 40.85 40.80 40.75 40.70 40.65 40.60 40.55 40.50 40.45 40.40 40.35 40.30 40.25 40.20 40.15 40.10 40.05 40.00 39.95 39.90 39.85 39.80 39.75 39.70 39.65 39.60 39.55 39.50 39.45 39.40 39.35 39.30 39.25 39.20 39.15 39.10 39.05 39.00 38.95 38.90 38.85 38.80 38.75 38.70 38.65 38.60 38.55 38.50 38.45 38.40 38.35 38.30 38.25 38.20 38.15 38.10 38.05 38.00 37.95 37.90 37.85 37.80 37.75 37.70 37.65 37.60 37.55 37.50 37.45 37.40 37.35 37.30 37.25 37.20 37.15 37.10 37.05 37.00 36.95 36.90 36.85 36.80 36.75 36.70 36.65 36.60 36.55 36.50 36.45 36.40 36.35 36.30 36.25 36.20 36.15 36.10 36.05 36.00 35.95 35.90 35.85 35.80 35.75 35.70 35.65 35.60 35.55 35.50 35.45 35.40 35.35 35.30 35.25 35.20 35.15 35.10 35.05 35.00 34.95 34.90 34.85 34.80 34.75 34.70 34.65 34.60 34.55 34.50 34.45 34.40 34.35 34.30 34.25 34.20 34.15 34.10 34.05 34.00 33.95 33.90 33.85 33.80 33.75 33.70 33.65 33.60 33.55 33.50 33.45 33.40 33.35 33.30 33.25 33.20 33.15 33.10 33.05 33.00 32.95 32.90 32.85 32.80 32.75 32.70 32.65 32.60 32.55 32.50 32.45 32.40 32.35 32.30 32.25 32.20 32.15 32.10 32.05 32.00 31.95 31.90 31.85 31.80 31.75 31.70 31.65 31.60 31.55 31.50 31.45 31.40 31.35 31.30 31.25 31.20 31.15 31.10 31.05 31.00 30.95 30.90 30.85 30.80 30.75 30.70 30.65 30.60 30.55 30.50 30.45 30.40 30.35 30.30 30.25 30.20 30.15 30.10 30.05
50.00 49.95 49.90 49.85 49.80 49.75 49.70 49.65 49.60 49.55 49.50 49.45 49.40 49.35 49.30 49.25 49.20 49.15 49.10 49.05 49.00 48.95 48.90 48.85 48.80 48.75 48.70 48.65 48.60 48.55 48.50 48.45 48.40 48.35 48.30 48.25 48.20 48.15 48.10 48.05 48.00 47.95 47.90 47.85 47.80 47.75 47.70 47.65 47.60 47.55 47.50 47.45 47.40 47.35 47.30 47.25 47.20 47.15 47.10 47.05 47.00 46.95 46.90 46.85 46.80 46.75 46.70 46.65 46.60 46.55 46.50 46.45 46.40 46.35 46.30 46.25 46.20 46.15 46.10 46.05 46.00 45.95 45.90 45.85 45.80 45.75 45.70 45.65 45.60 45.55 45.50 45.45 45.40 45.35 45.30 45.25 45.20 45.15 45.10 45.05 45.00 44.95 44.90 44.85 44.80 44.75 44.70 44.65 44.60 44.55 44.50 44.45 44.40 44.35 44.30 44.25 44.20 44.15 44.10 44.05 44.00 43.95 43.90 43.85 43.80 43.75 43.70 43.65 43.60 43.55 43.50 43.45 43.40 43.35 43.30 43.25 43.20 43.15 43.10 43.05 43.00 42.95 42.90 42.85 42.80 42.75 42.70 42.65 42.60 42.55 42.50 42.45 42.40 42.35 42.30 42.25 42.20 42.15 42.10 42.05 42.00 41.95 41.90 41.85 41.80 41.75 41.70 41.65 41.60 41.55 41.50 41.45 41.40 41.35 41.30 41.25 41.20 41.15 41.10 41.05 41.00 40.95 40.90 40.85 40.80 40.75 40.70 40.65 40.60 40.55 40.50 40.45 40.40 40.35 40.30 40.25 40.20 40.15 40.10 40.05 40.00 39.95 39.90 39.85 39.80 39.75 39.70 39.65 39.60 39.55 39.50 39.45 39.40 39.35 39.30 39.25 39.20 39.15 39.10 39.05 39.00 38.95 38.90 38.85 38.80 38.75 38.70 38.65 38.60 38.55 38.50 38.45 38.40 38.35 38.30 38.25 38.20 38.15 38.10 38.05 38.00 37.95 37.90 37.85 37.80 37.75 37.70 37.65 37.60 37.55 37.50 37.45 37.40 37.35 37.30 37.25 37.20 37.15 37.10 37.05 37.00 36.95 36.90 36.85 36.80 36.75 36.70 36.65 36.60 36.55 36.50 36.45 36.40 36.35 36.30 36.25 36.20 36.15 36.10 36.05 36.00 35.95 35.90 35.85 35.80 35.75 35.70 35.65 35.60 35.55 35.50 35.45 35.40 35.35 35.30 35.25 35.20 35.15 35.10 35.05 35.00 34.95 34.90 34.85 34.80 34.75 34.70 34.65 34.60 34.55 34.50 34.45 34.40 34.35 34.30 34.25 34.20 34.15 34.10 34.05 34.00 33.95 33.90 33.85 33.80 33.75 33.70 33.65 33.60 33.55 33.50 33.45 33.40 33.35 33.30 33.25 33.20 33.15 33.10 33.05 33.00 32.95 32.90 32.85 32.80 32.75 32.70 32.65 32.60 32.55 32.50 32.45 32.40 32.35 32.30 32.25 32.20 32.15 32.10 32.05 32.00 31.95 31.90 31.85 31.80 31.75 31.70 31.65 31.60 31.55 31.50 31.45 31.40 31.35 31.30 31.25 31.20 31.15 31.10 31.05 31.00 30.95 30.90 30.85 30.80 30.75 30.70 30.65 30.60 30.55 30.50 30.45 30.40 30.35 30.30 30.25 30.20 30.15 30.10 30.05
50.00 49.95 49.90 49.85 49.80 49.75 49.70 49.65 49.60 49.55 49.50 49.45 49.40 49.35 49.30 49.25 49.20 49.15 49.10 49.05 49.00 48.95 48.90 48.85 48.80 48.75 48.70 48.65 48.60 48.55 48.50 48.45 48.40 48.35 48.30 48.25 48.20 48.15 48.10 48.05 48.00 47.95 47.90 47.85 47.80 47.75 47.70 47.65 47.60 47.55 47.50 47.45 47.40 47.35 47.30 47.25 47.20 47.15 47.10 47.05 47.00 46.95 46.90 46.85 46.80 46.75 46.70 46.65 46.60 46.55 46.50 46.45 46.40 46.35 46.30 46.25 46.20 46.15 46.10 46.05 46.00 45.95 45.90 45.85 45.80 45.75 45.70 45.65 45.60 45.55 45.50 45.45 45.40 45.35 45.30 45.25 45.20 45.15 45.10 45.05 45.00 44.95 44.90 44.85 44.80 44.75 44.70 44.65 44.60 44.55 44.50 44.45 44.40 44.35 44.30 44.25 44.20 44.15 44.10 44.05 44.00 43.95 43.90 43.85 43.80 43.75 43.70 43.65 43.60 43.55 43.50 43.45 43.40 43.35 43.30 43.25 43.20 43.15 43.10 43.05 43.00 42.95 42.90 42.85 42.80 42.75 42.70 42.65 42.60 42.55 42.50 42.45 42.40 42.35 42.30 42.25 42.20 42.15 42.10 42.05 42.00 41.95 41.90 41.85 41.80 41.75 41.70 41.65 41.60 41.55 41.50 41.45 41.40 41.35 41.30 41.25 41.20 41.15 41.10 41.05 41.00 40.95 40.90 40.85 40.80 40.75 40.70 40.65 40.60 40.55 40.50 40.45 40.40 40.35 40.30 40.25 40.20 40.15 40.10 40.05 40.00 39.95 39.90 39.85 39.80 39.75 39.70 39.65 39.60 39.55 39.50 39.45 39.40 39.35 39.30 39.25 39.20 39.15 39.10 39.05 39.00 38.95 38.90 38.85 38.80 38.75 38.70 38.65 38.60 38.55 38.50 38.45 38.40 38.35 38.30 38.25 38.20 38.15 38.10 38.05 38.00 37.95 37.90 37.85 37.80 37.75 37.70 37.65 37.60 37.55 37.50 37.45 37.40 37.35 37.30 37.25 37.20 37.15 37.10 37.05 37.00 36.95 36.90 36.85 36.80 36.75 36.70 36.65 36.60 36.55 36.50 36.45 36.40 36.35 36.30 36.25 36.20 36.15 36.10 36.05 36.00 35.95 35.90 35.85 35.80 35.75 35.70 35.65 35.60 35.55 35.50 35.45 35.40 35.35 35.30 35.25 35.20 35.15 35.10 35.05 35.00 34.95 34.90 34.85 34.80 34.75 34.70 34.65 34.60 34.55 34.50 34.45 34.40 34.35 34.30 34.25 34.20 34.15 34.10 34.05 34.00 33.95 33.90 33.85 33.80 33.75 33.70 33.65 33.60 33.55 33.50 33.45 33.40 33.35 33.30 33.25 33.20 33.15 33.10 33.05 33.00 32.95 32.90 32.85 32.80 32.75 32.70 32.65 32.60 32.55 32.50 32.45 32.40 32.35 32.30 32.25 32.20 32.15 32.10 32.05 32.00 31.95 31.90 31.85 31.80 31.75 31.70 31.65 31.60 31.55 31.50 31.45 31.40 31.35 31.30 31.25 31.20 31.15 31.10 31.05 31.00 30.95 30.90 30.85 30.80 30.75 30.70 30.65 30.60 30.55 30.50 30.45 30.40 30.35 30.30 30.25 30.20 30.15 30.10 30.05
50.00 49.95 49.90 49.85 49.80 49.75 49.70 49.65 49.60 49.55 49.50 49.45 49.40 49.35 49.30 49.25 49.20 49.15 49.10 49.05 49.00 48.95 48.90 48.85 48.80 48.75 48.70 48.65 48.60 48.55 48.50 48.45 48.40 48.35 48.30 48.25 48.20 48.15 48.10 48.05 48.00 47.95 47.90 47.85 47.80 47.75 47.70 47.65 47.60 47.55 47.50 47.45 47.40 47.35 47.30 47.25 47.20 47.15 47.10 47.05 47.00 46.95 46.90 46.85 46.80 46.75 46.70 46.65 46.60 46.55 46.50 46.45 46.40 46.35 46.30 46.25 46.20 46.15 46.10 46.05 46.00 45.95 45.90 45.85 45.80 45.75 45.70 45.65 45.60 45.55 45.50 45.45 45.40 45.35 45.30 45.25 45.20 45.15 45.10 45.05 45.00 44.95 44.90 44.85 44.80 44.75 44.70 44.65 44.60 44.55 44.50 44.45 44.40 44.35 44.30 44.25 44.20 44.15 44.10 44.05 44.00 43.95 43.90 43.85 43.80 43.75 43.70 43.65 43.60 43.55 43.50 43.45 43.40 43.35 43.30 43.25 43.20 43.15 43.10 43.05 43.00 42.95 42.90 42.85 42.80 42.75 42.70 42.65 42.60 42.55 42.50 42.45 42.40 42.35 42.30 42.25 42.20 42.15 42.10 42.05 42.00 41.95 41.90 41.85 41.80 41.75 41.70 41.65 41.60 41.55 41.50 41.45 41.40 41.35 41.30 41.25 41.20 41.15 41.10 41.05 41.00 40.95 40.90 40.85 40.80 40.75 40.70 40.65 40.60 40.55 40.50 40.45 40.40 40.35 40.30 40.25 40.20 40.15 40.10 40.05 40.00 39.95 39.90 39.85 39.80 39.75 39.70 39.65 39.60 39.55 39.50 39.45 39.40 39.35 39.30 39.25 39.20 39.15 39.10 39.05 39.00 38.95 38.90 38.85 38.80 38.75 38.70 38.65 38.60 38.55 38.50 38.45 38.40 38.35 38.30 38.25 38.20 38.15 38.10 38.05 38.00 37.95 37.90 37.85 37.80 37.75 37.70 37.65 37.60 37.55 37.50 37.45 37.40 37.35 37.30 37.25 37.20 37.15 37.10 37.05 37.00 36.95 36.90 36.85 36.80 36.75 36.70 36.65 36.60 36.55 36.50 36.45 36.40 36.35 36.30 36.25 36.20 36.15 36.10 36.05 36.00 35.95 35.90 35.85 35.80 35.75 35.70 35.65 35.60 35.55 35.50 35.45 35.40 35.35 35.30 35.25 35.20 35.15 35.10 35.05 35.00 34.95 34.90 34.85 34.80 34.75 34.70 34.65 34.60 34.55 34.50 34.45 34.40 34.35 34.30 34.25 34.20 34.15 34.10 34.05 34.00 33.95 33.90 33.85 33.80 33.75 33.70 33.65 33.60 33.55 33.50 33.45 33.40 33.35 33.30 33.25 33.20 33.15 33.10 33.05 33.00 32.95 32.90 32.85 32.80 32.75 32.70 32.65 32.60 32.55 32.50 32.45 32.40 32.35 32.30 32.25 32.20 32.15 32.10 32.05 32.00 31.95 31.90 31.85 31.80 31.75 31.70 31.65 31.60 31.55 31.50 31.45 31.40 31.35 31.30 31.25 31.20 31.15 31.10 31.05 31.00 30.95 30.90 30.85 30.80 30.75 30.70 30.65 30.60 30.55 30.50 30.45 30.40 30.35 30.30 30.25 30.20 30.15 30.10 30.05
50.00 49.95 49.90 49.85 49.80 49.75 49.70 49.65 49.60 49.55 49.50 49.45 49.40 49.35 49.30 49.25 49.20 49.15 49.10 49.05 49.00 48.95 48.90 48.85 48.80 48.75 48.70 48.65 48.60 48.55 48.50 48.45 48.40 48.35 48.30 48.25 48.20 48.15 48.10 48.05 48.00 47.95 47.90 47.85 47.80 47.75 47.70 47.65 47.60 47.55 47.50 47.45 47.40 47.35 47.30 47.25 47.20 47.15 47.10 47.05 47.00 46.95 46.90 46.85 46.80 46.75 46.70 46.65 46.60 46.55 46.50 46.45 46.40 46.35 46.30 46.25 46.20 46.15 46.10 46.05 46.00 45.95 45.90 45.85 45.80 45.75 45.70 45.65 45.60 45.55 45.50 45.45 45.40 45.35 45.30 45.25 45.20 45.15 45.10 45.05 45.00 44.95 44.90 44.85 44.80 44.75 44.70 44.65 44.60 44.55 44.50 44.45 44.40 44.35 44.30 44.25 44.20 44.15 44.10 44.05 44.00 43.95 43.90 43.85 43.80 43.75 43.70 43.65 43.60 43.55 43.50 43.45 43.40 43.35 43.30 43.25 43.20 43.15 43.10 43.05 43.00 42.95 42.90 42.85 42.80 42.75 42.70 42.65 42.60 42.55 42.50 42.45 42.40 42.35 42.30 42.25 42.20 42.15 42.10 42.05 42.00 41.95 41.90 41.85 41.80 41.75 41.70 41.65 41.60 41.55 41.50 41.45 41.40 41.35 41.30 41.25 41.20 41.15 41.10 41.05 41.00 40.95 40.90 40.85 40.80 40.75 40.70 40.65 40.60 40.55 40.50 40.45 40.40 40.35 40.30 40.25 40.20 40.15 40.10 40.05 40.00 39.95 39.90 39.85 39.80 39.75 39.70 39.65 39.60 39.55 39.50 39.45 39.40 39.35 39.30 39.25 39.20 39.15 39.10 39.05 39.00 38.95 38.90 38.85 38.80 38.75 38.70 38.65 38.60 38.55 38.50 38.45 38.40 38.35 38.30 38.25 38.20 38.15 38.10 38.05 38.00 37.95 37.90 37.85 37.80 37.75 37.70 37.65 37.60 37.55 37.50 37.45 37.40 37.35 37.30 37.25 37.20 37.15 37.10 37.05 37.00 36.95 36.90 36.85 36.80 36.75 36.70 36.65 36.60 36.55 36.50 36.45 36.40 36.35 36.30 36.25 36.20 36.15 36.10 36.05 36.00 35.95 35.90 35.85 35.80 35.75 35.70 35.65 35.60 35.55 35.50 35.45 35.40 35.35 35.30 35.25 35.20 35.15 35.10 35.05 35.00 34.95 34.90 34.85 34.80 34.75 34.70 34.65 34.60 34.55 34.50 34.45 34.40 34.35 34.30 34.25 34.20 34.15 34.10 34.05 34.00 33.95 33.90 33.85 33.80 33.75 33.70 33.65 33.60 33.55 33.50 33.45 33.40 33.35 33.30 33.25 33.20 33.15 33.10 33.05 33.00 32.95 32.90 32.85 32.80 32.75 32.70 32.65 32.60 32.55 32.50 32.45 32.40 32.35 32.30 32.25 32.20 32.15 32.10 32.05 32.00 31.95 31.90 31.85 31.80 31.75 31.70 31.65 31.60 31.55 31.50 31.45 31.40 31.35 31.30 31.25 31.20 31.15 31.10 31.05 31.00 30.95 30.90 30.85 30.80 30.75 30.70 30.65 30.60 30.55 30.50 30.45 30.40 30.35 30.30 30.25 30.20 30.15 30.10 30.05
50.00 49.95 49.90 49.85 49.80 49.75 49.70 49.65 49.60 49.55 49.50 49.45 49.40 49.35 49.30 49.25 49.20 49.15 49.10 49.05 49.00 48.95 48.90 48.85 48.80 48.75 48.70 48.65 48.60 48.55 48.50 48.45 48.40 48.35 48.30 48.25 48.20 48.15 48.10 48.05 48.00 47.95 47.90 47.85 47.80 47.75 47.70 47.65 47.60 47.55 47.50 47.45 47.40 47.35 47.30 47.25 47.20 47.15 47.10 47.05 47.00 46.95 46.90 46.85 46.80 46.75 46.70 46.65 46.60 46.55 46.50 46.45 46.40 46.35 46.30 46.25 46.20 46.15 46.10 46.05 46.00 45.95 45.90 45.85 45.80 45.75 45.70 45.65 45.60 45.55 45.50 45.45 45.40 45.35 45.30 45.25 45.20 45.15 45.10 45.05 45.00 44.95 44.90 44.85 44.80 44.75 44.70 44.65 44.60 44.55 44.50 44.45 44.40 44.35 44.30 44.25 44.20 44.15 44.10 44.05 44.00 43.95 43.90 43.85 43.80 43.75 43.70 43.65 43.60 43.55 43.50 43.45 43.40 43.35 43.30 43.25 43.20 43.15 43.10 43.05 43.00 42.95 42.90 42.85 42.80 42.75 42.70 42.65 42.60 42.55 42.50 42.45 42.40 42.35 42.30 42.25 42.20 42.15 42.10 42.05 42.00 41.95 41.90 41.85 41.80 41.75 41.70 41.65 41.60 41.55 41.50 41.45 41.40 41.35 41.30 41.25 41.20 41.15 41.10 41.05 41.00 40.95 40.90 40.85 40.80 40.75 40.70 40.65 40.60 40.55 40.50 40.45 40.40 40.35 40.30 40.25 40.20 40.15 40.10 40.05 40.00 39.95 39.90 39.85 39.80 39.75 39.70 39.65 39.60 39.55 39.50 39.45 39.40 39.35 39.30 39.25 39.20 39.15 39.10 39.05 39.00 38.95 38.90 38.85 38.80 38.75 38.70 38.65 38.60 38.55 38.50 38.45 38.40 38.35 38.30 38.25 38.20 38.15 38.10 38.05 38.00 37.95 37.90 37.85 37.80 37.75 37.70 37.65 37.60 37.55 37.50 37.45 37.40 37.35 37.30 37.25 37.20 37.15 37.10 37.05 37.00 36.95 36.90 36.85 36.80 36.75 36.70 36.65 36.60 36.55 36.50 36.45 36.40 36.35 36.30 36.25 36.20 36.15 36.10 36.05 36.00 35.95 35.90 35.85 35.80 35.75 35.70 35.65 35.60 35.55 35.50 35.45 35.40 35.35 35.30 35.25 35.20 35.15 35.10 35.05 35.00 34.95 34.90 34.85 34.80 34.75 34.70 34.65 34.60 34.55 34.50 34.45 34.40 34.35 34.30 34.25 34.20 34.15 34.10 34.05 34.00 33.95 33.90 33.85 33.80 33.75 33.70 33.65 33.60 33.55 33.50 33.45 33.40 33.35 33.30 33.25 33.20 33.15 33.10 33.05 33.00 32.95 32.90 32.85 32.80 32.75 32.70 32.65 32.60 32.55 32.50 32.45 32.40 32.35 32.30 32.25 32.20 32.15 32.10 32.05 32.00 31.95 31.90 31.85 31.80 31.75 31.70 31.65 31.60 31.55 31.50 31.45 31.40 31.35 31.30 31.25 31.20 31.15 31.10 31.05 31.00 30.95 30.90 30.85 30.80 30.75 30.70 30.65 30.60 30.55 30.50 30.45 30.40 30.35 30.30 30.25 30.20 30.15 30.10 30.05
50.00 49.95 49.90 49.85 49.80 49.75 49.70 49.65 49.60 49.55 49.50 49.45 49.40 49.35 49.30 49.25 49.20 49.15 49.10 49.05 49.00 48.95 48.90 48.85 48.80 48.75 48.70 48.65 48.60 48.55 48.50 48.45 48.40 48.35 48.30 48.25 48.20 48.15 48.10 48.05 48.00 47.95 47.90 47.85 47.80 47.75 47.70 47.65 47.60 47.55 47.50 47.45 47.40 47.35 47.30 47.25 47.20 47.15 47.10 47.05 47.00 46.95 46.90 46.85 46.80 46.75 46.70 46.65 46.60 46.55 46.50 46.45 46.40 46.35 46.30 46.25 46.20 46.15 46.10 46.05 46.00 45.95 45.90 45.85 45.80 45.75 45.70 45.65 45.60 45.55 45.50 45.45 45.40 45.35 45.30 45.25 45.20 45.15 45.10 45.05 45.00 44.95 44.90 44.85 44.80 44.75 44.70 44.65 44.60 44.55 44.50 44.45 44.40 44.35 44.30 44.25 44.20 44.15 44.10 44.05 44.00 43.95 43.90 43.85 43.80 43.75 43.70 43.65 43.60 43.55 43.50 43.45 43.40 43.35 43.30 43.25 43.20 43.15 43.10 43.05 43.00 42.95 42.90 42.85 42.80 42.75 42.70 42.65 42.60 42.55 42.50 42.45 42.40 42.35 42.30 42.25 42.20 42.15 42.10 42.05 42.00 41.95 41.90 41.85 41.80 41.75 41.70 41.65 41.60 41.55 41.50 41.45 41.40 41.35 41.30 41.25 41.20 41.15 41.10 41.05 41.00 40.95 40.90 40.85 40.80 40.75 40.70 40.65 40.60 40.55 40.50 40.45 40.40 40.35 40.30 40.25 40.20 40.15 40.10 40.05 40.00 39.95 39.90 39.85 39.80 39.75 39.70 39.65 39.60 39.55 39.50 39.45 39.40 39.35 39.30 39.25 39.20 39.15 39.10 39.05 39.00 38.95 38.90 38.85 38.80 38.75 38.70 38.65 38.60 38.55 38.50 38.45 38.40 38.35 38.30 38.25 38.20 38.15 38.10 38.05 38.00 37.95 37.90 37.85 37.80 37.75 37.70 37.65 37.60 37.55 37.50 37.45 37.40 37.35 37.30 37.25 37.20 37.15 37.10 37.05 37.00 36.95 36.90 36.85 36.80 36.75 36.70 36.65 36.60 36.55 36.50 36.45 36.40 36.35 36.30 36.25 36.20 36.15 36.10 36.05 36.00 35.95 35.90 35.85 35.80 35.75 35.70 35.65 35.60 35.55 35.50 35.45 35.40 35.35 35.30 35.25 35.20 35.15 35.10 35.05 35.00 34.95 34.90 34.85 34.80 34.75 34.70 34.65 34.60 34.55 34.50 34.45 34.40 34.35 34.30 34.25 34.20 34.15 34.10 34.05 34.00 33.95 33.90 33.85 33.80 33.75 33.70 33.65 33.60 33.55 33.50 33.45 33.40 33.35 33.30 33.25 33.20 33.15 33.10 33.05 33.00 32.95 32.90 32.85 32.80 32.75 32.70 32.65 32.60 32.55 32.50 32.45 32.40 32.35 32.30 32.25 32.20 32.15 32.10 32.05 32.00 31.95 31.90 31.85 31.80 31.75 31.70 31.65 31.60 31.55 31.50 31.45 31.40 31.35 31.30 31.25 31.20 31.15 31.10 31.05 31.00 30.95 30.90 30.85 30.80 30.75 30.70 30.65 30.60 30.55 30.50 30.45 30.40 30.35 30.30 30.25 30.20 30.15 30.10 30.05
50.00 49.95 49.90 49.85 49.80 49.75 49.70 49.65 49.60 49.55 49.50 49.45 49.40 49.35 49.30 49.25 49.20 49.15 49.10 49.05 49.00 48.95 48.90 48.85 48.80 48.75 48.70 48.65 48.60 48.55 48.50 48.45 48.40 48.35 48.30 48.25 48.20 48.15 48.10 48.05 48.00 47.95 47.90 47.85 47.80 47.75 47.70 47.65 47.60 47.55 47.50 47.45 47.40 47.35 47.30 47.25 47.20 47.15 47.10 47.05 47.00 46.95 46.90 46.85 46.80 46.75 46.70 46.65 46.60 46.55 46.50 46.45 46.40 46.35 46.30 46.25 46.20 46.15 46.10 46.05 46.00 45.95 45.90 45.85 45.80 45.75 45.70 45.65 45.60 45.55 45.50 45.45 45.40 45.35 45.30 45.25 45.20 45.15 45.10 45.05 45.00 44.95 44.90 44.85 44.80 44.75 44.70 44.65 44.60 44.55 44.50 44.45 44.40 44.35 44.30 44.25 44.20 44.15 44.10 44.05 44.00 43.95 43.90 43.85 43.80 43.75 43.70 43.65 43.60 43.55 43.50 43.45 43.40 43.35 43.30 43.25 43.20 43.15 43.10 43.05 43.00 42.95 42.90 42.85 42.80 42.75 42.70 42.65 42.60 42.55 42.50 42.45 42.40 42.35 42.30 42.25 42.20 42.15 42.10 42.05 42.00 41.95 41.90 41.85 41.80 41.75 41.70 41.65 41.60 41.55 41.50 41.45 41.40 41.35 41.30 41.25 41.20 41.15 41.10 41.05 41.00 40.95 40.90 40.85 40.80 40.75 40.70 40.65 40.60 40.55 40.50 40.45 40.40 40.35 40.30 40.25 40.20 40.15 40.10 40.05 40.00 39.95 39.90 39.85 39.80 39.75 39.70 39.65 39.60 39.55 39.50 39.45 39.40 39.35 39.30 39.25 39.20 39.15 39.10 39.05 39.00 38.95 38.90 38.85 38.80 38.75 38.70 38.65 38.60 38.55 38.50 38.45 38.40 38.35 38.30 38.25 38.20 38.15 38.10 38.05 38.00 37.95 37.90 37.85 37.80 37.75 37.70 37.65 37.60 37.55 37.50 37.45 37.40 37.35 37.30 37.25 37.20 37.15 37.10 37.05 37.00 36.95 36.90 36.85 36.80 36.75 36.70 36.65 36.60 36.55 36.50 36.45 36.40 36.35 36.30 36.25 36.20 36.15 36.10 36.05 36.00 35.95 35.90 35.85 35.80 35.75 35.70 35.65 35.60 35.55 35.50 35.45 35.40 35.35 35.30 35.25 35.20 35.15 35.10 35.05 35.00 34.95 34.90 34.85 34.80 34.75 34.70 34.65 34.60 34.55 34.50 34.45 34.40 34.35 34.30 34.25 34.20 34.15 34.10 34.05 34.00 33.95 33.90 33.85 33.80 33.75 33.70 33.65 33.60 33.55 33.50 33.45 33.40 33.35 33.30 33.25 33.20 33.15 33.10 33.05 33.00 32.95 32.90 32.85 32.80 32.75 32.70 32.65 32.60 32.55 32.50 32.45 32.40 32.35 32.30 32.25 32.20 32.15 32.10 32.05 32.00 31.95 31.90 31.85 31.80 31.75 31.70 31.65 31.60 31.55 31.50 31.45 31.40 31.35 31.30 31.25 31.20 31.15 31.10 31.05 31.00 30.95 30.90 30.85 30.80 30.75 30.70 30.65 30.60 30.55 30.50 30.45 30.40 30.35 30.30 30.25 30.20 30.15 30.10 30.05
50.00 49.95 49.90 49.85 49.80 49.75 49.70 49.65 49.60 49.55 49.50 49.45 49.40 49.35 49.30 49.25 49.20 49.15 49.10 49.05 49.00 48.95 48.90 48.85 48.80 48.75 48.70 48.65 48.60 48.55 48.50 48.45 48.40 48.35 48.30 48.25 48.20 48.15 48.10 48.05 48.00 47.95 47.90 47.85 47.80 47.75 47.70 47.65 47.60 47.55 47.50 47.45 47.40 47.35 47.30 47.25 47.20 47.15 47.10 47.05 47.00 46.95 46.90 46.85 46.80 46.75 46.70 46.65 46.60 46.55 46.50 46.45 46.40 46.35 46.30 46.25 46.20 46.15 46.10 46.05 46.00 45.95 45.90 45.85 45.80 45.75 45.70 45.65 45.60 45.55 45.50 45.45 45.40 45.35 45.30 45.25 45.20 45.15 45.10 45.05 45.00 44.95 44.90 44.85 44.80 44.75 44.70 44.65 44.60 44.55 44.50 44.45 44.40 44.35 44.30 44.25 44.20 44.15 44.10 44.05 44.00 43.95 43.90 43.85 43.80 43.75 43.70 43.65 43.60 43.55 43.50 43.45 43.40 43.35 43.30 43.25 43.20 43.15 43.10 43.05 43.00 42.95 42.90 42.85 42.80 42.75 42.70 42.65 42.60 42.55 42.50 42.45 42.40 42.35 42.30 42.25 42.20 42.15 42.10 42.05 42.00 41.95 41.90 41.85 41.80 41.75 41.70 41.65 41.60 41.55 41.50 41.45 41.40 41.35 41.30 41.25 41.20 41.15 41.10 41.05 41.00 40.95 40.90 40.85 40.80 40.75 40.70 40.65 40.60 40.55 40.50 40.45 40.40 40.35 40.30 40.25 40.20 40.15 40.10 40.05 40.00 39.95 39.90 39.85 39.80 39.75 39.70 39.65 39.60 39.55 39.50 39.45 39.40 39.35 39.30 39.25 39.20 39.15 39.10 39.05 39.00 38.95 38.90 38.85 38.80 38.75 38.70 38.65 38.60 38.55 38.50 38.45 38.40 38.35 38.30 38.25 38.20 38.15 38.10 38.05 38.00 37.95 37.90 37.85 37.80 37.75 37.70 37.65 37.60 37.55 37.50 37.45 37.40 37.35 37.30 37.25 37.20 37.15 37.10 37.05 37.00 36.95 36.90 36.85 36.80 36.75 36.70 36.65 36.60 36.55 36.50 36.45 36.40 36.35 36.30 36.25 36.20 36.15 36.10 36.05 36.00 35.95 35.90 35.85 35.80 35.75 35.70 35.65 35.60 35.55 35.50 35.45 35.40 35.35 35.30 35.25 35.20 35.15 35.10 35.05 35.00 34.95 34.90 34.85 34.80 34.75 34.70 34.65 34.60 34.55 34.50 34.45 34.40 34.35 34.30 34.25 34.20 34.15 34.10 34.05 34.00 33.95 33.90 33.85 33.80 33.75 33.70 33.65 33.60 33.55 33.50 33.45 33.40 33.35 33.30 33.25 33.20 33.15 33.10 33.05 33.00 32.95 32.90 32.85 32.80 32.75 32.70 32.65 32.60 32.55 32.50 32.45 32.40 32.35 32.30 32.25 32.20 32.15 32.10 32.05 32.00 31.95 31.90 31.85 31.80 31.75 31.70 31.65 31.60 31.55 31.50 31.45 31.40 31.35 31.30 31.25 31.20 31.15 31.10 31.05 31.00 30.95 30.90 30.85 30.80 30.75 30.70 30.65 30.60 30.55 30.50 30.45 30.40 30.35 30.30 30.25 30.20 30.15 30.10 30.05
50.00 49.95 49.90 49.85 49.80 49.75 49.70 49.65 49.60 49.55 49.50 49.45 49.40 49.35 49.30 49.25 49.20 49.15 49.10 49.05 49.00 48.95 48.90 48.85 48.80 48.75 48.70 48.65 48.60 48.55 48.50 48.45 48.40 48.35 48.30 48.25 48.20 48.15 48.10 48.05 48.00 47.95 47.90 47.85 47.80 47.75 47.70 47.65 47.60 47.55 47.50 47.45 47.40 47.35 47.30 47.25 47.20 47.15 47.10 47.05 47.00 46.95 46.90 46.85 46.80 46.75 46.70 46.65 46.60 46.55 46.50 46.45 46.40 46.35 46.30 46.25 46.20 46.15 46.10 46.05 46.00 45.95 45.90 45.85 45.80 45.75 45.70 45.65 45.60 45.55 45.50 45.45 45.40 45.35 45.30 45.25 45.20 45.15 45.10 45.05 45.00 44.95 44.90 44.85 44.80 44.75 44.70 44.65 44.60 44.55 44.50 44.45 44.40 44.35 44.30 44.25 44.20 44.15 44.10 44.05 44.00 43.95 43.90 43.85 43.80 43.75 43.70 43.65 43.60 43.55 43.50 43.45 43.40 43.35 43.30 43.25 43.20 43.15 43.10 43.05 43.00 42.95 42.90 42.85 42.80 42.75 42.70 42.65 42.60 42.55 42.50 42.45 42.40 42.35 42.30 42.25 42.20 42.15 42.10 42.05 42.00 41.95 41.90 41.85 41.80 41.75 41.70 41.65 41.60 41.55 41.50 41.45 41.40 41.35 41.30 41.25 41.20 41.15 41.10 41.05 41.00 40.95 40.90 40.85 40.80 40.75 40.70 40.65 40.60 40.55 40.50 40.45 40.40 40.35 40.30 40.25 40.20 40.15 40.10 40.05 40.00 39.95 39.90 39.85 39.80 39.75 39.70 39.65 39.60 39.55 39.50 39.45 39.40 39.35 39.30 39.25 39.20 39.15 39.10 39.05 39.00 38.95 38.90 38.85 38.80 38.75 38.70 38.65 38.60 38.55 38.50 38.45 38.40 38.35 38.30 38.25 38.20 38.15 38.10 38.05 38.00 37.95 37.90 37.85 37.80 37.75 37.70 37.65 37.60 37.55 37.50 37.45 37.40 37.35 37.30 37.25 37.20 37.15 37.10 37.05 37.00 36.95 36.90 36.85 36.80 36.75 36.70 36.65 36.60 36.55 36.50 36.45 36.40 36.35 36.30 36.25 36.20 36.15 36.10 36.05 36.00 35.95 35.90 35.85 35.80 35.75 35.70 35.65 35.60 35.55 35.50 35.45 35.40 35.35 35.30 35.25 35.20 35.15 35.10 35.05 35.00 34.95 34.90 34.85 34.80 34.75 34.70 34.65 34.60 34.55 34.50 34.45 34.40 34.35 34.30 34.25 34.20 34.15 34.10 34.05 34.00 33.95 33.90 33.85 33.80 33.75 33.70 33.65 33.60 33.55 33.50 33.45 33.40 33.35 33.30 33.25 33.20 33.15 33.10 33.05 33.00 32.95 32.90 32.85 32.80 32.75 32.70 32.65 32.60 32.55 32.50 32.45 32.40 32.35 32.30 32.25 32.20 32.15 32.10 32.05 32.00 31.95 31.90 31.85 31.80 31.75 31.70 31.65 31.60 31.55 31.50 31.45 31.40 31.35 31.30 31.25 31.20 31.15 31.10 31.05 31.00 30.95 30.90 30.85 30.80 30.75 30.70 30.65 30.60 30.55 30.50 30.45 30.40 30.35 30.30 30.25 30.20 30.15 30.10 30.05
50.00 49.95 49.90 49.85 49.80 49.75 49.70 49.65 49.60 49.55 49.50 49.45 49.40 49.35 49.30 49.25 49.20 49.15 49.10 49.05 49.00 48.95 48.90 48.85 48.80 48.75 48.70 48.65 48.60 48.55 48.50 48.45 48.40 48.35 48.30 48.25 48.20 48.15 48.10 48.05 48.00 47.95 47.90 47.85 47.80 47.75 47.70 47.65 47.60 47.55 47.50 47.45 47.40 47.35 47.30 47.25 47.20 47.15 47.10 47.05 47.00 46.95 46.90 46.85 46.80 46.75 46.70 46.65 46.60 46.55 46.50 46.45 46.40 46.35 46.30 46.25 46.20 46.15 46.10 46.05 46.00 45.95 45.90 45.85 45.80 45.75 45.70 45.65 45.60 45.55 45.50 45.45 45.40 45.35 45.30 45.25 45.20 45.15 45.10 45.05 45.00 44.95 44.90 44.85 44.80 44.75 44.70 44.65 44.60 44.55 44.50 44.45 44.40 44.35 44.30 44.25 44.20 44.15 44.10 44.05 44.00 43.95 43.90 43.85 43.80 43.75 43.70 43.65 43.60 43.55 43.50 43.45 43.40 43.35 43.30 43.25 43.20 43.15 43.10 43.05 43.00 42.95 42.90 42.85 42.80 42.75 42.70 42.65 42.60 42.55 42.50 42.45 42.40 42.35 42.30 42.25 42.20 42.15 42.10 42.05 42.00 41.95 41.90 41.85 41.80 41.75 41.70 41.65 41.60 41.55 41.50 41.45 41.40 41.35 41.30 41.25 41.20 41.15 41.10 41.05 41.00 40.95 40.90 40.85 40.80 40.75 40.70 40.65 40.60 40.55 40.50 40.45 40.40 40.35 40.30 40.25 40.20 40.15 40.10 40.05 40.00 39.95 39.90 39.85 39.80 39.75 39.70 39.65 39.60 39.55 39.50 39.45 39.40 39.35 39.30 39.25 39.20 39.15 39.10 39.05 39.00 38.95 38.90 38.85 38.80 38.75 38.70 38.65 38.60 38.55 38.50 38.45 38.40 38.35 38.30 38.25 38.20 38.15 38.10 38.05 38.00 37.95 37.90 37.85 37.80 37.75 37.70 37.65 37.60 37.55 37.50 37.45 37.40 37.35 37.30 37.25 37.20 37.15 37.10 37.05 37.00 36.95 36.90 36.85 36.80 36.75 36.70 36.65 36.60 36.55 36.50 36.45 36.40 36.35 36.30 36.25 36.20 36.15 36.10 36.05 36.00 35.95 35.90 35.85 35.80 35.75 35.70 35.65 35.60 35.55 35.50 35.45 35.40 35.35 35.30 35.25 35.20 35.15 35.10 35.05 35.00 34.95 34.90 34.85 34.80 34.75 34.70 34.65 34.60 34.55 34.50 34.45 34.40 34.35 34.30 34.25 34.20 34.15 34.10 34.05 34.00 33.95 33.90 33.85 33.80 33.75 33.70 33.65 33.60 33.55 33.50 33.45 33.40 33.35 33.30 33.25 33.20 33.15 33.10 33.05 33.00 32.95 32.90 32.85 32.80 32.75 32.70 32.65 32.60 32.55 32.50 32.45 32.40 32.35 32.30 32.25 32.20 32.15 32.10 32.05 32.00 31.95 31.90 31.85 31.80 31.75 31.70 31.65 31.60 31.55 31.50 31.45 31.40 31.35 31.30 31.25 31.20 31.15 31.10 31.05 31.00 30.95 30.90 30.85 30.80 30.75 30.70 30.65 30.60 30.55 30.50 30.45 30.40 30.35 30.30 30.25 30.20 30.15 30.10 30.05
50.00 49.95 49.90 49.85 49.80 49.75 49.70 49.65 49.60 49.55 49.50 49.45 49.40 49.35 49.30 49.25 49.20 49.15 49.10 49.05 49.00 48.95 48.90 48.85 48.80 48.75 48.70 48.65 48.60 48.55 48.50 48.45 48.40 48.35 48.30 48.25 48.20 48.15 48.10 48.05 48.00 47.95 47.90 47.85 47.80 47.75 47.70 47.65 47.60 47.55 47.50 47.45 47.40 47.35 47.30 47.25 47.20 47.15 47.10 47.05 47.00 46.95 46.90 46.85 46.80 46.75 46.70 46.65 46.60 46.55 46.50 46.45 46.40 46.35 46.30 46.25 46.20 46.15 46.10 46.05 46.00 45.95 45.90 45.85 45.80 45.75 45.70 45.65 45.60 45.55 45.50 45.45 45.40 45.35 45.30 45.25 45.20 45.15 45.10 45.05 45.00 44.95 44.90 44.85 44.80 44.75 44.70 44.65 44.60 44.55 44.50 44.45 44.40 44.35 44.30 44.25 44.20 44.15 44.10 44.05 44.00 43.95 43.90 43.85 43.80 43.75 43.70 43.65 43.60 43.55 43.50 43.45 43.40 43.35 43.30 43.25 43.20 43.15 43.10 43.05 43.00 42.95 42.90 42.85 42.80 42.75 42.70 42.65 42.60 42.55 42.50 42.45 42.40 42.35 42.30 42.25 42.20 42.15 42.10 42.05 42.00 41.95 41.90 41.85 41.80 41.75 41.70 41.65 41.60 41.55 41.50 41.45 41.40 41.35 41.30 41.25 41.20 41.15 41.10 41.05 41.00 40.95 40.90 40.85 40.80 40.75 40.70 40.65 40.60 40.55 40.50 40.45 40.40 40.35 40.30 40.25 40.20 40.15 40.10 40.05 40.00 39.95 39.90 39.85 39.80 39.75 39.70 39.65 39.60 39.55 39.50 39.45 39.40 39.35 39.30 39.25 39.20 39.15 39.10 39.05 39.00 38.95 38.90 38.85 38.80 38.75 38.70 38.65 38.60 38.55 38.50 38.45 38.40 38.35 38.30 38.25 38.20 38.15 38.10 38.05 38.00 37.95 37.90 37.85 37.80 37.75 37.70 37.65 37.60 37.55 37.50 37.45 37.40 37.35 37.30 37.25 37.20 37.15 37.10 37.05 37.00 36.95 36.90 36.85 36.80 36.75 36.70 36.65 36.60 36.55 36.50 36.45 36.40 36.35 36.30 36.25 36.20 36.15 36.10 36.05 36.00 35.95 35.90 35.85 35.80 35.75 35.70 35.65 35.60 35.55 35.50 35.45 35.40 35.35 35.30 35.25 35.20 35.15 35.10 35.05 35.00 34.95 34.90 34.85 34.80 34.75 34.70 34.65 34.60 34.55 34.50 34.45 34.40 34.35 34.30 34.25 34.20 34.15 34.10 34.05 34.00 33.95 33.90 33.85 33.80 33.75 33.70 33.65 33.60 33.55 33.50 33.45 33.40 33.35 33.30 33.25 33.20 33.15 33.10 33.05 33.00 32.95 32.90 32.85 32.80 32.75 32.70 32.65 32.60 32.55 32.50 32.45 32.40 32.35 32.30 32.25 32.20 32.15 32.10 32.05 32.00 31.95 31.90 31.85 31.80 31.75 31.70 31.65 31.60 31.55 31.50 31.45 31.40 31.35 31.30 31.25 31.20 31.15 31.10 31.05 31.00 30.95 30.90 30.85 30.80 30.75 30.70 30.65 30.60 30.55 30.50 30.45 30.40 30.35 30.30 30.25 30.20 30.15 30.10 30.05
50.00 49.95 49.90 49.85 49.80 49.75 49.70 49.65 49.60 49.55 49.50 49.45 49.40 49.35 49.30 49.25 49.20 49.15 49.10 49.05 49.00 48.95 48.90 48.85 48.80 48.75 48.70 48.65 48.60 48.55 48.50 48.45 48.40 48.35 48.30 48.25 48.20 48.15 48.10 48.05 48.00 47.95 47.90 47.85 47.80 47.75 47.70 47.65 47.60 47.55 47.50 47.45 47.40 47.35 47.30 47.25 47.20 47.15 47.10 47.05 47.00 46.95 46.90 46.85 46.80 46.75 46.70 46.65 46.60 46.55 46.50 46.45 46.40 46.35 46.30 46.25 46.20 46.15 46.10 46.05 46.00 45.95 45.90 45.85 45.80 45.75 45.70 45.65 45.60 45.55 45.50 45.45 45.40 45.35 45.30 45.25 45.20 45.15 45.10 45.05 45.00 44.95 44.90 44.85 44.80 44.75 44.70 44.65 44.60 44.55 44.50 44.45 44.40 44.35 44.30 44.25 44.20 44.15 44.10 44.05 44.00 43.95 43.90 43.85 43.80 43.75 43.70 43.65 43.60 43.55 43.50 43.45 43.40 43.35 43.30 43.25 43.20 43.15 43.10 43.05 43.00 42.95 42.90 42.85 42.80 42.75 42.70 42.65 42.60 42.55 42.50 42.45 42.40 42.35 42.30 42.25 42.20 42.15 42.10 42.05 42.00 41.95 41.90 41.85 41.80 41.75 41.70 41.65 41.60 41.55 41.50 41.45 41.40 41.35 41.30 41.25 41.20 41.15 41.10 41.05 41.00 40.95 40.90 40.85 40.80 40.75 40.70 40.65 40.60 40.55 40.50 40.45 40.40 40.35 40.30 40.25 40.20 40.15 40.10 40.05 40.00 39.95 39.90 39.85 39.80 39.75 39.70 39.65 39.60 39.55 39.50 39.45 39.40 39.35 39.30 39.25 39.20 39.15 39.10 39.05 39.00 38.95 38.90 38.85 38.80 38.75 38.70 38.65 38.60 38.55 38.50 38.45 38.40 38.35 38.30 38.25 38.20 38.15 38.10 38.05 38.00 37.95 37.90 37.85 37.80 37.75 37.70 37.65 37.60 37.55 37.50 37.45 37.40 37.35 37.30 37.25 37.20 37.15 37.10 37.05 37.00 36.95 36.90 36.85 36.80 36.75 36.70 36.65 36.60 36.55 36.50 36.45 36.40 36.35 36.30 36.25 36.20 36.15 36.10 36.05 36.00 35.95 35.90 35.85 35.80 35.75 35.70 35.65 35.60 35.55 35.50 35.45 35.40 35.35 35.30 35.25 35.20 35.15 35.10 35.05 35.00 34.95 34.90 34.85 34.80 34.75 34.70 34.65 34.60 34.55 34.50 34.45 34.40 34.35 34.30 34.25 34.20 34.15 34.10 34.05 34.00 33.95 33.90 33.85 33.80 33.75 33.70 33.65 33.60 33.55 33.50 33.45 33.40 33.35 33.30 33.25 33.20 33.15 33.10 33.05 33.00 32.95 32.90 32.85 32.80 32.75 32.70 32.65 32.60 32.55 32.50 32.45 32.40 32.35 32.30 32.25 32.20 32.15 32.10 32.05 32.00 31.95 31.90 31.85 31.80 31.75 31.70 31.65 31.60 31.55 31.50 31.45 31.40 31.35 31.30 31.25 31.20 31.15 31.10 31.05 31.00 30.95 30.90 30.85 30.80 30.75 30.70 30.65 30.60 30.55 30.50 30.45 30.40 30.35 30.30 30.25 30.20 30.15 30.10 30.05
50.00 49.95 49.90 49.85 49.80 49.75 49.70 49.65 49.60 49.55 49.50 49.45 49.40 49.35 49.30 49.25 49.20 49.15 49.10 49.05 49.00 48.95 48.90 48.85 48.80 48.75 48.70 48.65 48.60 48.55 48.50 48.45 48.40 48.35 48.30 48.25 48.20 48.15 48.10 48.05 48.00 47.95 47.90 47.85 47.80 47.75 47.70 47.65 47.60 47.55 47.50 47.45 47.40 47.35 47.30 47.25 47.20 47.15 47.10 47.05 47.00 46.95 46.90 46.85 46.80 46.75 46.70 46.65 46.60 46.55 46.50 46.45 46.40 46.35 46.30 46.25 46.20 46.15 46.10 46.05 46.00 45.95 45.90 45.85 45.80 45.75 45.70 45.65 45.60 45.55 45.50 45.45 45.40 45.35 45.30 45.25 45.20 45.15 45.10 45.05 45.00 44.95 44.90 44.85 44.80 44.75 44.70 44.65 44.60 44.55 44.50 44.45 44.40 44.35 44.30 44.25 44.20 44.15 44.10 44.05 44.00 43.95 43.90 43.85 43.80 43.75 43.70 43.65 43.60 43.55 43.50 43.45 43.40 43.35 43.30 43.25 43.20 43.15 43.10 43.05 43.00 42.95 42.90 42.85 42.80 42.75 42.70 42.65 42.60 42.55 42.50 42.45 42.40 42.35 42.30 42.25 42.20 42.15 42.10 42.05 42.00 41.95 41.90 41.85 41.80 41.75 41.70 41.65 41.60 41.55 41.50 41.45 41.40 41.35 41.30 41.25 41.20 41.15 41.10 41.05 41.00 40.95 40.90 40.85 40.80 40.75 40.70 40.65 40.60 40.55 40.50 40.45 40.40 40.35 40.30 40.25 40.20 40.15 40.10 40.05 40.00 39.95 39.90 39.85 39.80 39.75 39.70 39.65 39.60 39.55 39.50 39.45 39.40 39.35 39.30 39.25 39.20 39.15 39.10 39.05 39.00 38.95 38.90 38.85 38.80 38.75 38.70 38.65 38.60 38.55 38.50 38.45 38.40 38.35 38.30 38.25 38.20 38.15 38.10 38.05 38.00 37.95 37.90 37.85 37.80 37.75 37.70 37.65 37.60 37.55 37.50 37.45 37.40 37.35 37.30 37.25 37.20 37.15 37.10 37.05 37.00 36.95 36.90 36.85 36.80 36.75 36.70 36.65 36.60 36.55 36.50 36.45 36.40 36.35 36.30 36.25 36.20 36.15 36.10 36.05 36.00 35.95 35.90 35.85 35.80 35.75 35.70 35.65 35.60 35.55 35.50 35.45 35.40 35.35 35.30 35.25 35.20 35.15 35.10 35.05 35.00 34.95 34.90 34.85 34.80 34.75 34.70 34.65 34.60 34.55 34.50 34.45 34.40 34.35 34.30 34.25 34.20 34.15 34.10 34.05 34.00 33.95 33.90 33.85 33.80 33.75 33.70 33.65 33.60 33.55 33.50 33.45 33.40 33.35 33.30 33.25 33.20 33.15 33.10 33.05 33.00 32.95 32.90 32.85 32.80 32.75 32.70 32.65 32.60 32.55 32.50 32.45 32.40 32.35 32.30 32.25 32.20 32.15 32.10 32.05 32.00 31.95 31.90 31.85 31.80 31.75 31.70 31.65 31.60 31.55 31.50 31.45 31.40 31.35 31.30 31.25 31.20 31.15 31.10 31.05 31.00 30.95 30.90 30.85 30.80 30.75 30.70 30.65 30.60 30.55 30.50 30.45 30.40 30.35 30.30 30.25 30.20 30.15 30.10 30.05
50.00 49.95 49.90 49.85 49.80 49.75 49.70 49.65 49.60 49.55 49.50 49.45 49.40 49.35 49.30 49.25 49.20 49.15 49.10 49.05 49.00 48.95 48.90 48.85 48.80 48.75 48.70 48.65 48.60 48.55 48.50 48.45 48.40 48.35 48.30 48.25 48.20 48.15 48.10 48.05 48.00 47.95 47.90 47.85 47.80 47.75 47.70 47.65 47.60 47.55 47.50 47.45 47.40 47.35 47.30 47.25 47.20 47.15 47.10 47.05 47.00 46.95 46.90 46.85 46.80 46.75 46.70 46.65 46.60 46.55 46.50 46.45 46.40 46.35 46.30 46.25 46.20 46.15 46.10 46.05 46.00 45.95 45.90 45.85 45.80 45.75 45.70 45.65 45.60 45.55 45.50 45.45 45.40 45.35 45.30 45.25 45.20 45.15 45.10 45.05 45.00 44.95 44.90 44.85 44.80 44.75 44.70 44.65 44.60 44.55 44.50 44.45 44.40 44.35 44.30 44.25 44.20 44.15 44.10 44.05 44.00 43.95 43.90 43.85 43.80 43.75 43.70 43.65 43.60 43.55 43.50 43.45 43.40 43.35 43.30 43.25 43.20 43.15 43.10 43.05 43.00 42.95 42.90 42.85 42.80 42.75 42.70 42.65 42.60 42.55 42.50 42.45 42.40 42.35 42.30 42.25 42.20 42.15 42.10 42.05 42.00 41.95 41.90 41.85 41.80 41.75 41.70 41.65 41.60 41.55 41.50 41.45 41.40 41.35 41.30 41.25 41.20 41.15 41.10 41.05 41.00 40.95 40.90 40.85 40.80 40.75 40.70 40.65 40.60 40.55 40.50 40.45 40.40 40.35 40.30 40.25 40.20 40.15 40.10 40.05 40.00 39.95 39.90 39.85 39.80 39.75 39.70 39.65 39.60 39.55 39.50 39.45 39.40 39.35 39.30 39.25 39.20 39.15 39.10 39.05 39.00 38.95 38.90 38.85 38.80 38.75 38.70 38.65 38.60 38.55 38.50 38.45 38.40 38.35 38.30 38.25 38.20 38.15 38.10 38.05 38.00 37.95 37.90 37.85 37.80 37.75 37.70 37.65 37.60 37.55 37.50 37.45 37.40 37.35 37.30 37.25 37.20 37.15 37.10 37.05 37.00 36.95 36.90 36.85 36.80 36.75 36.70 36.65 36.60 36.55 36.50 36.45 36.40 36.35 36.30 36.25 36.20 36.15 36.10 36.05 36.00 35.95 35.90 35.85 35.80 35.75 35.70 35.65 35.60 35.55 35.50 35.45 35.40 35.35 35.30 35.25 35.20 35.15 35.10 35.05 35.00 34.95 34.90 34.85 34.80 34.75 34.70 34.65 34.60 34.55 34.50 34.45 34.40 34.35 34.30 34.25 34.20 34.15 34.10 34.05 34.00 33.95 33.90 33.85 33.80 33.75 33.70 33.65 33.60 33.55 33.50 33.45 33.40 33.35 33.30 33.25 33.20 33.15 33.10 33.05 33.00 32.95 32.90 32.85 32.80 32.75 32.70 32.65 32.60 32.55 32.50 32.45 32.40 32.35 32.30 32.25 32.20 32.15 32.10 32.05 32.00 31.95 31.90 31.85 31.80 31.75 31.70 31.65 31.60 31.55 31.50 31.45 31.40 31.35 31.30 31.25 31.20 31.15 31.10 31.05 31.00 30.95 30.90 30.85 30.80 30.75 30.70 30.65 30.60 30.55 30.50 30.45 30.40 30.35 30.30 30.25 30.20 30.15 30.10 30.05
50.00 49.95 49.90 49.85 49.80 49.75 49.70 49.65 49.60 49.55 49.50 49.45 49.40 49.35 49.30 49.25 49.20 49.15 49.10 49.05 49.00 48.95 48.90 48.85 48.80 48.75 48.70 48.65 48.60 48.55 48.50 48.45 48.40 48.35 48.30 48.25 48.20 48.15 48.10 48.05 48.00 47.95 47.90 47.85 47.80 47.75 47.70 47.65 47.60 47.55 47.50 47.45 47.40 47.35 47.30 47.25 47.20 47.15 47.10 47.05 47.00 46.95 46.90 46.85 46.80 46.75 46.70 46.65 46.60 46.55 46.50 46.45 46.40 46.35 46.30 46.25 46.20 46.15 46.10 46.05 46.00 45.95 45.90 45.85 45.80 45.75 45.70 45.65 45.60 45.55 45.50 45.45 45.40 45.35 45.30 45.25 45.20 45.15 45.10 45.05 45.00 44.95 44.90 44.85 44.80 44.75 44.70 44.65 44.60 44.55 44.50 44.45 44.40 44.35 44.30 44.25 44.20 44.15 44.10 44.05 44.00 43.95 43.90 43.85 43.80 43.75 43.70 43.65 43.60 43.55 43.50 43.45 43.40 43.35 43.30 43.25 43.20 43.15 43.10 43.05 43.00 42.95 42.90 42.85 42.80 42.75 42.70 42.65 42.60 42.55 42.50 42.45 42.40 42.35 42.30 42.25 42.20 42.15 42.10 42.05 42.00 41.95 41.90 41.85 41.80 41.75 41.70 41.65 41.60 41.55 41.50 41.45 41.40 41.35 41.30 41.25 41.20 41.15 41.10 41.05 41.00 40.95 40.90 40.85 40.80 40.75 40.70 40.65 40.60 40.55 40.50 40.45 40.40 40.35 40.30 40.25 40.20 40.15 40.10 40.05 40.00 39.95 39.90 39.85 39.80 39.75 39.70 39.65 39.60 39.55 39.50 39.45 39.40 39.35 39.30 39.25 39.20 39.15 39.10 39.05 39.00 38.95 38.90 38.85 38.80 38.75 38.70 38.65 38.60 38.55 38.50 38.45 38.40 38.35 38.30 38.25 38.20 38.15 38.10 38.05 38.00 37.95 37.90 37.85 37.80 37.75 37.70 37.65 37.60 37.55 37.50 37.45 37.40 37.35 37.30 37.25 37.20 37.15 37.10 37.05 37.00 36.95 36.90 36.85 36.80 36.75 36.70 36.65 36.60 36.55 36.50 36.45 36.40 36.35 36.30 36.25 36.20 36.15 36.10 36.05 36.00 35.95 35.90 35.85 35.80 35.75 35.70 35.65 35.60 35.55 35.50 35.45 35.40 35.35 35.30 35.25 35.20 35.15 35.10 35.05 35.00 34.95 34.90 34.85 34.80 34.75 34.70 34.65 34.60 34.55 34.50 34.45 34.40 34.35 34.30 34.25 34.20 34.15 34.10 34.05 34.00 33.95 33.90 33.85 33.80 33.75 33.70 33.65 33.60 33.55 33.50 33.45 33.40 33.35 33.30 33.25 33.20 33.15 33.10 33.05 33.00 32.95 32.90 32.85 32.80 32.75 32.70 32.65 32.60 32.55 32.50 32.45 32.40 32.35 32.30 32.25 32.20 32.15 32.10 32.05 32.00 31.95 31.90 31.85 31.80 31.75 31.70 31.65 31.60 31.55 31.50 31.45 31.40 31.35 31.30 31.25 31.20 31.15 31.10 31.05 31.00 30.95 30.90 30.85 30.80 30.75 30.70 30.65 30.60 30.55 30.50 30.45 30.40 30.35 30.30 30.25 30.20 30.15 30.10 30.05
50.00 49.95 49.90 49.85 49.80 49.75 49.70 49.65 49.60 49.55 49.50 49.45 49.40 49.35 49.30 49.25 49.20 49.15 49.10 49.05 49.00 48.95 48.90 48.85 48.80 48.75 48.70 48.65 48.60 48.55 48.50 48.45 48.40 48.35 48.30 48.25 48.20 48.15 48.10 48.05 48.00 47.95 47.90 47.85 47.80 47.75 47.70 47.65 47.60 47.55 47.50 47.45 47.40 47.35 47.30 47.25 47.20 47.15 47.10 47.05 47.00 46.95 46.90 46.85 46.80 46.75 46.70 46.65 46.60 46.55 46.50 46.45 46.40 46.35 46.30 46.25 46.20 46.15 46.10 46.05 46.00 45.95 45.90 45.85 45.80 45.75 45.70 45.65 45.60 45.55 45.50 45.45 45.40 45.35 45.30 45.25 45.20 45.15 45.10 45.05 45.00 44.95 44.90 44.85 44.80 44.75 44.70 44.65 44.60 44.55 44.50 44.45 44.40 44.35 44.30 44.25 44.20 44.15 44.10 44.05 44.00 43.95 43.90 43.85 43.80 43.75 43.70 43.65 43.60 43.55 43.50 43.45 43.40 43.35 43.30 43.25 43.20 43.15 43.10 43.05 43.00 42.95 42.90 42.85 42.80 42.75 42.70 42.65 42.60 42.55 42.50 42.45 42.40 42.35 42.30 42.25 42.20 42.15 42.10 42.05 42.00 41.95 41.90 41.85 41.80 41.75 41.70 41.65 41.60 41.55 41.50 41.45 41.40 41.35 41.30 41.25 41.20 41.15 41.10 41.05 41.00 40.95 40.90 40.85 40.80 40.75 40.70 40.65 40.60 40.55 40.50 40.45 40.40 40.35 40.30 40.25 40.20 40.15 40.10 40.05 40.00 39.95 39.90 39.85 39.80 39.75 39.70 39.65 39.60 39.55 39.50 39.45 39.40 39.35 39.30 39.25 39.20 39.15 39.10 39.05 39.00 38.95 38.90 38.85 38.80 38.75 38.70 38.65 38.60 38.55 38.50 38.45 38.40 38.35 38.30 38.25 38.20 38.15 38.10 38.05 38.00 37.95 37.90 37.85 37.80 37.75 37.70 37.65 37.60 37.55 37.50 37.45 37.40 37.35 37.30 37.25 37.20 37.15 37.10 37.05 37.00 36.95 36.90 36.85 36.80 36.75 36.70 36.65 36.60 36.55 36.50 36.45 36.40 36.35 36.30 36.25 36.20 36.15 36.10 36.05 36.00 35.95 35.90 35.85 35.80 35.75 35.70 35.65 35.60 35.55 35.50 35.45 35.40 35.35 35.30 35.25 35.20 35.15 35.10 35.05 35.00 34.95 34.90 34.85 34.80 34.75 34.70 34.65 34.60 34.55 34.50 34.45 34.40 34.35 34.30 34.25 34.20 34.15 34.10 34.05 34.00 33.95 33.90 33.85 33.80 33.75 33.70 33.65 33.60 33.55 33.50 33.45 33.40 33.35 33.30 33.25 33.20 33.15 33.10 33.05 33.00 32.95 32.90 32.85 32.80 32.75 32.70 32.65 32.60 32.55 32.50 32.45 32.40 32.35 32.30 32.25 32.20 32.15 32.10 32.05 32.00 31.95 31.90 31.85 31.80 31.75 31.70 31.65 31.60 31.55 31.50 31.45 31.40 31.35 31.30 31.25 31.20 31.15 31.10 31.05 31.00 30.95 30.90 30.85 30.80 30.75 30.70 30.65 30.60 30.55 30.50 30.45 30.40 30.35 30.30 30.25 30.20 30.15 30.10 30.05
50.00 49.95 49.90 49.85 49.80 49.75 49.70 49.65 49.60 49.55 49.50 49.45 49.40 49.35 49.30 49.25 49.20 49.15 49.10 49.05 49.00 48.95 48.90 48.85 48.80 48.75 48.70 48.65 48.60 48.55 48.50 48.45 48.40 48.35 48.30 48.25 48.20 48.15 48.10 48.05 48.00 47.95 47.90 47.85 47.80 47.75 47.70 47.65 47.60 47.55 47.50 47.45 47.40 47.35 47.30 47.25 47.20 47.15 47.10 47.05 47.00 46.95 46.90 46.85 46.80 46.75 46.70 46.65 46.60 46.55 46.50 46.45 46.40 46.35 46.30 46.25 46.20 46.15 46.10 46.05 46.00 45.95 45.90 45.85 45.80 45.75 45.70 45.65 45.60 45.55 45.50 45.45 45.40 45.35 45.30 45.25 45.20 45.15 45.10 45.05 45.00 44.95 44.90 44.85 44.80 44.75 44.70 44.65 44.60 44.55 44.50 44.45 44.40 44.35 44.30 44.25 44.20 44.15 44.10 44.05 44.00 43.95 43.90 43.85 43.80 43.75 43.70 43.65 43.60 43.55 43.50 43.45 43.40 43.35 43.30 43.25 43.20 43.15 43.10 43.05 43.00 42.95 42.90 42.85 42.80 42.75 42.70 42.65 42.60 42.55 42.50 42.45 42.40 42.35 42.30 42.25 42.20 42.15 42.10 42.05 42.00 41.95 41.90 41.85 41.80 41.75 41.70 41.65 41.60 41.55 41.50 41.45 41.40 41.35 41.30 41.25 41.20 41.15 41.10 41.05 41.00 40.95 40.90 40.85 40.80 40.75 40.70 40.65 40.60 40.55 40.50 40.45 40.40 40.35 40.30 40.25 40.20 40.15 40.10 40.05 40.00 39.95 39.90 39.85 39.80 39.75 39.70 39.65 39.60 39.55 39.50 39.45 39.40 39.35 39.30 39.25 39.20 39.15 39.10 39.05 39.00 38.95 38.90 38.85 38.80 38.75 38.70 38.65 38.60 38.55 38.50 38.45 38.40 38.35 38.30 38.25 38.20 38.15 38.10 38.05 38.00 37.95 37.90 37.85 37.80 37.75 37.70 37.65 37.60 37.55 37.50 37.45 37.40 37.35 37.30 37.25 37.20 37.15 37.10 37.05 37.00 36.95 36.90 36.85 36.80 36.75 36.70 36.65 36.60 36.55 36.50 36.45 36.40 36.35 36.30 36.25 36.20 36.15 36.10 36.05 36.00 35.95 35.90 35.85 35.80 35.75 35.70 35.65 35.60 35.55 35.50 35.45 35.40 35.35 35.30 35.25 35.20 35.15 35.10 35.05 35.00 34.95 34.90 34.85 34.80 34.75 34.70 34.65 34.60 34.55 34.50 34.45 34.40 34.35 34.30 34.25 34.20 34.15 34.10 34.05 34.00 33.95 33.90 33.85 33.80 33.75 33.70 33.65 33.60 33.55 33.50 33.45 33.40 33.35 33.30 33.25 33.20 33.15 33.10 33.05 33.00 32.95 32.90 32.85 32.80 32.75 32.70 32.65 32.60 32.55 32.50 32.45 32.40 32.35 32.30 32.25 32.20 32.15 32.10 32.05 32.00 31.95 31.90 31.85 31.80 31.75 31.70 31.65 31.60 31.55 31.50 31.45 31.40 31.35 31.30 31.25 31.20 31.15 31.10 31.05 31.00 30.95 30.90 30.85 30.80 30.75 30.70 30.65 30.60 30.55 30.50 30.45 30.40 30.35 30.30 30.25 30.20 30.15 30.10 30.05
50.00 49.95 49.90 49.85 49.80 49.75 49.70 49.65 49.60 49.55 49.50 49.45 49.40 49.35 49.30 49.25 49.20 49.15 49.10 49.05 49.00 48.95 48.90 48.85 48.80 48.75 48.70 48.65 48.60 48.55 48.50 48.45 48.40 48.35 48.30 48.25 48.20 48.15 48.10 48.05 48.00 47.95 47.90 47.85 47.80 47.75 47.70 47.65 47.60 47.55 47.50 47.45 47.40 47.35 47.30 47.25 47.20 47.15 47.10 47.05 47.00 46.95 46.90 46.85 46.80 46.75 46.70 46.65 46.60 46.55 46.50 46.45 46.40 46.35 46.30 46.25 46.20 46.15 46.10 46.05 46.00 45.95 45.90 45.85 45.80 45.75 45.70 45.65 45.60 45.55 45.50 45.45 45.40 45.35 45.30 45.25 45.20 45.15 45.10 45.05 45.00 44.95 44.90 44.85 44.80 44.75 44.70 44.65 44.60 44.55 44.50 44.45 44.40 44.35 44.30 44.25 44.20 44.15 44.10 44.05 44.00 43.95 43.90 43.85 43.80 43.75 43.70 43.65 43.60 43.55 43.50 43.45 43.40 43.35 43.30 43.25 43.20 43.15 43.10 43.05 43.00 42.95 42.90 42.85 42.80 42.75 42.70 42.65 42.60 42.55 42.50 42.45 42.40 42.35 42.30 42.25 42.20 42.15 42.10 42.05 42.00 41.95 41.90 41.85 41.80 41.75 41.70 41.65 41.60 41.55 41.50 41.45 41.40 41.35 41.30 41.25 41.20 41.15 41.10 41.05 41.00 40.95 40.90 40.85 40.80 40.75 40.70 40.65 40.60 40.55 40.50 40.45 40.40 40.35 40.30 40.25 40.20 40.15 40.10 40.05 40.00 39.95 39.90 39.85 39.80 39.75 39.70 39.65 39.60 39.55 39.50 39.45 39.40 39.35 39.30 39.25 39.20 39.15 39.10 39.05 39.00 38.95 38.90 38.85 38.80 38.75 38.70 38.65 38.60 38.55 38.50 38.45 38.40 38.35 38.30 38.25 38.20 38.15 38.10 38.05 38.00 37.95 37.90 37.85 37.80 37.75 37.70 37.65 37.60 37.55 37.50 37.45 37.40 37.35 37.30 37.25 37.20 37.15 37.10 37.05 37.00 36.95 36.90 36.85 36.80 36.75 36.70 36.65 36.60 36.55 36.50 36.45 36.40 36.35 36.30 36.25 36.20 36.15 36.10 36.05 36.00 35.95 35.90 35.85 35.80 35.75 35.70 35.65 35.60 35.55 35.50 35.45 35.40 35.35 35.30 35.25 35.20 35.15 35.10 35.05 35.00 34.95 34.90 34.85 34.80 34.75 34.70 34.65 34.60 34.55 34.50 34.45 34.40 34.35 34.30 34.25 34.20 34.15 34.10 34.05 34.00 33.95 33.90 33.85 33.80 33.75 33.70 33.65 33.60 33.55 33.50 33.45 33.40 33.35 33.30 33.25 33.20 33.15 33.10 33.05 33.00 32.95 32.90 32.85 32.80 32.75 32.70 32.65 32.60 32.55 32.50 32.45 32.40 32.35 32.30 32.25 32.20 32.15 32.10 32.05 32.00 31.95 31.90 31.85 31.80 31.75 31.70 31.65 31.60 31.55 31.50 31.45 31.40 31.35 31.30 31.25 31.20 31.15 31.10 31.05 31.00 30.95 30.90 30.85 30.80 30.75 30.70 30.65 30.60 30.55 30.50 30.45 30.40 30.35 30.30 30.25 30.20 30.15 30.10 30.05
50.00 49.95 49.90 49.85 49.80 49.75 49.70 49.65 49.60 49.55 49.50 49.45 49.40 49.35 49.30 49.25 49.20 49.15 49.10 49.05 49.00 48.95 48.90 48.85 48.80 48.75 48.70 48.65 48.60 48.55 48.50 48.45 48.40 48.35 48.30 48.25 48.20 48.15 48.10 48.05 48.00 47.95 47.90 47.85 47.80 47.75 47.70 47.65 47.60 47.55 47.50 47.45 47.40 47.35 47.30 47.25 47.20 47.15 47.10 47.05 47.00 46.95 46.90 46.85 46.80 46.75 46.70 46.65 46.60 46.55 46.50 46.45 46.40 46.35 46.30 46.25 46.20 46.15 46.10 46.05 46.00 45.95 45.90 45.85 45.80 45.75 45.70 45.65 45.60 45.55 45.50 45.45 45.40 45.35 45.30 45.25 45.20 45.15 45.10 45.05 45.00 44.95 44.90 44.85 44.80 44.75 44.70 44.65 44.60 44.55 44.50 44.45 44.40 44.35 44.30 44.25 44.20 44.15 44.10 44.05 44.00 43.95 43.90 43.85 43.80 43.75 43.70 43.65 43.60 43.55 43.50 43.45 43.40 43.35 43.30 43.25 43.20 43.15 43.10 43.05 43.00 42.95 42.90 42.85 42.80 42.75 42.70 42.65 42.60 42.55 42.50 42.45 42.40 42.35 42.30 42.25 42.20 42.15 42.10 42.05 42.00 41.95 41.90 41.85 41.80 41.75 41.70 41.65 41.60 41.55 41.50 41.45 41.40 41.35 41.30 41.25 41.20 41.15 41.10 41.05 41.00 40.95 40.90 40.85 40.80 40.75 40.70 40.65 40.60 40.55 40.50 40.45 40.40 40.35 40.30 40.25 40.20 40.15 40.10 40.05 40.00 39.95 39.90 39.85 39.80 39.75 39.70 39.65 39.60 39.55 39.50 39.45 39.40 39.35 39.30 39.25 39.20 39.15 39.10 39.05 39.00 38.95 38.90 38.85 38.80 38.75 38.70 38.65 38.60 38.55 38.50 38.45 38.40 38.35 38.30 38.25 38.20 38.15 38.10 38.05 38.00 37.95 37.90 37.85 37.80 37.75 37.70 37.65 37.60 37.55 37.50 37.45 37.40 37.35 37.30 37.25 37.20 37.15 37.10 37.05 37.00 36.95 36.90 36.85 36.80 36.75 36.70 36.65 36.60 36.55 36.50 36.45 36.40 36.35 36.30 36.25 36.20 36.15 36.10 36.05 36.00 35.95 35.90 35.85 35.80 35.75 35.70 35.65 35.60 35.55 35.50 35.45 35.40 35.35 35.30 35.25 35.20 35.15 35.10 35.05 35.00 34.95 34.90 34.85 34.80 34.75 34.70 34.65 34.60 34.55 34.50 34.45 34.40 34.35 34.30 34.25 34.20 34.15 34.10 34.05 34.00 33.95 33.90 33.85 33.80 33.75 33.70 33.65 33.60 33.55 33.50 33.45 33.40 33.35 33.30 33.25 33.20 33.15 33.10 33.05 33.00 32.95 32.90 32.85 32.80 32.75 32.70 32.65 32.60 32.55 32.50 32.45 32.40 32.35 32.30 32.25 32.20 32.15 32.10 32.05 32.00 31.95 31.90 31.85 31.80 31.75 31.70 31.65 31.60 31.55 31.50 31.45 31.40 31.35 31.30 31.25 31.20 31.15 31.10 31.05 31.00 30.95 30.90 30.85 30.80 30.75 30.70 30.65 30.60 30.55 30.50 30.45 30.40 30.35 30.30 30.25 30.20 30.15 30.10 30.05
50.00 49.95 49.90 49.85 49.80 49.75 49.70 49.65 49.60 49.55 49.50 49.45 49.40 49.35 49.30 49.25 49.20 49.15 49.10 49.05 49.00 48.95 48.90 48.85 48.80 48.75 48.70 48.65 48.60 48.55 48.50 48.45 48.40 48.35 48.30 48.25 48.20 48.15 48.10 48.05 48.00 47.95 47.90 47.85 47.80 47.75 47.70 47.65 47.60 47.55 47.50 47.45 47.40 47.35 47.30 47.25 47.20 47.15 47.10 47.05 47.00 46.95 46.90 46.85 46.80 46.75 46.70 46.65 46.60 46.55 46.50 46.45 46.40 46.35 46.30 46.25 46.20 46.15 46.10 46.05 46.00 45.95 45.90 45.85 45.80 45.75 45.70 45.65 45.60 45.55 45.50 45.45 45.40 45.35 45.30 45.25 45.20 45.15 45.10 45.05 45.00 44.95 44.90 44.85 44.80 44.75 44.70 44.65 44.60 44.55 44.50 44.45 44.40 44.35 44.30 44.25 44.20 44.15 44.10 44.05 44.00 43.95 43.90 43.85 43.80 43.75 43.70 43.65 43.60 43.55 43.50 43.45 43.40 43.35 43.30 43.25 43.20 43.15 43.10 43.05 43.00 42.95 42.90 42.85 42.80 42.75 42.70 42.65 42.60 42.55 42.50 42.45 42.40 42.35 42.30 42.25 42.20 42.15 42.10 42.05 42.00 41.95 41.90 41.85 41.80 41.75 41.70 41.65 41.60 41.55 41.50 41.45 41.40 41.35 41.30 41.25 41.20 41.15 41.10 41.05 41.00 40.95 40.90 40.85 40.80 40.75 40.70 40.65 40.60 40.55 40.50 40.45 40.40 40.35 40.30 40.25 40.20 40.15 40.10 40.05 40.00 39.95 39.90 39.85 39.80 39.75 39.70 39.65 39.60 39.55 39.50 39.45 39.40 39.35 39.30 39.25 39.20 39.15 39.10 39.05 39.00 38.95 38.90 38.85 38.80 38.75 38.70 38.65 38.60 38.55 38.50 38.45 38.40 38.35 38.30 38.25 38.20 38.15 38.10 38.05 38.00 37.95 37.90 37.85 37.80 37.75 37.70 37.65 37.60 37.55 37.50 37.45 37.40 37.35 37.30 37.25 37.20 37.15 37.10 37.05 37.00 36.95 36.90 36.85 36.80 36.75 36.70 36.65 36.60 36.55 36.50 36.45 36.40 36.35 36.30 36.25 36.20 36.15 36.10 36.05 36.00 35.95 35.90 35.85 35.80 35.75 35.70 35.65 35.60 35.55 35.50 35.45 35.40 35.35 35.30 35.25 35.20 35.15 35.10 35.05 35.00 34.95 34.90 34.85 34.80 34.75 34.70 34.65 34.60 34.55 34.50 34.45 34.40 34.35 34.30 34.25 34.20 34.15 34.10 34.05 34.00 33.95 33.90 33.85 33.80 33.75 33.70 33.65 33.60 33.55 33.50 33.45 33.40 33.35 33.30 33.25 33.20 33.15 33.10 33.05 33.00 32.95 32.90 32.85 32.80 32.75 32.70 32.65 32.60 32.55 32.50 32.45 32.40 32.35 32.30 32.25 32.20 32.15 32.10 32.05 32.00 31.95 31.90 31.85 31.80 31.75 31.70 31.65 31.60 31.55 31.50 31.45 31.40 31.35 31.30 31.25 31.20 31.15 31.10 31.05 31.00 30.95 30.90 30.85 30.80 30.75 30.70 30.65 30.60 30.55 30.50 30.45 30.40 30.35 30.30 30.25 30.20 30.15 30.10 30.05
50.00 49.95 49.90 49.85 49.80 49.75 49.70 49.65 49.60 49.55 49.50 49.45 49.40 49.35 49.30 49.25 49.20 49.15 49.10 49.05 49.00 48.95 48.90 48.85 48.80 48.75 48.70 48.65 48.60 48.55 48.50 48.45 48.40 48.35 48.30 48.25 48.20 48.15 48.10 48.05 48.00 47.95 47.90 47.85 47.80 47.75 47.70 47.65 47.60 47.55 47.50 47.45 47.40 47.35 47.30 47.25 47.20 47.15 47.10 47.05 47.00 46.95 46.90 46.85 46.80 46.75 46.70 46.65 46.60 46.55 46.50 46.45 46.40 46.35 46.30 46.25 46.20 46.15 46.10 46.05 46.00 45.95 45.90 45.85 45.80 45.75 45.70 45.65 45.60 45.55 45.50 45.45 45.40 45.35 45.30 45.25 45.20 45.15 45.10 45.05 45.00 44.95 44.90 44.85 44.80 44.75 44.70 44.65 44.60 44.55 44.50 44.45 44.40 44.35 44.30 44.25 44.20 44.15 44.10 44.05 44.00 43.95 43.90 43.85 43.80 43.75 43.70 43.65 43.60 43.55 43.50 43.45 43.40 43.35 43.30 43.25 43.20 43.15 43.10 43.05 43.00 42.95 42.90 42.85 42.80 42.75 42.70 42.65 42.60 42.55 42.50 42.45 42.40 42.35 42.30 42.25 42.20 42.15 42.10 42.05 42.00 41.95 41.90 41.85 41.80 41.75 41.70 41.65 41.60 41.55 41.50 41.45 41.40 41.35 41.30 41.25 41.20 41.15 41.10 41.05 41.00 40.95 40.90 40.85 40.80 40.75 40.70 40.65 40.60 40.55 40.50 40.45 40.40 40.35 40.30 40.25 40.20 40.15 40.10 40.05 40.00 39.95 39.90 39.85 39.80 39.75 39.70 39.65 39.60 39.55 39.50 39.45 39.40 39.35 39.30 39.25 39.20 39.15 39.10 39.05 39.00 38.95 38.90 38.85 38.80 38.75 38.70 38.65 38.60 38.55 38.50 38.45 38.40 38.35 38.30 38.25 38.20 38.15 38.10 38.05 38.00 37.95 37.90 37.85 37.80 37.75 37.70 37.65 37.60 37.55 37.50 37.45 37.40 37.35 37.30 37.25 37.20 37.15 37.10 37.05 37.00 36.95 36.90 36.85 36.80 36.75 36.70 36.65 36.60 36.55 36.50 36.45 36.40 36.35 36.30 36.25 36.20 36.15 36.10 36.05 36.00 35.95 35.90 35.85 35.80 35.75 35.70 35.65 35.60 35.55 35.50 35.45 35.40 35.35 35.30 35.25 35.20 35.15 35.10 35.05 35.00 34.95 34.90 34.85 34.80 34.75 34.70 34.65 34.60 34.55 34.50 34.45 34.40 34.35 34.30 34.25 34.20 34.15 34.10 34.05 34.00 33.95 33.90 33.85 33.80 33.75 33.70 33.65 33.60 33.55 33.50 33.45 33.40 33.35 33.30 33.25 33.20 33.15 33.10 33.05 33.00 32.95 32.90 32.85 32.80 32.75 32.70 32.65 32.60 32.55 32.50 32.45 32.40 32.35 32.30 32.25 32.20 32.15 32.10 32.05 32.00 31.95 31.90 31.85 31.80 31.75 31.70 31.65 31.60 31.55 31.50 31.45 31.40 31.35 31.30 31.25 31.20 31.15 31.10 31.05 31.00 30.95 30.90 30.85 30.80 30.75 30.70 30.65 30.60 30.55 30.50 30.45 30.40 30.35 30.30 30.25 30.20 30.15 30.10 30.05
50.00 49.95 49.90 49.85 49.80 49.75 49.70 49.65 49.60 49.55 49.50 49.45 49.40 49.35 49.30 49.25 49.20 49.15 49.10 49.05 49.00 48.95 48.90 48.85 48.80 48.75 48.70 48.65 48.60 48.55 48.50 48.45 48.40 48.35 48.30 48.25 48.20 48.15 48.10 48.05 48.00 47.95 47.90 47.85 47.80 47.75 47.70 47.65 47.60 47.55 47.50 47.45 47.40 47.35 47.30 47.25 47.20 47.15 47.10 47.05 47.00 46.95 46.90 46.85 46.80 46.75 46.70 46.65 46.60 46.55 46.50 46.45 46.40 46.35 46.30 46.25 46.20 46.15 46.10 46.05 46.00 45.95 45.90 45.85 45.80 45.75 45.70 45.65 45.60 45.55 45.50 45.45 45.40 45.35 45.30 45.25 45.20 45.15 45.10 45.05 45.00 44.95 44.90 44.85 44.80 44.75 44.70 44.65 44.60 44.55 44.50 44.45 44.40 44.35 44.30 44.25 44.20 44.15 44.10 44.05 44.00 43.95 43.90 43.85 43.80 43.75 43.70 43.65 43.60 43.55 43.50 43.45 43.40 43.35 43.30 43.25 43.20 43.15 43.10 43.05 43.00 42.95 42.90 42.85 42.80 42.75 42.70 42.65 42.60 42.55 42.50 42.45 42.40 42.35 42.30 42.25 42.20 42.15 42.10 42.05 42.00 41.95 41.90 41.85 41.80 41.75 41.70 41.65 41.60 41.55 41.50 41.45 41.40 41.35 41.30 41.25 41.20 41.15 41.10 41.05 41.00 40.95 40.90 40.85 40.80 40.75 40.70 40.65 40.60 40.55 40.50 40.45 40.40 40.35 40.30 40.25 40.20 40.15 40.10 40.05 40.00 39.95 39.90 39.85 39.80 39.75 39.70 39.65 39.60 39.55 39.50 39.45 39.40 39.35 39.30 39.25 39.20 39.15 39.10 39.05 39.00 38.95 38.90 38.85 38.80 38.75 38.70 38.65 38.60 38.55 38.50 38.45 38.40 38.35 38.30 38.25 38.20 38.15 38.10 38.05 38.00 37.95 37.90 37.85 37.80 37.75 37.70 37.65 37.60 37.55 37.50 37.45 37.40 37.35 37.30 37.25 37.20 37.15 37.10 37.05 37.00 36.95 36.90 36.85 36.80 36.75 36.70 36.65 36.60 36.55 36.50 36.45 36.40 36.35 36.30 36.25 36.20 36.15 36.10 36.05 36.00 35.95 35.90 35.85 35.80 35.75 35.70 35.65 35.60 35.55 35.50 35.45 35.40 35.35 35.30 35.25 35.20 35.15 35.10 35.05 35.00 34.95 34.90 34.85 34.80 34.75 34.70 34.65 34.60 34.55 34.50 34.45 34.40 34.35 34.30 34.25 34.20 34.15 34.10 34.05 34.00 33.95 33.90 33.85 33.80 33.75 33.70 33.65 33.60 33.55 33.50 33.45 33.40 33.35 33.30 33.25 33.20 33.15 33.10 33.05 33.00 32.95 32.90 32.85 32.80 32.75 32.70 32.65 32.60 32.55 32.50 32.45 32.40 32.35 32.30 32.25 32.20 32.15 32.10 32.05 32.00 31.95 31.90 31.85 31.80 31.75 31.70 31.65 31.60 31.55 31.50 31.45 31.40 31.35 31.30 31.25 31.20 31.15 31.10 31.05 31.00 30.95 30.90 30.85 30.80 30.75 30.70 30.65 30.60 30.55 30.50 30.45 30.40 30.35 30.30 30.25 30.20 30.15 30.10 30.05
50.00 49.95 49.90 49.85 49.80 49.75 49.70 49.65 49.60 49.55 49.50 49.45 49.40 49.35 49.30 49.25 49.20 49.15 49.10 49.05 49.00 48.95 48.90 48.85 48.80 48.75 48.70 48.65 48.60 48.55 48.50 48.45 48.40 48.35 48.30 48.25 48.20 48.15 48.10 48.05 48.00 47.95 47.90 47.85 47.80 47.75 47.70 47.65 47.60 47.55 47.50 47.45 47.40 47.35 47.30 47.25 47.20 47.15 47.10 47.05 47.00 46.95 46.90 46.85 46.80 46.75 46.70 46.65 46.60 46.55 46.50 46.45 46.40 46.35 46.30 46.25 46.20 46.15 46.10 46.05 46.00 45.95 45.90 45.85 45.80 45.75 45.70 45.65 45.60 45.55 45.50 45.45 45.40 45.35 45.30 45.25 45.20 45.15 45.10 45.05 45.00 44.95 44.90 44.85 44.80 44.75 44.70 44.65 44.60 44.55 44.50 44.45 44.40 44.35 44.30 44.25 44.20 44.15 44.10 44.05 44.00 43.95 43.90 43.85 43.80 43.75 43.70 43.65 43.60 43.55 43.50 43.45 43.40 43.35 43.30 43.25 43.20 43.15 43.10 43.05 43.00 42.95 42.90 42.85 42.80 42.75 42.70 42.65 42.60 42.55 42.50 42.45 42.40 42.35 42.30 42.25 42.20 42.15 42.10 42.05 42.00 41.95 41.90 41.85 41.80 41.75 41.70 41.65 41.60 41.55 41.50 41.45 41.40 41.35 41.30 41.25 41.20 41.15 41.10 41.05 41.00 40.95 40.90 40.85 40.80 40.75 40.70 40.65 40.60 40.55 40.50 40.45 40.40 40.35 40.30 40.25 40.20 40.15 40.10 40.05 40.00 39.95 39.90 39.85 39.80 39.75 39.70 39.65 39.60 39.55 39.50 39.45 39.40 39.35 39.30 39.25 39.20 39.15 39.10 39.05 39.00 38.95 38.90 38.85 38.80 38.75 38.70 38.65 38.60 38.55 38.50 38.45 38.40 38.35 38.30 38.25 38.20 38.15 38.10 38.05 38.00 37.95 37.90 37.85 37.80 37.75 37.70 37.65 37.60 37.55 37.50 37.45 37.40 37.35 37.30 37.25 37.20 37.15 37.10 37.05 37.00 36.95 36.90 36.85 36.80 36.75 36.70 36.65 36.60 36.55 36.50 36.45 36.40 36.35 36.30 36.25 36.20 36.15 36.10 36.05 36.00 35.95 35.90 35.85 35.80 35.75 35.70 35.65 35.60 35.55 35.50 35.45 35.40 35.35 35.30 35.25 35.20 35.15 35.10 35.05 35.00 34.95 34.90 34.85 34.80 34.75 34.70 34.65 34.60 34.55 34.50 34.45 34.40 34.35 34.30 34.25 34.20 34.15 34.10 34.05 34.00 33.95 33.90 33.85 33.80 33.75 33.70 33.65 33.60 33.55 33.50 33.45 33.40 33.35 33.30 33.25 33.20 33.15 33.10 33.05 33.00 32.95 32.90 32.85 32.80 32.75 32.70 32.65 32.60 32.55 32.50 32.45 32.40 32.35 32.30 32.25 32.20 32.15 32.10 32.05 32.00 31.95 31.90 31.85 31.80 31.75 31.70 31.65 31.60 31.55 31.50 31.45 31.40 31.35 31.30 31.25 31.20 31.15 31.10 31.05 31.00 30.95 30.90 30.85 30.80 30.75 30.70 30.65 30.60 30.55 30.50 30.45 30.40 30.35 30.30 30.25 30.20 30.15 30.10 30.05
50.00 49.95 49.90 49.85 49.80 49.75 49.70 49.65 49.60 49.55 49.50 49.45 49.40 49.35 49.30 49.25 49.20 49.15 49.10 49.05 49.00 48.95 48.90 48.85 48.80 48.75 48.70 48.65 48.60 48.55 48.50 48.45 48.40 48.35 48.30 48.25 48.20 48.15 48.10 48.05 48.00 47.95 47.90 47.85 47.80 47.75 47.70 47.65 47.60 47.55 47.50 47.45 47.40 47.35 47.30 47.25 47.20 47.15 47.10 47.05 47.00 46.95 46.90 46.85 46.80 46.75 46.70 46.65 46.60 46.55 46.50 46.45 46.40 46.35 46.30 46.25 46.20 46.15 46.10 46.05 46.00 45.95 45.90 45.85 45.80 45.75 45.70 45.65 45.60 45.55 45.50 45.45 45.40 45.35 45.30 45.25 45.20 45.15 45.10 45.05 45.00 44.95 44.90 44.85 44.80 44.75 44.70 44.65 44.60 44.55 44.50 44.45 44.40 44.35 44.30 44.25 44.20 44.15 44.10 44.05 44.00 43.95 43.90 43.85 43.80 43.75 43.70 43.65 43.60 43.55 43.50 43.45 43.40 43.35 43.30 43.25 43.20 43.15 43.10 43.05 43.00 42.95 42.90 42.85 42.80 42.75 42.70 42.65 42.60 42.55 42.50 42.45 42.40 42.35 42.30 42.25 42.20 42.15 42.10 42.05 42.00 41.95 41.90 41.85 41.80 41.75 41.70 41.65 41.60 41.55 41.50 41.45 41.40 41.35 41.30 41.25 41.20 41.15 41.10 41.05 41.00 40.95 40.90 40.85 40.80 40.75 40.70 40.65 40.60 40.55 40.50 40.45 40.40 40.35 40.30 40.25 40.20 40.15 40.10 40.05 40.00 39.95 39.90 39.85 39.80 39.75 39.70 39.65 39.60 39.55 39.50 39.45 39.40 39.35 39.30 39.25 39.20 39.15 39.10 39.05 39.00 38.95 38.90 38.85 38.80 38.75 38.70 38.65 38.60 38.55 38.50 38.45 38.40 38.35 38.30 38.25 38.20 38.15 38.10 38.05 38.00 37.95 37.90 37.85 37.80 37.75 37.70 37.65 37.60 37.55 37.50 37.45 37.40 37.35 37.30 37.25 37.20 37.15 37.10 37.05 37.00 36.95 36.90 36.85 36.80 36.75 36.70 36.65 36.60 36.55 36.50 36.45 36.40 36.35 36.30 36.25 36.20 36.15 36.10 36.05 36.00 35.95 35.90 35.85 35.80 35.75 35.70 35.65 35.60 35.55 35.50 35.45 35.40 35.35 35.30 35.25 35.20 35.15 35.10 35.05 35.00 34.95 34.90 34.85 34.80 34.75 34.70 34.65 34.60 34.55 34.50 34.45 34.40 34.35 34.30 34.25 34.20 34.15 34.10 34.05 34.00 33.95 33.90 33.85 33.80 33.75 33.70 33.65 33.60 33.55 33.50 33.45 33.40 33.35 33.30 33.25 33.20 33.15 33.10 33.05 33.00 32.95 32.90 32.85 32.80 32.75 32.70 32.65 32.60 32.55 32.50 32.45 32.40 32.35 32.30 32.25 32.20 32.15 32.10 32.05 32.00 31.95 31.90 31.85 31.80 31.75 31.70 31.65 31.60 31.55 31.50 31.45 31.40 31.35 31.30 31.25 31.20 31.15 31.10 31.05 31.00 30.95 30.90 30.85 30.80 30.75 30.70 30.65 30.60 30.55 30.50 30.45 30.40 30.35 30.30 30.25 30.20 30.15 30.10 30.05
50.00 49.95 49.90 49.85 49.80 49.75 49.70 49.65 49.60 49.55 49.50 49.45 49.40 49.35 49.30 49.25 49.20 49.15 49.10 49.05 49.00 48.95 48.90 48.85 48.80 48.75 48.70 48.65 48.60 48.55 48.50 48.45 48.40 48.35 48.30 48.25 48.20 48.15 48.10 48.05 48.00 47.95 47.90 47.85 47.80 47.75 47.70 47.65 47.60 47.55 47.50 47.45 47.40 47.35 47.30 47.25 47.20 47.15 47.10 47.05 47.00 46.95 46.90 46.85 46.80 46.75 46.70 46.65 46.60 46.55 46.50 46.45 46.40 46.35 46.30 46.25 46.20 46.15 46.10 46.05 46.00 45.95 45.90 45.85 45.80 45.75 45.70 45.65 45.60 45.55 45.50 45.45 45.40 45.35 45.30 45.25 45.20 45.15 45.10 45.05 45.00 44.95 44.90 44.85 44.80 44.75 44.70 44.65 44.60 44.55 44.50 44.45 44.40 44.35 44.30 44.25 44.20 44.15 44.10 44.05 44.00 43.95 43.90 43.85 43.80 43.75 43.70 43.65 43.60 43.55 43.50 43.45 43.40 43.35 43.30 43.25 43.20 43.15 43.10 43.05 43.00 42.95 42.90 42.85 42.80 42.75 42.70 42.65 42.60 42.55 42.50 42.45 42.40 42.35 42.30 42.25 42.20 42.15 42.10 42.05 42.00 41.95 41.90 41.85 41.80 41.75 41.70 41.65 41.60 41.55 41.50 41.45 41.40 41.35 41.30 41.25 41.20 41.15 41.10 41.05 41.00 40.95 40.90 40.85 40.80 40.75 40.70 40.65 40.60 40.55 40.50 40.45 40.40 40.35 40.30 40.25 40.20 40.15 40.10 40.05 40.00 39.95 39.90 39.85 39.80 39.75 39.70 39.65 39.60 39.55 39.50 39.45 39.40 39.35 39.30 39.25 39.20 39.15 39.10 39.05 39.00 38.95 38.90 38.85 38.80 38.75 38.70 38.65 38.60 38.55 38.50 38.45 38.40 38.35 38.30 38.25 38.20 38.15 38.10 38.05 38.00 37.95 37.90 37.85 37.80 37.75 37.70 37.65 37.60 37.55 37.50 37.45 37.40 37.35 37.30 37.25 37.20 37.15 37.10 37.05 37.00 36.95 36.90 36.85 36.80 36.75 36.70 36.65 36.60 36.55 36.50 36.45 36.40 36.35 36.30 36.25 36.20 36.15 36.10 36.05 36.00 35.95 35.90 35.85 35.80 35.75 35.70 35.65 35.60 35.55 35.50 35.45 35.40 35.35 35.30 35.25 35.20 35.15 35.10 35.05 35.00 34.95 34.90 34.85 34.80 34.75 34.70 34.65 34.60 34.55 34.50 34.45 34.40 34.35 34.30 34.25 34.20 34.15 34.10 34.05 34.00 33.95 33.90 33.85 33.80 33.75 33.70 33.65 33.60 33.55 33.50 33.45 33.40 33.35 33.30 33.25 33.20 33.15 33.10 33.05 33.00 32.95 32.90 32.85 32.80 32.75 32.70 32.65 32.60 32.55 32.50 32.45 32.40 32.35 32.30 32.25 32.20 32.15 32.10 32.05 32.00 31.95 31.90 31.85 31.80 31.75 31.70 31.65 31.60 31.55 31.50 31.45 31.40 31.35 31.30 31.25 31.20 31.15 31.10 31.05 31.00 30.95 30.90 30.85 30.80 30.75 30.70 30.65 30.60 30.55 30.50 30.45 30.40 30.35 30.30 30.25 30.20 30.15 30.10 30.05
50.00 49.95 49.90 49.85 49.80 49.75 49.70 49.65 49.60 49.55 49.50 49.45 49.40 49.35 49.30 49.25 49.20 49.15 49.10 49.05 49.00 48.95 48.90 48.85 48.80 48.75 48.70 48.65 48.60 48.55 48.50 48.45 48.40 48.35 48.30 48.25 48.20 48.15 48.10 48.05 48.00 47.95 47.90 47.85 47.80 47.75 47.70 47.65 47.60 47.55 47.50 47.45 47.40 47.35 47.30 47.25 47.20 47.15 47.10 47.05 47.00 46.95 46.90 46.85 46.80 46.75 46.70 46.65 46.60 46.55 46.50 46.45 46.40 46.35 46.30 46.25 46.20 46.15 46.10 46.05 46.00 45.95 45.90 45.85 45.80 45.75 45.70 45.65 45.60 45.55 45.50 45.45 45.40 45.35 45.30 45.25 45.20 45.15 45.10 45.05 45.00 44.95 44.90 44.85 44.80 44.75 44.70 44.65 44.60 44.55 44.50 44.45 44.40 44.35 44.30 44.25 44.20 44.15 44.10 44.05 44.00 43.95 43.90 43.85 43.80 43.75 43.70 43.65 43.60 43.55 43.50 43.45 43.40 43.35 43.30 43.25 43.20 43.15 43.10 43.05 43.00 42.95 42.90 42.85 42.80 42.75 42.70 42.65 42.60 42.55 42.50 42.45 42.40 42.35 42.30 42.25 42.20 42.15 42.10 42.05 42.00 41.95 41.90 41.85 41.80 41.75 41.70 41.65 41.60 41.55 41.50 41.45 41.40 41.35 41.30 41.25 41.20 41.15 41.10 41.05 41.00 40.95 40.90 40.85 40.80 40.75 40.70 40.65 40.60 40.55 40.50 40.45 40.40 40.35 40.30 40.25 40.20 40.15 40.10 40.05 40.00 39.95 39.90 39.85 39.80 39.75 39.70 39.65 39.60 39.55 39.50 39.45 39.40 39.35 39.30 39.25 39.20 39.15 39.10 39.05 39.00 38.95 38.90 38.85 38.80 38.75 38.70 38.65 38.60 38.55 38.50 38.45 38.40 38.35 38.30 38.25 38.20 38.15 38.10 38.05 38.00 37.95 37.90 37.85 37.80 37.75 37.70 37.65 37.60 37.55 37.50 37.45 37.40 37.35 37.30 37.25 37.20 37.15 37.10 37.05 37.00 36.95 36.90 36.85 36.80 36.75 36.70 36.65 36.60 36.55 36.50 36.45 36.40 36.35 36.30 36.25 36.20 36.15 36.10 36.05 36.00 35.95 35.90 35.85 35.80 35.75 35.70 35.65 35.60 35.55 35.50 35.45 35.40 35.35 35.30 35.25 35.20 35.15 35.10 35.05 35.00 34.95 34.90 34.85 34.80 34.75 34.70 34.65 34.60 34.55 34.50 34.45 34.40 34.35 34.30 34.25 34.20 34.15 34.10 34.05 34.00 33.95 33.90 33.85 33.80 33.75 33.70 33.65 33.60 33.55 33.50 33.45 33.40 33.35 33.30 33.25 33.20 33.15 33.10 33.05 33.00 32.95 32.90 32.85 32.80 32.75 32.70 32.65 32.60 32.55 32.50 32.45 32.40 32.35 32.30 32.25 32.20 32.15 32.10 32.05 32.00 31.95 31.90 31.85 31.80 31.75 31.70 31.65 31.60 31.55 31.50 31.45 31.40 31.35 31.30 31.25 31.20 31.15 31.10 31.05 31.00 30.95 30.90 30.85 30.80 30.75 30.70 30.65 30.60 30.55 30.50 30.45 30.40 30.35 30.30 30.25 30.20 30.15 30.10 30.05
50.00 49.95 49.90 49.85 49.80 49.75 49.70 49.65 49.60 49.55 49.50 49.45 49.40 49.35 49.30 49.25 49.20 49.15 49.10 49.05 49.00 48.95 48.90 48.85 48.80 48.75 48.70 48.65 48.60 48.55 48.50 48.45 48.40 48.35 48.30 48.25 48.20 48.15 48.10 48.05 48.00 47.95 47.90 47.85 47.80 47.75 47.70 47.65 47.60 47.55 47.50 47.45 47.40 47.35 47.30 47.25 47.20 47.15 47.10 47.05 47.00 46.95 46.90 46.85 46.80 46.75 46.70 46.65 46.60 46.55 46.50 46.45 46.40 46.35 46.30 46.25 46.20 46.15 46.10 46.05 46.00 45.95 45.90 45.85 45.80 45.75 45.70 45.65 45.60 45.55 45.50 45.45 45.40 45.35 45.30 45.25 45.20 45.15 45.10 45.05 45.00 44.95 44.90 44.85 44.80 44.75 44.70 44.65 44.60 44.55 44.50 44.45 44.40 44.35 44.30 44.25 44.20 44.15 44.10 44.05 44.00 43.95 43.90 43.85 43.80 43.75 43.70 43.65 43.60 43.55 43.50 43.45 43.40 43.35 43.30 43.25 43.20 43.15 43.10 43.05 43.00 42.95 42.90 42.85 42.80 42.75 42.70 42.65 42.60 42.55 42.50 42.45 42.40 42.35 42.30 42.25 42.20 42.15 42.10 42.05 42.00 41.95 41.90 41.85 41.80 41.75 41.70 41.65 41.60 41.55 41.50 41.45 41.40 41.35 41.30 41.25 41.20 41.15 41.10 41.05 41.00 40.95 40.90 40.85 40.80 40.75 40.70 40.65 40.60 40.55 40.50 40.45 40.40 40.35 40.30 40.25 40.20 40.15 40.10 40.05 40.00 39.95 39.90 39.85 39.80 39.75 39.70 39.65 39.60 39.55 39.50 39.45 39.40 39.35 39.30 39.25 39.20 39.15 39.10 39.05 39.00 38.95 38.90 38.85 38.80 38.75 38.70 38.65 38.60 38.55 38.50 38.45 38.40 38.35 38.30 38.25 38.20 38.15 38.10 38.05 38.00 37.95 37.90 37.85 37.80 37.75 37.70 37.65 37.60 37.55 37.50 37.45 37.40 37.35 37.30 37.25 37.20 37.15 37.10 37.05 37.00 36.95 36.90 36.85 36.80 36.75 36.70 36.65 36.60 36.55 36.50 36.45 36.40 36.35 36.30 36.25 36.20 36.15 36.10 36.05 36.00 35.95 35.90 35.85 35.80 35.75 35.70 35.65 35.60 35.55 35.50 35.45 35.40 35.35 35.30 35.25 35.20 35.15 35.10 35.05 35.00 34.95 34.90 34.85 34.80 34.75 34.70 34.65 34.60 34.55 34.50 34.45 34.40 34.35 34.30 34.25 34.20 34.15 34.10 34.05 34.00 33.95 33.90 33.85 33.80 33.75 33.70 33.65 33.60 33.55 33.50 33.45 33.40 33.35 33.30 33.25 33.20 33.15 33.10 33.05 33.00 32.95 32.90 32.85 32.80 32.75 32.70 32.65 32.60 32.55 32.50 32.45 32.40 32.35 32.30 32.25 32.20 32.15 32.10 32.05 32.00 31.95 31.90 31.85 31.80 31.75 31.70 31.65 31.60 31.55 31.50 31.45 31.40 31.35 31.30 31.25 31.20 31.15 31.10 31.05 31.00 30.95 30.90 30.85 30.80 30.75 30.70 30.65 30.60 30.55 30.50 30.45 30.40 30.35 30.30 30.25 30.20 30.15 30.10 30.05
50.00 49.95 49.90 49.85 49.80 49.75 49.70 49.65 49.60 49.55 49.50 49.45 49.40 49.35 49.30 49.25 49.20 49.15 49.10 49.05 49.00 48.95 48.90 48.85 48.80 48.75 48.70 48.65 48.60 48.55 48.50 48.45 48.40 48.35 48.30 48.25 48.20 48.15 48.10 48.05 48.00 47.95 47.90 47.85 47.80 47.75 47.70 47.65 47.60 47.55 47.50 47.45 47.40 47.35 47.30 47.25 47.20 47.15 47.10 47.05 47.00 46.95 46.90 46.85 46.80 46.75 46.70 46.65 46.60 46.55 46.50 46.45 46.40 46.35 46.30 46.25 46.20 46.15 46.10 46.05 46.00 45.95 45.90 45.85 45.80 45.75 45.70 45.65 45.60 45.55 45.50 45.45 45.40 45.35 45.30 45.25 45.20 45.15 45.10 45.05 45.00 44.95 44.90 44.85 44.80 44.75 44.70 44.65 44.60 44.55 44.50 44.45 44.40 44.35 44.30 44.25 44.20 44.15 44.10 44.05 44.00 43.95 43.90 43.85 43.80 43.75 43.70 43.65 43.60 43.55 43.50 43.45 43.40 43.35 43.30 43.25 43.20 43.15 43.10 43.05 43.00 42.95 42.90 42.85 42.80 42.75 42.70 42.65 42.60 42.55 42.50 42.45 42.40 42.35 42.30 42.25 42.20 42.15 42.10 42.05 42.00 41.95 41.90 41.85 41.80 41.75 41.70 41.65 41.60 41.55 41.50 41.45 41.40 41.35 41.30 41.25 41.20 41.15 41.10 41.05 41.00 40.95 40.90 40.85 40.80 40.75 40.70 40.65 40.60 40.55 40.50 40.45 40.40 40.35 40.30 40.25 40.20 40.15 40.10 40.05 40.00 39.95 39.90 39.85 39.80 39.75 39.70 39.65 39.60 39.55 39.50 39.45 39.40 39.35 39.30 39.25 39.20 39.15 39.10 39.05 39.00 38.95 38.90 38.85 38.80 38.75 38.70 38.65 38.60 38.55 38.50 38.45 38.40 38.35 38.30 38.25 38.20 38.15 38.10 38.05 38.00 37.95 37.90 37.85 37.80 37.75 37.70 37.65 37.60 37.55 37.50 37.45 37.40 37.35 37.30 37.25 37.20 37.15 37.10 37.05 37.00 36.95 36.90 36.85 36.80 36.75 36.70 36.65 36.60 36.55 36.50 36.45 36.40 36.35 36.30 36.25 36.20 36.15 36.10 36.05 36.00 35.95 35.90 35.85 35.80 35.75 35.70 35.65 35.60 35.55 35.50 35.45 35.40 35.35 35.30 35.25 35.20 35.15 35.10 35.05 35.00 34.95 34.90 34.85 34.80 34.75 34.70 34.65 34.60 34.55 34.50 34.45 34.40 34.35 34.30 34.25 34.20 34.15 34.10 34.05 34.00 33.95 33.90 33.85 33.80 33.75 33.70 33.65 33.60 33.55 33.50 33.45 33.40 33.35 33.30 33.25 33.20 33.15 33.10 33.05 33.00 32.95 32.90 32.85 32.80 32.75 32.70 32.65 32.60 32.55 32.50 32.45 32.40 32.35 32.30 32.25 32.20 32.15 32.10 32.05 32.00 31.95 31.90 31.85 31.80 31.75 31.70 31.65 31.60 31.55 31.50 31.45 31.40 31.35 31.30 31.25 31.20 31.15 31.10 31.05 31.00 30.95 30.90 30.85 30.80 30.75 30.70 30.65 30.60 30.55 30.50 30.45 30.40 30.35 30.30 30.25 30.20 30.15 30.10 30.05
50.00 49.95 49.90 49.85 49.80 49.75 49.70 49.65 49.60 49.55 49.50 49.45 49.40 49.35 49.30 49.25 49.20 49.15 49.10 49.05 49.00 48.95 48.90 48.85 48.80 48.75 48.70 48.65 48.60 48.55 48.50 48.45 48.40 48.35 48.30 48.25 48.20 48.15 48.10 48.05 48.00 47.95 47.90 47.85 47.80 47.75 47.70 47.65 47.60 47.55 47.50 47.45 47.40 47.35 47.30 47.25 47.20 47.15 47.10 47.05 47.00 46.95 46.90 46.85 46.80 46.75 46.70 46.65 46.60 46.55 46.50 46.45 46.40 46.35 46.30 46.25 46.20 46.15 46.10 46.05 46.00 45.95 45.90 45.85 45.80 45.75 45.70 45.65 45.60 45.55 45.50 45.45 45.40 45.35 45.30 45.25 45.20 45.15 45.10 45.05 45.00 44.95 44.90 44.85 44.80 44.75 44.70 44.65 44.60 44.55 44.50 44.45 44.40 44.35 44.30 44.25 44.20 44.15 44.10 44.05 44.00 43.95 43.90 43.85 43.80 43.75 43.70 43.65 43.60 43.55 43.50 43.45 43.40 43.35 43.30 43.25 43.20 43.15 43.10 43.05 43.00 42.95 42.90 42.85 42.80 42.75 42.70 42.65 42.60 42.55 42.50 42.45 42.40 42.35 42.30 42.25 42.20 42.15 42.10 42.05 42.00 41.95 41.90 41.85 41.80 41.75 41.70 41.65 41.60 41.55 41.50 41.45 41.40 41.35 41.30 41.25 41.20 41.15 41.10 41.05 41.00 40.95 40.90 40.85 40.80 40.75 40.70 40.65 40.60 40.55 40.50 40.45 40.40 40.35 40.30 40.25 40.20 40.15 40.10 40.05 40.00 39.95 39.90 39.85 39.80 39.75 39.70 39.65 39.60 39.55 39.50 39.45 39.40 39.35 39.30 39.25 39.20 39.15 39.10 39.05 39.00 38.95 38.90 38.85 38.80 38.75 38.70 38.65 38.60 38.55 38.50 38.45 38.40 38.35 38.30 38.25 38.20 38.15 38.10 38.05 38.00 37.95 37.90 37.85 37.80 37.75 37.70 37.65 37.60 37.55 37.50 37.45 37.40 37.35 37.30 37.25 37.20 37.15 37.10 37.05 37.00 36.95 36.90 36.85 36.80 36.75 36.70 36.65 36.60 36.55 36.50 36.45 36.40 36.35 36.30 36.25 36.20 36.15 36.10 36.05 36.00 35.95 35.90 35.85 35.80 35.75 35.70 35.65 35.60 35.55 35.50 35.45 35.40 35.35 35.30 35.25 35.20 35.15 35.10 35.05 35.00 34.95 34.90 34.85 34.80 34.75 34.70 34.65 34.60 34.55 34.50 34.45 34.40 34.35 34.30 34.25 34.20 34.15 34.10 34.05 34.00 33.95 33.90 33.85 33.80 33.75 33.70 33.65 33.60 33.55 33.50 33.45 33.40 33.35 33.30 33.25 33.20 33.15 33.10 33.05 33.00 32.95 32.90 32.85 32.80 32.75 32.70 32.65 32.60 32.55 32.50 32.45 32.40 32.35 32.30 32.25 32.20 32.15 32.10 32.05 32.00 31.95 31.90 31.85 31.80 31.75 31.70 31.65 31.60 31.55 31.50 31.45 31.40 31.35 31.30 31.25 31.20 31.15 31.10 31.05 31.00 30.95 30.90 30.85 30.80 30.75 30.70 30.65 30.60 30.55 30.50 30.45 30.40 30.35 30.30 30.25 30.20 30.15 30.10 30.05
50.00 49.95 49.90 49.85 49.80 49.75 49.70 49.65 49.60 49.55 49.50 49.45 49.40 49.35 49.30 49.25 49.20 49.15 49.10 49.05 49.00 48.95 48.90 48.85 48.80 48.75 48.70 48.65 48.60 48.55 48.50 48.45 48.40 48.35 48.30 48.25 48.20 48.15 48.10 48.05 48.00 47.95 47.90 47.85 47.80 47.75 47.70 47.65 47.60 47.55 47.50 47.45 47.40 47.35 47.30 47.25 47.20 47.15 47.10 47.05 47.00 46.95 46.90 46.85 46.80 46.75 46.70 46.65 46.60 46.55 46.50 46.45 46.40 46.35 46.30 46.25 46.20 46.15 46.10 46.05 46.00 45.95 45.90 45.85 45.80 45.75 45.70 45.65 45.60 45.55 45.50 45.45 45.40 45.35 45.30 45.25 45.20 45.15 45.10 45.05 45.00 44.95 44.90 44.85 44.80 44.75 44.70 44.65 44.60 44.55 44.50 44.45 44.40 44.35 44.30 44.25 44.20 44.15 44.10 44.05 44.00 43.95 43.90 43.85 43.80 43.75 43.70 43.65 43.60 43.55 43.50 43.45 43.40 43.35 43.30 43.25 43.20 43.15 43.10 43.05 43.00 42.95 42.90 42.85 42.80 42.75 42.70 42.65 42.60 42.55 42.50 42.45 42.40 42.35 42.30 42.25 42.20 42.15 42.10 42.05 42.00 41.95 41.90 41.85 41.80 41.75 41.70 41.65 41.60 41.55 41.50 41.45 41.40 41.35 41.30 41.25 41.20 41.15 41.10 41.05 41.00 40.95 40.90 40.85 40.80 40.75 40.70 40.65 40.60 40.55 40.50 40.45 40.40 40.35 40.30 40.25 40.20 40.15 40.10 40.05 40.00 39.95 39.90 39.85 39.80 39.75 39.70 39.65 39.60 39.55 39.50 39.45 39.40 39.35 39.30 39.25 39.20 39.15 39.10 39.05 39.00 38.95 38.90 38.85 38.80 38.75 38.70 38.65 38.60 38.55 38.50 38.45 38.40 38.35 38.30 38.25 38.20 38.15 38.10 38.05 38.00 37.95 37.90 37.85 37.80 37.75 37.70 37.65 37.60 37.55 37.50 37.45 37.40 37.35 37.30 37.25 37.20 37.15 37.10 37.05 37.00 36.95 36.90 36.85 36.80 36.75 36.70 36.65 36.60 36.55 36.50 36.45 36.40 36.35 36.30 36.25 36.20 36.15 36.10 36.05 36.00 35.95 35.90 35.85 35.80 35.75 35.70 35.65 35.60 35.55 35.50 35.45 35.40 35.35 35.30 35.25 35.20 35.15 35.10 35.05 35.00 34.95 34.90 34.85 34.80 34.75 34.70 34.65 34.60 34.55 34.50 34.45 34.40 34.35 34.30 34.25 34.20 34.15 34.10 34.05 34.00 33.95 33.90 33.85 33.80 33.75 33.70 33.65 33.60 33.55 33.50 33.45 33.40 33.35 33.30 33.25 33.20 33.15 33.10 33.05 33.00 32.95 32.90 32.85 32.80 32.75 32.70 32.65 32.60 32.55 32.50 32.45 32.40 32.35 32.30 32.25 32.20 32.15 32.10 32.05 32.00 31.95 31.90 31.85 31.80 31.75 31.70 31.65 31.60 31.55 31.50 31.45 31.40 31.35 31.30 31.25 31.20 31.15 31.10 31.05 31.00 30.95 30.90 30.85 30.80 30.75 30.70 30.65 30.60 30.55 30.50 30.45 30.40 30.35 30.30 30.25 30.20 30.15 30.10 30.05
50.00 49.95 49.90 49.85 49.80 49.75 49.70 49.65 49.60 49.55 49.50 49.45 49.40 49.35 49.30 49.25 49.20 49.15 49.10 49.05 49.00 48.95 48.90 48.85 48.80 48.75 48.70 48.65 48.60 48.55 48.50 48.45 48.40 48.35 48.30 48.25 48.20 48.15 48.10 48.05 48.00 47.95 47.90 47.85 47.80 47.75 47.70 47.65 47.60 47.55 47.50 47.45 47.40 47.35 47.30 47.25 47.20 47.15 47.10 47.05 47.00 46.95 46.90 46.85 46.80 46.75 46.70 46.65 46.60 46.55 46.50 46.45 46.40 46.35 46.30 46.25 46.20 46.15 46.10 46.05 46.00 45.95 45.90 45.85 45.80 45.75 45.70 45.65 45.60 45.55 45.50 45.45 45.40 45.35 45.30 45.25 45.20 45.15 45.10 45.05 45.00 44.95 44.90 44.85 44.80 44.75 44.70 44.65 44.60 44.55 44.50 44.45 44.40 44.35 44.30 44.25 44.20 44.15 44.10 44.05 44.00 43.95 43.90 43.85 43.80 43.75 43.70 43.65 43.60 43.55 43.50 43.45 43.40 43.35 43.30 43.25 43.20 43.15 43.10 43.05 43.00 42.95 42.90 42.85 42.80 42.75 42.70 42.65 42.60 42.55 42.50 42.45 42.40 42.35 42.30 42.25 42.20 42.15 42.10 42.05 42.00 41.95 41.90 41.85 41.80 41.75 41.70 41.65 41.60 41.55 41.50 41.45 41.40 41.35 41.30 41.25 41.20 41.15 41.10 41.05 41.00 40.95 40.90 40.85 40.80 40.75 40.70 40.65 40.60 40.55 40.50 40.45 40.40 40.35 40.30 40.25 40.20 40.15 40.10 40.05 40.00 39.95 39.90 39.85 39.80 39.75 39.70 39.65 39.60 39.55 39.50 39.45 39.40 39.35 39.30 39.25 39.20 39.15 39.10 39.05 39.00 38.95 38.90 38.85 38.80 38.75 38.70 38.65 38.60 38.55 38.50 38.45 38.40 38.35 38.30 38.25 38.20 38.15 38.10 38.05 38.00 37.95 37.90 37.85 37.80 37.75 37.70 37.65 37.60 37.55 37.50 37.45 37.40 37.35 37.30 37.25 37.20 37.15 37.10 37.05 37.00 36.95 36.90 36.85 36.80 36.75 36.70 36.65 36.60 36.55 36.50 36.45 36.40 36.35 36.30 36.25 36.20 36.15 36.10 36.05 36.00 35.95 35.90 35.85 35.80 35.75 35.70 35.65 35.60 35.55 35.50 35.45 35.40 35.35 35.30 35.25 35.20 35.15 35.10 35.05 35.00 34.95 34.90 34.85 34.80 34.75 34.70 34.65 34.60 34.55 34.50 34.45 34.40 34.35 34.30 34.25 34.20 34.15 34.10 34.05 34.00 33.95 33.90 33.85 33.80 33.75 33.70 33.65 33.60 33.55 33.50 33.45 33.40 33.35 33.30 33.25 33.20 33.15 33.10 33.05 33.00 32.95 32.90 32.85 32.80 32.75 32.70 32.65 32.60 32.55 32.50 32.45 32.40 32.35 32.30 32.25 32.20 32.15 32.10 32.05 32.00 31.95 31.90 31.85 31.80 31.75 31.70 31.65 31.60 31.55 31.50 31.45 31.40 31.35 31.30 31.25 31.20 31.15 31.10 31.05 31.00 30.95 30.90 30.85 30.80 30.75 30.70 30.65 30.60 30.55 30.50 30.45 30.40 30.35 30.30 30.25 30.20 30.15 30.10 30.05
50.00 49.95 49.90 49.85 49.80 49.75 49.70 49.65 49.60 49.55 49.50 49.45 49.40 49.35 49.30 49.25 49.20 49.15 49.10 49.05 49.00 48.95 48.90 48.85 48.80 48.75 48.70 48.65 48.60 48.55 48.50 48.45 48.40 48.35 48.30 48.25 48.20 48.15 48.10 48.05 48.00 47.95 47.90 47.85 47.80 47.75 47.70 47.65 47.60 47.55 47.50 47.45 47.40 47.35 47.30 47.25 47.20 47.15 47.10 47.05 47.00 46.95 46.90 46.85 46.80 46.75 46.70 46.65 46.60 46.55 46.50 46.45 46.40 46.35 46.30 46.25 46.20 46.15 46.10 46.05 46.00 45.95 45.90 45.85 45.80 45.75 45.70 45.65 45.60 45.55 45.50 45.45 45.40 45.35 45.30 45.25 45.20 45.15 45.10 45.05 45.00 44.95 44.90 44.85 44.80 44.75 44.70 44.65 44.60 44.55 44.50 44.45 44.40 44.35 44.30 44.25 44.20 44.15 44.10 44.05 44.00 43.95 43.90 43.85 43.80 43.75 43.70 43.65 43.60 43.55 43.50 43.45 43.40 43.35 43.30 43.25 43.20 43.15 43.10 43.05 43.00 42.95 42.90 42.85 42.80 42.75 42.70 42.65 42.60 42.55 42.50 42.45 42.40 42.35 42.30 42.25 42.20 42.15 42.10 42.05 42.00 41.95 41.90 41.85 41.80 41.75 41.70 41.65 41.60 41.55 41.50 41.45 41.40 41.35 41.30 41.25 41.20 41.15 41.10 41.05 41.00 40.95 40.90 40.85 40.80 40.75 40.70 40.65 40.60 40.55 40.50 40.45 40.40 40.35 40.30 40.25 40.20 40.15 40.10 40.05 40.00 39.95 39.90 39.85 39.80 39.75 39.70 39.65 39.60 39.55 39.50 39.45 39.40 39.35 39.30 39.25 39.20 39.15 39.10 39.05 39.00 38.95 38.90 38.85 38.80 38.75 38.70 38.65 38.60 38.55 38.50 38.45 38.40 38.35 38.30 38.25 38.20 38.15 38.10 38.05 38.00 37.95 37.90 37.85 37.80 37.75 37.70 37.65 37.60 37.55 37.50 37.45 37.40 37.35 37.30 37.25 37.20 37.15 37.10 37.05 37.00 36.95 36.90 36.85 36.80 36.75 36.70 36.65 36.60 36.55 36.50 36.45 36.40 36.35 36.30 36.25 36.20 36.15 36.10 36.05 36.00 35.95 35.90 35.85 35.80 35.75 35.70 35.65 35.60 35.55 35.50 35.45 35.40 35.35 35.30 35.25 35.20 35.15 35.10 35.05 35.00 34.95 34.90 34.85 34.80 34.75 34.70 34.65 34.60 34.55 34.50 34.45 34.40 34.35 34.30 34.25 34.20 34.15 34.10 34.05 34.00 33.95 33.90 33.85 33.80 33.75 33.70 33.65 33.60 33.55 33.50 33.45 33.40 33.35 33.30 33.25 33.20 33.15 33.10 33.05 33.00 32.95 32.90 32.85 32.80 32.75 32.70 32.65 32.60 32.55 32.50 32.45 32.40 32.35 32.30 32.25 32.20 32.15 32.10 32.05 32.00 31.95 31.90 31.85 31.80 31.75 31.70 31.65 31.60 31.55 31.50 31.45 31.40 31.35 31.30 31.25 31.20 31.15 31.10 31.05 31.00 30.95 30.90 30.85 30.80 30.75 30.70 30.65 30.60 30.55 30.50 30.45 30.40 30.35 30.30 30.25 30.20 30.15 30.10 30.05
50.00 49.95 49.90 49.85 49.80 49.75 49.70 49.65 49.60 49.55 49.50 49.45 49.40 49.35 49.30 49.25 49.20 49.15 49.10 49.05 49.00 48.95 48.90 48.85 48.80 48.75 48.70 48.65 48.60 48.55 48.50 48.45 48.40 48.35 48.30 48.25 48.20 48.15 48.10 48.05 48.00 47.95 47.90 47.85 47.80 47.75 47.70 47.65 47.60 47.55 47.50 47.45 47.40 47.35 47.30 47.25 47.20 47.15 47.10 47.05 47.00 46.95 46.90 46.85 46.80 46.75 46.70 46.65 46.60 46.55 46.50 46.45 46.40 46.35 46.30 46.25 46.20 46.15 46.10 46.05 46.00 45.95 45.90 45.85 45.80 45.75 45.70 45.65 45.60 45.55 45.50 45.45 45.40 45.35 45.30 45.25 45.20 45.15 45.10 45.05 45.00 44.95 44.90 44.85 44.80 44.75 44.70 44.65 44.60 44.55 44.50 44.45 44.40 44.35 44.30 44.25 44.20 44.15 44.10 44.05 44.00 43.95 43.90 43.85 43.80 43.75 43.70 43.65 43.60 43.55 43.50 43.45 43.40 43.35 43.30 43.25 43.20 43.15 43.10 43.05 43.00 42.95 42.90 42.85 42.80 42.75 42.70 42.65 42.60 42.55 42.50 42.45 42.40 42.35 42.30 42.25 42.20 42.15 42.10 42.05 42.00 41.95 41.90 41.85 41.80 41.75 41.70 41.65 41.60 41.55 41.50 41.45 41.40 41.35 41.30 41.25 41.20 41.15 41.10 41.05 41.00 40.95 40.90 40.85 40.80 40.75 40.70 40.65 40.60 40.55 40.50 40.45 40.40 40.35 40.30 40.25 40.20 40.15 40.10 40.05 40.00 39.95 39.90 39.85 39.80 39.75 39.70 39.65 39.60 39.55 39.50 39.45 39.40 39.35 39.30 39.25 39.20 39.15 39.10 39.05 39.00 38.95 38.90 38.85 38.80 38.75 38.70 38.65 38.60 38.55 38.50 38.45 38.40 38.35 38.30 38.25 38.20 38.15 38.10 38.05 38.00 37.95 37.90 37.85 37.80 37.75 37.70 37.65 37.60 37.55 37.50 37.45 37.40 37.35 37.30 37.25 37.20 37.15 37.10 37.05 37.00 36.95 36.90 36.85 36.80 36.75 36.70 36.65 36.60 36.55 36.50 36.45 36.40 36.35 36.30 36.25 36.20 36.15 36.10 36.05 36.00 35.95 35.90 35.85 35.80 35.75 35.70 35.65 35.60 35.55 35.50 35.45 35.40 35.35 35.30 35.25 35.20 35.15 35.10 35.05 35.00 34.95 34.90 34.85 34.80 34.75 34.70 34.65 34.60 34.55 34.50 34.45 34.40 34.35 34.30 34.25 34.20 34.15 34.10 34.05 34.00 33.95 33.90 33.85 33.80 33.75 33.70 33.65 33.60 33.55 33.50 33.45 33.40 33.35 33.30 33.25 33.20 33.15 33.10 33.05 33.00 32.95 32.90 32.85 32.80 32.75 32.70 32.65 32.60 32.55 32.50 32.45 32.40 32.35 32.30 32.25 32.20 32.15 32.10 32.05 32.00 31.95 31.90 31.85 31.80 31.75 31.70 31.65 31.60 31.55 31.50 31.45 31.40 31.35 31.30 31.25 31.20 31.15 31.10 31.05 31.00 30.95 30.90 30.85 30.80 30.75 30.70 30.65 30.60 30.55 30.50 30.45 30.40 30.35 30.30 30.25 30.20 30.15 30.10 30.05
50.00 49.95 49.90 49.85 49.80 49.75 49.70 49.65 49.60 49.55 49.50 49.45 49.40 49.35 49.30 49.25 49.20 49.15 49.10 49.05 49.00 48.95 48.90 48.85 48.80 48.75 48.70 48.65 48.60 48.55 48.50 48.45 48.40 48.35 48.30 48.25 48.20 48.15 48.10 48.05 48.00 47.95 47.90 47.85 47.80 47.75 47.70 47.65 47.60 47.55 47.50 47.45 47.40 47.35 47.30 47.25 47.20 47.15 47.10 47.05 47.00 46.95 46.90 46.85 46.80 46.75 46.70 46.65 46.60 46.55 46.50 46.45 46.40 46.35 46.30 46.25 46.20 46.15 46.10 46.05 46.00 45.95 45.90 45.85 45.80 45.75 45.70 45.65 45.60 45.55 45.50 45.45 45.40 45.35 45.30 45.25 45.20 45.15 45.10 45.05 45.00 44.95 44.90 44.85 44.80 44.75 44.70 44.65 44.60 44.55 44.50 44.45 44.40 44.35 44.30 44.25 44.20 44.15 44.10 44.05 44.00 43.95 43.90 43.85 43.80 43.75 43.70 43.65 43.60 43.55 43.50 43.45 43.40 43.35 43.30 43.25 43.20 43.15 43.10 43.05 43.00 42.95 42.90 42.85 42.80 42.75 42.70 42.65 42.60 42.55 42.50 42.45 42.40 42.35 42.30 42.25 42.20 42.15 42.10 42.05 42.00 41.95 41.90 41.85 41.80 41.75 41.70 41.65 41.60 41.55 41.50 41.45 41.40 41.35 41.30 41.25 41.20 41.15 41.10 41.05 41.00 40.95 40.90 40.85 40.80 40.75 40.70 40.65 40.60 40.55 40.50 40.45 40.40 40.35 40.30 40.25 40.20 40.15 40.10 40.05 40.00 39.95 39.90 39.85 39.80 39.75 39.70 39.65 39.60 39.55 39.50 39.45 39.40 39.35 39.30 39.25 39.20 39.15 39.10 39.05 39.00 38.95 38.90 38.85 38.80 38.75 38.70 38.65 38.60 38.55 38.50 38.45 38.40 38.35 38.30 38.25 38.20 38.15 38.10 38.05 38.00 37.95 37.90 37.85 37.80 37.75 37.70 37.65 37.60 37.55 37.50 37.45 37.40 37.35 37.30 37.25 37.20 37.15 37.10 37.05 37.00 36.95 36.90 36.85 36.80 36.75 36.70 36.65 36.60 36.55 36.50 36.45 36.40 36.35 36.30 36.25 36.20 36.15 36.10 36.05 36.00 35.95 35.90 35.85 35.80 35.75 35.70 35.65 35.60 35.55 35.50 35.45 35.40 35.35 35.30 35.25 35.20 35.15 35.10 35.05 35.00 34.95 34.90 34.85 34.80 34.75 34.70 34.65 34.60 34.55 34.50 34.45 34.40 34.35 34.30 34.25 34.20 34.15 34.10 34.05 34.00 33.95 33.90 33.85 33.80 33.75 33.70 33.65 33.60 33.55 33.50 33.45 33.40 33.35 33.30 33.25 33.20 33.15 33.10 33.05 33.00 32.95 32.90 32.85 32.80 32.75 32.70 32.65 32.60 32.55 32.50 32.45 32.40 32.35 32.30 32.25 32.20 32.15 32.10 32.05 32.00 31.95 31.90 31.85 31.80 31.75 31.70 31.65 31.60 31.55 31.50 31.45 31.40 31.35 31.30 31.25 31.20 31.15 31.10 31.05 31.00 30.95 30.90 30.85 30.80 30.75 30.70 30.65 30.60 30.55 30.50 30.45 30.40 30.35 30.30 30.25 30.20 30.15 30.10 30.05
50.00 49.95 49.90 49.85 49.80 49.75 49.70 49.65 49.60 49.55 49.50 49.45 49.40 49.35 49.30 49.25 49.20 49.15 49.10 49.05 49.00 48.95 48.90 48.85 48.80 48.75 48.70 48.65 48.60 48.55 48.50 48.45 48.40 48.35 48.30 48.25 48.20 48.15 48.10 48.05 48.00 47.95 47.90 47.85 47.80 47.75 47.70 47.65 47.60 47.55 47.50 47.45 47.40 47.35 47.30 47.25 47.20 47.15 47.10 47.05 47.00 46.95 46.90 46.85 46.80 46.75 46.70 46.65 46.60 46.55 46.50 46.45 46.40 46.35 46.30 46.25 46.20 46.15 46.10 46.05 46.00 45.95 45.90 45.85 45.80 45.75 45.70 45.65 45.60 45.55 45.50 45.45 45.40 45.35 45.30 45.25 45.20 45.15 45.10 45.05 45.00 44.95 44.90 44.85 44.80 44.75 44.70 44.65 44.60 44.55 44.50 44.45 44.40 44.35 44.30 44.25 44.20 44.15 44.10 44.05 44.00 43.95 43.90 43.85 43.80 43.75 43.70 43.65 43.60 43.55 43.50 43.45 43.40 43.35 43.30 43.25 43.20 43.15 43.10 43.05 43.00 42.95 42.90 42.85 42.80 42.75 42.70 42.65 42.60 42.55 42.50 42.45 42.40 42.35 42.30 42.25 42.20 42.15 42.10 42.05 42.00 41.95 41.90 41.85 41.80 41.75 41.70 41.65 41.60 41.55 41.50 41.45 41.40 41.35 41.30 41.25 41.20 41.15 41.10 41.05 41.00 40.95 40.90 40.85 40.80 40.75 40.70 40.65 40.60 40.55 40.50 40.45 40.40 40.35 40.30 40.25 40.20 40.15 40.10 40.05 40.00 39.95 39.90 39.85 39.80 39.75 39.70 39.65 39.60 39.55 39.50 39.45 39.40 39.35 39.30 39.25 39.20 39.15 39.10 39.05 39.00 38.95 38.90 38.85 38.80 38.75 38.70 38.65 38.60 38.55 38.50 38.45 38.40 38.35 38.30 38.25 38.20 38.15 38.10 38.05 38.00 37.95 37.90 37.85 37.80 37.75 37.70 37.65 37.60 37.55 37.50 37.45 37.40 37.35 37.30 37.25 37.20 37.15 37.10 37.05 37.00 36.95 36.90 36.85 36.80 36.75 36.70 36.65 36.60 36.55 36.50 36.45 36.40 36.35 36.30 36.25 36.20 36.15 36.10 36.05 36.00 35.95 35.90 35.85 35.80 35.75 35.70 35.65 35.60 35.55 35.50 35.45 35.40 35.35 35.30 35.25 35.20 35.15 35.10 35.05 35.00 34.95 34.90 34.85 34.80 34.75 34.70 34.65 34.60 34.55 34.50 34.45 34.40 34.35 34.30 34.25 34.20 34.15 34.10 34.05 34.00 33.95 33.90 33.85 33.80 33.75 33.70 33.65 33.60 33.55 33.50 33.45 33.40 33.35 33.30 33.25 33.20 33.15 33.10 33.05 33.00 32.95 32.90 32.85 32.80 32.75 32.70 32.65 32.60 32.55 32.50 32.45 32.40 32.35 32.30 32.25 32.20 32.15 32.10 32.05 32.00 31.95 31.90 31.85 31.80 31.75 31.70 31.65 31.60 31.55 31.50 31.45 31.40 31.35 31.30 31.25 31.20 31.15 31.10 31.05 31.00 30.95 30.90 30.85 30.80 30.75 30.70 30.65 30.60 30.55 30.50 30.45 30.40 30.35 30.30 30.25 30.20 30.15 30.10 30.05
50.00 49.95 49.90 49.85 49.80 49.75 49.70 49.65 49.60 49.55 49.50 49.45 49.40 49.35 49.30 49.25 49.20 49.15 49.10 49.05 49.00 48.95 48.90 48.85 48.80 48.75 48.70 48.65 48.60 48.55 48.50 48.45 48.40 48.35 48.30 48.25 48.20 48.15 48.10 48.05 48.00 47.95 47.90 47.85 47.80 47.75 47.70 47.65 47.60 47.55 47.50 47.45 47.40 47.35 47.30 47.25 47.20 47.15 47.10 47.05 47.00 46.95 46.90 46.85 46.80 46.75 46.70 46.65 46.60 46.55 46.50 46.45 46.40 46.35 46.30 46.25 46.20 46.15 46.10 46.05 46.00 45.95 45.90 45.85 45.80 45.75 45.70 45.65 45.60 45.55 45.50 45.45 45.40 45.35 45.30 45.25 45.20 45.15 45.10 45.05 45.00 44.95 44.90 44.85 44.80 44.75 44.70 44.65 44.60 44.55 44.50 44.45 44.40 44.35 44.30 44.25 44.20 44.15 44.10 44.05 44.00 43.95 43.90 43.85 43.80 43.75 43.70 43.65 43.60 43.55 43.50 43.45 43.40 43.35 43.30 43.25 43.20 43.15 43.10 43.05 43.00 42.95 42.90 42.85 42.80 42.75 42.70 42.65 42.60 42.55 42.50 42.45 42.40 42.35 42.30 42.25 42.20 42.15 42.10 42.05 42.00 41.95 41.90 41.85 41.80 41.75 41.70 41.65 41.60 41.55 41.50 41.45 41.40 41.35 41.30 41.25 41.20 41.15 41.10 41.05 41.00 40.95 40.90 40.85 40.80 40.75 40.70 40.65 40.60 40.55 40.50 40.45 40.40 40.35 40.30 40.25 40.20 40.15 40.10 40.05 40.00 39.95 39.90 39.85 39.80 39.75 39.70 39.65 39.60 39.55 39.50 39.45 39.40 39.35 39.30 39.25 39.20 39.15 39.10 39.05 39.00 38.95 38.90 38.85 38.80 38.75 38.70 38.65 38.60 38.55 38.50 38.45 38.40 38.35 38.30 38.25 38.20 38.15 38.10 38.05 38.00 37.95 37.90 37.85 37.80 37.75 37.70 37.65 37.60 37.55 37.50 37.45 37.40 37.35 37.30 37.25 37.20 37.15 37.10 37.05 37.00 36.95 36.90 36.85 36.80 36.75 36.70 36.65 36.60 36.55 36.50 36.45 36.40 36.35 36.30 36.25 36.20 36.15 36.10 36.05 36.00 35.95 35.90 35.85 35.80 35.75 35.70 35.65 35.60 35.55 35.50 35.45 35.40 35.35 35.30 35.25 35.20 35.15 35.10 35.05 35.00 34.95 34.90 34.85 34.80 34.75 34.70 34.65 34.60 34.55 34.50 34.45 34.40 34.35 34.30 34.25 34.20 34.15 34.10 34.05 34.00 33.95 33.90 33.85 33.80 33.75 33.70 33.65 33.60 33.55 33.50 33.45 33.40 33.35 33.30 33.25 33.20 33.15 33.10 33.05 33.00 32.95 32.90 32.85 32.80 32.75 32.70 32.65 32.60 32.55 32.50 32.45 32.40 32.35 32.30 32.25 32.20 32.15 32.10 32.05 32.00 31.95 31.90 31.85 31.80 31.75 31.70 31.65 31.60 31.55 31.50 31.45 31.40 31.35 31.30 31.25 31.20 31.15 31.10 31.05 31.00 30.95 30.90 30.85 30.80 30.75 30.70 30.65 30.60 30.55 30.50 30.45 30.40 30.35 30.30 30.25 30.20 30.15 30.10 30.05
50.00 49.95 49.90 49.85 49.80 49.75 49.70 49.65 49.60 49.55 49.50 49.45 49.40 49.35 49.30 49.25 49.20 49.15 49.10 49.05 49.00 48.95 48.90 48.85 48.80 48.75 48.70 48.65 48.60 48.55 48.50 48.45 48.40 48.35 48.30 48.25 48.20 48.15 48.10 48.05 48.00 47.95 47.90 47.85 47.80 47.75 47.70 47.65 47.60 47.55 47.50 47.45 47.40 47.35 47.30 47.25 47.20 47.15 47.10 47.05 47.00 46.95 46.90 46.85 46.80 46.75 46.70 46.65 46.60 46.55 46.50 46.45 46.40 46.35 46.30 46.25 46.20 46.15 46.10 46.05 46.00 45.95 45.90 45.85 45.80 45.75 45.70 45.65 45.60 45.55 45.50 45.45 45.40 45.35 45.30 45.25 45.20 45.15 45.10 45.05 45.00 44.95 44.90 44.85 44.80 44.75 44.70 44.65 44.60 44.55 44.50 44.45 44.40 44.35 44.30 44.25 44.20 44.15 44.10 44.05 44.00 43.95 43.90 43.85 43.80 43.75 43.70 43.65 43.60 43.55 43.50 43.45 43.40 43.35 43.30 43.25 43.20 43.15 43.10 43.05 43.00 42.95 42.90 42.85 42.80 42.75 42.70 42.65 42.60 42.55 42.50 42.45 42.40 42.35 42.30 42.25 42.20 42.15 42.10 42.05 42.00 41.95 41.90 41.85 41.80 41.75 41.70 41.65 41.60 41.55 41.50 41.45 41.40 41.35 41.30 41.25 41.20 41.15 41.10 41.05 41.00 40.95 40.90 40.85 40.80 40.75 40.70 40.65 40.60 40.55 40.50 40.45 40.40 40.35 40.30 40.25 40.20 40.15 40.10 40.05 40.00 39.95 39.90 39.85 39.80 39.75 39.70 39.65 39.60 39.55 39.50 39.45 39.40 39.35 39.30 39.25 39.20 39.15 39.10 39.05 39.00 38.95 38.90 38.85 38.80 38.75 38.70 38.65 38.60 38.55 38.50 38.45 38.40 38.35 38.30 38.25 38.20 38.15 38.10 38.05 38.00 37.95 37.90 37.85 37.80 37.75 37.70 37.65 37.60 37.55 37.50 37.45 37.40 37.35 37.30 37.25 37.20 37.15 37.10 37.05 37.00 36.95 36.90 36.85 36.80 36.75 36.70 36.65 36.60 36.55 36.50 36.45 36.40 36.35 36.30 36.25 36.20 36.15 36.10 36.05 36.00 35.95 35.90 35.85 35.80 35.75 35.70 35.65 35.60 35.55 35.50 35.45 35.40 35.35 35.30 35.25 35.20 35.15 35.10 35.05 35.00 34.95 34.90 34.85 34.80 34.75 34.70 34.65 34.60 34.55 34.50 34.45 34.40 34.35 34.30 34.25 34.20 34.15 34.10 34.05 34.00 33.95 33.90 33.85 33.80 33.75 33.70 33.65 33.60 33.55 33.50 33.45 33.40 33.35 33.30 33.25 33.20 33.15 33.10 33.05 33.00 32.95 32.90 32.85 32.80 32.75 32.70 32.65 32.60 32.55 32.50 32.45 32.40 32.35 32.30 32.25 32.20 32.15 32.10 32.05 32.00 31.95 31.90 31.85 31.80 31.75 31.70 31.65 31.60 31.55 31.50 31.45 31.40 31.35 31.30 31.25 31.20 31.15 31.10 31.05 31.00 30.95 30.90 30.85 30.80 30.75 30.70 30.65 30.60 30.55 30.50 30.45 30.40 30.35 30.30 30.25 30.20 30.15 30.10 30.05
50.00 49.95 49.90 49.85 49.80 49.75 49.70 49.65 49.60 49.55 49.50 49.45 49.40 49.35 49.30 49.25 49.20 49.15 49.10 49.05 49.00 48.95 48.90 48.85 48.80 48.75 48.70 48.65 48.60 48.55 48.50 48.45 48.40 48.35 48.30 48.25 48.20 48.15 48.10 48.05 48.00 47.95 47.90 47.85 47.80 47.75 47.70 47.65 47.60 47.55 47.50 47.45 47.40 47.35 47.30 47.25 47.20 47.15 47.10 47.05 47.00 46.95 46.90 46.85 46.80 46.75 46.70 46.65 46.60 46.55 46.50 46.45 46.40 46.35 46.30 46.25 46.20 46.15 46.10 46.05 46.00 45.95 45.90 45.85 45.80 45.75 45.70 45.65 45.60 45.55 45.50 45.45 45.40 45.35 45.30 45.25 45.20 45.15 45.10 45.05 45.00 44.95 44.90 44.85 44.80 44.75 44.70 44.65 44.60 44.55 44.50 44.45 44.40 44.35 44.30 44.25 44.20 44.15 44.10 44.05 44.00 43.95 43.90 43.85 43.80 43.75 43.70 43.65 43.60 43.55 43.50 43.45 43.40 43.35 43.30 43.25 43.20 43.15 43.10 43.05 43.00 42.95 42.90 42.85 42.80 42.75 42.70 42.65 42.60 42.55 42.50 42.45 42.40 42.35 42.30 42.25 42.20 42.15 42.10 42.05 42.00 41.95 41.90 41.85 41.80 41.75 41.70 41.65 41.60 41.55 41.50 41.45 41.40 41.35 41.30 41.25 41.20 41.15 41.10 41.05 41.00 40.95 40.90 40.85 40.80 40.75 40.70 40.65 40.60 40.55 40.50 40.45 40.40 40.35 40.30 40.25 40.20 40.15 40.10 40.05 40.00 39.95 39.90 39.85 39.80 39.75 39.70 39.65 39.60 39.55 39.50 39.45 39.40 39.35 39.30 39.25 39.20 39.15 39.10 39.05 39.00 38.95 38.90 38.85 38.80 38.75 38.70 38.65 38.60 38.55 38.50 38.45 38.40 38.35 38.30 38.25 38.20 38.15 38.10 38.05 38.00 37.95 37.90 37.85 37.80 37.75 37.70 37.65 37.60 37.55 37.50 37.45 37.40 37.35 37.30 37.25 37.20 37.15 37.10 37.05 37.00 36.95 36.90 36.85 36.80 36.75 36.70 36.65 36.60 36.55 36.50 36.45 36.40 36.35 36.30 36.25 36.20 36.15 36.10 36.05 36.00 35.95 35.90 35.85 35.80 35.75 35.70 35.65 35.60 35.55 35.50 35.45 35.40 35.35 35.30 35.25 35.20 35.15 35.10 35.05 35.00 34.95 34.90 34.85 34.80 34.75 34.70 34.65 34.60 34.55 34.50 34.45 34.40 34.35 34.30 34.25 34.20 34.15 34.10 34.05 34.00 33.95 33.90 33.85 33.80 33.75 33.70 33.65 33.60 33.55 33.50 33.45 33.40 33.35 33.30 33.25 33.20 33.15 33.10 33.05 33.00 32.95 32.90 32.85 32.80 32.75 32.70 32.65 32.60 32.55 32.50 32.45 32.40 32.35 32.30 32.25 32.20 32.15 32.10 32.05 32.00 31.95 31.90 31.85 31.80 31.75 31.70 31.65 31.60 31.55 31.50 31.45 31.40 31.35 31.30 31.25 31.20 31.15 31.10 31.05 31.00 30.95 30.90 30.85 30.80 30.75 30.70 30.65 30.60 30.55 30.50 30.45 30.40 30.35 30.30 30.25 30.20 30.15 30.10 30.05
50.00 49.95 49.90 49.85 49.80 49.75 49.70 49.65 49.60 49.55 49.50 49.45 49.40 49.35 49.30 49.25 49.20 49.15 49.10 49.05 49.00 48.95 48.90 48.85 48.80 48.75 48.70 48.65 48.60 48.55 48.50 48.45 48.40 48.35 48.30 48.25 48.20 48.15 48.10 48.05 48.00 47.95 47.90 47.85 47.80 47.75 47.70 47.65 47.60 47.55 47.50 47.45 47.40 47.35 47.30 47.25 47.20 47.15 47.10 47.05 47.00 46.95 46.90 46.85 46.80 46.75 46.70 46.65 46.60 46.55 46.50 46.45 46.40 46.35 46.30 46.25 46.20 46.15 46.10 46.05 46.00 45.95 45.90 45.85 45.80 45.75 45.70 45.65 45.60 45.55 45.50 45.45 45.40 45.35 45.30 45.25 45.20 45.15 45.10 45.05 45.00 44.95 44.90 44.85 44.80 44.75 44.70 44.65 44.60 44.55 44.50 44.45 44.40 44.35 44.30 44.25 44.20 44.15 44.10 44.05 44.00 43.95 43.90 43.85 43.80 43.75 43.70 43.65 43.60 43.55 43.50 43.45 43.40 43.35 43.30 43.25 43.20 43.15 43.10 43.05 43.00 42.95 42.90 42.85 42.80 42.75 42.70 42.65 42.60 42.55 42.50 42.45 42.40 42.35 42.30 42.25 42.20 42.15 42.10 42.05 42.00 41.95 41.90 41.85 41.80 41.75 41.70 41.65 41.60 41.55 41.50 41.45 41.40 41.35 41.30 41.25 41.20 41.15 41.10 41.05 41.00 40.95 40.90 40.85 40.80 40.75 40.70 40.65 40.60 40.55 40.50 40.45 40.40 40.35 40.30 40.25 40.20 40.15 40.10 40.05 40.00 39.95 39.90 39.85 39.80 39.75 39.70 39.65 39.60 39.55 39.50 39.45 39.40 39.35 39.30 39.25 39.20 39.15 39.10 39.05 39.00 38.95 38.90 38.85 38.80 38.75 38.70 38.65 38.60 38.55 38.50 38.45 38.40 38.35 38.30 38.25 38.20 38.15 38.10 38.05 38.00 37.95 37.90 37.85 37.80 37.75 37.70 37.65 37.60 37.55 37.50 37.45 37.40 37.35 37.30 37.25 37.20 37.15 37.10 37.05 37.00 36.95 36.90 36.85 36.80 36.75 36.70 36.65 36.60 36.55 36.50 36.45 36.40 36.35 36.30 36.25 36.20 36.15 36.10 36.05 36.00 35.95 35.90 35.85 35.80 35.75 35.70 35.65 35.60 35.55 35.50 35.45 35.40 35.35 35.30 35.25 35.20 35.15 35.10 35.05 35.00 34.95 34.90 34.85 34.80 34.75 34.70 34.65 34.60 34.55 34.50 34.45 34.40 34.35 34.30 34.25 34.20 34.15 34.10 34.05 34.00 33.95 33.90 33.85 33.80 33.75 33.70 33.65 33.60 33.55 33.50 33.45 33.40 33.35 33.30 33.25 33.20 33.15 33.10 33.05 33.00 32.95 32.90 32.85 32.80 32.75 32.70 32.65 32.60 32.55 32.50 32.45 32.40 32.35 32.30 32.25 32.20 32.15 32.10 32.05 32.00 31.95 31.90 31.85 31.80 31.75 31.70 31.65 31.60 31.55 31.50 31.45 31.40 31.35 31.30 31.25 31.20 31.15 31.10 31.05 31.00 30.95 30.90 30.85 30.80 30.75 30.70 30.65 30.60 30.55 30.50 30.45 30.40 30.35 30.30 30.25 30.20 30.15 30.10 30.05
50.00 49.95 49.90 49.85 49.80 49.75 49.70 49.65 49.60 49.55 49.50 49.45 49.40 49.35 49.30 49.25 49.20 49.15 49.10 49.05 49.00 48.95 48.90 48.85 48.80 48.75 48.70 48.65 48.60 48.55 48.50 48.45 48.40 48.35 48.30 48.25 48.20 48.15 48.10 48.05 48.00 47.95 47.90 47.85 47.80 47.75 47.70 47.65 47.60 47.55 47.50 47.45 47.40 47.35 47.30 47.25 47.20 47.15 47.10 47.05 47.00 46.95 46.90 46.85 46.80 46.75 46.70 46.65 46.60 46.55 46.50 46.45 46.40 46.35 46.30 46.25 46.20 46.15 46.10 46.05 46.00 45.95 45.90 45.85 45.80 45.75 45.70 45.65 45.60 45.55 45.50 45.45 45.40 45.35 45.30 45.25 45.20 45.15 45.10 45.05 45.00 44.95 44.90 44.85 44.80 44.75 44.70 44.65 44.60 44.55 44.50 44.45 44.40 44.35 44.30 44.25 44.20 44.15 44.10 44.05 44.00 43.95 43.90 43.85 43.80 43.75 43.70 43.65 43.60 43.55 43.50 43.45 43.40 43.35 43.30 43.25 43.20 43.15 43.10 43.05 43.00 42.95 42.90 42.85 42.80 42.75 42.70 42.65 42.60 42.55 42.50 42.45 42.40 42.35 42.30 42.25 42.20 42.15 42.10 42.05 42.00 41.95 41.90 41.85 41.80 41.75 41.70 41.65 41.60 41.55 41.50 41.45 41.40 41.35 41.30 41.25 41.20 41.15 41.10 41.05 41.00 40.95 40.90 40.85 40.80 40.75 40.70 40.65 40.60 40.55 40.50 40.45 40.40 40.35 40.30 40.25 40.20 40.15 40.10 40.05 40.00 39.95 39.90 39.85 39.80 39.75 39.70 39.65 39.60 39.55 39.50 39.45 39.40 39.35 39.30 39.25 39.20 39.15 39.10 39.05 39.00 38.95 38.90 38.85 38.80 38.75 38.70 38.65 38.60 38.55 38.50 38.45 38.40 38.35 38.30 38.25 38.20 38.15 38.10 38.05 38.00 37.95 37.90 37.85 37.80 37.75 37.70 37.65 37.60 37.55 37.50 37.45 37.40 37.35 37.30 37.25 37.20 37.15 37.10 37.05 37.00 36.95 36.90 36.85 36.80 36.75 36.70 36.65 36.60 36.55 36.50 36.45 36.40 36.35 36.30 36.25 36.20 36.15 36.10 36.05 36.00 35.95 35.90 35.85 35.80 35.75 35.70 35.65 35.60 35.55 35.50 35.45 35.40 35.35 35.30 35.25 35.20 35.15 35.10 35.05 35.00 34.95 34.90 34.85 34.80 34.75 34.70 34.65 34.60 34.55 34.50 34.45 34.40 34.35 34.30 34.25 34.20 34.15 34.10 34.05 34.00 33.95 33.90 33.85 33.80 33.75 33.70 33.65 33.60 33.55 33.50 33.45 33.40 33.35 33.30 33.25 33.20 33.15 33.10 33.05 33.00 32.95 32.90 32.85 32.80 32.75 32.70 32.65 32.60 32.55 32.50 32.45 32.40 32.35 32.30 32.25 32.20 32.15 32.10 32.05 32.00 31.95 31.90 31.85 31.80 31.75 31.70 31.65 31.60 31.55 31.50 31.45 31.40 31.35 31.30 31.25 31.20 31.15 31.10 31.05 31.00 30.95 30.90 30.85 30.80 30.75 30.70 30.65 30.60 30.55 30.50 30.45 30.40 30.35 30.30 30.25 30.20 30.15 30.10 30.05
50.00 49.95 49.90 49.85 49.80 49.75 49.70 49.65 49.60 49.55 49.50 49.45 49.40 49.35 49.30 49.25 49.20 49.15 49.10 49.05 49.00 48.95 48.90 48.85 48.80 48.75 48.70 48.65 48.60 48.55 48.50 48.45 48.40 48.35 48.30 48.25 48.20 48.15 48.10 48.05 48.00 47.95 47.90 47.85 47.80 47.75 47.70 47.65 47.60 47.55 47.50 47.45 47.40 47.35 47.30 47.25 47.20 47.15 47.10 47.05 47.00 46.95 46.90 46.85 46.80 46.75 46.70 46.65 46.60 46.55 46.50 46.45 46.40 46.35 46.30 46.25 46.20 46.15 46.10 46.05 46.00 45.95 45.90 45.85 45.80 45.75 45.70 45.65 45.60 45.55 45.50 45.45 45.40 45.35 45.30 45.25 45.20 45.15 45.10 45.05 45.00 44.95 44.90 44.85 44.80 44.75 44.70 44.65 44.60 44.55 44.50 44.45 44.40 44.35 44.30 44.25 44.20 44.15 44.10 44.05 44.00 43.95 43.90 43.85 43.80 43.75 43.70 43.65 43.60 43.55 43.50 43.45 43.40 43.35 43.30 43.25 43.20 43.15 43.10 43.05 43.00 42.95 42.90 42.85 42.80 42.75 42.70 42.65 42.60 42.55 42.50 42.45 42.40 42.35 42.30 42.25 42.20 42.15 42.10 42.05 42.00 41.95 41.90 41.85 41.80 41.75 41.70 41.65 41.60 41.55 41.50 41.45 41.40 41.35 41.30 41.25 41.20 41.15 41.10 41.05 41.00 40.95 40.90 40.85 40.80 40.75 40.70 40.65 40.60 40.55 40.50 40.45 40.40 40.35 40.30 40.25 40.20 40.15 40.10 40.05 40.00 39.95 39.90 39.85 39.80 39.75 39.70 39.65 39.60 39.55 39.50 39.45 39.40 39.35 39.30 39.25 39.20 39.15 39.10 39.05 39.00 38.95 38.90 38.85 38.80 38.75 38.70 38.65 38.60 38.55 38.50 38.45 38.40 38.35 38.30 38.25 38.20 38.15 38.10 38.05 38.00 37.95 37.90 37.85 37.80 37.75 37.70 37.65 37.60 37.55 37.50 37.45 37.40 37.35 37.30 37.25 37.20 37.15 37.10 37.05 37.00 36.95 36.90 36.85 36.80 36.75 36.70 36.65 36.60 36.55 36.50 36.45 36.40 36.35 36.30 36.25 36.20 36.15 36.10 36.05 36.00 35.95 35.90 35.85 35.80 35.75 35.70 35.65 35.60 35.55 35.50 35.45 35.40 35.35 35.30 35.25 35.20 35.15 35.10 35.05 35.00 34.95 34.90 34.85 34.80 34.75 34.70 34.65 34.60 34.55 34.50 34.45 34.40 34.35 34.30 34.25 34.20 34.15 34.10 34.05 34.00 33.95 33.90 33.85 33.80 33.75 33.70 33.65 33.60 33.55 33.50 33.45 33.40 33.35 33.30 33.25 33.20 33.15 33.10 33.05 33.00 32.95 32.90 32.85 32.80 32.75 32.70 32.65 32.60 32.55 32.50 32.45 32.40 32.35 32.30 32.25 32.20 32.15 32.10 32.05 32.00 31.95 31.90 31.85 31.80 31.75 31.70 31.65 31.60 31.55 31.50 31.45 31.40 31.35 31.30 31.25 31.20 31.15 31.10 31.05 31.00 30.95 30.90 30.85 30.80 30.75 30.70 30.65 30.60 30.55 30.50 30.45 30.40 30.35 30.30 30.25 30.20 30.15 30.10 30.05
50.00 49.95 49.90 49.85 49.80 49.75 49.70 49.65 49.60 49.55 49.50 49.45 49.40 49.35 49.30 49.25 49.20 49.15 49.10 49.05 49.00 48.95 48.90 48.85 48.80 48.75 48.70 48.65 48.60 48.55 48.50 48.45 48.40 48.35 48.30 48.25 48.20 48.15 48.10 48.05 48.00 47.95 47.90 47.85 47.80 47.75 47.70 47.65 47.60 47.55 47.50 47.45 47.40 47.35 47.30 47.25 47.20 47.15 47.10 47.05 47.00 46.95 46.90 46.85 46.80 46.75 46.70 46.65 46.60 46.55 46.50 46.45 46.40 46.35 46.30 46.25 46.20 46.15 46.10 46.05 46.00 45.95 45.90 45.85 45.80 45.75 45.70 45.65 45.60 45.55 45.50 45.45 45.40 45.35 45.30 45.25 45.20 45.15 45.10 45.05 45.00 44.95 44.90 44.85 44.80 44.75 44.70 44.65 44.60 44.55 44.50 44.45 44.40 44.35 44.30 44.25 44.20 44.15 44.10 44.05 44.00 43.95 43.90 43.85 43.80 43.75 43.70 43.65 43.60 43.55 43.50 43.45 43.40 43.35 43.30 43.25 43.20 43.15 43.10 43.05 43.00 42.95 42.90 42.85 42.80 42.75 42.70 42.65 42.60 42.55 42.50 42.45 42.40 42.35 42.30 42.25 42.20 42.15 42.10 42.05 42.00 41.95 41.90 41.85 41.80 41.75 41.70 41.65 41.60 41.55 41.50 41.45 41.40 41.35 41.30 41.25 41.20 41.15 41.10 41.05 41.00 40.95 40.90 40.85 40.80 40.75 40.70 40.65 40.60 40.55 40.50 40.45 40.40 40.35 40.30 40.25 40.20 40.15 40.10 40.05 40.00 39.95 39.90 39.85 39.80 39.75 39.70 39.65 39.60 39.55 39.50 39.45 39.40 39.35 39.30 39.25 39.20 39.15 39.10 39.05 39.00 38.95 38.90 38.85 38.80 38.75 38.70 38.65 38.60 38.55 38.50 38.45 38.40 38.35 38.30 38.25 38.20 38.15 38.10 38.05 38.00 37.95 37.90 37.85 37.80 37.75 37.70 37.65 37.60 37.55 37.50 37.45 37.40 37.35 37.30 37.25 37.20 37.15 37.10 37.05 37.00 36.95 36.90 36.85 36.80 36.75 36.70 36.65 36.60 36.55 36.50 36.45 36.40 36.35 36.30 36.25 36.20 36.15 36.10 36.05 36.00 35.95 35.90 35.85 35.80 35.75 35.70 35.65 35.60 35.55 35.50 35.45 35.40 35.35 35.30 35.25 35.20 35.15 35.10 35.05 35.00 34.95 34.90 34.85 34.80 34.75 34.70 34.65 34.60 34.55 34.50 34.45 34.40 34.35 34.30 34.25 34.20 34.15 34.10 34.05 34.00 33.95 33.90 33.85 33.80 33.75 33.70 33.65 33.60 33.55 33.50 33.45 33.40 33.35 33.30 33.25 33.20 33.15 33.10 33.05 33.00 32.95 32.90 32.85 32.80 32.75 32.70 32.65 32.60 32.55 32.50 32.45 32.40 32.35 32.30 32.25 32.20 32.15 32.10 32.05 32.00 31.95 31.90 31.85 31.80 31.75 31.70 31.65 31.60 31.55 31.50 31.45 31.40 31.35 31.30 31.25 31.20 31.15 31.10 31.05 31.00 30.95 30.90 30.85 30.80 30.75 30.70 30.65 30.60 30.55 30.50 30.45 30.40 30.35 30.30 30.25 30.20 30.15 30.10 30.05
50.00 49.95 49.90 49.85 49.80 49.75 49.70 49.65 49.60 49.55 49.50 49.45 49.40 49.35 49.30 49.25 49.20 49.15 49.10 49.05 49.00 48.95 48.90 48.85 48.80 48.75 48.70 48.65 48.60 48.55 48.50 48.45 48.40 48.35 48.30 48.25 48.20 48.15 48.10 48.05 48.00 47.95 47.90 47.85 47.80 47.75 47.70 47.65 47.60 47.55 47.50 47.45 47.40 47.35 47.30 47.25 47.20 47.15 47.10 47.05 47.00 46.95 46.90 46.85 46.80 46.75 46.70 46.65 46.60 46.55 46.50 46.45 46.40 46.35 46.30 46.25 46.20 46.15 46.10 46.05 46.00 45.95 45.90 45.85 45.80 45.75 45.70 45.65 45.60 45.55 45.50 45.45 45.40 45.35 45.30 45.25 45.20 45.15 45.10 45.05 45.00 44.95 44.90 44.85 44.80 44.75 44.70 44.65 44.60 44.55 44.50 44.45 44.40 44.35 44.30 44.25 44.20 44.15 44.10 44.05 44.00 43.95 43.90 43.85 43.80 43.75 43.70 43.65 43.60 43.55 43.50 43.45 43.40 43.35 43.30 43.25 43.20 43.15 43.10 43.05 43.00 42.95 42.90 42.85 42.80 42.75 42.70 42.65 42.60 42.55 42.50 42.45 42.40 42.35 42.30 42.25 42.20 42.15 42.10 42.05 42.00 41.95 41.90 41.85 41.80 41.75 41.70 41.65 41.60 41.55 41.50 41.45 41.40 41.35 41.30 41.25 41.20 41.15 41.10 41.05 41.00 40.95 40.90 40.85 40.80 40.75 40.70 40.65 40.60 40.55 40.50 40.45 40.40 40.35 40.30 40.25 40.20 40.15 40.10 40.05 40.00 39.95 39.90 39.85 39.80 39.75 39.70 39.65 39.60 39.55 39.50 39.45 39.40 39.35 39.30 39.25 39.20 39.15 39.10 39.05 39.00 38.95 38.90 38.85 38.80 38.75 38.70 38.65 38.60 38.55 38.50 38.45 38.40 38.35 38.30 38.25 38.20 38.15 38.10 38.05 38.00 37.95 37.90 37.85 37.80 37.75 37.70 37.65 37.60 37.55 37.50 37.45 37.40 37.35 37.30 37.25 37.20 37.15 37.10 37.05 37.00 36.95 36.90 36.85 36.80 36.75 36.70 36.65 36.60 36.55 36.50 36.45 36.40 36.35 36.30 36.25 36.20 36.15 36.10 36.05 36.00 35.95 35.90 35.85 35.80 35.75 35.70 35.65 35.60 35.55 35.50 35.45 35.40 35.35 35.30 35.25 35.20 35.15 35.10 35.05 35.00 34.95 34.90 34.85 34.80 34.75 34.70 34.65 34.60 34.55 34.50 34.45 34.40 34.35 34.30 34.25 34.20 34.15 34.10 34.05 34.00 33.95 33.90 33.85 33.80 33.75 33.70 33.65 33.60 33.55 33.50 33.45 33.40 33.35 33.30 33.25 33.20 33.15 33.10 33.05 33.00 32.95 32.90 32.85 32.80 32.75 32.70 32.65 32.60 32.55 32.50 32.45 32.40 32.35 32.30 32.25 32.20 32.15 32.10 32.05 32.00 31.95 31.90 31.85 31.80 31.75 31.70 31.65 31.60 31.55 31.50 31.45 31.40 31.35 31.30 31.25 31.20 31.15 31.10 31.05 31.00 30.95 30.90 30.85 30.80 30.75 30.70 30.65 30.60 30.55 30.50 30.45 30.40 30.35 30.30 30.25 30.20 30.15 30.10 30.05
50.00 49.95 49.90 49.85 49.80 49.75 49.70 49.65 49.60 49.55 49.50 49.45 49.40 49.35 49.30 49.25 49.20 49.15 49.10 49.05 49.00 48.95 48.90 48.85 48.80 48.75 48.70 48.65 48.60 48.55 48.50 48.45 48.40 48.35 48.30 48.25 48.20 48.15 48.10 48.05 48.00 47.95 47.90 47.85 47.80 47.75 47.70 47.65 47.60 47.55 47.50 47.45 47.40 47.35 47.30 47.25 47.20 47.15 47.10 47.05 47.00 46.95 46.90 46.85 46.80 46.75 46.70 46.65 46.60 46.55 46.50 46.45 46.40 46.35 46.30 46.25 46.20 46.15 46.10 46.05 46.00 45.95 45.90 45.85 45.80 45.75 45.70 45.65 45.60 45.55 45.50 45.45 45.40 45.35 45.30 45.25 45.20 45.15 45.10 45.05 45.00 44.95 44.90 44.85 44.80 44.75 44.70 44.65 44.60 44.55 44.50 44.45 44.40 44.35 44.30 44.25 44.20 44.15 44.10 44.05 44.00 43.95 43.90 43.85 43.80 43.75 43.70 43.65 43.60 43.55 43.50 43.45 43.40 43.35 43.30 43.25 43.20 43.15 43.10 43.05 43.00 42.95 42.90 42.85 42.80 42.75 42.70 42.65 42.60 42.55 42.50 42.45 42.40 42.35 42.30 42.25 42.20 42.15 42.10 42.05 42.00 41.95 41.90 41.85 41.80 41.75 41.70 41.65 41.60 41.55 41.50 41.45 41.40 41.35 41.30 41.25 41.20 41.15 41.10 41.05 41.00 40.95 40.90 40.85 40.80 40.75 40.70 40.65 40.60 40.55 40.50 40.45 40.40 40.35 40.30 40.25 40.20 40.15 40.10 40.05 40.00 39.95 39.90 39.85 39.80 39.75 39.70 39.65 39.60 39.55 39.50 39.45 39.40 39.35 39.30 39.25 39.20 39.15 39.10 39.05 39.00 38.95 38.90 38.85 38.80 38.75 38.70 38.65 38.60 38.55 38.50 38.45 38.40 38.35 38.30 38.25 38.20 38.15 38.10 38.05 38.00 37.95 37.90 37.85 37.80 37.75 37.70 37.65 37.60 37.55 37.50 37.45 37.40 37.35 37.30 37.25 37.20 37.15 37.10 37.05 37.00 36.95 36.90 36.85 36.80 36.75 36.70 36.65 36.60 36.55 36.50 36.45 36.40 36.35 36.30 36.25 36.20 36.15 36.10 36.05 36.00 35.95 35.90 35.85 35.80 35.75 35.70 35.65 35.60 35.55 35.50 35.45 35.40 35.35 35.30 35.25 35.20 35.15 35.10 35.05 35.00 34.95 34.90 34.85 34.80 34.75 34.70 34.65 34.60 34.55 34.50 34.45 34.40 34.35 34.30 34.25 34.20 34.15 34.10 34.05 34.00 33.95 33.90 33.85 33.80 33.75 33.70 33.65 33.60 33.55 33.50 33.45 33.40 33.35 33.30 33.25 33.20 33.15 33.10 33.05 33.00 32.95 32.90 32.85 32.80 32.75 32.70 32.65 32.60 32.55 32.50 32.45 32.40 32.35 32.30 32.25 32.20 32.15 32.10 32.05 32.00 31.95 31.90 31.85 31.80 31.75 31.70 31.65 31.60 31.55 31.50 31.45 31.40 31.35 31.30 31.25 31.20 31.15 31.10 31.05 31.00 30.95 30.90 30.85 30.80 30.75 30.70 30.65 30.60 30.55 30.50 30.45 30.40 30.35 30.30 30.25 30.20 30.15 30.10 30.05
50.00 49.95 49.90 49.85 49.80 49.75 49.70 49.65 49.60 49.55 49.50 49.45 49.40 49.35 49.30 49.25 49.20 49.15 49.10 49.05 49.00 48.95 48.90 48.85 48.80 48.75 48.70 48.65 48.60 48.55 48.50 48.45 48.40 48.35 48.30 48.25 48.20 48.15 48.10 48.05 48.00 47.95 47.90 47.85 47.80 47.75 47.70 47.65 47.60 47.55 47.50 47.45 47.40 47.35 47.30 47.25 47.20 47.15 47.10 47.05 47.00 46.95 46.90 46.85 46.80 46.75 46.70 46.65 46.60 46.55 46.50 46.45 46.40 46.35 46.30 46.25 46.20 46.15 46.10 46.05 46.00 45.95 45.90 45.85 45.80 45.75 45.70 45.65 45.60 45.55 45.50 45.45 45.40 45.35 45.30 45.25 45.20 45.15 45.10 45.05 45.00 44.95 44.90 44.85 44.80 44.75 44.70 44.65 44.60 44.55 44.50 44.45 44.40 44.35 44.30 44.25 44.20 44.15 44.10 44.05 44.00 43.95 43.90 43.85 43.80 43.75 43.70 43.65 43.60 43.55 43.50 43.45 43.40 43.35 43.30 43.25 43.20 43.15 43.10 43.05 43.00 42.95 42.90 42.85 42.80 42.75 42.70 42.65 42.60 42.55 42.50 42.45 42.40 42.35 42.30 42.25 42.20 42.15 42.10 42.05 42.00 41.95 41.90 41.85 41.80 41.75 41.70 41.65 41.60 41.55 41.50 41.45 41.40 41.35 41.30 41.25 41.20 41.15 41.10 41.05 41.00 40.95 40.90 40.85 40.80 40.75 40.70 40.65 40.60 40.55 40.50 40.45 40.40 40.35 40.30 40.25 40.20 40.15 40.10 40.05 40.00 39.95 39.90 39.85 39.80 39.75 39.70 39.65 39.60 39.55 39.50 39.45 39.40 39.35 39.30 39.25 39.20 39.15 39.10 39.05 39.00 38.95 38.90 38.85 38.80 38.75 38.70 38.65 38.60 38.55 38.50 38.45 38.40 38.35 38.30 38.25 38.20 38.15 38.10 38.05 38.00 37.95 37.90 37.85 37.80 37.75 37.70 37.65 37.60 37.55 37.50 37.45 37.40 37.35 37.30 37.25 37.20 37.15 37.10 37.05 37.00 36.95 36.90 36.85 36.80 36.75 36.70 36.65 36.60 36.55 36.50 36.45 36.40 36.35 36.30 36.25 36.20 36.15 36.10 36.05 36.00 35.95 35.90 35.85 35.80 35.75 35.70 35.65 35.60 35.55 35.50 35.45 35.40 35.35 35.30 35.25 35.20 35.15 35.10 35.05 35.00 34.95 34.90 34.85 34.80 34.75 34.70 34.65 34.60 34.55 34.50 34.45 34.40 34.35 34.30 34.25 34.20 34.15 34.10 34.05 34.00 33.95 33.90 33.85 33.80 33.75 33.70 33.65 33.60 33.55 33.50 33.45 33.40 33.35 33.30 33.25 33.20 33.15 33.10 33.05 33.00 32.95 32.90 32.85 32.80 32.75 32.70 32.65 32.60 32.55 32.50 32.45 32.40 32.35 32.30 32.25 32.20 32.15 32.10 32.05 32.00 31.95 31.90 31.85 31.80 31.75 31.70 31.65 31.60 31.55 31.50 31.45 31.40 31.35 31.30 31.25 31.20 31.15 31.10 31.05 31.00 30.95 30.90 30.85 30.80 30.75 30.70 30.65 30.60 30.55 30.50 30.45 30.40 30.35 30.30 30.25 30.20 30.15 30.10 30.05
50.00 49.95 49.90 49.85 49.80 49.75 49.70 49.65 49.60 49.55 49.50 49.45 49.40 49.35 49.30 49.25 49.20 49.15 49.10 49.05 49.00 48.95 48.90 48.85 48.80 48.75 48.70 48.65 48.60 48.55 48.50 48.45 48.40 48.35 48.30 48.25 48.20 48.15 48.10 48.05 48.00 47.95 47.90 47.85 47.80 47.75 47.70 47.65 47.60 47.55 47.50 47.45 47.40 47.35 47.30 47.25 47.20 47.15 47.10 47.05 47.00 46.95 46.90 46.85 46.80 46.75 46.70 46.65 46.60 46.55 46.50 46.45 46.40 46.35 46.30 46.25 46.20 46.15 46.10 46.05 46.00 45.95 45.90 45.85 45.80 45.75 45.70 45.65 45.60 45.55 45.50 45.45 45.40 45.35 45.30 45.25 45.20 45.15 45.10 45.05 45.00 44.95 44.90 44.85 44.80 44.75 44.70 44.65 44.60 44.55 44.50 44.45 44.40 44.35 44.30 44.25 44.20 44.15 44.10 44.05 44.00 43.95 43.90 43.85 43.80 43.75 43.70 43.65 43.60 43.55 43.50 43.45 43.40 43.35 43.30 43.25 43.20 43.15 43.10 43.05 43.00 42.95 42.90 42.85 42.80 42.75 42.70 42.65 42.60 42.55 42.50 42.45 42.40 42.35 42.30 42.25 42.20 42.15 42.10 42.05 42.00 41.95 41.90 41.85 41.80 41.75 41.70 41.65 41.60 41.55 41.50 41.45 41.40 41.35 41.30 41.25 41.20 41.15 41.10 41.05 41.00 40.95 40.90 40.85 40.80 40.75 40.70 40.65 40.60 40.55 40.50 40.45 40.40 40.35 40.30 40.25 40.20 40.15 40.10 40.05 40.00 39.95 39.90 39.85 39.80 39.75 39.70 39.65 39.60 39.55 39.50 39.45 39.40 39.35 39.30 39.25 39.20 39.15 39.10 39.05 39.00 38.95 38.90 38.85 38.80 38.75 38.70 38.65 38.60 38.55 38.50 38.45 38.40 38.35 38.30 38.25 38.20 38.15 38.10 38.05 38.00 37.95 37.90 37.85 37.80 37.75 37.70 37.65 37.60 37.55 37.50 37.45 37.40 37.35 37.30 37.25 37.20 37.15 37.10 37.05 37.00 36.95 36.90 36.85 36.80 36.75 36.70 36.65 36.60 36.55 36.50 36.45 36.40 36.35 36.30 36.25 36.20 36.15 36.10 36.05 36.00 35.95 35.90 35.85 35.80 35.75 35.70 35.65 35.60 35.55 35.50 35.45 35.40 35.35 35.30 35.25 35.20 35.15 35.10 35.05 35.00 34.95 34.90 34.85 34.80 34.75 34.70 34.65 34.60 34.55 34.50 34.45 34.40 34.35 34.30 34.25 34.20 34.15 34.10 34.05 34.00 33.95 33.90 33.85 33.80 33.75 33.70 33.65 33.60 33.55 33.50 33.45 33.40 33.35 33.30 33.25 33.20 33.15 33.10 33.05 33.00 32.95 32.90 32.85 32.80 32.75 32.70 32.65 32.60 32.55 32.50 32.45 32.40 32.35 32.30 32.25 32.20 32.15 32.10 32.05 32.00 31.95 31.90 31.85 31.80 31.75 31.70 31.65 31.60 31.55 31.50 31.45 31.40 31.35 31.30 31.25 31.20 31.15 31.10 31.05 31.00 30.95 30.90 30.85 30.80 30.75 30.70 30.65 30.60 30.55 30.50 30.45 30.40 30.35 30.30 30.25 30.20 30.15 30.10 30.05
50.00 49.95 49.90 49.85 49.80 49.75 49.70 49.65 49.60 49.55 49.50 49.45 49.40 49.35 49.30 49.25 49.20 49.15 49.10 49.05 49.00 48.95 48.90 48.85 48.80 48.75 48.70 48.65 48.60 48.55 48.50 48.45 48.40 48.35 48.30 48.25 48.20 48.15 48.10 48.05 48.00 47.95 47.90 47.85 47.80 47.75 47.70 47.65 47.60 47.55 47.50 47.45 47.40 47.35 47.30 47.25 47.20 47.15 47.10 47.05 47.00 46.95 46.90 46.85 46.80 46.75 46.70 46.65 46.60 46.55 46.50 46.45 46.40 46.35 46.30 46.25 46.20 46.15 46.10 46.05 46.00 45.95 45.90 45.85 45.80 45.75 45.70 45.65 45.60 45.55 45.50 45.45 45.40 45.35 45.30 45.25 45.20 45.15 45.10 45.05 45.00 44.95 44.90 44.85 44.80 44.75 44.70 44.65 44.60 44.55 44.50 44.45 44.40 44.35 44.30 44.25 44.20 44.15 44.10 44.05 44.00 43.95 43.90 43.85 43.80 43.75 43.70 43.65 43.60 43.55 43.50 43.45 43.40 43.35 43.30 43.25 43.20 43.15 43.10 43.05 43.00 42.95 42.90 42.85 42.80 42.75 42.70 42.65 42.60 42.55 42.50 42.45 42.40 42.35 42.30 42.25 42.20 42.15 42.10 42.05 42.00 41.95 41.90 41.85 41.80 41.75 41.70 41.65 41.60 41.55 41.50 41.45 41.40 41.35 41.30 41.25 41.20 41.15 41.10 41.05 41.00 40.95 40.90 40.85 40.80 40.75 40.70 40.65 40.60 40.55 40.50 40.45 40.40 40.35 40.30 40.25 40.20 40.15 40.10 40.05 40.00 39.95 39.90 39.85 39.80 39.75 39.70 39.65 39.60 39.55 39.50 39.45 39.40 39.35 39.30 39.25 39.20 39.15 39.10 39.05 39.00 38.95 38.90 38.85 38.80 38.75 38.70 38.65 38.60 38.55 38.50 38.45 38.40 38.35 38.30 38.25 38.20 38.15 38.10 38.05 38.00 37.95 37.90 37.85 37.80 37.75 37.70 37.65 37.60 37.55 37.50 37.45 37.40 37.35 37.30 37.25 37.20 37.15 37.10 37.05 37.00 36.95 36.90 36.85 36.80 36.75 36.70 36.65 36.60 36.55 36.50 36.45 36.40 36.35 36.30 36.25 36.20 36.15 36.10 36.05 36.00 35.95 35.90 35.85 35.80 35.75 35.70 35.65 35.60 35.55 35.50 35.45 35.40 35.35 35.30 35.25 35.20 35.15 35.10 35.05 35.00 34.95 34.90 34.85 34.80 34.75 34.70 34.65 34.60 34.55 34.50 34.45 34.40 34.35 34.30 34.25 34.20 34.15 34.10 34.05 34.00 33.95 33.90 33.85 33.80 33.75 33.70 33.65 33.60 33.55 33.50 33.45 33.40 33.35 33.30 33.25 33.20 33.15 33.10 33.05 33.00 32.95 32.90 32.85 32.80 32.75 32.70 32.65 32.60 32.55 32.50 32.45 32.40 32.35 32.30 32.25 32.20 32.15 32.10 32.05 32.00 31.95 31.90 31.85 31.80 31.75 31.70 31.65 31.60 31.55 31.50 31.45 31.40 31.35 31.30 31.25 31.20 31.15 31.10 31.05 31.00 30.95 30.90 30.85 30.80 30.75 30.70 30.65 30.60 30.55 30.50 30.45 30.40 30.35 30.30 30.25 30.20 30.15 30.10 30.05
50.00 49.95 49.90 49.85 49.80 49.75 49.70 49.65 49.60 49.55 49.50 49.45 49.40 49.35 49.30 49.25 49.20 49.15 49.10 49.05 49.00 48.95 48.90 48.85 48.80 48.75 48.70 48.65 48.60 48.55 48.50 48.45 48.40 48.35 48.30 48.25 48.20 48.15 48.10 48.05 48.00 47.95 47.90 47.85 47.80 47.75 47.70 47.65 47.60 47.55 47.50 47.45 47.40 47.35 47.30 47.25 47.20 47.15 47.10 47.05 47.00 46.95 46.90 46.85 46.80 46.75 46.70 46.65 46.60 46.55 46.50 46.45 46.40 46.35 46.30 46.25 46.20 46.15 46.10 46.05 46.00 45.95 45.90 45.85 45.80 45.75 45.70 45.65 45.60 45.55 45.50 45.45 45.40 45.35 45.30 45.25 45.20 45.15 45.10 45.05 45.00 44.95 44.90 44.85 44.80 44.75 44.70 44.65 44.60 44.55 44.50 44.45 44.40 44.35 44.30 44.25 44.20 44.15 44.10 44.05 44.00 43.95 43.90 43.85 43.80 43.75 43.70 43.65 43.60 43.55 43.50 43.45 43.40 43.35 43.30 43.25 43.20 43.15 43.10 43.05 43.00 42.95 42.90 42.85 42.80 42.75 42.70 42.65 42.60 42.55 42.50 42.45 42.40 42.35 42.30 42.25 42.20 42.15 42.10 42.05 42.00 41.95 41.90 41.85 41.80 41.75 41.70 41.65 41.60 41.55 41.50 41.45 41.40 41.35 41.30 41.25 41.20 41.15 41.10 41.05 41.00 40.95 40.90 40.85 40.80 40.75 40.70 40.65 40.60 40.55 40.50 40.45 40.40 40.35 40.30 40.25 40.20 40.15 40.10 40.05 40.00 39.95 39.90 39.85 39.80 39.75 39.70 39.65 39.60 39.55 39.50 39.45 39.40 39.35 39.30 39.25 39.20 39.15 39.10 39.05 39.00 38.95 38.90 38.85 38.80 38.75 38.70 38.65 38.60 38.55 38.50 38.45 38.40 38.35 38.30 38.25 38.20 38.15 38.10 38.05 38.00 37.95 37.90 37.85 37.80 37.75 37.70 37.65 37.60 37.55 37.50 37.45 37.40 37.35 37.30 37.25 37.20 37.15 37.10 37.05 37.00 36.95 36.90 36.85 36.80 36.75 36.70 36.65 36.60 36.55 36.50 36.45 36.40 36.35 36.30 36.25 36.20 36.15 36.10 36.05 36.00 35.95 35.90 35.85 35.80 35.75 35.70 35.65 35.60 35.55 35.50 35.45 35.40 35.35 35.30 35.25 35.20 35.15 35.10 35.05 35.00 34.95 34.90 34.85 34.80 34.75 34.70 34.65 34.60 34.55 34.50 34.45 34.40 34.35 34.30 34.25 34.20 34.15 34.10 34.05 34.00 33.95 33.90 33.85 33.80 33.75 33.70 33.65 33.60 33.55 33.50 33.45 33.40 33.35 33.30 33.25 33.20 33.15 33.10 33.05 33.00 32.95 32.90 32.85 32.80 32.75 32.70 32.65 32.60 32.55 32.50 32.45 32.40 32.35 32.30 32.25 32.20 32.15 32.10 32.05 32.00 31.95 31.90 31.85 31.80 31.75 31.70 31.65 31.60 31.55 31.50 31.45 31.40 31.35 31.30 31.25 31.20 31.15 31.10 31.05 31.00 30.95 30.90 30.85 30.80 30.75 30.70 30.65 30.60 30.55 30.50 30.45 30.40 30.35 30.30 30.25 30.20 30.15 30.10 30.05
50.00 49.95 49.90 49.85 49.80 49.75 49.70 49.65 49.60 49.55 49.50 49.45 49.40 49.35 49.30 49.25 49.20 49.15 49.10 49.05 49.00 48.95 48.90 48.85 48.80 48.75 48.70 48.65 48.60 48.55 48.50 48.45 48.40 48.35 48.30 48.25 48.20 48.15 48.10 48.05 48.00 47.95 47.90 47.85 47.80 47.75 47.70 47.65 47.60 47.55 47.50 47.45 47.40 47.35 47.30 47.25 47.20 47.15 47.10 47.05 47.00 46.95 46.90 46.85 46.80 46.75 46.70 46.65 46.60 46.55 46.50 46.45 46.40 46.35 46.30 46.25 46.20 46.15 46.10 46.05 46.00 45.95 45.90 45.85 45.80 45.75 45.70 45.65 45.60 45.55 45.50 45.45 45.40 45.35 45.30 45.25 45.20 45.15 45.10 45.05 45.00 44.95 44.90 44.85 44.80 44.75 44.70 44.65 44.60 44.55 44.50 44.45 44.40 44.35 44.30 44.25 44.20 44.15 44.10 44.05 44.00 43.95 43.90 43.85 43.80 43.75 43.70 43.65 43.60 43.55 43.50 43.45 43.40 43.35 43.30 43.25 43.20 43.15 43.10 43.05 43.00 42.95 42.90 42.85 42.80 42.75 42.70 42.65 42.60 42.55 42.50 42.45 42.40 42.35 42.30 42.25 42.20 42.15 42.10 42.05 42.00 41.95 41.90 41.85 41.80 41.75 41.70 41.65 41.60 41.55 41.50 41.45 41.40 41.35 41.30 41.25 41.20 41.15 41.10 41.05 41.00 40.95 40.90 40.85 40.80 40.75 40.70 40.65 40.60 40.55 40.50 40.45 40.40 40.35 40.30 40.25 40.20 40.15 40.10 40.05 40.00 39.95 39.90 39.85 39.80 39.75 39.70 39.65 39.60 39.55 39.50 39.45 39.40 39.35 39.30 39.25 39.20 39.15 39.10 39.05 39.00 38.95 38.90 38.85 38.80 38.75 38.70 38.65 38.60 38.55 38.50 38.45 38.40 38.35 38.30 38.25 38.20 38.15 38.10 38.05 38.00 37.95 37.90 37.85 37.80 37.75 37.70 37.65 37.60 37.55 37.50 37.45 37.40 37.35 37.30 37.25 37.20 37.15 37.10 37.05 37.00 36.95 36.90 36.85 36.80 36.75 36.70 36.65 36.60 36.55 36.50 36.45 36.40 36.35 36.30 36.25 36.20 36.15 36.10 36.05 36.00 35.95 35.90 35.85 35.80 35.75 35.70 35.65 35.60 35.55 35.50 35.45 35.40 35.35 35.30 35.25 35.20 35.15 35.10 35.05 35.00 34.95 34.90 34.85 34.80 34.75 34.70 34.65 34.60 34.55 34.50 34.45 34.40 34.35 34.30 34.25 34.20 34.15 34.10 34.05 34.00 33.95 33.90 33.85 33.80 33.75 33.70 33.65 33.60 33.55 33.50 33.45 33.40 33.35 33.30 33.25 33.20 33.15 33.10 33.05 33.00 32.95 32.90 32.85 32.80 32.75 32.70 32.65 32.60 32.55 32.50 32.45 32.40 32.35 32.30 32.25 32.20 32.15 32.10 32.05 32.00 31.95 31.90 31.85 31.80 31.75 31.70 31.65 31.60 31.55 31.50 31.45 31.40 31.35 31.30 31.25 31.20 31.15 31.10 31.05 31.00 30.95 30.90 30.85 30.80 30.75 30.70 30.65 30.60 30.55 30.50 30.45 30.40 30.35 30.30 30.25 30.20 30.15 30.10 30.05
50.00 49.95 49.90 49.85 49.80 49.75 49.70 49.65 49.60 49.55 49.50 49.45 49.40 49.35 49.30 49.25 49.20 49.15 49.10 49.05 49.00 48.95 48.90 48.85 48.80 48.75 48.70 48.65 48.60 48.55 48.50 48.45 48.40 48.35 48.30 48.25 48.20 48.15 48.10 48.05 48.00 47.95 47.90 47.85 47.80 47.75 47.70 47.65 47.60 47.55 47.50 47.45 47.40 47.35 47.30 47.25 47.20 47.15 47.10 47.05 47.00 46.95 46.90 46.85 46.80 46.75 46.70 46.65 46.60 46.55 46.50 46.45 46.40 46.35 46.30 46.25 46.20 46.15 46.10 46.05 46.00 45.95 45.90 45.85 45.80 45.75 45.70 45.65 45.60 45.55 45.50 45.45 45.40 45.35 45.30 45.25 45.20 45.15 45.10 45.05 45.00 44.95 44.90 44.85 44.80 44.75 44.70 44.65 44.60 44.55 44.50 44.45 44.40 44.35 44.30 44.25 44.20 44.15 44.10 44.05 44.00 43.95 43.90 43.85 43.80 43.75 43.70 43.65 43.60 43.55 43.50 43.45 43.40 43.35 43.30 43.25 43.20 43.15 43.10 43.05 43.00 42.95 42.90 42.85 42.80 42.75 42.70 42.65 42.60 42.55 42.50 42.45 42.40 42.35 42.30 42.25 42.20 42.15 42.10 42.05 42.00 41.95 41.90 41.85 41.80 41.75 41.70 41.65 41.60 41.55 41.50 41.45 41.40 41.35 41.30 41.25 41.20 41.15 41.10 41.05 41.00 40.95 40.90 40.85 40.80 40.75 40.70 40.65 40.60 40.55 40.50 40.45 40.40 40.35 40.30 40.25 40.20 40.15 40.10 40.05 40.00 39.95 39.90 39.85 39.80 39.75 39.70 39.65 39.60 39.55 39.50 39.45 39.40 39.35 39.30 39.25 39.20 39.15 39.10 39.05 39.00 38.95 38.90 38.85 38.80 38.75 38.70 38.65 38.60 38.55 38.50 38.45 38.40 38.35 38.30 38.25 38.20 38.15 38.10 38.05 38.00 37.95 37.90 37.85 37.80 37.75 37.70 37.65 37.60 37.55 37.50 37.45 37.40 37.35 37.30 37.25 37.20 37.15 37.10 37.05 37.00 36.95 36.90 36.85 36.80 36.75 36.70 36.65 36.60 36.55 36.50 36.45 36.40 36.35 36.30 36.25 36.20 36.15 36.10 36.05 36.00 35.95 35.90 35.85 35.80 35.75 35.70 35.65 35.60 35.55 35.50 35.45 35.40 35.35 35.30 35.25 35.20 35.15 35.10 35.05 35.00 34.95 34.90 34.85 34.80 34.75 34.70 34.65 34.60 34.55 34.50 34.45 34.40 34.35 34.30 34.25 34.20 34.15 34.10 34.05 34.00 33.95 33.90 33.85 33.80 33.75 33.70 33.65 33.60 33.55 33.50 33.45 33.40 33.35 33.30 33.25 33.20 33.15 33.10 33.05 33.00 32.95 32.90 32.85 32.80 32.75 32.70 32.65 32.60 32.55 32.50 32.45 32.40 32.35 32.30 32.25 32.20 32.15 32.10 32.05 32.00 31.95 31.90 31.85 31.80 31.75 31.70 31.65 31.60 31.55 31.50 31.45 31.40 31.35 31.30 31.25 31.20 31.15 31.10 31.05 31.00 30.95 30.90 30.85 30.80 30.75 30.70 30.65 30.60 30.55 30.50 30.45 30.40 30.35 30.30 30.25 30.20 30.15 30.10 30.05
50.00 49.95 49.90 49.85 49.80 49.75 49.70 49.65 49.60 49.55 49.50 49.45 49.40 49.35 49.30 49.25 49.20 49.15 49.10 49.05 49.00 48.95 48.90 48.85 48.80 48.75 48.70 48.65 48.60 48.55 48.50 48.45 48.40 48.35 48.30 48.25 48.20 48.15 48.10 48.05 48.00 47.95 47.90 47.85 47.80 47.75 47.70 47.65 47.60 47.55 47.50 47.45 47.40 47.35 47.30 47.25 47.20 47.15 47.10 47.05 47.00 46.95 46.90 46.85 46.80 46.75 46.70 46.65 46.60 46.55 46.50 46.45 46.40 46.35 46.30 46.25 46.20 46.15 46.10 46.05 46.00 45.95 45.90 45.85 45.80 45.75 45.70 45.65 45.60 45.55 45.50 45.45 45.40 45.35 45.30 45.25 45.20 45.15 45.10 45.05 45.00 44.95 44.90 44.85 44.80 44.75 44.70 44.65 44.60 44.55 44.50 44.45 44.40 44.35 44.30 44.25 44.20 44.15 44.10 44.05 44.00 43.95 43.90 43.85 43.80 43.75 43.70 43.65 43.60 43.55 43.50 43.45 43.40 43.35 43.30 43.25 43.20 43.15 43.10 43.05 43.00 42.95 42.90 42.85 42.80 42.75 42.70 42.65 42.60 42.55 42.50 42.45 42.40 42.35 42.30 42.25 42.20 42.15 42.10 42.05 42.00 41.95 41.90 41.85 41.80 41.75 41.70 41.65 41.60 41.55 41.50 41.45 41.40 41.35 41.30 41.25 41.20 41.15 41.10 41.05 41.00 40.95 40.90 40.85 40.80 40.75 40.70 40.65 40.60 40.55 40.50 40.45 40.40 40.35 40.30 40.25 40.20 40.15 40.10 40.05 40.00 39.95 39.90 39.85 39.80 39.75 39.70 39.65 39.60 39.55 39.50 39.45 39.40 39.35 39.30 39.25 39.20 39.15 39.10 39.05 39.00 38.95 38.90 38.85 38.80 38.75 38.70 38.65 38.60 38.55 38.50 38.45 38.40 38.35 38.30 38.25 38.20 38.15 38.10 38.05 38.00 37.95 37.90 37.85 37.80 37.75 37.70 37.65 37.60 37.55 37.50 37.45 37.40 37.35 37.30 37.25 37.20 37.15 37.10 37.05 37.00 36.95 36.90 36.85 36.80 36.75 36.70 36.65 36.60 36.55 36.50 36.45 36.40 36.35 36.30 36.25 36.20 36.15 36.10 36.05 36.00 35.95 35.90 35.85 35.80 35.75 35.70 35.65 35.60 35.55 35.50 35.45 35.40 35.35 35.30 35.25 35.20 35.15 35.10 35.05 35.00 34.95 34.90 34.85 34.80 34.75 34.70 34.65 34.60 34.55 34.50 34.45 34.40 34.35 34.30 34.25 34.20 34.15 34.10 34.05 34.00 33.95 33.90 33.85 33.80 33.75 33.70 33.65 33.60 33.55 33.50 33.45 33.40 33.35 33.30 33.25 33.20 33.15 33.10 33.05 33.00 32.95 32.90 32.85 32.80 32.75 32.70 32.65 32.60 32.55 32.50 32.45 32.40 32.35 32.30 32.25 32.20 32.15 32.10 32.05 32.00 31.95 31.90 31.85 31.80 31.75 31.70 31.65 31.60 31.55 31.50 31.45 31.40 31.35 31.30 31.25 31.20 31.15 31.10 31.05 31.00 30.95 30.90 30.85 30.80 30.75 30.70 30.65 30.60 30.55 30.50 30.45 30.40 30.35 30.30 30.25 30.20 30.15 30.10 30.05
50.00 49.95 49.90 49.85 49.80 49.75 49.70 49.65 49.60 49.55 49.50 49.45 49.40 49.35 49.30 49.25 49.20 49.15 49.10 49.05 49.00 48.95 48.90 48.85 48.80 48.75 48.70 48.65 48.60 48.55 48.50 48.45 48.40 48.35 48.30 48.25 48.20 48.15 48.10 48.05 48.00 47.95 47.90 47.85 47.80 47.75 47.70 47.65 47.60 47.55 47.50 47.45 47.40 47.35 47.30 47.25 47.20 47.15 47.10 47.05 47.00 46.95 46.90 46.85 46.80 46.75 46.70 46.65 46.60 46.55 46.50 46.45 46.40 46.35 46.30 46.25 46.20 46.15 46.10 46.05 46.00 45.95 45.90 45.85 45.80 45.75 45.70 45.65 45.60 45.55 45.50 45.45 45.40 45.35 45.30 45.25 45.20 45.15 45.10 45.05 45.00 44.95 44.90 44.85 44.80 44.75 44.70 44.65 44.60 44.55 44.50 44.45 44.40 44.35 44.30 44.25 44.20 44.15 44.10 44.05 44.00 43.95 43.90 43.85 43.80 43.75 43.70 43.65 43.60 43.55 43.50 43.45 43.40 43.35 43.30 43.25 43.20 43.15 43.10 43.05 43.00 42.95 42.90 42.85 42.80 42.75 42.70 42.65 42.60 42.55 42.50 42.45 42.40 42.35 42.30 42.25 42.20 42.15 42.10 42.05 42.00 41.95 41.90 41.85 41.80 41.75 41.70 41.65 41.60 41.55 41.50 41.45 41.40 41.35 41.30 41.25 41.20 41.15 41.10 41.05 41.00 40.95 40.90 40.85 40.80 40.75 40.70 40.65 40.60 40.55 40.50 40.45 40.40 40.35 40.30 40.25 40.20 40.15 40.10 40.05 40.00 39.95 39.90 39.85 39.80 39.75 39.70 39.65 39.60 39.55 39.50 39.45 39.40 39.35 39.30 39.25 39.20 39.15 39.10 39.05 39.00 38.95 38.90 38.85 38.80 38.75 38.70 38.65 38.60 38.55 38.50 38.45 38.40 38.35 38.30 38.25 38.20 38.15 38.10 38.05 38.00 37.95 37.90 37.85 37.80 37.75 37.70 37.65 37.60 37.55 37.50 37.45 37.40 37.35 37.30 37.25 37.20 37.15 37.10 37.05 37.00 36.95 36.90 36.85 36.80 36.75 36.70 36.65 36.60 36.55 36.50 36.45 36.40 36.35 36.30 36.25 36.20 36.15 36.10 36.05 36.00 35.95 35.90 35.85 35.80 35.75 35.70 35.65 35.60 35.55 35.50 35.45 35.40 35.35 35.30 35.25 35.20 35.15 35.10 35.05 35.00 34.95 34.90 34.85 34.80 34.75 34.70 34.65 34.60 34.55 34.50 34.45 34.40 34.35 34.30 34.25 34.20 34.15 34.10 34.05 34.00 33.95 33.90 33.85 33.80 33.75 33.70 33.65 33.60 33.55 33.50 33.45 33.40 33.35 33.30 33.25 33.20 33.15 33.10 33.05 33.00 32.95 32.90 32.85 32.80 32.75 32.70 32.65 32.60 32.55 32.50 32.45 32.40 32.35 32.30 32.25 32.20 32.15 32.10 32.05 32.00 31.95 31.90 31.85 31.80 31.75 31.70 31.65 31.60 31.55 31.50 31.45 31.40 31.35 31.30 31.25 31.20 31.15 31.10 31.05 31.00 30.95 30.90 30.85 30.80 30.75 30.70 30.65 30.60 30.55 30.50 30.45 30.40 30.35 30.30 30.25 30.20 30.15 30.10 30.05
50.00 49.95 49.90 49.85 49.80 49.75 49.70 49.65 49.60 49.55 49.50 49.45 49.40 49.35 49.30 49.25 49.20 49.15 49.10 49.05 49.00 48.95 48.90 48.85 48.80 48.75 48.70 48.65 48.60 48.55 48.50 48.45 48.40 48.35 48.30 48.25 48.20 48.15 48.10 48.05 48.00 47.95 47.90 47.85 47.80 47.75 47.70 47.65 47.60 47.55 47.50 47.45 47.40 47.35 47.30 47.25 47.20 47.15 47.10 47.05 47.00 46.95 46.90 46.85 46.80 46.75 46.70 46.65 46.60 46.55 46.50 46.45 46.40 46.35 46.30 46.25 46.20 46.15 46.10 46.05 46.00 45.95 45.90 45.85 45.80 45.75 45.70 45.65 45.60 45.55 45.50 45.45 45.40 45.35 45.30 45.25 45.20 45.15 45.10 45.05 45.00 44.95 44.90 44.85 44.80 44.75 44.70 44.65 44.60 44.55 44.50 44.45 44.40 44.35 44.30 44.25 44.20 44.15 44.10 44.05 44.00 43.95 43.90 43.85 43.80 43.75 43.70 43.65 43.60 43.55 43.50 43.45 43.40 43.35 43.30 43.25 43.20 43.15 43.10 43.05 43.00 42.95 42.90 42.85 42.80 42.75 42.70 42.65 42.60 42.55 42.50 42.45 42.40 42.35 42.30 42.25 42.20 42.15 42.10 42.05 42.00 41.95 41.90 41.85 41.80 41.75 41.70 41.65 41.60 41.55 41.50 41.45 41.40 41.35 41.30 41.25 41.20 41.15 41.10 41.05 41.00 40.95 40.90 40.85 40.80 40.75 40.70 40.65 40.60 40.55 40.50 40.45 40.40 40.35 40.30 40.25 40.20 40.15 40.10 40.05 40.00 39.95 39.90 39.85 39.80 39.75 39.70 39.65 39.60 39.55 39.50 39.45 39.40 39.35 39.30 39.25 39.20 39.15 39.10 39.05 39.00 38.95 38.90 38.85 38.80 38.75 38.70 38.65 38.60 38.55 38.50 38.45 38.40 38.35 38.30 38.25 38.20 38.15 38.10 38.05 38.00 37.95 37.90 37.85 37.80 37.75 37.70 37.65 37.60 37.55 37.50 37.45 37.40 37.35 37.30 37.25 37.20 37.15 37.10 37.05 37.00 36.95 36.90 36.85 36.80 36.75 36.70 36.65 36.60 36.55 36.50 36.45 36.40 36.35 36.30 36.25 36.20 36.15 36.10 36.05 36.00 35.95 35.90 35.85 35.80 35.75 35.70 35.65 35.60 35.55 35.50 35.45 35.40 35.35 35.30 35.25 35.20 35.15 35.10 35.05 35.00 34.95 34.90 34.85 34.80 34.75 34.70 34.65 34.60 34.55 34.50 34.45 34.40 34.35 34.30 34.25 34.20 34.15 34.10 34.05 34.00 33.95 33.90 33.85 33.80 33.75 33.70 33.65 33.60 33.55 33.50 33.45 33.40 33.35 33.30 33.25 33.20 33.15 33.10 33.05 33.00 32.95 32.90 32.85 32.80 32.75 32.70 32.65 32.60 32.55 32.50 32.45 32.40 32.35 32.30 32.25 32.20 32.15 32.10 32.05 32.00 31.95 31.90 31.85 31.80 31.75 31.70 31.65 31.60 31.55 31.50 31.45 31.40 31.35 31.30 31.25 31.20 31.15 31.10 31.05 31.00 30.95 30.90 30.85 30.80 30.75 30.70 30.65 30.60 30.55 30.50 30.45 30.40 30.35 30.30 30.25 30.20 30.15 30.10 30.05
50.00 49.95 49.90 49.85 49.80 49.75 49.70 49.65 49.60 49.55 49.50 49.45 49.40 49.35 49.30 49.25 49.20 49.15 49.10 49.05 49.00 48.95 48.90 48.85 48.80 48.75 48.70 48.65 48.60 48.55 48.50 48.45 48.40 48.35 48.30 48.25 48.20 48.15 48.10 48.05 48.00 47.95 47.90 47.85 47.80 47.75 47.70 47.65 47.60 47.55 47.50 47.45 47.40 47.35 47.30 47.25 47.20 47.15 47.10 47.05 47.00 46.95 46.90 46.85 46.80 46.75 46.70 46.65 46.60 46.55 46.50 46.45 46.40 46.35 46.30 46.25 46.20 46.15 46.10 46.05 46.00 45.95 45.90 45.85 45.80 45.75 45.70 45.65 45.60 45.55 45.50 45.45 45.40 45.35 45.30 45.25 45.20 45.15 45.10 45.05 45.00 44.95 44.90 44.85 44.80 44.75 44.70 44.65 44.60 44.55 44.50 44.45 44.40 44.35 44.30 44.25 44.20 44.15 44.10 44.05 44.00 43.95 43.90 43.85 43.80 43.75 43.70 43.65 43.60 43.55 43.50 43.45 43.40 43.35 43.30 43.25 43.20 43.15 43.10 43.05 43.00 42.95 42.90 42.85 42.80 42.75 42.70 42.65 42.60 42.55 42.50 42.45 42.40 42.35 42.30 42.25 42.20 42.15 42.10 42.05 42.00 41.95 41.90 41.85 41.80 41.75 41.70 41.65 41.60 41.55 41.50 41.45 41.40 41.35 41.30 41.25 41.20 41.15 41.10 41.05 41.00 40.95 40.90 40.85 40.80 40.75 40.70 40.65 40.60 40.55 40.50 40.45 40.40 40.35 40.30 40.25 40.20 40.15 40.10 40.05 40.00 39.95 39.90 39.85 39.80 39.75 39.70 39.65 39.60 39.55 39.50 39.45 39.40 39.35 39.30 39.25 39.20 39.15 39.10 39.05 39.00 38.95 38.90 38.85 38.80 38.75 38.70 38.65 38.60 38.55 38.50 38.45 38.40 38.35 38.30 38.25 38.20 38.15 38.10 38.05 38.00 37.95 37.90 37.85 37.80 37.75 37.70 37.65 37.60 37.55 37.50 37.45 37.40 37.35 37.30 37.25 37.20 37.15 37.10 37.05 37.00 36.95 36.90 36.85 36.80 36.75 36.70 36.65 36.60 36.55 36.50 36.45 36.40 36.35 36.30 36.25 36.20 36.15 36.10 36.05 36.00 35.95 35.90 35.85 35.80 35.75 35.70 35.65 35.60 35.55 35.50 35.45 35.40 35.35 35.30 35.25 35.20 35.15 35.10 35.05 35.00 34.95 34.90 34.85 34.80 34.75 34.70 34.65 34.60 34.55 34.50 34.45 34.40 34.35 34.30 34.25 34.20 34.15 34.10 34.05 34.00 33.95 33.90 33.85 33.80 33.75 33.70 33.65 33.60 33.55 33.50 33.45 33.40 33.35 33.30 33.25 33.20 33.15 33.10 33.05 33.00 32.95 32.90 32.85 32.80 32.75 32.70 32.65 32.60 32.55 32.50 32.45 32.40 32.35 32.30 32.25 32.20 32.15 32.10 32.05 32.00 31.95 31.90 31.85 31.80 31.75 31.70 31.65 31.60 31.55 31.50 31.45 31.40 31.35 31.30 31.25 31.20 31.15 31.10 31.05 31.00 30.95 30.90 30.85 30.80 30.75 30.70 30.65 30.60 30.55 30.50 30.45 30.40 30.35 30.30 30.25 30.20 30.15 30.10 30.05
50.00 49.95 49.90 49.85 49.80 49.75 49.70 49.65 49.60 49.55 49.50 49.45 49.40 49.35 49.30 49.25 49.20 49.15 49.10 49.05 49.00 48.95 48.90 48.85 48.80 48.75 48.70 48.65 48.60 48.55 48.50 48.45 48.40 48.35 48.30 48.25 48.20 48.15 48.10 48.05 48.00 47.95 47.90 47.85 47.80 47.75 47.70 47.65 47.60 47.55 47.50 47.45 47.40 47.35 47.30 47.25 47.20 47.15 47.10 47.05 47.00 46.95 46.90 46.85 46.80 46.75 46.70 46.65 46.60 46.55 46.50 46.45 46.40 46.35 46.30 46.25 46.20 46.15 46.10 46.05 46.00 45.95 45.90 45.85 45.80 45.75 45.70 45.65 45.60 45.55 45.50 45.45 45.40 45.35 45.30 45.25 45.20 45.15 45.10 45.05 45.00 44.95 44.90 44.85 44.80 44.75 44.70 44.65 44.60 44.55 44.50 44.45 44.40 44.35 44.30 44.25 44.20 44.15 44.10 44.05 44.00 43.95 43.90 43.85 43.80 43.75 43.70 43.65 43.60 43.55 43.50 43.45 43.40 43.35 43.30 43.25 43.20 43.15 43.10 43.05 43.00 42.95 42.90 42.85 42.80 42.75 42.70 42.65 42.60 42.55 42.50 42.45 42.40 42.35 42.30 42.25 42.20 42.15 42.10 42.05 42.00 41.95 41.90 41.85 41.80 41.75 41.70 41.65 41.60 41.55 41.50 41.45 41.40 41.35 41.30 41.25 41.20 41.15 41.10 41.05 41.00 40.95 40.90 40.85 40.80 40.75 40.70 40.65 40.60 40.55 40.50 40.45 40.40 40.35 40.30 40.25 40.20 40.15 40.10 40.05 40.00 39.95 39.90 39.85 39.80 39.75 39.70 39.65 39.60 39.55 39.50 39.45 39.40 39.35 39.30 39.25 39.20 39.15 39.10 39.05 39.00 38.95 38.90 38.85 38.80 38.75 38.70 38.65 38.60 38.55 38.50 38.45 38.40 38.35 38.30 38.25 38.20 38.15 38.10 38.05 38.00 37.95 37.90 37.85 37.80 37.75 37.70 37.65 37.60 37.55 37.50 37.45 37.40 37.35 37.30 37.25 37.20 37.15 37.10 37.05 37.00 36.95 36.90 36.85 36.80 36.75 36.70 36.65 36.60 36.55 36.50 36.45 36.40 36.35 36.30 36.25 36.20 36.15 36.10 36.05 36.00 35.95 35.90 35.85 35.80 35.75 35.70 35.65 35.60 35.55 35.50 35.45 35.40 35.35 35.30 35.25 35.20 35.15 35.10 35.05 35.00 34.95 34.90 34.85 34.80 34.75 34.70 34.65 34.60 34.55 34.50 34.45 34.40 34.35 34.30 34.25 34.20 34.15 34.10 34.05 34.00 33.95 33.90 33.85 33.80 33.75 33.70 33.65 33.60 33.55 33.50 33.45 33.40 33.35 33.30 33.25 33.20 33.15 33.10 33.05 33.00 32.95 32.90 32.85 32.80 32.75 32.70 32.65 32.60 32.55 32.50 32.45 32.40 32.35 32.30 32.25 32.20 32.15 32.10 32.05 32.00 31.95 31.90 31.85 31.80 31.75 31.70 31.65 31.60 31.55 31.50 31.45 31.40 31.35 31.30 31.25 31.20 31.15 31.10 31.05 31.00 30.95 30.90 30.85 30.80 30.75 30.70 30.65 30.60 30.55 30.50 30.45 30.40 30.35 30.30 30.25 30.20 30.15 30.10 30.05
50.00 49.95 49.90 49.85 49.80 49.75 49.70 49.65 49.60 49.55 49.50 49.45 49.40 49.35 49.30 49.25 49.20 49.15 49.10 49.05 49.00 48.95 48.90 48.85 48.80 48.75 48.70 48.65 48.60 48.55 48.50 48.45 48.40 48.35 48.30 48.25 48.20 48.15 48.10 48.05 48.00 47.95 47.90 47.85 47.80 47.75 47.70 47.65 47.60 47.55 47.50 47.45 47.40 47.35 47.30 47.25 47.20 47.15 47.10 47.05 47.00 46.95 46.90 46.85 46.80 46.75 46.70 46.65 46.60 46.55 46.50 46.45 46.40 46.35 46.30 46.25 46.20 46.15 46.10 46.05 46.00 45.95 45.90 45.85 45.80 45.75 45.70 45.65 45.60 45.55 45.50 45.45 45.40 45.35 45.30 45.25 45.20 45.15 45.10 45.05 45.00 44.95 44.90 44.85 44.80 44.75 44.70 44.65 44.60 44.55 44.50 44.45 44.40 44.35 44.30 44.25 44.20 44.15 44.10 44.05 44.00 43.95 43.90 43.85 43.80 43.75 43.70 43.65 43.60 43.55 43.50 43.45 43.40 43.35 43.30 43.25 43.20 43.15 43.10 43.05 43.00 42.95 42.90 42.85 42.80 42.75 42.70 42.65 42.60 42.55 42.50 42.45 42.40 42.35 42.30 42.25 42.20 42.15 42.10 42.05 42.00 41.95 41.90 41.85 41.80 41.75 41.70 41.65 41.60 41.55 41.50 41.45 41.40 41.35 41.30 41.25 41.20 41.15 41.10 41.05 41.00 40.95 40.90 40.85 40.80 40.75 40.70 40.65 40.60 40.55 40.50 40.45 40.40 40.35 40.30 40.25 40.20 40.15 40.10 40.05 40.00 39.95 39.90 39.85 39.80 39.75 39.70 39.65 39.60 39.55 39.50 39.45 39.40 39.35 39.30 39.25 39.20 39.15 39.10 39.05 39.00 38.95 38.90 38.85 38.80 38.75 38.70 38.65 38.60 38.55 38.50 38.45 38.40 38.35 38.30 38.25 38.20 38.15 38.10 38.05 38.00 37.95 37.90 37.85 37.80 37.75 37.70 37.65 37.60 37.55 37.50 37.45 37.40 37.35 37.30 37.25 37.20 37.15 37.10 37.05 37.00 36.95 36.90 36.85 36.80 36.75 36.70 36.65 36.60 36.55 36.50 36.45 36.40 36.35 36.30 36.25 36.20 36.15 36.10 36.05 36.00 35.95 35.90 35.85 35.80 35.75 35.70 35.65 35.60 35.55 35.50 35.45 35.40 35.35 35.30 35.25 35.20 35.15 35.10 35.05 35.00 34.95 34.90 34.85 34.80 34.75 34.70 34.65 34.60 34.55 34.50 34.45 34.40 34.35 34.30 34.25 34.20 34.15 34.10 34.05 34.00 33.95 33.90 33.85 33.80 33.75 33.70 33.65 33.60 33.55 33.50 33.45 33.40 33.35 33.30 33.25 33.20 33.15 33.10 33.05 33.00 32.95 32.90 32.85 32.80 32.75 32.70 32.65 32.60 32.55 32.50 32.45 32.40 32.35 32.30 32.25 32.20 32.15 32.10 32.05 32.00 31.95 31.90 31.85 31.80 31.75 31.70 31.65 31.60 31.55 31.50 31.45 31.40 31.35 31.30 31.25 31.20 31.15 31.10 31.05 31.00 30.95 30.90 30.85 30.80 30.75 30.70 30.65 30.60 30.55 30.50 30.45 30.40 30.35 30.30 30.25 30.20 30.15 30.10 30.05
50.00 49.95 49.90 49.85 49.80 49.75 49.70 49.65 49.60 49.55 49.50 49.45 49.40 49.35 49.30 49.25 49.20 49.15 49.10 49.05 49.00 48.95 48.90 48.85 48.80 48.75 48.70 48.65 48.60 48.55 48.50 48.45 48.40 48.35 48.30 48.25 48.20 48.15 48.10 48.05 48.00 47.95 47.90 47.85 47.80 47.75 47.70 47.65 47.60 47.55 47.50 47.45 47.40 47.35 47.30 47.25 47.20 47.15 47.10 47.05 47.00 46.95 46.90 46.85 46.80 46.75 46.70 46.65 46.60 46.55 46.50 46.45 46.40 46.35 46.30 46.25 46.20 46.15 46.10 46.05 46.00 45.95 45.90 45.85 45.80 45.75 45.70 45.65 45.60 45.55 45.50 45.45 45.40 45.35 45.30 45.25 45.20 45.15 45.10 45.05 45.00 44.95 44.90 44.85 44.80 44.75 44.70 44.65 44.60 44.55 44.50 44.45 44.40 44.35 44.30 44.25 44.20 44.15 44.10 44.05 44.00 43.95 43.90 43.85 43.80 43.75 43.70 43.65 43.60 43.55 43.50 43.45 43.40 43.35 43.30 43.25 43.20 43.15 43.10 43.05 43.00 42.95 42.90 42.85 42.80 42.75 42.70 42.65 42.60 42.55 42.50 42.45 42.40 42.35 42.30 42.25 42.20 42.15 42.10 42.05 42.00 41.95 41.90 41.85 41.80 41.75 41.70 41.65 41.60 41.55 41.50 41.45 41.40 41.35 41.30 41.25 41.20 41.15 41.10 41.05 41.00 40.95 40.90 40.85 40.80 40.75 40.70 40.65 40.60 40.55 40.50 40.45 40.40 40.35 40.30 40.25 40.20 40.15 40.10 40.05 40.00 39.95 39.90 39.85 39.80 39.75 39.70 39.65 39.60 39.55 39.50 39.45 39.40 39.35 39.30 39.25 39.20 39.15 39.10 39.05 39.00 38.95 38.90 38.85 38.80 38.75 38.70 38.65 38.60 38.55 38.50 38.45 38.40 38.35 38.30 38.25 38.20 38.15 38.10 38.05 38.00 37.95 37.90 37.85 37.80 37.75 37.70 37.65 37.60 37.55 37.50 37.45 37.40 37.35 37.30 37.25 37.20 37.15 37.10 37.05 37.00 36.95 36.90 36.85 36.80 36.75 36.70 36.65 36.60 36.55 36.50 36.45 36.40 36.35 36.30 36.25 36.20 36.15 36.10 36.05 36.00 35.95 35.90 35.85 35.80 35.75 35.70 35.65 35.60 35.55 35.50 35.45 35.40 35.35 35.30 35.25 35.20 35.15 35.10 35.05 35.00 34.95 34.90 34.85 34.80 34.75 34.70 34.65 34.60 34.55 34.50 34.45 34.40 34.35 34.30 34.25 34.20 34.15 34.10 34.05 34.00 33.95 33.90 33.85 33.80 33.75 33.70 33.65 33.60 33.55 33.50 33.45 33.40 33.35 33.30 33.25 33.20 33.15 33.10 33.05 33.00 32.95 32.90 32.85 32.80 32.75 32.70 32.65 32.60 32.55 32.50 32.45 32.40 32.35 32.30 32.25 32.20 32.15 32.10 32.05 32.00 31.95 31.90 31.85 31.80 31.75 31.70 31.65 31.60 31.55 31.50 31.45 31.40 31.35 31.30 31.25 31.20 31.15 31.10 31.05 31.00 30.95 30.90 30.85 30.80 30.75 30.70 30.65 30.60 30.55 30.50 30.45 30.40 30.35 30.30 30.25 30.20 30.15 30.10 30.05
50.00 49.95 49.90 49.85 49.80 49.75 49.70 49.65 49.60 49.55 49.50 49.45 49.40 49.35 49.30 49.25 49.20 49.15 49.10 49.05 49.00 48.95 48.90 48.85 48.80 48.75 48.70 48.65 48.60 48.55 48.50 48.45 48.40 48.35 48.30 48.25 48.20 48.15 48.10 48.05 48.00 47.95 47.90 47.85 47.80 47.75 47.70 47.65 47.60 47.55 47.50 47.45 47.40 47.35 47.30 47.25 47.20 47.15 47.10 47.05 47.00 46.95 46.90 46.85 46.80 46.75 46.70 46.65 46.60 46.55 46.50 46.45 46.40 46.35 46.30 46.25 46.20 46.15 46.10 46.05 46.00 45.95 45.90 45.85 45.80 45.75 45.70 45.65 45.60 45.55 45.50 45.45 45.40 45.35 45.30 45.25 45.20 45.15 45.10 45.05 45.00 44.95 44.90 44.85 44.80 44.75 44.70 44.65 44.60 44.55 44.50 44.45 44.40 44.35 44.30 44.25 44.20 44.15 44.10 44.05 44.00 43.95 43.90 43.85 43.80 43.75 43.70 43.65 43.60 43.55 43.50 43.45 43.40 43.35 43.30 43.25 43.20 43.15 43.10 43.05 43.00 42.95 42.90 42.85 42.80 42.75 42.70 42.65 42.60 42.55 42.50 42.45 42.40 42.35 42.30 42.25 42.20 42.15 42.10 42.05 42.00 41.95 41.90 41.85 41.80 41.75 41.70 41.65 41.60 41.55 41.50 41.45 41.40 41.35 41.30 41.25 41.20 41.15 41.10 41.05 41.00 40.95 40.90 40.85 40.80 40.75 40.70 40.65 40.60 40.55 40.50 40.45 40.40 40.35 40.30 40.25 40.20 40.15 40.10 40.05 40.00 39.95 39.90 39.85 39.80 39.75 39.70 39.65 39.60 39.55 39.50 39.45 39.40 39.35 39.30 39.25 39.20 39.15 39.10 39.05 39.00 38.95 38.90 38.85 38.80 38.75 38.70 38.65 38.60 38.55 38.50 38.45 38.40 38.35 38.30 38.25 38.20 38.15 38.10 38.05 38.00 37.95 37.90 37.85 37.80 37.75 37.70 37.65 37.60 37.55 37.50 37.45 37.40 37.35 37.30 37.25 37.20 37.15 37.10 37.05 37.00 36.95 36.90 36.85 36.80 36.75 36.70 36.65 36.60 36.55 36.50 36.45 36.40 36.35 36.30 36.25 36.20 36.15 36.10 36.05 36.00 35.95 35.90 35.85 35.80 35.75 35.70 35.65 35.60 35.55 35.50 35.45 35.40 35.35 35.30 35.25 35.20 35.15 35.10 35.05 35.00 34.95 34.90 34.85 34.80 34.75 34.70 34.65 34.60 34.55 34.50 34.45 34.40 34.35 34.30 34.25 34.20 34.15 34.10 34.05 34.00 33.95 33.90 33.85 33.80 33.75 33.70 33.65 33.60 33.55 33.50 33.45 33.40 33.35 33.30 33.25 33.20 33.15 33.10 33.05 33.00 32.95 32.90 32.85 32.80 32.75 32.70 32.65 32.60 32.55 32.50 32.45 32.40 32.35 32.30 32.25 32.20 32.15 32.10 32.05 32.00 31.95 31.90 31.85 31.80 31.75 31.70 31.65 31.60 31.55 31.50 31.45 31.40 31.35 31.30 31.25 31.20 31.15 31.10 31.05 31.00 30.95 30.90 30.85 30.80 30.75 30.70 30.65 30.60 30.55 30.50 30.45 30.40 30.35 30.30 30.25 30.20 30.15 30.10 30.05
50.00 49.95 49.90 49.85 49.80 49.75 49.70 49.65 49.60 49.55 49.50 49.45 49.40 49.35 49.30 49.25 49.20 49.15 49.10 49.05 49.00 48.95 48.90 48.85 48.80 48.75 48.70 48.65 48.60 48.55 48.50 48.45 48.40 48.35 48.30 48.25 48.20 48.15 48.10 48.05 48.00 47.95 47.90 47.85 47.80 47.75 47.70 47.65 47.60 47.55 47.50 47.45 47.40 47.35 47.30 47.25 47.20 47.15 47.10 47.05 47.00 46.95 46.90 46.85 46.80 46.75 46.70 46.65 46.60 46.55 46.50 46.45 46.40 46.35 46.30 46.25 46.20 46.15 46.10 46.05 46.00 45.95 45.90 45.85 45.80 45.75 45.70 45.65 45.60 45.55 45.50 45.45 45.40 45.35 45.30 45.25 45.20 45.15 45.10 45.05 45.00 44.95 44.90 44.85 44.80 44.75 44.70 44.65 44.60 44.55 44.50 44.45 44.40 44.35 44.30 44.25 44.20 44.15 44.10 44.05 44.00 43.95 43.90 43.85 43.80 43.75 43.70 43.65 43.60 43.55 43.50 43.45 43.40 43.35 43.30 43.25 43.20 43.15 43.10 43.05 43.00 42.95 42.90 42.85 42.80 42.75 42.70 42.65 42.60 42.55 42.50 42.45 42.40 42.35 42.30 42.25 42.20 42.15 42.10 42.05 42.00 41.95 41.90 41.85 41.80 41.75 41.70 41.65 41.60 41.55 41.50 41.45 41.40 41.35 41.30 41.25 41.20 41.15 41.10 41.05 41.00 40.95 40.90 40.85 40.80 40.75 40.70 40.65 40.60 40.55 40.50 40.45 40.40 40.35 40.30 40.25 40.20 40.15 40.10 40.05 40.00 39.95 39.90 39.85 39.80 39.75 39.70 39.65 39.60 39.55 39.50 39.45 39.40 39.35 39.30 39.25 39.20 39.15 39.10 39.05 39.00 38.95 38.90 38.85 38.80 38.75 38.70 38.65 38.60 38.55 38.50 38.45 38.40 38.35 38.30 38.25 38.20 38.15 38.10 38.05 38.00 37.95 37.90 37.85 37.80 37.75 37.70 37.65 37.60 37.55 37.50 37.45 37.40 37.35 37.30 37.25 37.20 37.15 37.10 37.05 37.00 36.95 36.90 36.85 36.80 36.75 36.70 36.65 36.60 36.55 36.50 36.45 36.40 36.35 36.30 36.25 36.20 36.15 36.10 36.05 36.00 35.95 35.90 35.85 35.80 35.75 35.70 35.65 35.60 35.55 35.50 35.45 35.40 35.35 35.30 35.25 35.20 35.15 35.10 35.05 35.00 34.95 34.90 34.85 34.80 34.75 34.70 34.65 34.60 34.55 34.50 34.45 34.40 34.35 34.30 34.25 34.20 34.15 34.10 34.05 34.00 33.95 33.90 33.85 33.80 33.75 33.70 33.65 33.60 33.55 33.50 33.45 33.40 33.35 33.30 33.25 33.20 33.15 33.10 33.05 33.00 32.95 32.90 32.85 32.80 32.75 32.70 32.65 32.60 32.55 32.50 32.45 32.40 32.35 32.30 32.25 32.20 32.15 32.10 32.05 32.00 31.95 31.90 31.85 31.80 31.75 31.70 31.65 31.60 31.55 31.50 31.45 31.40 31.35 31.30 31.25 31.20 31.15 31.10 31.05 31.00 30.95 30.90 30.85 30.80 30.75 30.70 30.65 30.60 30.55 30.50 30.45 30.40 30.35 30.30 30.25 30.20 30.15 30.10 30.05
50.00 49.95 49.90 49.85 49.80 49.75 49.70 49.65 49.60 49.55 49.50 49.45 49.40 49.35 49.30 49.25 49.20 49.15 49.10 49.05 49.00 48.95 48.90 48.85 48.80 48.75 48.70 48.65 48.60 48.55 48.50 48.45 48.40 48.35 48.30 48.25 48.20 48.15 48.10 48.05 48.00 47.95 47.90 47.85 47.80 47.75 47.70 47.65 47.60 47.55 47.50 47.45 47.40 47.35 47.30 47.25 47.20 47.15 47.10 47.05 47.00 46.95 46.90 46.85 46.80 46.75 46.70 46.65 46.60 46.55 46.50 46.45 46.40 46.35 46.30 46.25 46.20 46.15 46.10 46.05 46.00 45.95 45.90 45.85 45.80 45.75 45.70 45.65 45.60 45.55 45.50 45.45 45.40 45.35 45.30 45.25 45.20 45.15 45.10 45.05 45.00 44.95 44.90 44.85 44.80 44.75 44.70 44.65 44.60 44.55 44.50 44.45 44.40 44.35 44.30 44.25 44.20 44.15 44.10 44.05 44.00 43.95 43.90 43.85 43.80 43.75 43.70 43.65 43.60 43.55 43.50 43.45 43.40 43.35 43.30 43.25 43.20 43.15 43.10 43.05 43.00 42.95 42.90 42.85 42.80 42.75 42.70 42.65 42.60 42.55 42.50 42.45 42.40 42.35 42.30 42.25 42.20 42.15 42.10 42.05 42.00 41.95 41.90 41.85 41.80 41.75 41.70 41.65 41.60 41.55 41.50 41.45 41.40 41.35 41.30 41.25 41.20 41.15 41.10 41.05 41.00 40.95 40.90 40.85 40.80 40.75 40.70 40.65 40.60 40.55 40.50 40.45 40.40 40.35 40.30 40.25 40.20 40.15 40.10 40.05 40.00 39.95 39.90 39.85 39.80 39.75 39.70 39.65 39.60 39.55 39.50 39.45 39.40 39.35 39.30 39.25 39.20 39.15 39.10 39.05 39.00 38.95 38.90 38.85 38.80 38.75 38.70 38.65 38.60 38.55 38.50 38.45 38.40 38.35 38.30 38.25 38.20 38.15 38.10 38.05 38.00 37.95 37.90 37.85 37.80 37.75 37.70 37.65 37.60 37.55 37.50 37.45 37.40 37.35 37.30 37.25 37.20 37.15 37.10 37.05 37.00 36.95 36.90 36.85 36.80 36.75 36.70 36.65 36.60 36.55 36.50 36.45 36.40 36.35 36.30 36.25 36.20 36.15 36.10 36.05 36.00 35.95 35.90 35.85 35.80 35.75 35.70 35.65 35.60 35.55 35.50 35.45 35.40 35.35 35.30 35.25 35.20 35.15 35.10 35.05 35.00 34.95 34.90 34.85 34.80 34.75 34.70 34.65 34.60 34.55 34.50 34.45 34.40 34.35 34.30 34.25 34.20 34.15 34.10 34.05 34.00 33.95 33.90 33.85 33.80 33.75 33.70 33.65 33.60 33.55 33.50 33.45 33.40 33.35 33.30 33.25 33.20 33.15 33.10 33.05 33.00 32.95 32.90 32.85 32.80 32.75 32.70 32.65 32.60 32.55 32.50 32.45 32.40 32.35 32.30 32.25 32.20 32.15 32.10 32.05 32.00 31.95 31.90 31.85 31.80 31.75 31.70 31.65 31.60 31.55 31.50 31.45 31.40 31.35 31.30 31.25 31.20 31.15 31.10 31.05 31.00 30.95 30.90 30.85 30.80 30.75 30.70 30.65 30.60 30.55 30.50 30.45 30.40 30.35 30.30 30.25 30.20 30.15 30.10 30.05
50.00 49.95 49.90 49.85 49.80 49.75 49.70 49.65 49.60 49.55 49.50 49.45 49.40 49.35 49.30 49.25 49.20 49.15 49.10 49.05 49.00 48.95 48.90 48.85 48.80 48.75 48.70 48.65 48.60 48.55 48.50 48.45 48.40 48.35 48.30 48.25 48.20 48.15 48.10 48.05 48.00 47.95 47.90 47.85 47.80 47.75 47.70 47.65 47.60 47.55 47.50 47.45 47.40 47.35 47.30 47.25 47.20 47.15 47.10 47.05 47.00 46.95 46.90 46.85 46.80 46.75 46.70 46.65 46.60 46.55 46.50 46.45 46.40 46.35 46.30 46.25 46.20 46.15 46.10 46.05 46.00 45.95 45.90 45.85 45.80 45.75 45.70 45.65 45.60 45.55 45.50 45.45 45.40 45.35 45.30 45.25 45.20 45.15 45.10 45.05 45.00 44.95 44.90 44.85 44.80 44.75 44.70 44.65 44.60 44.55 44.50 44.45 44.40 44.35 44.30 44.25 44.20 44.15 44.10 44.05 44.00 43.95 43.90 43.85 43.80 43.75 43.70 43.65 43.60 43.55 43.50 43.45 43.40 43.35 43.30 43.25 43.20 43.15 43.10 43.05 43.00 42.95 42.90 42.85 42.80 42.75 42.70 42.65 42.60 42.55 42.50 42.45 42.40 42.35 42.30 42.25 42.20 42.15 42.10 42.05 42.00 41.95 41.90 41.85 41.80 41.75 41.70 41.65 41.60 41.55 41.50 41.45 41.40 41.35 41.30 41.25 41.20 41.15 41.10 41.05 41.00 40.95 40.90 40.85 40.80 40.75 40.70 40.65 40.60 40.55 40.50 40.45 40.40 40.35 40.30 40.25 40.20 40.15 40.10 40.05 40.00 39.95 39.90 39.85 39.80 39.75 39.70 39.65 39.60 39.55 39.50 39.45 39.40 39.35 39.30 39.25 39.20 39.15 39.10 39.05 39.00 38.95 38.90 38.85 38.80 38.75 38.70 38.65 38.60 38.55 38.50 38.45 38.40 38.35 38.30 38.25 38.20 38.15 38.10 38.05 38.00 37.95 37.90 37.85 37.80 37.75 37.70 37.65 37.60 37.55 37.50 37.45 37.40 37.35 37.30 37.25 37.20 37.15 37.10 37.05 37.00 36.95 36.90 36.85 36.80 36.75 36.70 36.65 36.60 36.55 36.50 36.45 36.40 36.35 36.30 36.25 36.20 36.15 36.10 36.05 36.00 35.95 35.90 35.85 35.80 35.75 35.70 35.65 35.60 35.55 35.50 35.45 35.40 35.35 35.30 35.25 35.20 35.15 35.10 35.05 35.00 34.95 34.90 34.85 34.80 34.75 34.70 34.65 34.60 34.55 34.50 34.45 34.40 34.35 34.30 34.25 34.20 34.15 34.10 34.05 34.00 33.95 33.90 33.85 33.80 33.75 33.70 33.65 33.60 33.55 33.50 33.45 33.40 33.35 33.30 33.25 33.20 33.15 33.10 33.05 33.00 32.95 32.90 32.85 32.80 32.75 32.70 32.65 32.60 32.55 32.50 32.45 32.40 32.35 32.30 32.25 32.20 32.15 32.10 32.05 32.00 31.95 31.90 31.85 31.80 31.75 31.70 31.65 31.60 31.55 31.50 31.45 31.40 31.35 31.30 31.25 31.20 31.15 31.10 31.05 31.00 30.95 30.90 30.85 30.80 30.75 30.70 30.65 30.60 30.55 30.50 30.45 30.40 30.35 30.30 30.25 30.20 30.15 30.10 30.05
50.00 49.95 49.90 49.85 49.80 49.75 49.70 49.65 49.60 49.55 49.50 49.45 49.40 49.35 49.30 49.25 49.20 49.15 49.10 49.05 49.00 48.95 48.90 48.85 48.80 48.75 48.70 48.65 48.60 48.55 48.50 48.45 48.40 48.35 48.30 48.25 48.20 48.15 48.10 48.05 48.00 47.95 47.90 47.85 47.80 47.75 47.70 47.65 47.60 47.55 47.50 47.45 47.40 47.35 47.30 47.25 47.20 47.15 47.10 47.05 47.00 46.95 46.90 46.85 46.80 46.75 46.70 46.65 46.60 46.55 46.50 46.45 46.40 46.35 46.30 46.25 46.20 46.15 46.10 46.05 46.00 45.95 45.90 45.85 45.80 45.75 45.70 45.65 45.60 45.55 45.50 45.45 45.40 45.35 45.30 45.25 45.20 45.15 45.10 45.05 45.00 44.95 44.90 44.85 44.80 44.75 44.70 44.65 44.60 44.55 44.50 44.45 44.40 44.35 44.30 44.25 44.20 44.15 44.10 44.05 44.00 43.95 43.90 43.85 43.80 43.75 43.70 43.65 43.60 43.55 43.50 43.45 43.40 43.35 43.30 43.25 43.20 43.15 43.10 43.05 43.00 42.95 42.90 42.85 42.80 42.75 42.70 42.65 42.60 42.55 42.50 42.45 42.40 42.35 42.30 42.25 42.20 42.15 42.10 42.05 42.00 41.95 41.90 41.85 41.80 41.75 41.70 41.65 41.60 41.55 41.50 41.45 41.40 41.35 41.30 41.25 41.20 41.15 41.10 41.05 41.00 40.95 40.90 40.85 40.80 40.75 40.70 40.65 40.60 40.55 40.50 40.45 40.40 40.35 40.30 40.25 40.20 40.15 40.10 40.05 40.00 39.95 39.90 39.85 39.80 39.75 39.70 39.65 39.60 39.55 39.50 39.45 39.40 39.35 39.30 39.25 39.20 39.15 39.10 39.05 39.00 38.95 38.90 38.85 38.80 38.75 38.70 38.65 38.60 38.55 38.50 38.45 38.40 38.35 38.30 38.25 38.20 38.15 38.10 38.05 38.00 37.95 37.90 37.85 37.80 37.75 37.70 37.65 37.60 37.55 37.50 37.45 37.40 37.35 37.30 37.25 37.20 37.15 37.10 37.05 37.00 36.95 36.90 36.85 36.80 36.75 36.70 36.65 36.60 36.55 36.50 36.45 36.40 36.35 36.30 36.25 36.20 36.15 36.10 36.05 36.00 35.95 35.90 35.85 35.80 35.75 35.70 35.65 35.60 35.55 35.50 35.45 35.40 35.35 35.30 35.25 35.20 35.15 35.10 35.05 35.00 34.95 34.90 34.85 34.80 34.75 34.70 34.65 34.60 34.55 34.50 34.45 34.40 34.35 34.30 34.25 34.20 34.15 34.10 34.05 34.00 33.95 33.90 33.85 33.80 33.75 33.70 33.65 33.60 33.55 33.50 33.45 33.40 33.35 33.30 33.25 33.20 33.15 33.10 33.05 33.00 32.95 32.90 32.85 32.80 32.75 32.70 32.65 32.60 32.55 32.50 32.45 32.40 32.35 32.30 32.25 32.20 32.15 32.10 32.05 32.00 31.95 31.90 31.85 31.80 31.75 31.70 31.65 31.60 31.55 31.50 31.45 31.40 31.35 31.30 31.25 31.20 31.15 31.10 31.05 31.00 30.95 30.90 30.85 30.80 30.75 30.70 30.65 30.60 30.55 30.50 30.45 30.40 30.35 30.30 30.25 30.20 30.15 30.10 30.05
50.00 49.95 49.90 49.85 49.80 49.75 49.70 49.65 49.60 49.55 49.50 49.45 49.40 49.35 49.30 49.25 49.20 49.15 49.10 49.05 49.00 48.95 48.90 48.85 48.80 48.75 48.70 48.65 48.60 48.55 48.50 48.45 48.40 48.35 48.30 48.25 48.20 48.15 48.10 48.05 48.00 47.95 47.90 47.85 47.80 47.75 47.70 47.65 47.60 47.55 47.50 47.45 47.40 47.35 47.30 47.25 47.20 47.15 47.10 47.05 47.00 46.95 46.90 46.85 46.80 46.75 46.70 46.65 46.60 46.55 46.50 46.45 46.40 46.35 46.30 46.25 46.20 46.15 46.10 46.05 46.00 45.95 45.90 45.85 45.80 45.75 45.70 45.65 45.60 45.55 45.50 45.45 45.40 45.35 45.30 45.25 45.20 45.15 45.10 45.05 45.00 44.95 44.90 44.85 44.80 44.75 44.70 44.65 44.60 44.55 44.50 44.45 44.40 44.35 44.30 44.25 44.20 44.15 44.10 44.05 44.00 43.95 43.90 43.85 43.80 43.75 43.70 43.65 43.60 43.55 43.50 43.45 43.40 43.35 43.30 43.25 43.20 43.15 43.10 43.05 43.00 42.95 42.90 42.85 42.80 42.75 42.70 42.65 42.60 42.55 42.50 42.45 42.40 42.35 42.30 42.25 42.20 42.15 42.10 42.05 42.00 41.95 41.90 41.85 41.80 41.75 41.70 41.65 41.60 41.55 41.50 41.45 41.40 41.35 41.30 41.25 41.20 41.15 41.10 41.05 41.00 40.95 40.90 40.85 40.80 40.75 40.70 40.65 40.60 40.55 40.50 40.45 40.40 40.35 40.30 40.25 40.20 40.15 40.10 40.05 40.00 39.95 39.90 39.85 39.80 39.75 39.70 39.65 39.60 39.55 39.50 39.45 39.40 39.35 39.30 39.25 39.20 39.15 39.10 39.05 39.00 38.95 38.90 38.85 38.80 38.75 38.70 38.65 38.60 38.55 38.50 38.45 38.40 38.35 38.30 38.25 38.20 38.15 38.10 38.05 38.00 37.95 37.90 37.85 37.80 37.75 37.70 37.65 37.60 37.55 37.50 37.45 37.40 37.35 37.30 37.25 37.20 37.15 37.10 37.05 37.00 36.95 36.90 36.85 36.80 36.75 36.70 36.65 36.60 36.55 36.50 36.45 36.40 36.35 36.30 36.25 36.20 36.15 36.10 36.05 36.00 35.95 35.90 35.85 35.80 35.75 35.70 35.65 35.60 35.55 35.50 35.45 35.40 35.35 35.30 35.25 35.20 35.15 35.10 35.05 35.00 34.95 34.90 34.85 34.80 34.75 34.70 34.65 34.60 34.55 34.50 34.45 34.40 34.35 34.30 34.25 34.20 34.15 34.10 34.05 34.00 33.95 33.90 33.85 33.80 33.75 33.70 33.65 33.60 33.55 33.50 33.45 33.40 33.35 33.30 33.25 33.20 33.15 33.10 33.05 33.00 32.95 32.90 32.85 32.80 32.75 32.70 32.65 32.60 32.55 32.50 32.45 32.40 32.35 32.30 32.25 32.20 32.15 32.10 32.05 32.00 31.95 31.90 31.85 31.80 31.75 31.70 31.65 31.60 31.55 31.50 31.45 31.40 31.35 31.30 31.25 31.20 31.15 31.10 31.05 31.00 30.95 30.90 30.85 30.80 30.75 30.70 30.65 30.60 30.55 30.50 30.45 30.40 30.35 30.30 30.25 30.20 30.15 30.10 30.05
50.00 49.95 49.90 49.85 49.80 49.75 49.70 49.65 49.60 49.55 49.50 49.45 49.40 49.35 49.30 49.25 49.20 49.15 49.10 49.05 49.00 48.95 48.90 48.85 48.80 48.75 48.70 48.65 48.60 48.55 48.50 48.45 48.40 48.35 48.30 48.25 48.20 48.15 48.10 48.05 48.00 47.95 47.90 47.85 47.80 47.75 47.70 47.65 47.60 47.55 47.50 47.45 47.40 47.35 47.30 47.25 47.20 47.15 47.10 47.05 47.00 46.95 46.90 46.85 46.80 46.75 46.70 46.65 46.60 46.55 46.50 46.45 46.40 46.35 46.30 46.25 46.20 46.15 46.10 46.05 46.00 45.95 45.90 45.85 45.80 45.75 45.70 45.65 45.60 45.55 45.50 45.45 45.40 45.35 45.30 45.25 45.20 45.15 45.10 45.05 45.00 44.95 44.90 44.85 44.80 44.75 44.70 44.65 44.60 44.55 44.50 44.45 44.40 44.35 44.30 44.25 44.20 44.15 44.10 44.05 44.00 43.95 43.90 43.85 43.80 43.75 43.70 43.65 43.60 43.55 43.50 43.45 43.40 43.35 43.30 43.25 43.20 43.15 43.10 43.05 43.00 42.95 42.90 42.85 42.80 42.75 42.70 42.65 42.60 42.55 42.50 42.45 42.40 42.35 42.30 42.25 42.20 42.15 42.10 42.05 42.00 41.95 41.90 41.85 41.80 41.75 41.70 41.65 41.60 41.55 41.50 41.45 41.40 41.35 41.30 41.25 41.20 41.15 41.10 41.05 41.00 40.95 40.90 40.85 40.80 40.75 40.70 40.65 40.60 40.55 40.50 40.45 40.40 40.35 40.30 40.25 40.20 40.15 40.10 40.05 40.00 39.95 39.90 39.85 39.80 39.75 39.70 39.65 39.60 39.55 39.50 39.45 39.40 39.35 39.30 39.25 39.20 39.15 39.10 39.05 39.00 38.95 38.90 38.85 38.80 38.75 38.70 38.65 38.60 38.55 38.50 38.45 38.40 38.35 38.30 38.25 38.20 38.15 38.10 38.05 38.00 37.95 37.90 37.85 37.80 37.75 37.70 37.65 37.60 37.55 37.50 37.45 37.40 37.35 37.30 37.25 37.20 37.15 37.10 37.05 37.00 36.95 36.90 36.85 36.80 36.75 36.70 36.65 36.60 36.55 36.50 36.45 36.40 36.35 36.30 36.25 36.20 36.15 36.10 36.05 36.00 35.95 35.90 35.85 35.80 35.75 35.70 35.65 35.60 35.55 35.50 35.45 35.40 35.35 35.30 35.25 35.20 35.15 35.10 35.05 35.00 34.95 34.90 34.85 34.80 34.75 34.70 34.65 34.60 34.55 34.50 34.45 34.40 34.35 34.30 34.25 34.20 34.15 34.10 34.05 34.00 33.95 33.90 33.85 33.80 33.75 33.70 33.65 33.60 33.55 33.50 33.45 33.40 33.35 33.30 33.25 33.20 33.15 33.10 33.05 33.00 32.95 32.90 32.85 32.80 32.75 32.70 32.65 32.60 32.55 32.50 32.45 32.40 32.35 32.30 32.25 32.20 32.15 32.10 32.05 32.00 31.95 31.90 31.85 31.80 31.75 31.70 31.65 31.60 31.55 31.50 31.45 31.40 31.35 31.30 31.25 31.20 31.15 31.10 31.05 31.00 30.95 30.90 30.85 30.80 30.75 30.70 30.65 30.60 30.55 30.50 30.45 30.40 30.35 30.30 30.25 30.20 30.15 30.10 30.05
50.00 49.95 49.90 49.85 49.80 49.75 49.70 49.65 49.60 49.55 49.50 49.45 49.40 49.35 49.30 49.25 49.20 49.15 49.10 49.05 49.00 48.95 48.90 48.85 48.80 48.75 48.70 48.65 48.60 48.55 48.50 48.45 48.40 48.35 48.30 48.25 48.20 48.15 48.10 48.05 48.00 47.95 47.90 47.85 47.80 47.75 47.70 47.65 47.60 47.55 47.50 47.45 47.40 47.35 47.30 47.25 47.20 47.15 47.10 47.05 47.00 46.95 46.90 46.85 46.80 46.75 46.70 46.65 46.60 46.55 46.50 46.45 46.40 46.35 46.30 46.25 46.20 46.15 46.10 46.05 46.00 45.95 45.90 45.85 45.80 45.75 45.70 45.65 45.60 45.55 45.50 45.45 45.40 45.35 45.30 45.25 45.20 45.15 45.10 45.05 45.00 44.95 44.90 44.85 44.80 44.75 44.70 44.65 44.60 44.55 44.50 44.45 44.40 44.35 44.30 44.25 44.20 44.15 44.10 44.05 44.00 43.95 43.90 43.85 43.80 43.75 43.70 43.65 43.60 43.55 43.50 43.45 43.40 43.35 43.30 43.25 43.20 43.15 43.10 43.05 43.00 42.95 42.90 42.85 42.80 42.75 42.70 42.65 42.60 42.55 42.50 42.45 42.40 42.35 42.30 42.25 42.20 42.15 42.10 42.05 42.00 41.95 41.90 41.85 41.80 41.75 41.70 41.65 41.60 41.55 41.50 41.45 41.40 41.35 41.30 41.25 41.20 41.15 41.10 41.05 41.00 40.95 40.90 40.85 40.80 40.75 40.70 40.65 40.60 40.55 40.50 40.45 40.40 40.35 40.30 40.25 40.20 40.15 40.10 40.05 40.00 39.95 39.90 39.85 39.80 39.75 39.70 39.65 39.60 39.55 39.50 39.45 39.40 39.35 39.30 39.25 39.20 39.15 39.10 39.05 39.00 38.95 38.90 38.85 38.80 38.75 38.70 38.65 38.60 38.55 38.50 38.45 38.40 38.35 38.30 38.25 38.20 38.15 38.10 38.05 38.00 37.95 37.90 37.85 37.80 37.75 37.70 37.65 37.60 37.55 37.50 37.45 37.40 37.35 37.30 37.25 37.20 37.15 37.10 37.05 37.00 36.95 36.90 36.85 36.80 36.75 36.70 36.65 36.60 36.55 36.50 36.45 36.40 36.35 36.30 36.25 36.20 36.15 36.10 36.05 36.00 35.95 35.90 35.85 35.80 35.75 35.70 35.65 35.60 35.55 35.50 35.45 35.40 35.35 35.30 35.25 35.20 35.15 35.10 35.05 35.00 34.95 34.90 34.85 34.80 34.75 34.70 34.65 34.60 34.55 34.50 34.45 34.40 34.35 34.30 34.25 34.20 34.15 34.10 34.05 34.00 33.95 33.90 33.85 33.80 33.75 33.70 33.65 33.60 33.55 33.50 33.45 33.40 33.35 33.30 33.25 33.20 33.15 33.10 33.05 33.00 32.95 32.90 32.85 32.80 32.75 32.70 32.65 32.60 32.55 32.50 32.45 32.40 32.35 32.30 32.25 32.20 32.15 32.10 32.05 32.00 31.95 31.90 31.85 31.80 31.75 31.70 31.65 31.60 31.55 31.50 31.45 31.40 31.35 31.30 31.25 31.20 31.15 31.10 31.05 31.00 30.95 30.90 30.85 30.80 30.75 30.70 30.65 30.60 30.55 30.50 30.45 30.40 30.35 30.30 30.25 30.20 30.15 30.10 30.05
50.00 49.95 49.90 49.85 49.80 49.75 49.70 49.65 49.60 49.55 49.50 49.45 49.40 49.35 49.30 49.25 49.20 49.15 49.10 49.05 49.00 48.95 48.90 48.85 48.80 48.75 48.70 48.65 48.60 48.55 48.50 48.45 48.40 48.35 48.30 48.25 48.20 48.15 48.10 48.05 48.00 47.95 47.90 47.85 47.80 47.75 47.70 47.65 47.60 47.55 47.50 47.45 47.40 47.35 47.30 47.25 47.20 47.15 47.10 47.05 47.00 46.95 46.90 46.85 46.80 46.75 46.70 46.65 46.60 46.55 46.50 46.45 46.40 46.35 46.30 46.25 46.20 46.15 46.10 46.05 46.00 45.95 45.90 45.85 45.80 45.75 45.70 45.65 45.60 45.55 45.50 45.45 45.40 45.35 45.30 45.25 45.20 45.15 45.10 45.05 45.00 44.95 44.90 44.85 44.80 44.75 44.70 44.65 44.60 44.55 44.50 44.45 44.40 44.35 44.30 44.25 44.20 44.15 44.10 44.05 44.00 43.95 43.90 43.85 43.80 43.75 43.70 43.65 43.60 43.55 43.50 43.45 43.40 43.35 43.30 43.25 43.20 43.15 43.10 43.05 43.00 42.95 42.90 42.85 42.80 42.75 42.70 42.65 42.60 42.55 42.50 42.45 42.40 42.35 42.30 42.25 42.20 42.15 42.10 42.05 42.00 41.95 41.90 41.85 41.80 41.75 41.70 41.65 41.60 41.55 41.50 41.45 41.40 41.35 41.30 41.25 41.20 41.15 41.10 41.05 41.00 40.95 40.90 40.85 40.80 40.75 40.70 40.65 40.60 40.55 40.50 40.45 40.40 40.35 40.30 40.25 40.20 40.15 40.10 40.05 40.00 39.95 39.90 39.85 39.80 39.75 39.70 39.65 39.60 39.55 39.50 39.45 39.40 39.35 39.30 39.25 39.20 39.15 39.10 39.05 39.00 38.95 38.90 38.85 38.80 38.75 38.70 38.65 38.60 38.55 38.50 38.45 38.40 38.35 38.30 38.25 38.20 38.15 38.10 38.05 38.00 37.95 37.90 37.85 37.80 37.75 37.70 37.65 37.60 37.55 37.50 37.45 37.40 37.35 37.30 37.25 37.20 37.15 37.10 37.05 37.00 36.95 36.90 36.85 36.80 36.75 36.70 36.65 36.60 36.55 36.50 36.45 36.40 36.35 36.30 36.25 36.20 36.15 36.10 36.05 36.00 35.95 35.90 35.85 35.80 35.75 35.70 35.65 35.60 35.55 35.50 35.45 35.40 35.35 35.30 35.25 35.20 35.15 35.10 35.05 35.00 34.95 34.90 34.85 34.80 34.75 34.70 34.65 34.60 34.55 34.50 34.45 34.40 34.35 34.30 34.25 34.20 34.15 34.10 34.05 34.00 33.95 33.90 33.85 33.80 33.75 33.70 33.65 33.60 33.55 33.50 33.45 33.40 33.35 33.30 33.25 33.20 33.15 33.10 33.05 33.00 32.95 32.90 32.85 32.80 32.75 32.70 32.65 32.60 32.55 32.50 32.45 32.40 32.35 32.30 32.25 32.20 32.15 32.10 32.05 32.00 31.95 31.90 31.85 31.80 31.75 31.70 31.65 31.60 31.55 31.50 31.45 31.40 31.35 31.30 31.25 31.20 31.15 31.10 31.05 31.00 30.95 30.90 30.85 30.80 30.75 30.70 30.65 30.60 30.55 30.50 30.45 30.40 30.35 30.30 30.25 30.20 30.15 30.10 30.05
50.00 49.95 49.90 49.85 49.80 49.75 49.70 49.65 49.60 49.55 49.50 49.45 49.40 49.35 49.30 49.25 49.20 49.15 49.10 49.05 49.00 48.95 48.90 48.85 48.80 48.75 48.70 48.65 48.60 48.55 48.50 48.45 48.40 48.35 48.30 48.25 48.20 48.15 48.10 48.05 48.00 47.95 47.90 47.85 47.80 47.75 47.70 47.65 47.60 47.55 47.50 47.45 47.40 47.35 47.30 47.25 47.20 47.15 47.10 47.05 47.00 46.95 46.90 46.85 46.80 46.75 46.70 46.65 46.60 46.55 46.50 46.45 46.40 46.35 46.30 46.25 46.20 46.15 46.10 46.05 46.00 45.95 45.90 45.85 45.80 45.75 45.70 45.65 45.60 45.55 45.50 45.45 45.40 45.35 45.30 45.25 45.20 45.15 45.10 45.05 45.00 44.95 44.90 44.85 44.80 44.75 44.70 44.65 44.60 44.55 44.50 44.45 44.40 44.35 44.30 44.25 44.20 44.15 44.10 44.05 44.00 43.95 43.90 43.85 43.80 43.75 43.70 43.65 43.60 43.55 43.50 43.45 43.40 43.35 43.30 43.25 43.20 43.15 43.10 43.05 43.00 42.95 42.90 42.85 42.80 42.75 42.70 42.65 42.60 42.55 42.50 42.45 42.40 42.35 42.30 42.25 42.20 42.15 42.10 42.05 42.00 41.95 41.90 41.85 41.80 41.75 41.70 41.65 41.60 41.55 41.50 41.45 41.40 41.35 41.30 41.25 41.20 41.15 41.10 41.05 41.00 40.95 40.90 40.85 40.80 40.75 40.70 40.65 40.60 40.55 40.50 40.45 40.40 40.35 40.30 40.25 40.20 40.15 40.10 40.05 40.00 39.95 39.90 39.85 39.80 39.75 39.70 39.65 39.60 39.55 39.50 39.45 39.40 39.35 39.30 39.25 39.20 39.15 39.10 39.05 39.00 38.95 38.90 38.85 38.80 38.75 38.70 38.65 38.60 38.55 38.50 38.45 38.40 38.35 38.30 38.25 38.20 38.15 38.10 38.05 38.00 37.95 37.90 37.85 37.80 37.75 37.70 37.65 37.60 37.55 37.50 37.45 37.40 37.35 37.30 37.25 37.20 37.15 37.10 37.05 37.00 36.95 36.90 36.85 36.80 36.75 36.70 36.65 36.60 36.55 36.50 36.45 36.40 36.35 36.30 36.25 36.20 36.15 36.10 36.05 36.00 35.95 35.90 35.85 35.80 35.75 35.70 35.65 35.60 35.55 35.50 35.45 35.40 35.35 35.30 35.25 35.20 35.15 35.10 35.05 35.00 34.95 34.90 34.85 34.80 34.75 34.70 34.65 34.60 34.55 34.50 34.45 34.40 34.35 34.30 34.25 34.20 34.15 34.10 34.05 34.00 33.95 33.90 33.85 33.80 33.75 33.70 33.65 33.60 33.55 33.50 33.45 33.40 33.35 33.30 33.25 33.20 33.15 33.10 33.05 33.00 32.95 32.90 32.85 32.80 32.75 32.70 32.65 32.60 32.55 32.50 32.45 32.40 32.35 32.30 32.25 32.20 32.15 32.10 32.05 32.00 31.95 31.90 31.85 31.80 31.75 31.70 31.65 31.60 31.55 31.50 31.45 31.40 31.35 31.30 31.25 31.20 31.15 31.10 31.05 31.00 30.95 30.90 30.85 30.80 30.75 30.70 30.65 30.60 30.55 30.50 30.45 30.40 30.35 30.30 30.25 30.20 30.15 30.10 30.05
50.00 49.95 49.90 49.85 49.80 49.75 49.70 49.65 49.60 49.55 49.50 49.45 49.40 49.35 49.30 49.25 49.20 49.15 49.10 49.05 49.00 48.95 48.90 48.85 48.80 48.75 48.70 48.65 48.60 48.55 48.50 48.45 48.40 48.35 48.30 48.25 48.20 48.15 48.10 48.05 48.00 47.95 47.90 47.85 47.80 47.75 47.70 47.65 47.60 47.55 47.50 47.45 47.40 47.35 47.30 47.25 47.20 47.15 47.10 47.05 47.00 46.95 46.90 46.85 46.80 46.75 46.70 46.65 46.60 46.55 46.50 46.45 46.40 46.35 46.30 46.25 46.20 46.15 46.10 46.05 46.00 45.95 45.90 45.85 45.80 45.75 45.70 45.65 45.60 45.55 45.50 45.45 45.40 45.35 45.30 45.25 45.20 45.15 45.10 45.05 45.00 44.95 44.90 44.85 44.80 44.75 44.70 44.65 44.60 44.55 44.50 44.45 44.40 44.35 44.30 44.25 44.20 44.15 44.10 44.05 44.00 43.95 43.90 43.85 43.80 43.75 43.70 43.65 43.60 43.55 43.50 43.45 43.40 43.35 43.30 43.25 43.20 43.15 43.10 43.05 43.00 42.95 42.90 42.85 42.80 42.75 42.70 42.65 42.60 42.55 42.50 42.45 42.40 42.35 42.30 42.25 42.20 42.15 42.10 42.05 42.00 41.95 41.90 41.85 41.80 41.75 41.70 41.65 41.60 41.55 41.50 41.45 41.40 41.35 41.30 41.25 41.20 41.15 41.10 41.05 41.00 40.95 40.90 40.85 40.80 40.75 40.70 40.65 40.60 40.55 40.50 40.45 40.40 40.35 40.30 40.25 40.20 40.15 40.10 40.05 40.00 39.95 39.90 39.85 39.80 39.75 39.70 39.65 39.60 39.55 39.50 39.45 39.40 39.35 39.30 39.25 39.20 39.15 39.10 39.05 39.00 38.95 38.90 38.85 38.80 38.75 38.70 38.65 38.60 38.55 38.50 38.45 38.40 38.35 38.30 38.25 38.20 38.15 38.10 38.05 38.00 37.95 37.90 37.85 37.80 37.75 37.70 37.65 37.60 37.55 37.50 37.45 37.40 37.35 37.30 37.25 37.20 37.15 37.10 37.05 37.00 36.95 36.90 36.85 36.80 36.75 36.70 36.65 36.60 36.55 36.50 36.45 36.40 36.35 36.30 36.25 36.20 36.15 36.10 36.05 36.00 35.95 35.90 35.85 35.80 35.75 35.70 35.65 35.60 35.55 35.50 35.45 35.40 35.35 35.30 35.25 35.20 35.15 35.10 35.05 35.00 34.95 34.90 34.85 34.80 34.75 34.70 34.65 34.60 34.55 34.50 34.45 34.40 34.35 34.30 34.25 34.20 34.15 34.10 34.05 34.00 33.95 33.90 33.85 33.80 33.75 33.70 33.65 33.60 33.55 33.50 33.45 33.40 33.35 33.30 33.25 33.20 33.15 33.10 33.05 33.00 32.95 32.90 32.85 32.80 32.75 32.70 32.65 32.60 32.55 32.50 32.45 32.40 32.35 32.30 32.25 32.20 32.15 32.10 32.05 32.00 31.95 31.90 31.85 31.80 31.75 31.70 31.65 31.60 31.55 31.50 31.45 31.40 31.35 31.30 31.25 31.20 31.15 31.10 31.05 31.00 30.95 30.90 30.85 30.80 30.75 30.70 30.65 30.60 30.55 30.50 30.45 30.40 30.35 30.30 30.25 30.20 30.15 30.10 30.05
50.00 49.95 49.90 49.85 49.80 49.75 49.70 49.65 49.60 49.55 49.50 49.45 49.40 49.35 49.30 49.25 49.20 49.15 49.10 49.05 49.00 48.95 48.90 48.85 48.80 48.75 48.70 48.65 48.60 48.55 48.50 48.45 48.40 48.35 48.30 48.25 48.20 48.15 48.10 48.05 48.00 47.95 47.90 47.85 47.80 47.75 47.70 47.65 47.60 47.55 47.50 47.45 47.40 47.35 47.30 47.25 47.20 47.15 47.10 47.05 47.00 46.95 46.90 46.85 46.80 46.75 46.70 46.65 46.60 46.55 46.50 46.45 46.40 46.35 46.30 46.25 46.20 46.15 46.10 46.05 46.00 45.95 45.90 45.85 45.80 45.75 45.70 45.65 45.60 45.55 45.50 45.45 45.40 45.35 45.30 45.25 45.20 45.15 45.10 45.05 45.00 44.95 44.90 44.85 44.80 44.75 44.70 44.65 44.60 44.55 44.50 44.45 44.40 44.35 44.30 44.25 44.20 44.15 44.10 44.05 44.00 43.95 43.90 43.85 43.80 43.75 43.70 43.65 43.60 43.55 43.50 43.45 43.40 43.35 43.30 43.25 43.20 43.15 43.10 43.05 43.00 42.95 42.90 42.85 42.80 42.75 42.70 42.65 42.60 42.55 42.50 42.45 42.40 42.35 42.30 42.25 42.20 42.15 42.10 42.05 42.00 41.95 41.90 41.85 41.80 41.75 41.70 41.65 41.60 41.55 41.50 41.45 41.40 41.35 41.30 41.25 41.20 41.15 41.10 41.05 41.00 40.95 40.90 40.85 40.80 40.75 40.70 40.65 40.60 40.55 40.50 40.45 40.40 40.35 40.30 40.25 40.20 40.15 40.10 40.05 40.00 39.95 39.90 39.85 39.80 39.75 39.70 39.65 39.60 39.55 39.50 39.45 39.40 39.35 39.30 39.25 39.20 39.15 39.10 39.05 39.00 38.95 38.90 38.85 38.80 38.75 38.70 38.65 38.60 38.55 38.50 38.45 38.40 38.35 38.30 38.25 38.20 38.15 38.10 38.05 38.00 37.95 37.90 37.85 37.80 37.75 37.70 37.65 37.60 37.55 37.50 37.45 37.40 37.35 37.30 37.25 37.20 37.15 37.10 37.05 37.00 36.95 36.90 36.85 36.80 36.75 36.70 36.65 36.60 36.55 36.50 36.45 36.40 36.35 36.30 36.25 36.20 36.15 36.10 36.05 36.00 35.95 35.90 35.85 35.80 35.75 35.70 35.65 35.60 35.55 35.50 35.45 35.40 35.35 35.30 35.25 35.20 35.15 35.10 35.05 35.00 34.95 34.90 34.85 34.80 34.75 34.70 34.65 34.60 34.55 34.50 34.45 34.40 34.35 34.30 34.25 34.20 34.15 34.10 34.05 34.00 33.95 33.90 33.85 33.80 33.75 33.70 33.65 33.60 33.55 33.50 33.45 33.40 33.35 33.30 33.25 33.20 33.15 33.10 33.05 33.00 32.95 32.90 32.85 32.80 32.75 32.70 32.65 32.60 32.55 32.50 32.45 32.40 32.35 32.30 32.25 32.20 32.15 32.10 32.05 32.00 31.95 31.90 31.85 31.80 31.75 31.70 31.65 31.60 31.55 31.50 31.45 31.40 31.35 31.30 31.25 31.20 31.15 31.10 31.05 31.00 30.95 30.90 30.85 30.80 30.75 30.70 30.65 30.60 30.55 30.50 30.45 30.40 30.35 30.30 30.25 30.20 30.15 30.10 30.05
50.75 50.70 50.65 50.60 50.55 50.50 50.45 50.40 50.35 50.30 50.25 50.20 50.15 50.10 50.05 50.00 49.95 49.90 49.85 49.80 49.75 49.70 49.65 49.60 49.55 49.50 49.45 49.40 49.35 49.30 49.25 49.20 49.15 49.10 49.05 49.00 48.95 48.90 48.85 48.80 48.75 48.70 48.65 48.60 48.55 48.50 48.45 48.40 48.35 48.30 48.25 48.20 48.15 48.10 48.05 48.00 47.95 47.90 47.85 47.80 47.75 47.70 47.65 47.60 47.55 47.50 47.45 47.40 47.35 47.30 47.25 47.20 47.15 47.10 47.05 47.00 46.95 46.90 46.85 46.80 46.75 46.70 46.65 46.60 46.55 46.50 46.45 46.40 46.35 46.30 46.25 46.20 46.15 46.10 46.05 46.00 45.95 45.90 45.85 45.80 45.75 45.70 45.65 45.60 45.55 45.50 45.45 45.40 45.35 45.30 45.25 45.20 45.15 45.10 45.05 45.00 44.95 44.90 44.85 44.80 44.75 44.70 44.65 44.60 44.55 44.50 44.45 44.40 44.35 44.30 44.25 44.20 44.15 44.10 44.05 44.00 43.95 43.90 43.85 43.80 43.75 43.70 43.65 43.60 43.55 43.50 43.45 43.40 43.35 43.30 43.25 43.20 43.15 43.10 43.05 43.00 42.95 42.90 42.85 42.80 42.75 42.70 42.65 42.60 42.55 42.50 42.45 42.40 42.35 42.30 42.25 42.20 42.15 42.10 42.05 42.00 41.95 41.90 41.85 41.80 41.75 41.70 41.65 41.60 41.55 41.50 41.45 41.40 41.35 41.30 41.25 41.20 41.15 41.10 41.05 41.00 40.95 40.90 40.85 40.80 40.75 40.70 40.65 40.60 40.55 40.50 40.45 40.40 40.35 40.30 40.25 40.20 40.15 40.10 40.05 40.00 39.95 39.90 39.85 39.80 39.75 39.70 39.65 39.60 39.55 39.50 39.45 39.40 39.35 39.30 39.25 39.20 39.15 39.10 39.05 39.00 38.95 38.90 38.85 38.80 38.75 38.70 38.65 38.60 38.55 38.50 38.45 38.40 38.35 38.30 38.25 38.20 38.15 38.10 38.05 38.00 37.95 37.90 37.85 37.80 37.75 37.70 37.65 37.60 37.55 37.50 37.45 37.40 37.35 37.30 37.25 37.20 37.15 37.10 37.05 37.00 36.95 36.90 36.85 36.80 36.75 36.70 36.65 36.60 36.55 36.50 36.45 36.40 36.35 36.30 36.25 36.20 36.15 36.10 36.05 36.00 35.95 35.90 35.85 35.80 35.75 35.70 35.65 35.60 35.55 35.50 35.45 35.40 35.35 35.30 35.25 35.20 35.15 35.10 35.05 35.00 34.95 34.90 34.85 34.80 34.75 34.70 34.65 34.60 34.55 34.50 34.45 34.40 34.35 34.30 34.25 34.20 34.15 34.10 34.05 34.00 33.95 33.90 33.85 33.80 33.75 33.70 33.65 33.60 33.55 33.50 33.45 33.40 33.35 33.30 33.25 33.20 33.15 33.10 33.05 33.00 32.95 32.90 32.85 32.80 32.75 32.70 32.65 32.60 32.55 32.50 32.45 32.40 32.35 32.30 32.25 32.20 32.15 32.10 32.05 32.00 31.95 31.90 31.85 31.80 31.75 31.70 31.65 31.60 31.55 31.50 31.45 31.40 31.35 31.30 31.25 31.20 31.15 31.10 31.05 31.00 30.95 30.90 30.85 30.80
51.50 51.45 51.40 51.35 51.30 51.25 51.20 51.15 51.10 51.05 51.00 50.95 50.90 50.85 50.80 50.75 50.70 50.65 50.60 50.55 50.50 50.45 50.40 50.35 50.30 50.25 50.20 50.15 50.10 50.05 50.00 49.95 49.90 49.85 49.80 49.75 49.70 49.65 49.60 49.55 49.50 49.45 49.40 49.35 49.30 49.25 49.20 49.15 49.10 49.05 49.00 48.95 48.90 48.85 48.80 48.75 48.70 48.65 48.60 48.55 48.50 48.45 48.40 48.35 48.30 48.25 48.20 48.15 48.10 48.05 48.00 47.95 47.90 47.85 47.80 47.75 47.70 47.65 47.60 47.55 47.50 47.45 47.40 47.35 47.30 47.25 47.20 47.15 47.10 47.05 47.00 46.95 46.90 46.85 46.80 46.75 46.70 46.65 46.60 46.55 46.50 46.45 46.40 46.35 46.30 46.25 46.20 46.15 46.10 46.05 46.00 45.95 45.90 45.85 45.80 45.75 45.70 45.65 45.60 45.55 45.50 45.45 45.40 45.35 45.30 45.25 45.20 45.15 45.10 45.05 45.00 44.95 44.90 44.85 44.80 44.75 44.70 44.65 44.60 44.55 44.50 44.45 44.40 44.35 44.30 44.25 44.20 44.15 44.10 44.05 44.00 43.95 43.90 43.85 43.80 43.75 43.70 43.65 43.60 43.55 43.50 43.45 43.40 43.35 43.30 43.25 43.20 43.15 43.10 43.05 43.00 42.95 42.90 42.85 42.80 42.75 42.70 42.65 42.60 42.55 42.50 42.45 42.40 42.35 42.30 42.25 42.20 42.15 42.10 42.05 42.00 41.95 41.90 41.85 41.80 41.75 41.70 41.65 41.60 41.55 41.50 41.45 41.40 41.35 41.30 41.25 41.20 41.15 41.10 41.05 41.00 40.95 40.90 40.85 40.80 40.75 40.70 40.65 40.60 40.55 40.50 40.45 40.40 40.35 40.30 40.25 40.20 40.15 40.10 40.05 40.00 39.95 39.90 39.85 39.80 39.75 39.70 39.65 39.60 39.55 39.50 39.45 39.40 39.35 39.30 39.25 39.20 39.15 39.10 39.05 39.00 38.95 38.90 38.85 38.80 38.75 38.70 38.65 38.60 38.55 38.50 38.45 38.40 38.35 38.30 38.25 38.20 38.15 38.10 38.05 38.00 37.95 37.90 37.85 37.80 37.75 37.70 37.65 37.60 37.55 37.50 37.45 37.40 37.35 37.30 37.25 37.20 37.15 37.10 37.05 37.00 36.95 36.90 36.85 36.80 36.75 36.70 36.65 36.60 36.55 36.50 36.45 36.40 36.35 36.30 36.25 36.20 36.15 36.10 36.05 36.00 35.95 35.90 35.85 35.80 35.75 35.70 35.65 35.60 35.55 35.50 35.45 35.40 35.35 35.30 35.25 35.20 35.15 35.10 35.05 35.00 34.95 34.90 34.85 34.80 34.75 34.70 34.65 34.60 34.55 34.50 34.45 34.40 34.35 34.30 34.25 34.20 34.15 34.10 34.05 34.00 33.95 33.90 33.85 33.80 33.75 33.70 33.65 33.60 33.55 33.50 33.45 33.40 33.35 33.30 33.25 33.20 33.15 33.10 33.05 33.00 32.95 32.90 32.85 32.80 32.75 32.70 32.65 32.60 32.55 32.50 32.45 32.40 32.35 32.30 32.25 32.20 32.15 32.10 32.05 32.00 31.95 31.90 31.85 31.80 31.75 31.70 31.65 31.60 31.55
52.25 52.20 52.15 52.10 52.05 52.00 51.95 51.90 51.85 51.80 51.75 51.70 51.65 51.60 51.55 51.50 51.45 51.40 51.35 51.30 51.25 51.20 51.15 51.10 51.05 51.00 50.95 50.90 50.85 50.80 50.75 50.70 50.65 50.60 50.55 50.50 50.45 50.40 50.35 50.30 50.25 50.20 50.15 50.10 50.05 50.00 49.95 49.90 49.85 49.80 49.75 49.70 49.65 49.60 49.55 49.50 49.45 49.40 49.35 49.30 49.25 49.20 49.15 49.10 49.05 49.00 48.95 48.90 48.85 48.80 48.75 48.70 48.65 48.60 48.55 48.50 48.45 48.40 48.35 48.30 48.25 48.20 48.15 48.10 48.05 48.00 47.95 47.90 47.85 47.80 47.75 47.70 47.65 47.60 47.55 47.50 47.45 47.40 47.35 47.30 47.25 47.20 47.15 47.10 47.05 47.00 46.95 46.90 46.85 46.80 46.75 46.70 46.65 46.60 46.55 46.50 46.45 46.40 46.35 46.30 46.25 46.20 46.15 46.10 46.05 46.00 45.95 45.90 45.85 45.80 45.75 45.70 45.65 45.60 45.55 45.50 45.45 45.40 45.35 45.30 45.25 45.20 45.15 45.10 45.05 45.00 44.95 44.90 44.85 44.80 44.75 44.70 44.65 44.60 44.55 44.50 44.45 44.40 44.35 44.30 44.25 44.20 44.15 44.10 44.05 44.00 43.95 43.90 43.85 43.80 43.75 43.70 43.65 43.60 43.55 43.50 43.45 43.40 43.35 43.30 43.25 43.20 43.15 43.10 43.05 43.00 42.95 42.90 42.85 42.80 42.75 42.70 42.65 42.60 42.55 42.50 42.45 42.40 42.35 42.30 42.25 42.20 42.15 42.10 42.05 42.00 41.95 41.90 41.85 41.80 41.75 41.70 41.65 41.60 41.55 41.50 41.45 41.40 41.35 41.30 41.25 41.20 41.15 41.10 41.05 41.00 40.95 40.90 40.85 40.80 40.75 40.70 40.65 40.60 40.55 40.50 40.45 40.40 40.35 40.30 40.25 40.20 40.15 40.10 40.05 40.00 39.95 39.90 39.85 39.80 39.75 39.70 39.65 39.60 39.55 39.50 39.45 39.40 39.35 39.30 39.25 39.20 39.15 39.10 39.05 39.00 38.95 38.90 38.85 38.80 38.75 38.70 38.65 38.60 38.55 38.50 38.45 38.40 38.35 38.30 38.25 38.20 38.15 38.10 38.05 38.00 37.95 37.90 37.85 37.80 37.75 37.70 37.65 37.60 37.55 37.50 37.45 37.40 37.35 37.30 37.25 37.20 37.15 37.10 37.05 37.00 36.95 36.90 36.85 36.80 36.75 36.70 36.65 36.60 36.55 36.50 36.45 36.40 36.35 36.30 36.25 36.20 36.15 36.10 36.05 36.00 35.95 35.90 35.85 35.80 35.75 35.70 35.65 35.60 35.55 35.50 35.45 35.40 35.35 35.30 35.25 35.20 35.15 35.10 35.05 35.00 34.95 34.90 34.85 34.80 34.75 34.70 34.65 34.60 34.55 34.50 34.45 34.40 34.35 34.30 34.25 34.20 34.15 34.10 34.05 34.00 33.95 33.90 33.85 33.80 33.75 33.70 33.65 33.60 33.55 33.50 33.45 33.40 33.35 33.30 33.25 33.20 33.15 33.10 33.05 33.00 32.95 32.90 32.85 32.80 32.75 32.70 32.65 32.60 32.55 32.50 32.45 32.40 32.35 32.30
53.00 52.95 52.90 52.85 52.80 52.75 52.70 52.65 52.60 52.55 52.50 52.45 52.40 52.35 52.30 52.25 52.20 52.15 52.10 52.05 52.00 51.95 51.90 51.85 51.80 51.75 51.70 51.65 51.60 51.55 51.50 51.45 51.40 51.35 51.30 51.25 51.20 51.15 51.10 51.05 51.00 50.95 50.90 50.85 50.80 50.75 50.70 50.65 50.60 50.55 50.50 50.45 50.40 50.35 50.30 50.25 50.20 50.15 50.10 50.05 50.00 49.95 49.90 49.85 49.80 49.75 49.70 49.65 49.60 49.55 49.50 49.45 49.40 49.35 49.30 49.25 49.20 49.15 49.10 49.05 49.00 48.95 48.90 48.85 48.80 48.75 48.70 48.65 48.60 48.55 48.50 48.45 48.40 48.35 48.30 48.25 48.20 48.15 48.10 48.05 48.00 47.95 47.90 47.85 47.80 47.75 47.70 47.65 47.60 47.55 47.50 47.45 47.40 47.35 47.30 47.25 47.20 47.15 47.10 47.05 47.00 46.95 46.90 46.85 46.80 46.75 46.70 46.65 46.60 46.55 46.50 46.45 46.40 46.35 46.30 46.25 46.20 46.15 46.10 46.05 46.00 45.95 45.90 45.85 45.80 45.75 45.70 45.65 45.60 45.55 45.50 45.45 45.40 45.35 45.30 45.25 45.20 45.15 45.10 45.05 45.00 44.95 44.90 44.85 44.80 44.75 44.70 44.65 44.60 44.55 44.50 44.45 44.40 44.35 44.30 44.25 44.20 44.15 44.10 44.05 44.00 43.95 43.90 43.85 43.80 43.75 43.70 43.65 43.60 43.55 43.50 43.45 43.40 43.35 43.30 43.25 43.20 43.15 43.10 43.05 43.00 42.95 42.90 42.85 42.80 42.75 42.70 42.65 42.60 42.55 42.50 42.45 42.40 42.35 42.30 42.25 42.20 42.15 42.10 42.05 42.00 41.95 41.90 41.85 41.80 41.75 41.70 41.65 41.60 41.55 41.50 41.45 41.40 41.35 41.30 41.25 41.20 41.15 41.10 41.05 41.00 40.95 40.90 40.85 40.80 40.75 40.70 40.65 40.60 40.55 40.50 40.45 40.40 40.35 40.30 40.25 40.20 40.15 40.10 40.05 40.00 39.95 39.90 39.85 39.80 39.75 39.70 39.65 39.60 39.55 39.50 39.45 39.40 39.35 39.30 39.25 39.20 39.15 39.10 39.05 39.00 38.95 38.90 38.85 38.80 38.75 38.70 38.65 38.60 38.55 38.50 38.45 38.40 38.35 38.30 38.25 38.20 38.15 38.10 38.05 38.00 37.95 37.90 37.85 37.80 37.75 37.70 37.65 37.60 37.55 37.50 37.45 37.40 37.35 37.30 37.25 37.20 37.15 37.10 37.05 37.00 36.95 36.90 36.85 36.80 36.75 36.70 36.65 36.60 36.55 36.50 36.45 36.40 36.35 36.30 36.25 36.20 36.15 36.10 36.05 36.00 35.95 35.90 35.85 35.80 35.75 35.70 35.65 35.60 35.55 35.50 35.45 35.40 35.35 35.30 35.25 35.20 35.15 35.10 35.05 35.00 34.95 34.90 34.85 34.80 34.75 34.70 34.65 34.60 34.55 34.50 34.45 34.40 34.35 34.30 34.25 34.20 34.15 34.10 34.05 34.00 33.95 33.90 33.85 33.80 33.75 33.70 33.65 33.60 33.55 33.50 33.45 33.40 33.35 33.30 33.25 33.20 33.15 33.10 33.05
53.75 53.70 53.65 53.60 53.55 53.50 53.45 53.40 53.35 53.30 53.25 53.20 53.15 53.10 53.05 53.00 52.95 52.90 52.85 52.80 52.75 52.70 52.65 52.60 52.55 52.50 52.45 52.40 52.35 52.30 52.25 52.20 52.15 52.10 52.05 52.00 51.95 51.90 51.85 51.80 51.75 51.70 51.65 51.60 51.55 51.50 51.45 51.40 51.35 51.30 51.25 51.20 51.15 51.10 51.05 51.00 50.95 50.90 50.85 50.80 50.75 50.70 50.65 50.60 50.55 50.50 50.45 50.40 50.35 50.30 50.25 50.20 50.15 50.10 50.05 50.00 49.95 49.90 49.85 49.80 49.75 49.70 49.65 49.60 49.55 49.50 49.45 49.40 49.35 49.30 49.25 49.20 49.15 49.10 49.05 49.00 48.95 48.90 48.85 48.80 48.75 48.70 48.65 48.60 48.55 48.50 48.45 48.40 48.35 48.30 48.25 48.20 48.15 48.10 48.05 48.00 47.95 47.90 47.85 47.80 47.75 47.70 47.65 47.60 47.55 47.50 47.45 47.40 47.35 47.30 47.25 47.20 47.15 47.10 47.05 47.00 46.95 46.90 46.85 46.80 46.75 46.70 46.65 46.60 46.55 46.50 46.45 46.40 46.35 46.30 46.25 46.20 46.15 46.10 46.05 46.00 45.95 45.90 45.85 45.80 45.75 45.70 45.65 45.60 45.55 45.50 45.45 45.40 45.35 45.30 45.25 45.20 45.15 45.10 45.05 45.00 44.95 44.90 44.85 44.80 44.75 44.70 44.65 44.60 44.55 44.50 44.45 44.40 44.35 44.30 44.25 44.20 44.15 44.10 44.05 44.00 43.95 43.90 43.85 43.80 43.75 43.70 43.65 43.60 43.55 43.50 43.45 43.40 43.35 43.30 43.25 43.20 43.15 43.10 43.05 43.00 42.95 42.90 42.85 42.80 42.75 42.70 42.65 42.60 42.55 42.50 42.45 42.40 42.35 42.30 42.25 42.20 42.15 42.10 42.05 42.00 41.95 41.90 41.85 41.80 41.75 41.70 41.65 41.60 41.55 41.50 41.45 41.40 41.35 41.30 41.25 41.20 41.15 41.10 41.05 41.00 40.95 40.90 40.85 40.80 40.75 40.70 40.65 40.60 40.55 40.50 40.45 40.40 40.35 40.30 40.25 40.20 40.15 40.10 40.05 40.00 39.95 39.90 39.85 39.80 39.75 39.70 39.65 39.60 39.55 39.50 39.45 39.40 39.35 39.30 39.25 39.20 39.15 39.10 39.05 39.00 38.95 38.90 38.85 38.80 38.75 38.70 38.65 38.60 38.55 38.50 38.45 38.40 38.35 38.30 38.25 38.20 38.15 38.10 38.05 38.00 37.95 37.90 37.85 37.80 37.75 37.70 37.65 37.60 37.55 37.50 37.45 37.40 37.35 37.30 37.25 37.20 37.15 37.10 37.05 37.00 36.95 36.90 36.85 36.80 36.75 36.70 36.65 36.60 36.55 36.50 36.45 36.40 36.35 36.30 36.25 36.20 36.15 36.10 36.05 36.00 35.95 35.90 35.85 35.80 35.75 35.70 35.65 35.60 35.55 35.50 35.45 35.40 35.35 35.30 35.25 35.20 35.15 35.10 35.05 35.00 34.95 34.90 34.85 34.80 34.75 34.70 34.65 34.60 34.55 34.50 34.45 34.40 34.35 34.30 34.25 34.20 34.15 34.10 34.05 34.00 33.95 33.90 33.85 33.80
54.50 54.45 54.40 54.35 54.30 54.25 54.20 54.15 54.10 54.05 54.00 53.95 53.90 53.85 53.80 53.75 53.70 53.65 53.60 53.55 53.50 53.45 53.40 53.35 53.30 53.25 53.20 53.15 53.10 53.05 53.00 52.95 52.90 52.85 52.80 52.75 52.70 52.65 52.60 52.55 52.50 52.45 52.40 52.35 52.30 52.25 52.20 52.15 52.10 52.05 52.00 51.95 51.90 51.85 51.80 51.75 51.70 51.65 51.60 51.55 51.50 51.45 51.40 51.35 51.30 51.25 51.20 51.15 51.10 51.05 51.00 50.95 50.90 50.85 50.80 50.75 50.70 50.65 50.60 50.55 50.50 50.45 50.40 50.35 50.30 50.25 50.20 50.15 50.10 50.05 50.00 49.95 49.90 49.85 49.80 49.75 49.70 49.65 49.60 49.55 49.50 49.45 49.40 49.35 49.30 49.25 49.20 49.15 49.10 49.05 49.00 48.95 48.90 48.85 48.80 48.75 48.70 48.65 48.60 48.55 48.50 48.45 48.40 48.35 48.30 48.25 48.20 48.15 48.10 48.05 48.00 47.95 47.90 47.85 47.80 47.75 47.70 47.65 47.60 47.55 47.50 47.45 47.40 47.35 47.30 47.25 47.20 47.15 47.10 47.05 47.00 46.95 46.90 46.85 46.80 46.75 46.70 46.65 46.60 46.55 46.50 46.45 46.40 46.35 46.30 46.25 46.20 46.15 46.10 46.05 46.00 45.95 45.90 45.85 45.80 45.75 45.70 45.65 45.60 45.55 45.50 45.45 45.40 45.35 45.30 45.25 45.20 45.15 45.10 45.05 45.00 44.95 44.90 44.85 44.80 44.75 44.70 44.65 44.60 44.55 44.50 44.45 44.40 44.35 44.30 44.25 44.20 44.15 44.10 44.05 44.00 43.95 43.90 43.85 43.80 43.75 43.70 43.65 43.60 43.55 43.50 43.45 43.40 43.35 43.30 43.25 43.20 43.15 43.10 43.05 43.00 42.95 42.90 42.85 42.80 42.75 42.70 42.65 42.60 42.55 42.50 42.45 42.40 42.35 42.30 42.25 42.20 42.15 42.10 42.05 42.00 41.95 41.90 41.85 41.80 41.75 41.70 41.65 41.60 41.55 41.50 41.45 41.40 41.35 41.30 41.25 41.20 41.15 41.10 41.05 41.00 40.95 40.90 40.85 40.80 40.75 40.70 40.65 40.60 40.55 40.50 40.45 40.40 40.35 40.30 40.25 40.20 40.15 40.10 40.05 40.00 39.95 39.90 39.85 39.80 39.75 39.70 39.65 39.60 39.55 39.50 39.45 39.40 39.35 39.30 39.25 39.20 39.15 39.10 39.05 39.00 38.95 38.90 38.85 38.80 38.75 38.70 38.65 38.60 38.55 38.50 38.45 38.40 38.35 38.30 38.25 38.20 38.15 38.10 38.05 38.00 37.95 37.90 37.85 37.80 37.75 37.70 37.65 37.60 37.55 37.50 37.45 37.40 37.35 37.30 37.25 37.20 37.15 37.10 37.05 37.00 36.95 36.90 36.85 36.80 36.75 36.70 36.65 36.60 36.55 36.50 36.45 36.40 36.35 36.30 36.25 36.20 36.15 36.10 36.05 36.00 35.95 35.90 35.85 35.80 35.75 35.70 35.65 35.60 35.55 35.50 35.45 35.40 35.35 35.30 35.25 35.20 35.15 35.10 35.05 35.00 34.95 34.90 34.85 34.80 34.75 34.70 34.65 34.60 34.55
55.25 55.20 55.15 55.10 55.05 55.00 54.95 54.90 54.85 54.80 54.75 54.70 54.65 54.60 54.55 54.50 54.45 54.40 54.35 54.30 54.25 54.20 54.15 54.10 54.05 54.00 53.95 53.90 53.85 53.80 53.75 53.70 53.65 53.60 53.55 53.50 53.45 53.40 53.35 53.30 53.25 53.20 53.15 53.10 53.05 53.00 52.95 52.90 52.85 52.80 52.75 52.70 52.65 52.60 52.55 52.50 52.45 52.40 52.35 52.30 52.25 52.20 52.15 52.10 52.05 52.00 51.95 51.90 51.85 51.80 51.75 51.70 51.65 51.60 51.55 51.50 51.45 51.40 51.35 51.30 51.25 51.20 51.15 51.10 51.05 51.00 50.95 50.90 50.85 50.80 50.75 50.70 50.65 50.60 50.55 50.50 50.45 50.40 50.35 50.30 50.25 50.20 50.15 50.10 50.05 50.00 49.95 49.90 49.85 49.80 49.75 49.70 49.65 49.60 49.55 49.50 49.45 49.40 49.35 49.30 49.25 49.20 49.15 49.10 49.05 49.00 48.95 48.90 48.85 48.80 48.75 48.70 48.65 48.60 48.55 48.50 48.45 48.40 48.35 48.30 48.25 48.20 48.15 48.10 48.05 48.00 47.95 47.90 47.85 47.80 47.75 47.70 47.65 47.60 47.55 47.50 47.45 47.40 47.35 47.30 47.25 47.20 47.15 47.10 47.05 47.00 46.95 46.90 46.85 46.80 46.75 46.70 46.65 46.60 46.55 46.50 46.45 46.40 46.35 46.30 46.25 46.20 46.15 46.10 46.05 46.00 45.95 45.90 45.85 45.80 45.75 45.70 45.65 45.60 45.55 45.50 45.45 45.40 45.35 45.30 45.25 45.20 45.15 45.10 45.05 45.00 44.95 44.90 44.85 44.80 44.75 44.70 44.65 44.60 44.55 44.50 44.45 44.40 44.35 44.30 44.25 44.20 44.15 44.10 44.05 44.00 43.95 43.90 43.85 43.80 43.75 43.70 43.65 43.60 43.55 43.50 43.45 43.40 43.35 43.30 43.25 43.20 43.15 43.10 43.05 43.00 42.95 42.90 42.85 42.80 42.75 42.70 42.65 42.60 42.55 42.50 42.45 42.40 42.35 42.30 42.25 42.20 42.15 42.10 42.05 42.00 41.95 41.90 41.85 41.80 41.75 41.70 41.65 41.60 41.55 41.50 41.45 41.40 41.35 41.30 41.25 41.20 41.15 41.10 41.05 41.00 40.95 40.90 40.85 40.80 40.75 40.70 40.65 40.60 40.55 40.50 40.45 40.40 40.35 40.30 40.25 40.20 40.15 40.10 40.05 40.00 39.95 39.90 39.85 39.80 39.75 39.70 39.65 39.60 39.55 39.50 39.45 39.40 39.35 39.30 39.25 39.20 39.15 39.10 39.05 39.00 38.95 38.90 38.85 38.80 38.75 38.70 38.65 38.60 38.55 38.50 38.45 38.40 38.35 38.30 38.25 38.20 38.15 38.10 38.05 38.00 37.95 37.90 37.85 37.80 37.75 37.70 37.65 37.60 37.55 37.50 37.45 37.40 37.35 37.30 37.25 37.20 37.15 37.10 37.05 37.00 36.95 36.90 36.85 36.80 36.75 36.70 36.65 36.60 36.55 36.50 36.45 36.40 36.35 36.30 36.25 36.20 36.15 36.10 36.05 36.00 35.95 35.90 35.85 35.80 35.75 35.70 35.65 35.60 35.55 35.50 35.45 35.40 35.35 35.30
56.00 55.95 55.90 55.85 55.80 55.75 55.70 55.65 55.60 55.55 55.50 55.45 55.40 55.35 55.30 55.25 55.20 55.15 55.10 55.05 55.00 54.95 54.90 54.85 54.80 54.75 54.70 54.65 54.60 54.55 54.50 54.45 54.40 54.35 54.30 54.25 54.20 54.15 54.10 54.05 54.00 53.95 53.90 53.85 53.80 53.75 53.70 53.65 53.60 53.55 53.50 53.45 53.40 53.35 53.30 53.25 53.20 53.15 53.10 53.05 53.00 52.95 52.90 52.85 52.80 52.75 52.70 52.65 52.60 52.55 52.50 52.45 52.40 52.35 52.30 52.25 52.20 52.15 52.10 52.05 52.00 51.95 51.90 51.85 51.80 51.75 51.70 51.65 51.60 51.55 51.50 51.45 51.40 51.35 51.30 51.25 51.20 51.15 51.10 51.05 51.00 50.95 50.90 50.85 50.80 50.75 50.70 50.65 50.60 50.55 50.50 50.45 50.40 50.35 50.30 50.25 50.20 50.15 50.10 50.05 50.00 49.95 49.90 49.85 49.80 49.75 49.70 49.65 49.60 49.55 49.50 49.45 49.40 49.35 49.30 49.25 49.20 49.15 49.10 49.05 49.00 48.95 48.90 48.85 48.80 48.75 48.70 48.65 48.60 48.55 48.50 48.45 48.40 48.35 48.30 48.25 48.20 48.15 48.10 48.05 48.00 47.95 47.90 47.85 47.80 47.75 47.70 47.65 47.60 47.55 47.50 47.45 47.40 47.35 47.30 47.25 47.20 47.15 47.10 47.05 47.00 46.95 46.90 46.85 46.80 46.75 46.70 46.65 46.60 46.55 46.50 46.45 46.40 46.35 46.30 46.25 46.20 46.15 46.10 46.05 46.00 45.95 45.90 45.85 45.80 45.75 45.70 45.65 45.60 45.55 45.50 45.45 45.40 45.35 45.30 45.25 45.20 45.15 45.10 45.05 45.00 44.95 44.90 44.85 44.80 44.75 44.70 44.65 44.60 44.55 44.50 44.45 44.40 44.35 44.30 44.25 44.20 44.15 44.10 44.05 44.00 43.95 43.90 43.85 43.80 43.75 43.70 43.65 43.60 43.55 43.50 43.45 43.40 43.35 43.30 43.25 43.20 43.15 43.10 43.05 43.00 42.95 42.90 42.85 42.80 42.75 42.70 42.65 42.60 42.55 42.50 42.45 42.40 42.35 42.30 42.25 42.20 42.15 42.10 42.05 42.00 41.95 41.90 41.85 41.80 41.75 41.70 41.65 41.60 41.55 41.50 41.45 41.40 41.35 41.30 41.25 41.20 41.15 41.10 41.05 41.00 40.95 40.90 40.85 40.80 40.75 40.70 40.65 40.60 40.55 40.50 40.45 40.40 40.35 40.30 40.25 40.20 40.15 40.10 40.05 40.00 39.95 39.90 39.85 39.80 39.75 39.70 39.65 39.60 39.55 39.50 39.45 39.40 39.35 39.30 39.25 39.20 39.15 39.10 39.05 39.00 38.95 38.90 38.85 38.80 38.75 38.70 38.65 38.60 38.55 38.50 38.45 38.40 38.35 38.30 38.25 38.20 38.15 38.10 38.05 38.00 37.95 37.90 37.85 37.80 37.75 37.70 37.65 37.60 37.55 37.50 37.45 37.40 37.35 37.30 37.25 37.20 37.15 37.10 37.05 37.00 36.95 36.90 36.85 36.80 36.75 36.70 36.65 36.60 36.55 36.50 36.45 36.40 36.35 36.30 36.25 36.20 36.15 36.10 36.05
56.75 56.70 56.65 56.60 56.55 56.50 56.45 56.40 56.35 56.30 56.25 56.20 56.15 56.10 56.05 56.00 55.95 55.90 55.85 55.80 55.75 55.70 55.65 55.60 55.55 55.50 55.45 55.40 55.35 55.30 55.25 55.20 55.15 55.10 55.05 55.00 54.95 54.90 54.85 54.80 54.75 54.70 54.65 54.60 54.55 54.50 54.45 54.40 54.35 54.30 54.25 54.20 54.15 54.10 54.05 54.00 53.95 53.90 53.85 53.80 53.75 53.70 53.65 53.60 53.55 53.50 53.45 53.40 53.35 53.30 53.25 53.20 53.15 53.10 53.05 53.00 52.95 52.90 52.85 52.80 52.75 52.70 52.65 52.60 52.55 52.50 52.45 52.40 52.35 52.30 52.25 52.20 52.15 52.10 52.05 52.00 51.95 51.90 51.85 51.80 51.75 51.70 51.65 51.60 51.55 51.50 51.45 51.40 51.35 51.30 51.25 51.20 51.15 51.10 51.05 51.00 50.95 50.90 50.85 50.80 50.75 50.70 50.65 50.60 50.55 50.50 50.45 50.40 50.35 50.30 50.25 50.20 50.15 50.10 50.05 50.00 49.95 49.90 49.85 49.80 49.75 49.70 49.65 49.60 49.55 49.50 49.45 49.40 49.35 49.30 49.25 49.20 49.15 49.10 49.05 49.00 48.95 48.90 48.85 48.80 48.75 48.70 48.65 48.60 48.55 48.50 48.45 48.40 48.35 48.30 48.25 48.20 48.15 48.10 48.05 48.00 47.95 47.90 47.85 47.80 47.75 47.70 47.65 47.60 47.55 47.50 47.45 47.40 47.35 47.30 47.25 47.20 47.15 47.10 47.05 47.00 46.95 46.90 46.85 46.80 46.75 46.70 46.65 46.60 46.55 46.50 46.45 46.40 46.35 46.30 46.25 46.20 46.15 46.10 46.05 46.00 45.95 45.90 45.85 45.80 45.75 45.70 45.65 45.60 45.55 45.50 45.45 45.40 45.35 45.30 45.25 45.20 45.15 45.10 45.05 45.00 44.95 44.90 44.85 44.80 44.75 44.70 44.65 44.60 44.55 44.50 44.45 44.40 44.35 44.30 44.25 44.20 44.15 44.10 44.05 44.00 43.95 43.90 43.85 43.80 43.75 43.70 43.65 43.60 43.55 43.50 43.45 43.40 43.35 43.30 43.25 43.20 43.15 43.10 43.05 43.00 42.95 42.90 42.85 42.80 42.75 42.70 42.65 42.60 42.55 42.50 42.45 42.40 42.35 42.30 42.25 42.20 42.15 42.10 42.05 42.00 41.95 41.90 41.85 41.80 41.75 41.70 41.65 41.60 41.55 41.50 41.45 41.40 41.35 41.30 41.25 41.20 41.15 41.10 41.05 41.00 40.95 40.90 40.85 40.80 40.75 40.70 40.65 40.60 40.55 40.50 40.45 40.40 40.35 40.30 40.25 40.20 40.15 40.10 40.05 40.00 39.95 39.90 39.85 39.80 39.75 39.70 39.65 39.60 39.55 39.50 39.45 39.40 39.35 39.30 39.25 39.20 39.15 39.10 39.05 39.00 38.95 38.90 38.85 38.80 38.75 38.70 38.65 38.60 38.55 38.50 38.45 38.40 38.35 38.30 38.25 38.20 38.15 38.10 38.05 38.00 37.95 37.90 37.85 37.80 37.75 37.70 37.65 37.60 37.55 37.50 37.45 37.40 37.35 37.30 37.25 37.20 37.15 37.10 37.05 37.00 36.95 36.90 36.85 36.80
57.50 57.45 57.40 57.35 57.30 57.25 57.20 57.15 57.10 57.05 57.00 56.95 56.90 56.85 56.80 56.75 56.70 56.65 56.60 56.55 56.50 56.45 56.40 56.35 56.30 56.25 56.20 56.15 56.10 56.05 56.00 55.95 55.90 55.85 55.80 55.75 55.70 55.65 55.60 55.55 55.50 55.45 55.40 55.35 55.30 55.25 55.20 55.15 55.10 55.05 55.00 54.95 54.90 54.85 54.80 54.75 54.70 54.65 54.60 54.55 54.50 54.45 54.40 54.35 54.30 54.25 54.20 54.15 54.10 54.05 54.00 53.95 53.90 53.85 53.80 53.75 53.70 53.65 53.60 53.55 53.50 53.45 53.40 53.35 53.30 53.25 53.20 53.15 53.10 53.05 53.00 52.95 52.90 52.85 52.80 52.75 52.70 52.65 52.60 52.55 52.50 52.45 52.40 52.35 52.30 52.25 52.20 52.15 52.10 52.05 52.00 51.95 51.90 51.85 51.80 51.75 51.70 51.65 51.60 51.55 51.50 51.45 51.40 51.35 51.30 51.25 51.20 51.15 51.10 51.05 51.00 50.95 50.90 50.85 50.80 50.75 50.70 50.65 50.60 50.55 50.50 50.45 50.40 50.35 50.30 50.25 50.20 50.15 50.10 50.05 50.00 49.95 49.90 49.85 49.80 49.75 49.70 49.65 49.60 49.55 49.50 49.45 49.40 49.35 49.30 49.25 49.20 49.15 49.10 49.05 49.00 48.95 48.90 48.85 48.80 48.75 48.70 48.65 48.60 48.55 48.50 48.45 48.40 48.35 48.30 48.25 48.20 48.15 48.10 48.05 48.00 47.95 47.90 47.85 47.80 47.75 47.70 47.65 47.60 47.55 47.50 47.45 47.40 47.35 47.30 47.25 47.20 47.15 47.10 47.05 47.00 46.95 46.90 46.85 46.80 46.75 46.70 46.65 46.60 46.55 46.50 46.45 46.40 46.35 46.30 46.25 46.20 46.15 46.10 46.05 46.00 45.95 45.90 45.85 45.80 45.75 45.70 45.65 45.60 45.55 45.50 45.45 45.40 45.35 45.30 45.25 45.20 45.15 45.10 45.05 45.00 44.95 44.90 44.85 44.80 44.75 44.70 44.65 44.60 44.55 44.50 44.45 44.40 44.35 44.30 44.25 44.20 44.15 44.10 44.05 44.00 43.95 43.90 43.85 43.80 43.75 43.70 43.65 43.60 43.55 43.50 43.45 43.40 43.35 43.30 43.25 43.20 43.15 43.10 43.05 43.00 42.95 42.90 42.85 42.80 42.75 42.70 42.65 42.60 42.55 42.50 42.45 42.40 42.35 42.30 42.25 42.20 42.15 42.10 42.05 42.00 41.95 41.90 41.85 41.80 41.75 41.70 41.65 41.60 41.55 41.50 41.45 41.40 41.35 41.30 41.25 41.20 41.15 41.10 41.05 41.00 40.95 40.90 40.85 40.80 40.75 40.70 40.65 40.60 40.55 40.50 40.45 40.40 40.35 40.30 40.25 40.20 40.15 40.10 40.05 40.00 39.95 39.90 39.85 39.80 39.75 39.70 39.65 39.60 39.55 39.50 39.45 39.40 39.35 39.30 39.25 39.20 39.15 39.10 39.05 39.00 38.95 38.90 38.85 38.80 38.75 38.70 38.65 38.60 38.55 38.50 38.45 38.40 38.35 38.30 38.25 38.20 38.15 38.10 38.05 38.00 37.95 37.90 37.85 37.80 37.75 37.70 37.65 37.60 37.55
58.25 58.20 58.15 58.10 58.05 58.00 57.95 57.90 57.85 57.80 57.75 57.70 57.65 57.60 57.55 57.50 57.45 57.40 57.35 57.30 57.25 57.20 57.15 57.10 57.05 57.00 56.95 56.90 56.85 56.80 56.75 56.70 56.65 56.60 56.55 56.50 56.45 56.40 56.35 56.30 56.25 56.20 56.15 56.10 56.05 56.00 55.95 55.90 55.85 55.80 55.75 55.70 55.65 55.60 55.55 55.50 55.45 55.40 55.35 55.30 55.25 55.20 55.15 55.10 55.05 55.00 54.95 54.90 54.85 54.80 54.75 54.70 54.65 54.60 54.55 54.50 54.45 54.40 54.35 54.30 54.25 54.20 54.15 54.10 54.05 54.00 53.95 53.90 53.85 53.80 53.75 53.70 53.65 53.60 53.55 53.50 53.45 53.40 53.35 53.30 53.25 53.20 53.15 53.10 53.05 53.00 52.95 52.90 52.85 52.80 52.75 52.70 52.65 52.60 52.55 52.50 52.45 52.40 52.35 52.30 52.25 52.20 52.15 52.10 52.05 52.00 51.95 51.90 51.85 51.80 51.75 51.70 51.65 51.60 51.55 51.50 51.45 51.40 51.35 51.30 51.25 51.20 51.15 51.10 51.05 51.00 50.95 50.90 50.85 50.80 50.75 50.70 50.65 50.60 50.55 50.50 50.45 50.40 50.35 50.30 50.25 50.20 50.15 50.10 50.05 50.00 49.95 49.90 49.85 49.80 49.75 49.70 49.65 49.60 49.55 49.50 49.45 49.40 49.35 49.30 49.25 49.20 49.15 49.10 49.05 49.00 48.95 48.90 48.85 48.80 48.75 48.70 48.65 48.60 48.55 48.50 48.45 48.40 48.35 48.30 48.25 48.20 48.15 48.10 48.05 48.00 47.95 47.90 47.85 47.80 47.75 47.70 47.65 47.60 47.55 47.50 47.45 47.40 47.35 47.30 47.25 47.20 47.15 47.10 47.05 47.00 46.95 46.90 46.85 46.80 46.75 46.70 46.65 46.60 46.55 46.50 46.45 46.40 46.35 46.30 46.25 46.20 46.15 46.10 46.05 46.00 45.95 45.90 45.85 45.80 45.75 45.70 45.65 45.60 45.55 45.50 45.45 45.40 45.35 45.30 45.25 45.20 45.15 45.10 45.05 45.00 44.95 44.90 44.85 44.80 44.75 44.70 44.65 44.60 44.55 44.50 44.45 44.40 44.35 44.30 44.25 44.20 44.15 44.10 44.05 44.00 43.95 43.90 43.85 43.80 43.75 43.70 43.65 43.60 43.55 43.50 43.45 43.40 43.35 43.30 43.25 43.20 43.15 43.10 43.05 43.00 42.95 42.90 42.85 42.80 42.75 42.70 42.65 42.60 42.55 42.50 42.45 42.40 42.35 42.30 42.25 42.20 42.15 42.10 42.05 42.00 41.95 41.90 41.85 41.80 41.75 41.70 41.65 41.60 41.55 41.50 41.45 41.40 41.35 41.30 41.25 41.20 41.15 41.10 41.05 41.00 40.95 40.90 40.85 40.80 40.75 40.70 40.65 40.60 40.55 40.50 40.45 40.40 40.35 40.30 40.25 40.20 40.15 40.10 40.05 40.00 39.95 39.90 39.85 39.80 39.75 39.70 39.65 39.60 39.55 39.50 39.45 39.40 39.35 39.30 39.25 39.20 39.15 39.10 39.05 39.00 38.95 38.90 38.85 38.80 38.75 38.70 38.65 38.60 38.55 38.50 38.45 38.40 38.35 38.30
59.00 58.95 58.90 58.85 58.80 58.75 58.70 58.65 58.60 58.55 58.50 58.45 58.40 58.35 58.30 58.25 58.20 58.15 58.10 58.05 58.00 57.95 57.90 57.85 57.80 57.75 57.70 57.65 57.60 57.55 57.50 57.45 57.40 57.35 57.30 57.25 57.20 57.15 57.10 57.05 57.00 56.95 56.90 56.85 56.80 56.75 56.70 56.65 56.60 56.55 56.50 56.45 56.40 56.35 56.30 56.25 56.20 56.15 56.10 56.05 56.00 55.95 55.90 55.85 55.80 55.75 55.70 55.65 55.60 55.55 55.50 55.45 55.40 55.35 55.30 55.25 55.20 55.15 55.10 55.05 55.00 54.95 54.90 54.85 54.80 54.75 54.70 54.65 54.60 54.55 54.50 54.45 54.40 54.35 54.30 54.25 54.20 54.15 54.10 54.05 54.00 53.95 53.90 53.85 53.80 53.75 53.70 53.65 53.60 53.55 53.50 53.45 53.40 53.35 53.30 53.25 53.20 53.15 53.10 53.05 53.00 52.95 52.90 52.85 52.80 52.75 52.70 52.65 52.60 52.55 52.50 52.45 52.40 52.35 52.30 52.25 52.20 52.15 52.10 52.05 52.00 51.95 51.90 51.85 51.80 51.75 51.70 51.65 51.60 51.55 51.50 51.45 51.40 51.35 51.30 51.25 51.20 51.15 51.10 51.05 51.00 50.95 50.90 50.85 50.80 50.75 50.70 50.65 50.60 50.55 50.50 50.45 50.40 50.35 50.30 50.25 50.20 50.15 50.10 50.05 50.00 49.95 49.90 49.85 49.80 49.75 49.70 49.65 49.60 49.55 49.50 49.45 49.40 49.35 49.30 49.25 49.20 49.15 49.10 49.05 49.00 48.95 48.90 48.85 48.80 48.75 48.70 48.65 48.60 48.55 48.50 48.45 48.40 48.35 48.30 48.25 48.20 48.15 48.10 48.05 48.00 47.95 47.90 47.85 47.80 47.75 47.70 47.65 47.60 47.55 47.50 47.45 47.40 47.35 47.30 47.25 47.20 47.15 47.10 47.05 47.00 46.95 46.90 46.85 46.80 46.75 46.70 46.65 46.60 46.55 46.50 46.45 46.40 46.35 46.30 46.25 46.20 46.15 46.10 46.05 46.00 45.95 45.90 45.85 45.80 45.75 45.70 45.65 45.60 45.55 45.50 45.45 45.40 45.35 45.30 45.25 45.20 45.15 45.10 45.05 45.00 44.95 44.90 44.85 44.80 44.75 44.70 44.65 44.60 44.55 44.50 44.45 44.40 44.35 44.30 44.25 44.20 44.15 44.10 44.05 44.00 43.95 43.90 43.85 43.80 43.75 43.70 43.65 43.60 43.55 43.50 43.45 43.40 43.35 43.30 43.25 43.20 43.15 43.10 43.05 43.00 42.95 42.90 42.85 42.80 42.75 42.70 42.65 42.60 42.55 42.50 42.45 42.40 42.35 42.30 42.25 42.20 42.15 42.10 42.05 42.00 41.95 41.90 41.85 41.80 41.75 41.70 41.65 41.60 41.55 41.50 41.45 41.40 41.35 41.30 41.25 41.20 41.15 41.10 41.05 41.00 40.95 40.90 40.85 40.80 40.75 40.70 40.65 40.60 40.55 40.50 40.45 40.40 40.35 40.30 40.25 40.20 40.15 40.10 40.05 40.00 39.95 39.90 39.85 39.80 39.75 39.70 39.65 39.60 39.55 39.50 39.45 39.40 39.35 39.30 39.25 39.20 39.15 39.10 39.05
59.75 59.70 59.65 59.60 59.55 59.50 59.45 59.40 59.35 59.30 59.25 59.20 59.15 59.10 59.05 59.00 58.95 58.90 58.85 58.80 58.75 58.70 58.65 58.60 58.55 58.50 58.45 58.40 58.35 58.30 58.25 58.20 58.15 58.10 58.05 58.00 57.95 57.90 57.85 57.80 57.75 57.70 57.65 57.60 57.55 57.50 57.45 57.40 57.35 57.30 57.25 57.20 57.15 57.10 57.05 57.00 56.95 56.90 56.85 56.80 56.75 56.70 56.65 56.60 56.55 56.50 56.45 56.40 56.35 56.30 56.25 56.20 56.15 56.10 56.05 56.00 55.95 55.90 55.85 55.80 55.75 55.70 55.65 55.60 55.55 55.50 55.45 55.40 55.35 55.30 55.25 55.20 55.15 55.10 55.05 55.00 54.95 54.90 54.85 54.80 54.75 54.70 54.65 54.60 54.55 54.50 54.45 54.40 54.35 54.30 54.25 54.20 54.15 54.10 54.05 54.00 53.95 53.90 53.85 53.80 53.75 53.70 53.65 53.60 53.55 53.50 53.45 53.40 53.35 53.30 53.25 53.20 53.15 53.10 53.05 53.00 52.95 52.90 52.85 52.80 52.75 52.70 52.65 52.60 52.55 52.50 52.45 52.40 52.35 52.30 52.25 52.20 52.15 52.10 52.05 52.00 51.95 51.90 51.85 51.80 51.75 51.70 51.65 51.60 51.55 51.50 51.45 51.40 51.35 51.30 51.25 51.20 51.15 51.10 51.05 51.00 50.95 50.90 50.85 50.80 50.75 50.70 50.65 50.60 50.55 50.50 50.45 50.40 50.35 50.30 50.25 50.20 50.15 50.10 50.05 50.00 49.95 49.90 49.85 49.80 49.75 49.70 49.65 49.60 49.55 49.50 49.45 49.40 49.35 49.30 49.25 49.20 49.15 49.10 49.05 49.00 48.95 48.90 48.85 48.80 48.75 48.70 48.65 48.60 48.55 48.50 48.45 48.40 48.35 48.30 48.25 48.20 48.15 48.10 48.05 48.00 47.95 47.90 47.85 47.80 47.75 47.70 47.65 47.60 47.55 47.50 47.45 47.40 47.35 47.30 47.25 47.20 47.15 47.10 47.05 47.00 46.95 46.90 46.85 46.80 46.75 46.70 46.65 46.60 46.55 46.50 46.45 46.40 46.35 46.30 46.25 46.20 46.15 46.10 46.05 46.00 45.95 45.90 45.85 45.80 45.75 45.70 45.65 45.60 45.55 45.50 45.45 45.40 45.35 45.30 45.25 45.20 45.15 45.10 45.05 45.00 44.95 44.90 44.85 44.80 44.75 44.70 44.65 44.60 44.55 44.50 44.45 44.40 44.35 44.30 44.25 44.20 44.15 44.10 44.05 44.00 43.95 43.90 43.85 43.80 43.75 43.70 43.65 43.60 43.55 43.50 43.45 43.40 43.35 43.30 43.25 43.20 43.15 43.10 43.05 43.00 42.95 42.90 42.85 42.80 42.75 42.70 42.65 42.60 42.55 42.50 42.45 42.40 42.35 42.30 42.25 42.20 42.15 42.10 42.05 42.00 41.95 41.90 41.85 41.80 41.75 41.70 41.65 41.60 41.55 41.50 41.45 41.40 41.35 41.30 41.25 41.20 41.15 41.10 41.05 41.00 40.95 40.90 40.85 40.80 40.75 40.70 40.65 40.60 40.55 40.50 40.45 40.40 40.35 40.30 40.25 40.20 40.15 40.10 40.05 40.00 39.95 39.90 39.85 39.80
60.50 60.45 60.40 60.35 60.30 60.25 60.20 60.15 60.10 60.05 60.00 59.95 59.90 59.85 59.80 59.75 59.70 59.65 59.60 59.55 59.50 59.45 59.40 59.35 59.30 59.25 59.20 59.15 59.10 59.05 59.00 58.95 58.90 58.85 58.80 58.75 58.70 58.65 58.60 58.55 58.50 58.45 58.40 58.35 58.30 58.25 58.20 58.15 58.10 58.05 58.00 57.95 57.90 57.85 57.80 57.75 57.70 57.65 57.60 57.55 57.50 57.45 57.40 57.35 57.30 57.25 57.20 57.15 57.10 57.05 57.00 56.95 56.90 56.85 56.80 56.75 56.70 56.65 56.60 56.55 56.50 56.45 56.40 56.35 56.30 56.25 56.20 56.15 56.10 56.05 56.00 55.95 55.90 55.85 55.80 55.75 55.70 55.65 55.60 55.55 55.50 55.45 55.40 55.35 55.30 55.25 55.20 55.15 55.10 55.05 55.00 54.95 54.90 54.85 54.80 54.75 54.70 54.65 54.60 54.55 54.50 54.45 54.40 54.35 54.30 54.25 54.20 54.15 54.10 54.05 54.00 53.95 53.90 53.85 53.80 53.75 53.70 53.65 53.60 53.55 53.50 53.45 53.40 53.35 53.30 53.25 53.20 53.15 53.10 53.05 53.00 52.95 52.90 52.85 52.80 52.75 52.70 52.65 52.60 52.55 52.50 52.45 52.40 52.35 52.30 52.25 52.20 52.15 52.10 52.05 52.00 51.95 51.90 51.85 51.80 51.75 51.70 51.65 51.60 51.55 51.50 51.45 51.40 51.35 51.30 51.25 51.20 51.15 51.10 51.05 51.00 50.95 50.90 50.85 50.80 50.75 50.70 50.65 50.60 50.55 50.50 50.45 50.40 50.35 50.30 50.25 50.20 50.15 50.10 50.05 50.00 49.95 49.90 49.85 49.80 49.75 49.70 49.65 49.60 49.55 49.50 49.45 49.40 49.35 49.30 49.25 49.20 49.15 49.10 49.05 49.00 48.95 48.90 48.85 48.80 48.75 48.70 48.65 48.60 48.55 48.50 48.45 48.40 48.35 48.30 48.25 48.20 48.15 48.10 48.05 48.00 47.95 47.90 47.85 47.80 47.75 47.70 47.65 47.60 47.55 47.50 47.45 47.40 47.35 47.30 47.25 47.20 47.15 47.10 47.05 47.00 46.95 46.90 46.85 46.80 46.75 46.70 46.65 46.60 46.55 46.50 46.45 46.40 46.35 46.30 46.25 46.20 46.15 46.10 46.05 46.00 45.95 45.90 45.85 45.80 45.75 45.70 45.65 45.60 45.55 45.50 45.45 45.40 45.35 45.30 45.25 45.20 45.15 45.10 45.05 45.00 44.95 44.90 44.85 44.80 44.75 44.70 44.65 44.60 44.55 44.50 44.45 44.40 44.35 44.30 44.25 44.20 44.15 44.10 44.05 44.00 43.95 43.90 43.85 43.80 43.75 43.70 43.65 43.60 43.55 43.50 43.45 43.40 43.35 43.30 43.25 43.20 43.15 43.10 43.05 43.00 42.95 42.90 42.85 42.80 42.75 42.70 42.65 42.60 42.55 42.50 42.45 42.40 42.35 42.30 42.25 42.20 42.15 42.10 42.05 42.00 41.95 41.90 41.85 41.80 41.75 41.70 41.65 41.60 41.55 41.50 41.45 41.40 41.35 41.30 41.25 41.20 41.15 41.10 41.05 41.00 40.95 40.90 40.85 40.80 40.75 40.70 40.65 40.60 40.55
61.25 61.20 61.15 61.10 61.05 61.00 60.95 60.90 60.85 60.80 60.75 60.70 60.65 60.60 60.55 60.50 60.45 60.40 60.35 60.30 60.25 60.20 60.15 60.10 60.05 60.00 59.95 59.90 59.85 59.80 59.75 59.70 59.65 59.60 59.55 59.50 59.45 59.40 59.35 59.30 59.25 59.20 59.15 59.10 59.05 59.00 58.95 58.90 58.85 58.80 58.75 58.70 58.65 58.60 58.55 58.50 58.45 58.40 58.35 58.30 58.25 58.20 58.15 58.10 58.05 58.00 57.95 57.90 57.85 57.80 57.75 57.70 57.65 57.60 57.55 57.50 57.45 57.40 57.35 57.30 57.25 57.20 57.15 57.10 57.05 57.00 56.95 56.90 56.85 56.80 56.75 56.70 56.65 56.60 56.55 56.50 56.45 56.40 56.35 56.30 56.25 56.20 56.15 56.10 56.05 56.00 55.95 55.90 55.85 55.80 55.75 55.70 55.65 55.60 55.55 55.50 55.45 55.40 55.35 55.30 55.25 55.20 55.15 55.10 55.05 55.00 54.95 54.90 54.85 54.80 54.75 54.70 54.65 54.60 54.55 54.50 54.45 54.40 54.35 54.30 54.25 54.20 54.15 54.10 54.05 54.00 53.95 53.90 53.85 53.80 53.75 53.70 53.65 53.60 53.55 53.50 53.45 53.40 53.35 53.30 53.25 53.20 53.15 53.10 53.05 53.00 52.95 52.90 52.85 52.80 52.75 52.70 52.65 52.60 52.55 52.50 52.45 52.40 52.35 52.30 52.25 52.20 52.15 52.10 52.05 52.00 51.95 51.90 51.85 51.80 51.75 51.70 51.65 51.60 51.55 51.50 51.45 51.40 51.35 51.30 51.25 51.20 51.15 51.10 51.05 51.00 50.95 50.90 50.85 50.80 50.75 50.70 50.65 50.60 50.55 50.50 50.45 50.40 50.35 50.30 50.25 50.20 50.15 50.10 50.05 50.00 49.95 49.90 49.85 49.80 49.75 49.70 49.65 49.60 49.55 49.50 49.45 49.40 49.35 49.30 49.25 49.20 49.15 49.10 49.05 49.00 48.95 48.90 48.85 48.80 48.75 48.70 48.65 48.60 48.55 48.50 48.45 48.40 48.35 48.30 48.25 48.20 48.15 48.10 48.05 48.00 47.95 47.90 47.85 47.80 47.75 47.70 47.65 47.60 47.55 47.50 47.45 47.40 47.35 47.30 47.25 47.20 47.15 47.10 47.05 47.00 46.95 46.90 46.85 46.80 46.75 46.70 46.65 46.60 46.55 46.50 46.45 46.40 46.35 46.30 46.25 46.20 46.15 46.10 46.05 46.00 45.95 45.90 45.85 45.80 45.75 45.70 45.65 45.60 45.55 45.50 45.45 45.40 45.35 45.30 45.25 45.20 45.15 45.10 45.05 45.00 44.95 44.90 44.85 44.80 44.75 44.70 44.65 44.60 44.55 44.50 44.45 44.40 44.35 44.30 44.25 44.20 44.15 44.10 44.05 44.00 43.95 43.90 43.85 43.80 43.75 43.70 43.65 43.60 43.55 43.50 43.45 43.40 43.35 43.30 43.25 43.20 43.15 43.10 43.05 43.00 42.95 42.90 42.85 42.80 42.75 42.70 42.65 42.60 42.55 42.50 42.45 42.40 42.35 42.30 42.25 42.20 42.15 42.10 42.05 42.00 41.95 41.90 41.85 41.80 41.75 41.70 41.65 41.60 41.55 41.50 41.45 41.40 41.35 41.30
62.00 61.95 61.90 61.85 61.80 61.75 61.70 61.65 61.60 61.55 61.50 61.45 61.40 61.35 61.30 61.25 61.20 61.15 61.10 61.05 61.00 60.95 60.90 60.85 60.80 60.75 60.70 60.65 60.60 60.55 60.50 60.45 60.40 60.35 60.30 60.25 60.20 60.15 60.10 60.05 60.00 59.95 59.90 59.85 59.80 59.75 59.70 59.65 59.60 59.55 59.50 59.45 59.40 59.35 59.30 59.25 59.20 59.15 59.10 59.05 59.00 58.95 58.90 58.85 58.80 58.75 58.70 58.65 58.60 58.55 58.50 58.45 58.40 58.35 58.30 58.25 58.20 58.15 58.10 58.05 58.00 57.95 57.90 57.85 57.80 57.75 57.70 57.65 57.60 57.55 57.50 57.45 57.40 57.35 57.30 57.25 57.20 57.15 57.10 57.05 57.00 56.95 56.90 56.85 56.80 56.75 56.70 56.65 56.60 56.55 56.50 56.45 56.40 56.35 56.30 56.25 56.20 56.15 56.10 56.05 56.00 55.95 55.90 55.85 55.80 55.75 55.70 55.65 55.60 55.55 55.50 55.45 55.40 55.35 55.30 55.25 55.20 55.15 55.10 55.05 55.00 54.95 54.90 54.85 54.80 54.75 54.70 54.65 54.60 54.55 54.50 54.45 54.40 54.35 54.30 54.25 54.20 54.15 54.10 54.05 54.00 53.95 53.90 53.85 53.80 53.75 53.70 53.65 53.60 53.55 53.50 53.45 53.40 53.35 53.30 53.25 53.20 53.15 53.10 53.05 53.00 52.95 52.90 52.85 52.80 52.75 52.70 52.65 52.60 52.55 52.50 52.45 52.40 52.35 52.30 52.25 52.20 52.15 52.10 52.05 52.00 51.95 51.90 51.85 51.80 51.75 51.70 51.65 51.60 51.55 51.50 51.45 51.40 51.35 51.30 51.25 51.20 51.15 51.10 51.05 51.00 50.95 50.90 50.85 50.80 50.75 50.70 50.65 50.60 50.55 50.50 50.45 50.40 50.35 50.30 50.25 50.20 50.15 50.10 50.05 50.00 49.95 49.90 49.85 49.80 49.75 49.70 49.65 49.60 49.55 49.50 49.45 49.40 49.35 49.30 49.25 49.20 49.15 49.10 49.05 49.00 48.95 48.90 48.85 48.80 48.75 48.70 48.65 48.60 48.55 48.50 48.45 48.40 48.35 48.30 48.25 48.20 48.15 48.10 48.05 48.00 47.95 47.90 47.85 47.80 47.75 47.70 47.65 47.60 47.55 47.50 47.45 47.40 47.35 47.30 47.25 47.20 47.15 47.10 47.05 47.00 46.95 46.90 46.85 46.80 46.75 46.70 46.65 46.60 46.55 46.50 46.45 46.40 46.35 46.30 46.25 46.20 46.15 46.10 46.05 46.00 45.95 45.90 45.85 45.80 45.75 45.70 45.65 45.60 45.55 45.50 45.45 45.40 45.35 45.30 45.25 45.20 45.15 45.10 45.05 45.00 44.95 44.90 44.85 44.80 44.75 44.70 44.65 44.60 44.55 44.50 44.45 44.40 44.35 44.30 44.25 44.20 44.15 44.10 44.05 44.00 43.95 43.90 43.85 43.80 43.75 43.70 43.65 43.60 43.55 43.50 43.45 43.40 43.35 43.30 43.25 43.20 43.15 43.10 43.05 43.00 42.95 42.90 42.85 42.80 42.75 42.70 42.65 42.60 42.55 42.50 42.45 42.40 42.35 42.30 42.25 42.20 42.15 42.10 42.05
62.75 62.70 62.65 62.60 62.55 62.50 62.45 62.40 62.35 62.30 62.25 62.20 62.15 62.10 62.05 62.00 61.95 61.90 61.85 61.80 61.75 61.70 61.65 61.60 61.55 61.50 61.45 61.40 61.35 61.30 61.25 61.20 61.15 61.10 61.05 61.00 60.95 60.90 60.85 60.80 60.75 60.70 60.65 60.60 60.55 60.50 60.45 60.40 60.35 60.30 60.25 60.20 60.15 60.10 60.05 60.00 59.95 59.90 59.85 59.80 59.75 59.70 59.65 59.60 59.55 59.50 59.45 59.40 59.35 59.30 59.25 59.20 59.15 59.10 59.05 59.00 58.95 58.90 58.85 58.80 58.75 58.70 58.65 58.60 58.55 58.50 58.45 58.40 58.35 58.30 58.25 58.20 58.15 58.10 58.05 58.00 57.95 57.90 57.85 57.80 57.75 57.70 57.65 57.60 57.55 57.50 57.45 57.40 57.35 57.30 57.25 57.20 57.15 57.10 57.05 57.00 56.95 56.90 56.85 56.80 56.75 56.70 56.65 56.60 56.55 56.50 56.45 56.40 56.35 56.30 56.25 56.20 56.15 56.10 56.05 56.00 55.95 55.90 55.85 55.80 55.75 55.70 55.65 55.60 55.55 55.50 55.45 55.40 55.35 55.30 55.25 55.20 55.15 55.10 55.05 55.00 54.95 54.90 54.85 54.80 54.75 54.70 54.65 54.60 54.55 54.50 54.45 54.40 54.35 54.30 54.25 54.20 54.15 54.10 54.05 54.00 53.95 53.90 53.85 53.80 53.75 53.70 53.65 53.60 53.55 53.50 53.45 53.40 53.35 53.30 53.25 53.20 53.15 53.10 53.05 53.00 52.95 52.90 52.85 52.80 52.75 52.70 52.65 52.60 52.55 52.50 52.45 52.40 52.35 52.30 52.25 52.20 52.15 52.10 52.05 52.00 51.95 51.90 51.85 51.80 51.75 51.70 51.65 51.60 51.55 51.50 51.45 51.40 51.35 51.30 51.25 51.20 51.15 51.10 51.05 51.00 50.95 50.90 50.85 50.80 50.75 50.70 50.65 50.60 50.55 50.50 50.45 50.40 50.35 50.30 50.25 50.20 50.15 50.10 50.05 50.00 49.95 49.90 49.85 49.80 49.75 49.70 49.65 49.60 49.55 49.50 49.45 49.40 49.35 49.30 49.25 49.20 49.15 49.10 49.05 49.00 48.95 48.90 48.85 48.80 48.75 48.70 48.65 48.60 48.55 48.50 48.45 48.40 48.35 48.30 48.25 48.20 48.15 48.10 48.05 48.00 47.95 47.90 47.85 47.80 47.75 47.70 47.65 47.60 47.55 47.50 47.45 47.40 47.35 47.30 47.25 47.20 47.15 47.10 47.05 47.00 46.95 46.90 46.85 46.80 46.75 46.70 46.65 46.60 46.55 46.50 46.45 46.40 46.35 46.30 46.25 46.20 46.15 46.10 46.05 46.00 45.95 45.90 45.85 45.80 45.75 45.70 45.65 45.60 45.55 45.50 45.45 45.40 45.35 45.30 45.25 45.20 45.15 45.10 45.05 45.00 44.95 44.90 44.85 44.80 44.75 44.70 44.65 44.60 44.55 44.50 44.45 44.40 44.35 44.30 44.25 44.20 44.15 44.10 44.05 44.00 43.95 43.90 43.85 43.80 43.75 43.70 43.65 43.60 43.55 43.50 43.45 43.40 43.35 43.30 43.25 43.20 43.15 43.10 43.05 43.00 42.95 42.90 42.85 42.80
63.50 63.45 63.40 63.35 63.30 63.25 63.20 63.15 63.10 63.05 63.00 62.95 62.90 62.85 62.80 62.75 62.70 62.65 62.60 62.55 62.50 62.45 62.40 62.35 62.30 62.25 62.20 62.15 62.10 62.05 62.00 61.95 61.90 61.85 61.80 61.75 61.70 61.65 61.60 61.55 61.50 61.45 61.40 61.35 61.30 61.25 61.20 61.15 61.10 61.05 61.00 60.95 60.90 60.85 60.80 60.75 60.70 60.65 60.60 60.55 60.50 60.45 60.40 60.35 60.30 60.25 60.20 60.15 60.10 60.05 60.00 59.95 59.90 59.85 59.80 59.75 59.70 59.65 59.60 59.55 59.50 59.45 59.40 59.35 59.30 59.25 59.20 59.15 59.10 59.05 59.00 58.95 58.90 58.85 58.80 58.75 58.70 58.65 58.60 58.55 58.50 58.45 58.40 58.35 58.30 58.25 58.20 58.15 58.10 58.05 58.00 57.95 57.90 57.85 57.80 57.75 57.70 57.65 57.60 57.55 57.50 57.45 57.40 57.35 57.30 57.25 57.20 57.15 57.10 57.05 57.00 56.95 56.90 56.85 56.80 56.75 56.70 56.65 56.60 56.55 56.50 56.45 56.40 56.35 56.30 56.25 56.20 56.15 56.10 56.05 56.00 55.95 55.90 55.85 55.80 55.75 55.70 55.65 55.60 55.55 55.50 55.45 55.40 55.35 55.30 55.25 55.20 55.15 55.10 55.05 55.00 54.95 54.90 54.85 54.80 54.75 54.70 54.65 54.60 54.55 54.50 54.45 54.40 54.35 54.30 54.25 54.20 54.15 54.10 54.05 54.00 53.95 53.90 53.85 53.80 53.75 53.70 53.65 53.60 53.55 53.50 53.45 53.40 53.35 53.30 53.25 53.20 53.15 53.10 53.05 53.00 52.95 52.90 52.85 52.80 52.75 52.70 52.65 52.60 52.55 52.50 52.45 52.40 52.35 52.30 52.25 52.20 52.15 52.10 52.05 52.00 51.95 51.90 51.85 51.80 51.75 51.70 51.65 51.60 51.55 51.50 51.45 51.40 51.35 51.30 51.25 51.20 51.15 51.10 51.05 51.00 50.95 50.90 50.85 50.80 50.75 50.70 50.65 50.60 50.55 50.50 50.45 50.40 50.35 50.30 50.25 50.20 50.15 50.10 50.05 50.00 49.95 49.90 49.85 49.80 49.75 49.70 49.65 49.60 49.55 49.50 49.45 49.40 49.35 49.30 49.25 49.20 49.15 49.10 49.05 49.00 48.95 48.90 48.85 48.80 48.75 48.70 48.65 48.60 48.55 48.50 48.45 48.40 48.35 48.30 48.25 48.20 48.15 48.10 48.05 48.00 47.95 47.90 47.85 47.80 47.75 47.70 47.65 47.60 47.55 47.50 47.45 47.40 47.35 47.30 47.25 47.20 47.15 47.10 47.05 47.00 46.95 46.90 46.85 46.80 46.75 46.70 46.65 46.60 46.55 46.50 46.45 46.40 46.35 46.30 46.25 46.20 46.15 46.10 46.05 46.00 45.95 45.90 45.85 45.80 45.75 45.70 45.65 45.60 45.55 45.50 45.45 45.40 45.35 45.30 45.25 45.20 45.15 45.10 45.05 45.00 44.95 44.90 44.85 44.80 44.75 44.70 44.65 44.60 44.55 44.50 44.45 44.40 44.35 44.30 44.25 44.20 44.15 44.10 44.05 44.00 43.95 43.90 43.85 43.80 43.75 43.70 43.65 43.60 43.55
64.25 64.20 64.15 64.10 64.05 64.00 63.95 63.90 63.85 63.80 63.75 63.70 63.65 63.60 63.55 63.50 63.45 63.40 63.35 63.30 63.25 63.20 63.15 63.10 63.05 63.00 62.95 62.90 62.85 62.80 62.75 62.70 62.65 62.60 62.55 62.50 62.45 62.40 62.35 62.30 62.25 62.20 62.15 62.10 62.05 62.00 61.95 61.90 61.85 61.80 61.75 61.70 61.65 61.60 61.55 61.50 61.45 61.40 61.35 61.30 61.25 61.20 61.15 61.10 61.05 61.00 60.95 60.90 60.85 60.80 60.75 60.70 60.65 60.60 60.55 60.50 60.45 60.40 60.35 60.30 60.25 60.20 60.15 60.10 60.05 60.00 59.95 59.90 59.85 59.80 59.75 59.70 59.65 59.60 59.55 59.50 59.45 59.40 59.35 59.30 59.25 59.20 59.15 59.10 59.05 59.00 58.95 58.90 58.85 58.80 58.75 58.70 58.65 58.60 58.55 58.50 58.45 58.40 58.35 58.30 58.25 58.20 58.15 58.10 58.05 58.00 57.95 57.90 57.85 57.80 57.75 57.70 57.65 57.60 57.55 57.50 57.45 57.40 57.35 57.30 57.25 57.20 57.15 57.10 57.05 57.00 56.95 56.90 56.85 56.80 56.75 56.70 56.65 56.60 56.55 56.50 56.45 56.40 56.35 56.30 56.25 56.20 56.15 56.10 56.05 56.00 55.95 55.90 55.85 55.80 55.75 55.70 55.65 55.60 55.55 55.50 55.45 55.40 55.35 55.30 55.25 55.20 55.15 55.10 55.05 55.00 54.95 54.90 54.85 54.80 54.75 54.70 54.65 54.60 54.55 54.50 54.45 54.40 54.35 54.30 54.25 54.20 54.15 54.10 54.05 54.00 53.95 53.90 53.85 53.80 53.75 53.70 53.65 53.60 53.55 53.50 53.45 53.40 53.35 53.30 53.25 53.20 53.15 53.10 53.05 53.00 52.95 52.90 52.85 52.80 52.75 52.70 52.65 52.60 52.55 52.50 52.45 52.40 52.35 52.30 52.25 52.20 52.15 52.10 52.05 52.00 51.95 51.90 51.85 51.80 51.75 51.70 51.65 51.60 51.55 51.50 51.45 51.40 51.35 51.30 51.25 51.20 51.15 51.10 51.05 51.00 50.95 50.90 50.85 50.80 50.75 50.70 50.65 50.60 50.55 50.50 50.45 50.40 50.35 50.30 50.25 50.20 50.15 50.10 50.05 50.00 49.95 49.90 49.85 49.80 49.75 49.70 49.65 49.60 49.55 49.50 49.45 49.40 49.35 49.30 49.25 49.20 49.15 49.10 49.05 49.00 48.95 48.90 48.85 48.80 48.75 48.70 48.65 48.60 48.55 48.50 48.45 48.40 48.35 48.30 48.25 48.20 48.15 48.10 48.05 48.00 47.95 47.90 47.85 47.80 47.75 47.70 47.65 47.60 47.55 47.50 47.45 47.40 47.35 47.30 47.25 47.20 47.15 47.10 47.05 47.00 46.95 46.90 46.85 46.80 46.75 46.70 46.65 46.60 46.55 46.50 46.45 46.40 46.35 46.30 46.25 46.20 46.15 46.10 46.05 46.00 45.95 45.90 45.85 45.80 45.75 45.70 45.65 45.60 45.55 45.50 45.45 45.40 45.35 45.30 45.25 45.20 45.15 45.10 45.05 45.00 44.95 44.90 44.85 44.80 44.75 44.70 44.65 44.60 44.55 44.50 44.45 44.40 44.35 44.30
65.00 64.95 64.90 64.85 64.80 64.75 64.70 64.65 64.60 64.55 64.50 64.45 64.40 64.35 64.30 64.25 64.20 64.15 64.10 64.05 64.00 63.95 63.90 63.85 63.80 63.75 63.70 63.65 63.60 63.55 63.50 63.45 63.40 63.35 63.30 63.25 63.20 63.15 63.10 63.05 63.00 62.95 62.90 62.85 62.80 62.75 62.70 62.65 62.60 62.55 62.50 62.45 62.40 62.35 62.30 62.25 62.20 62.15 62.10 62.05 62.00 61.95 61.90 61.85 61.80 61.75 61.70 61.65 61.60 61.55 61.50 61.45 61.40 61.35 61.30 61.25 61.20 61.15 61.10 61.05 61.00 60.95 60.90 60.85 60.80 60.75 60.70 60.65 60.60 60.55 60.50 60.45 60.40 60.35 60.30 60.25 60.20 60.15 60.10 60.05 60.00 59.95 59.90 59.85 59.80 59.75 59.70 59.65 59.60 59.55 59.50 59.45 59.40 59.35 59.30 59.25 59.20 59.15 59.10 59.05 59.00 58.95 58.90 58.85 58.80 58.75 58.70 58.65 58.60 58.55 58.50 58.45 58.40 58.35 58.30 58.25 58.20 58.15 58.10 58.05 58.00 57.95 57.90 57.85 57.80 57.75 57.70 57.65 57.60 57.55 57.50 57.45 57.40 57.35 57.30 57.25 57.20 57.15 57.10 57.05 57.00 56.95 56.90 56.85 56.80 56.75 56.70 56.65 56.60 56.55 56.50 56.45 56.40 56.35 56.30 56.25 56.20 56.15 56.10 56.05 56.00 55.95 55.90 55.85 55.80 55.75 55.70 55.65 55.60 55.55 55.50 55.45 55.40 55.35 55.30 55.25 55.20 55.15 55.10 55.05 55.00 54.95 54.90 54.85 54.80 54.75 54.70 54.65 54.60 54.55 54.50 54.45 54.40 54.35 54.30 54.25 54.20 54.15 54.10 54.05 54.00 53.95 53.90 53.85 53.80 53.75 53.70 53.65 53.60 53.55 53.50 53.45 53.40 53.35 53.30 53.25 53.20 53.15 53.10 53.05 53.00 52.95 52.90 52.85 52.80 52.75 52.70 52.65 52.60 52.55 52.50 52.45 52.40 52.35 52.30 52.25 52.20 52.15 52.10 52.05 52.00 51.95 51.90 51.85 51.80 51.75 51.70 51.65 51.60 51.55 51.50 51.45 51.40 51.35 51.30 51.25 51.20 51.15 51.10 51.05 51.00 50.95 50.90 50.85 50.80 50.75 50.70 50.65 50.60 50.55 50.50 50.45 50.40 50.35 50.30 50.25 50.20 50.15 50.10 50.05 50.00 49.95 49.90 49.85 49.80 49.75 49.70 49.65 49.60 49.55 49.50 49.45 49.40 49.35 49.30 49.25 49.20 49.15 49.10 49.05 49.00 48.95 48.90 48.85 48.80 48.75 48.70 48.65 48.60 48.55 48.50 48.45 48.40 48.35 48.30 48.25 48.20 48.15 48.10 48.05 48.00 47.95 47.90 47.85 47.80 47.75 47.70 47.65 47.60 47.55 47.50 47.45 47.40 47.35 47.30 47.25 47.20 47.15 47.10 47.05 47.00 46.95 46.90 46.85 46.80 46.75 46.70 46.65 46.60 46.55 46.50 46.45 46.40 46.35 46.30 46.25 46.20 46.15 46.10 46.05 46.00 45.95 45.90 45.85 45.80 45.75 45.70 45.65 45.60 45.55 45.50 45.45 45.40 45.35 45.30 45.25 45.20 45.15 45.10 45.05
65.75 65.70 65.65 65.60 65.55 65.50 65.45 65.40 65.35 65.30 65.25 65.20 65.15 65.10 65.05 65.00 64.95 64.90 64.85 64.80 64.75 64.70 64.65 64.60 64.55 64.50 64.45 64.40 64.35 64.30 64.25 64.20 64.15 64.10 64.05 64.00 63.95 63.90 63.85 63.80 63.75 63.70 63.65 63.60 63.55 63.50 63.45 63.40 63.35 63.30 63.25 63.20 63.15 63.10 63.05 63.00 62.95 62.90 62.85 62.80 62.75 62.70 62.65 62.60 62.55 62.50 62.45 62.40 62.35 62.30 62.25 62.20 62.15 62.10 62.05 62.00 61.95 61.90 61.85 61.80 61.75 61.70 61.65 61.60 61.55 61.50 61.45 61.40 61.35 61.30 61.25 61.20 61.15 61.10 61.05 61.00 60.95 60.90 60.85 60.80 60.75 60.70 60.65 60.60 60.55 60.50 60.45 60.40 60.35 60.30 60.25 60.20 60.15 60.10 60.05 60.00 59.95 59.90 59.85 59.80 59.75 59.70 59.65 59.60 59.55 59.50 59.45 59.40 59.35 59.30 59.25 59.20 59.15 59.10 59.05 59.00 58.95 58.90 58.85 58.80 58.75 58.70 58.65 58.60 58.55 58.50 58.45 58.40 58.35 58.30 58.25 58.20 58.15 58.10 58.05 58.00 57.95 57.90 57.85 57.80 57.75 57.70 57.65 57.60 57.55 57.50 57.45 57.40 57.35 57.30 57.25 57.20 57.15 57.10 57.05 57.00 56.95 56.90 56.85 56.80 56.75 56.70 56.65 56.60 56.55 56.50 56.45 56.40 56.35 56.30 56.25 56.20 56.15 56.10 56.05 56.00 55.95 55.90 55.85 55.80 55.75 55.70 55.65 55.60 55.55 55.50 55.45 55.40 55.35 55.30 55.25 55.20 55.15 55.10 55.05 55.00 54.95 54.90 54.85 54.80 54.75 54.70 54.65 54.60 54.55 54.50 54.45 54.40 54.35 54.30 54.25 54.20 54.15 54.10 54.05 54.00 53.95 53.90 53.85 53.80 53.75 53.70 53.65 53.60 53.55 53.50 53.45 53.40 53.35 53.30 53.25 53.20 53.15 53.10 53.05 53.00 52.95 52.90 52.85 52.80 52.75 52.70 52.65 52.60 52.55 52.50 52.45 52.40 52.35 52.30 52.25 52.20 52.15 52.10 52.05 52.00 51.95 51.90 51.85 51.80 51.75 51.70 51.65 51.60 51.55 51.50 51.45 51.40 51.35 51.30 51.25 51.20 51.15 51.10 51.05 51.00 50.95 50.90 50.85 50.80 50.75 50.70 50.65 50.60 50.55 50.50 50.45 50.40 50.35 50.30 50.25 50.20 50.15 50.10 50.05 50.00 49.95 49.90 49.85 49.80 49.75 49.70 49.65 49.60 49.55 49.50 49.45 49.40 49.35 49.30 49.25 49.20 49.15 49.10 49.05 49.00 48.95 48.90 48.85 48.80 48.75 48.70 48.65 48.60 48.55 48.50 48.45 48.40 48.35 48.30 48.25 48.20 48.15 48.10 48.05 48.00 47.95 47.90 47.85 47.80 47.75 47.70 47.65 47.60 47.55 47.50 47.45 47.40 47.35 47.30 47.25 47.20 47.15 47.10 47.05 47.00 46.95 46.90 46.85 46.80 46.75 46.70 46.65 46.60 46.55 46.50 46.45 46.40 46.35 46.30 46.25 46.20 46.15 46.10 46.05 46.00 45.95 45.90 45.85 45.80
66.50 66.45 66.40 66.35 66.30 66.25 66.20 66.15 66.10 66.05 66.00 65.95 65.90 65.85 65.80 65.75 65.70 65.65 65.60 65.55 65.50 65.45 65.40 65.35 65.30 65.25 65.20 65.15 65.10 65.05 65.00 64.95 64.90 64.85 64.80 64.75 64.70 64.65 64.60 64.55 64.50 64.45 64.40 64.35 64.30 64.25 64.20 64.15 64.10 64.05 64.00 63.95 63.90 63.85 63.80 63.75 63.70 63.65 63.60 63.55 63.50 63.45 63.40 63.35 63.30 63.25 63.20 63.15 63.10 63.05 63.00 62.95 62.90 62.85 62.80 62.75 62.70 62.65 62.60 62.55 62.50 62.45 62.40 62.35 62.30 62.25 62.20 62.15 62.10 62.05 62.00 61.95 61.90 61.85 61.80 61.75 61.70 61.65 61.60 61.55 61.50 61.45 61.40 61.35 61.30 61.25 61.20 61.15 61.10 61.05 61.00 60.95 60.90 60.85 60.80 60.75 60.70 60.65 60.60 60.55 60.50 60.45 60.40 60.35 60.30 60.25 60.20 60.15 60.10 60.05 60.00 59.95 59.90 59.85 59.80 59.75 59.70 59.65 59.60 59.55 59.50 59.45 59.40 59.35 59.30 59.25 59.20 59.15 59.10 59.05 59.00 58.95 58.90 58.85 58.80 58.75 58.70 58.65 58.60 58.55 58.50 58.45 58.40 58.35 58.30 58.25 58.20 58.15 58.10 58.05 58.00 57.95 57.90 57.85 57.80 57.75 57.70 57.65 57.60 57.55 57.50 57.45 57.40 57.35 57.30 57.25 57.20 57.15 57.10 57.05 57.00 56.95 56.90 56.85 56.80 56.75 56.70 56.65 56.60 56.55 56.50 56.45 56.40 56.35 56.30 56.25 56.20 56.15 56.10 56.05 56.00 55.95 55.90 55.85 55.80 55.75 55.70 55.65 55.60 55.55 55.50 55.45 55.40 55.35 55.30 55.25 55.20 55.15 55.10 55.05 55.00 54.95 54.90 54.85 54.80 54.75 54.70 54.65 54.60 54.55 54.50 54.45 54.40 54.35 54.30 54.25 54.20 54.15 54.10 54.05 54.00 53.95 53.90 53.85 53.80 53.75 53.70 53.65 53.60 53.55 53.50 53.45 53.40 53.35 53.30 53.25 53.20 53.15 53.10 53.05 53.00 52.95 52.90 52.85 52.80 52.75 52.70 52.65 52.60 52.55 52.50 52.45 52.40 52.35 52.30 52.25 52.20 52.15 52.10 52.05 52.00 51.95 51.90 51.85 51.80 51.75 51.70 51.65 51.60 51.55 51.50 51.45 51.40 51.35 51.30 51.25 51.20 51.15 51.10 51.05 51.00 50.95 50.90 50.85 50.80 50.75 50.70 50.65 50.60 50.55 50.50 50.45 50.40 50.35 50.30 50.25 50.20 50.15 50.10 50.05 50.00 49.95 49.90 49.85 49.80 49.75 49.70 49.65 49.60 49.55 49.50 49.45 49.40 49.35 49.30 49.25 49.20 49.15 49.10 49.05 49.00 48.95 48.90 48.85 48.80 48.75 48.70 48.65 48.60 48.55 48.50 48.45 48.40 48.35 48.30 48.25 48.20 48.15 48.10 48.05 48.00 47.95 47.90 47.85 47.80 47.75 47.70 47.65 47.60 47.55 47.50 47.45 47.40 47.35 47.30 47.25 47.20 47.15 47.10 47.05 47.00 46.95 46.90 46.85 46.80 46.75 46.70 46.65 46.60 46.55
67.25 67.20 67.15 67.10 67.05 67.00 66.95 66.90 66.85 66.80 66.75 66.70 66.65 66.60 66.55 66.50 66.45 66.40 66.35 66.30 66.25 66.20 66.15 66.10 66.05 66.00 65.95 65.90 65.85 65.80 65.75 65.70 65.65 65.60 65.55 65.50 65.45 65.40 65.35 65.30 65.25 65.20 65.15 65.10 65.05 65.00 64.95 64.90 64.85 64.80 64.75 64.70 64.65 64.60 64.55 64.50 64.45 64.40 64.35 64.30 64.25 64.20 64.15 64.10 64.05 64.00 63.95 63.90 63.85 63.80 63.75 63.70 63.65 63.60 63.55 63.50 63.45 63.40 63.35 63.30 63.25 63.20 63.15 63.10 63.05 63.00 62.95 62.90 62.85 62.80 62.75 62.70 62.65 62.60 62.55 62.50 62.45 62.40 62.35 62.30 62.25 62.20 62.15 62.10 62.05 62.00 61.95 61.90 61.85 61.80 61.75 61.70 61.65 61.60 61.55 61.50 61.45 61.40 61.35 61.30 61.25 61.20 61.15 61.10 61.05 61.00 60.95 60.90 60.85 60.80 60.75 60.70 60.65 60.60 60.55 60.50 60.45 60.40 60.35 60.30 60.25 60.20 60.15 60.10 60.05 60.00 59.95 59.90 59.85 59.80 59.75 59.70 59.65 59.60 59.55 59.50 59.45 59.40 59.35 59.30 59.25 59.20 59.15 59.10 59.05 59.00 58.95 58.90 58.85 58.80 58.75 58.70 58.65 58.60 58.55 58.50 58.45 58.40 58.35 58.30 58.25 58.20 58.15 58.10 58.05 58.00 57.95 57.90 57.85 57.80 57.75 57.70 57.65 57.60 57.55 57.50 57.45 57.40 57.35 57.30 57.25 57.20 57.15 57.10 57.05 57.00 56.95 56.90 56.85 56.80 56.75 56.70 56.65 56.60 56.55 56.50 56.45 56.40 56.35 56.30 56.25 56.20 56.15 56.10 56.05 56.00 55.95 55.90 55.85 55.80 55.75 55.70 55.65 55.60 55.55 55.50 55.45 55.40 55.35 55.30 55.25 55.20 55.15 55.10 55.05 55.00 54.95 54.90 54.85 54.80 54.75 54.70 54.65 54.60 54.55 54.50 54.45 54.40 54.35 54.30 54.25 54.20 54.15 54.10 54.05 54.00 53.95 53.90 53.85 53.80 53.75 53.70 53.65 53.60 53.55 53.50 53.45 53.40 53.35 53.30 53.25 53.20 53.15 53.10 53.05 53.00 52.95 52.90 52.85 52.80 52.75 52.70 52.65 52.60 52.55 52.50 52.45 52.40 52.35 52.30 52.25 52.20 52.15 52.10 52.05 52.00 51.95 51.90 51.85 51.80 51.75 51.70 51.65 51.60 51.55 51.50 51.45 51.40 51.35 51.30 51.25 51.20 51.15 51.10 51.05 51.00 50.95 50.90 50.85 50.80 50.75 50.70 50.65 50.60 50.55 50.50 50.45 50.40 50.35 50.30 50.25 50.20 50.15 50.10 50.05 50.00 49.95 49.90 49.85 49.80 49.75 49.70 49.65 49.60 49.55 49.50 49.45 49.40 49.35 49.30 49.25 49.20 49.15 49.10 49.05 49.00 48.95 48.90 48.85 48.80 48.75 48.70 48.65 48.60 48.55 48.50 48.45 48.40 48.35 48.30 48.25 48.20 48.15 48.10 48.05 48.00 47.95 47.90 47.85 47.80 47.75 47.70 47.65 47.60 47.55 47.50 47.45 47.40 47.35 47.30
68.00 67.95 67.90 67.85 67.80 67.75 67.70 67.65 67.60 67.55 67.50 67.45 67.40 67.35 67.30 67.25 67.20 67.15 67.10 67.05 67.00 66.95 66.90 66.85 66.80 66.75 66.70 66.65 66.60 66.55 66.50 66.45 66.40 66.35 66.30 66.25 66.20 66.15 66.10 66.05 66.00 65.95 65.90 65.85 65.80 65.75 65.70 65.65 65.60 65.55 65.50 65.45 65.40 65.35 65.30 65.25 65.20 65.15 65.10 65.05 65.00 64.95 64.90 64.85 64.80 64.75 64.70 64.65 64.60 64.55 64.50 64.45 64.40 64.35 64.30 64.25 64.20 64.15 64.10 64.05 64.00 63.95 63.90 63.85 63.80 63.75 63.70 63.65 63.60 63.55 63.50 63.45 63.40 63.35 63.30 63.25 63.20 63.15 63.10 63.05 63.00 62.95 62.90 62.85 62.80 62.75 62.70 62.65 62.60 62.55 62.50 62.45 62.40 62.35 62.30 62.25 62.20 62.15 62.10 62.05 62.00 61.95 61.90 61.85 61.80 61.75 61.70 61.65 61.60 61.55 61.50 61.45 61.40 61.35 61.30 61.25 61.20 61.15 61.10 61.05 61.00 60.95 60.90 60.85 60.80 60.75 60.70 60.65 60.60 60.55 60.50 60.45 60.40 60.35 60.30 60.25 60.20 60.15 60.10 60.05 60.00 59.95 59.90 59.85 59.80 59.75 59.70 59.65 59.60 59.55 59.50 59.45 59.40 59.35 59.30 59.25 59.20 59.15 59.10 59.05 59.00 58.95 58.90 58.85 58.80 58.75 58.70 58.65 58.60 58.55 58.50 58.45 58.40 58.35 58.30 58.25 58.20 58.15 58.10 58.05 58.00 57.95 57.90 57.85 57.80 57.75 57.70 57.65 57.60 57.55 57.50 57.45 57.40 57.35 57.30 57.25 57.20 57.15 57.10 57.05 57.00 56.95 56.90 56.85 56.80 56.75 56.70 56.65 56.60 56.55 56.50 56.45 56.40 56.35 56.30 56.25 56.20 56.15 56.10 56.05 56.00 55.95 55.90 55.85 55.80 55.75 55.70 55.65 55.60 55.55 55.50 55.45 55.40 55.35 55.30 55.25 55.20 55.15 55.10 55.05 55.00 54.95 54.90 54.85 54.80 54.75 54.70 54.65 54.60 54.55 54.50 54.45 54.40 54.35 54.30 54.25 54.20 54.15 54.10 54.05 54.00 53.95 53.90 53.85 53.80 53.75 53.70 53.65 53.60 53.55 53.50 53.45 53.40 53.35 53.30 53.25 53.20 53.15 53.10 53.05 53.00 52.95 52.90 52.85 52.80 52.75 52.70 52.65 52.60 52.55 52.50 52.45 52.40 52.35 52.30 52.25 52.20 52.15 52.10 52.05 52.00 51.95 51.90 51.85 51.80 51.75 51.70 51.65 51.60 51.55 51.50 51.45 51.40 51.35 51.30 51.25 51.20 51.15 51.10 51.05 51.00 50.95 50.90 50.85 50.80 50.75 50.70 50.65 50.60 50.55 50.50 50.45 50.40 50.35 50.30 50.25 50.20 50.15 50.10 50.05 50.00 49.95 49.90 49.85 49.80 49.75 49.70 49.65 49.60 49.55 49.50 49.45 49.40 49.35 49.30 49.25 49.20 49.15 49.10 49.05 49.00 48.95 48.90 48.85 48.80 48.75 48.70 48.65 48.60 48.55 48.50 48.45 48.40 48.35 48.30 48.25 48.20 48.15 48.10 48.05
68.75 68.70 68.65 68.60 68.55 68.50 68.45 68.40 68.35 68.30 68.25 68.20 68.15 68.10 68.05 68.00 67.95 67.90 67.85 67.80 67.75 67.70 67.65 67.60 67.55 67.50 67.45 67.40 67.35 67.30 67.25 67.20 67.15 67.10 67.05 67.00 66.95 66.90 66.85 66.80 66.75 66.70 66.65 66.60 66.55 66.50 66.45 66.40 66.35 66.30 66.25 66.20 66.15 66.10 66.05 66.00 65.95 65.90 65.85 65.80 65.75 65.70 65.65 65.60 65.55 65.50 65.45 65.40 65.35 65.30 65.25 65.20 65.15 65.10 65.05 65.00 64.95 64.90 64.85 64.80 64.75 64.70 64.65 64.60 64.55 64.50 64.45 64.40 64.35 64.30 64.25 64.20 64.15 64.10 64.05 64.00 63.95 63.90 63.85 63.80 63.75 63.70 63.65 63.60 63.55 63.50 63.45 63.40 63.35 63.30 63.25 63.20 63.15 63.10 63.05 63.00 62.95 62.90 62.85 62.80 62.75 62.70 62.65 62.60 62.55 62.50 62.45 62.40 62.35 62.30 62.25 62.20 62.15 62.10 62.05 62.00 61.95 61.90 61.85 61.80 61.75 61.70 61.65 61.60 61.55 61.50 61.45 61.40 61.35 61.30 61.25 61.20 61.15 61.10 61.05 61.00 60.95 60.90 60.85 60.80 60.75 60.70 60.65 60.60 60.55 60.50 60.45 60.40 60.35 60.30 60.25 60.20 60.15 60.10 60.05 60.00 59.95 59.90 59.85 59.80 59.75 59.70 59.65 59.60 59.55 59.50 59.45 59.40 59.35 59.30 59.25 59.20 59.15 59.10 59.05 59.00 58.95 58.90 58.85 58.80 58.75 58.70 58.65 58.60 58.55 58.50 58.45 58.40 58.35 58.30 58.25 58.20 58.15 58.10 58.05 58.00 57.95 57.90 57.85 57.80 57.75 57.70 57.65 57.60 57.55 57.50 57.45 57.40 57.35 57.30 57.25 57.20 57.15 57.10 57.05 57.00 56.95 56.90 56.85 56.80 56.75 56.70 56.65 56.60 56.55 56.50 56.45 56.40 56.35 56.30 56.25 56.20 56.15 56.10 56.05 56.00 55.95 55.90 55.85 55.80 55.75 55.70 55.65 55.60 55.55 55.50 55.45 55.40 55.35 55.30 55.25 55.20 55.15 55.10 55.05 55.00 54.95 54.90 54.85 54.80 54.75 54.70 54.65 54.60 54.55 54.50 54.45 54.40 54.35 54.30 54.25 54.20 54.15 54.10 54.05 54.00 53.95 53.90 53.85 53.80 53.75 53.70 53.65 53.60 53.55 53.50 53.45 53.40 53.35 53.30 53.25 53.20 53.15 53.10 53.05 53.00 52.95 52.90 52.85 52.80 52.75 52.70 52.65 52.60 52.55 52.50 52.45 52.40 52.35 52.30 52.25 52.20 52.15 52.10 52.05 52.00 51.95 51.90 51.85 51.80 51.75 51.70 51.65 51.60 51.55 51.50 51.45 51.40 51.35 51.30 51.25 51.20 51.15 51.10 51.05 51.00 50.95 50.90 50.85 50.80 50.75 50.70 50.65 50.60 50.55 50.50 50.45 50.40 50.35 50.30 50.25 50.20 50.15 50.10 50.05 50.00 49.95 49.90 49.85 49.80 49.75 49.70 49.65 49.60 49.55 49.50 49.45 49.40 49.35 49.30 49.25 49.20 49.15 49.10 49.05 49.00 48.95 48.90 48.85 48.80
69.50 69.45 69.40 69.35 69.30 69.25 69.20 69.15 69.10 69.05 69.00 68.95 68.90 68.85 68.80 68.75 68.70 68.65 68.60 68.55 68.50 68.45 68.40 68.35 68.30 68.25 68.20 68.15 68.10 68.05 68.00 67.95 67.90 67.85 67.80 67.75 67.70 67.65 67.60 67.55 67.50 67.45 67.40 67.35 67.30 67.25 67.20 67.15 67.10 67.05 67.00 66.95 66.90 66.85 66.80 66.75 66.70 66.65 66.60 66.55 66.50 66.45 66.40 66.35 66.30 66.25 66.20 66.15 66.10 66.05 66.00 65.95 65.90 65.85 65.80 65.75 65.70 65.65 65.60 65.55 65.50 65.45 65.40 65.35 65.30 65.25 65.20 65.15 65.10 65.05 65.00 64.95 64.90 64.85 64.80 64.75 64.70 64.65 64.60 64.55 64.50 64.45 64.40 64.35 64.30 64.25 64.20 64.15 64.10 64.05 64.00 63.95 63.90 63.85 63.80 63.75 63.70 63.65 63.60 63.55 63.50 63.45 63.40 63.35 63.30 63.25 63.20 63.15 63.10 63.05 63.00 62.95 62.90 62.85 62.80 62.75 62.70 62.65 62.60 62.55 62.50 62.45 62.40 62.35 62.30 62.25 62.20 62.15 62.10 62.05 62.00 61.95 61.90 61.85 61.80 61.75 61.70 61.65 61.60 61.55 61.50 61.45 61.40 61.35 61.30 61.25 61.20 61.15 61.10 61.05 61.00 60.95 60.90 60.85 60.80 60.75 60.70 60.65 60.60 60.55 60.50 60.45 60.40 60.35 60.30 60.25 60.20 60.15 60.10 60.05 60.00 59.95 59.90 59.85 59.80 59.75 59.70 59.65 59.60 59.55 59.50 59.45 59.40 59.35 59.30 59.25 59.20 59.15 59.10 59.05 59.00 58.95 58.90 58.85 58.80 58.75 58.70 58.65 58.60 58.55 58.50 58.45 58.40 58.35 58.30 58.25 58.20 58.15 58.10 58.05 58.00 57.95 57.90 57.85 57.80 57.75 57.70 57.65 57.60 57.55 57.50 57.45 57.40 57.35 57.30 57.25 57.20 57.15 57.10 57.05 57.00 56.95 56.90 56.85 56.80 56.75 56.70 56.65 56.60 56.55 56.50 56.45 56.40 56.35 56.30 56.25 56.20 56.15 56.10 56.05 56.00 55.95 55.90 55.85 55.80 55.75 55.70 55.65 55.60 55.55 55.50 55.45 55.40 55.35 55.30 55.25 55.20 55.15 55.10 55.05 55.00 54.95 54.90 54.85 54.80 54.75 54.70 54.65 54.60 54.55 54.50 54.45 54.40 54.35 54.30 54.25 54.20 54.15 54.10 54.05 54.00 53.95 53.90 53.85 53.80 53.75 53.70 53.65 53.60 53.55 53.50 53.45 53.40 53.35 53.30 53.25 53.20 53.15 53.10 53.05 53.00 52.95 52.90 52.85 52.80 52.75 52.70 52.65 52.60 52.55 52.50 52.45 52.40 52.35 52.30 52.25 52.20 52.15 52.10 52.05 52.00 51.95 51.90 51.85 51.80 51.75 51.70 51.65 51.60 51.55 51.50 51.45 51.40 51.35 51.30 51.25 51.20 51.15 51.10 51.05 51.00 50.95 50.90 50.85 50.80 50.75 50.70 50.65 50.60 50.55 50.50 50.45 50.40 50.35 50.30 50.25 50.20 50.15 50.10 50.05 50.00 49.95 49.90 49.85 49.80 49.75 49.70 49.65 49.60 49.55
70.25 70.20 70.15 70.10 70.05 70.00 69.95 69.90 69.85 69.80 69.75 69.70 69.65 69.60 69.55 69.50 69.45 69.40 69.35 69.30 69.25 69.20 69.15 69.10 69.05 69.00 68.95 68.90 68.85 68.80 68.75 68.70 68.65 68.60 68.55 68.50 68.45 68.40 68.35 68.30 68.25 68.20 68.15 68.10 68.05 68.00 67.95 67.90 67.85 67.80 67.75 67.70 67.65 67.60 67.55 67.50 67.45 67.40 67.35 67.30 67.25 67.20 67.15 67.10 67.05 67.00 66.95 66.90 66.85 66.80 66.75 66.70 66.65 66.60 66.55 66.50 66.45 66.40 66.35 66.30 66.25 66.20 66.15 66.10 66.05 66.00 65.95 65.90 65.85 65.80 65.75 65.70 65.65 65.60 65.55 65.50 65.45 65.40 65.35 65.30 65.25 65.20 65.15 65.10 65.05 65.00 64.95 64.90 64.85 64.80 64.75 64.70 64.65 64.60 64.55 64.50 64.45 64.40 64.35 64.30 64.25 64.20 64.15 64.10 64.05 64.00 63.95 63.90 63.85 63.80 63.75 63.70 63.65 63.60 63.55 63.50 63.45 63.40 63.35 63.30 63.25 63.20 63.15 63.10 63.05 63.00 62.95 62.90 62.85 62.80 62.75 62.70 62.65 62.60 62.55 62.50 62.45 62.40 62.35 62.30 62.25 62.20 62.15 62.10 62.05 62.00 61.95 61.90 61.85 61.80 61.75 61.70 61.65 61.60 61.55 61.50 61.45 61.40 61.35 61.30 61.25 61.20 61.15 61.10 61.05 61.00 60.95 60.90 60.85 60.80 60.75 60.70 60.65 60.60 60.55 60.50 60.45 60.40 60.35 60.30 60.25 60.20 60.15 60.10 60.05 60.00 59.95 59.90 59.85 59.80 59.75 59.70 59.65 59.60 59.55 59.50 59.45 59.40 59.35 59.30 59.25 59.20 59.15 59.10 59.05 59.00 58.95 58.90 58.85 58.80 58.75 58.70 58.65 58.60 58.55 58.50 58.45 58.40 58.35 58.30 58.25 58.20 58.15 58.10 58.05 58.00 57.95 57.90 57.85 57.80 57.75 57.70 57.65 57.60 57.55 57.50 57.45 57.40 57.35 57.30 57.25 57.20 57.15 57.10 57.05 57.00 56.95 56.90 56.85 56.80 56.75 56.70 56.65 56.60 56.55 56.50 56.45 56.40 56.35 56.30 56.25 56.20 56.15 56.10 56.05 56.00 55.95 55.90 55.85 55.80 55.75 55.70 55.65 55.60 55.55 55.50 55.45 55.40 55.35 55.30 55.25 55.20 55.15 55.10 55.05 55.00 54.95 54.90 54.85 54.80 54.75 54.70 54.65 54.60 54.55 54.50 54.45 54.40 54.35 54.30 54.25 54.20 54.15 54.10 54.05 54.00 53.95 53.90 53.85 53.80 53.75 53.70 53.65 53.60 53.55 53.50 53.45 53.40 53.35 53.30 53.25 53.20 53.15 53.10 53.05 53.00 52.95 52.90 52.85 52.80 52.75 52.70 52.65 52.60 52.55 52.50 52.45 52.40 52.35 52.30 52.25 52.20 52.15 52.10 52.05 52.00 51.95 51.90 51.85 51.80 51.75 51.70 51.65 51.60 51.55 51.50 51.45 51.40 51.35 51.30 51.25 51.20 51.15 51.10 51.05 51.00 50.95 50.90 50.85 50.80 50.75 50.70 50.65 50.60 50.55 50.50 50.45 50.40 50.35 50.30
71.00 70.95 70.90 70.85 70.80 70.75 70.70 70.65 70.60 70.55 70.50 70.45 70.40 70.35 70.30 70.25 70.20 70.15 70.10 70.05 70.00 69.95 69.90 69.85 69.80 69.75 69.70 69.65 69.60 69.55 69.50 69.45 69.40 69.35 69.30 69.25 69.20 69.15 69.10 69.05 69.00 68.95 68.90 68.85 68.80 68.75 68.70 68.65 68.60 68.55 68.50 68.45 68.40 68.35 68.30 68.25 68.20 68.15 68.10 68.05 68.00 67.95 67.90 67.85 67.80 67.75 67.70 67.65 67.60 67.55 67.50 67.45 67.40 67.35 67.30 67.25 67.20 67.15 67.10 67.05 67.00 66.95 66.90 66.85 66.80 66.75 66.70 66.65 66.60 66.55 66.50 66.45 66.40 66.35 66.30 66.25 66.20 66.15 66.10 66.05 66.00 65.95 65.90 65.85 65.80 65.75 65.70 65.65 65.60 65.55 65.50 65.45 65.40 65.35 65.30 65.25 65.20 65.15 65.10 65.05 65.00 64.95 64.90 64.85 64.80 64.75 64.70 64.65 64.60 64.55 64.50 64.45 64.40 64.35 64.30 64.25 64.20 64.15 64.10 64.05 64.00 63.95 63.90 63.85 63.80 63.75 63.70 63.65 63.60 63.55 63.50 63.45 63.40 63.35 63.30 63.25 63.20 63.15 63.10 63.05 63.00 62.95 62.90 62.85 62.80 62.75 62.70 62.65 62.60 62.55 62.50 62.45 62.40 62.35 62.30 62.25 62.20 62.15 62.10 62.05 62.00 61.95 61.90 61.85 61.80 61.75 61.70 61.65 61.60 61.55 61.50 61.45 61.40 61.35 61.30 61.25 61.20 61.15 61.10 61.05 61.00 60.95 60.90 60.85 60.80 60.75 60.70 60.65 60.60 60.55 60.50 60.45 60.40 60.35 60.30 60.25 60.20 60.15 60.10 60.05 60.00 59.95 59.90 59.85 59.80 59.75 59.70 59.65 59.60 59.55 59.50 59.45 59.40 59.35 59.30 59.25 59.20 59.15 59.10 59.05 59.00 58.95 58.90 58.85 58.80 58.75 58.70 58.65 58.60 58.55 58.50 58.45 58.40 58.35 58.30 58.25 58.20 58.15 58.10 58.05 58.00 57.95 57.90 57.85 57.80 57.75 57.70 57.65 57.60 57.55 57.50 57.45 57.40 57.35 57.30 57.25 57.20 57.15 57.10 57.05 57.00 56.95 56.90 56.85 56.80 56.75 56.70 56.65 56.60 56.55 56.50 56.45 56.40 56.35 56.30 56.25 56.20 56.15 56.10 56.05 56.00 55.95 55.90 55.85 55.80 55.75 55.70 55.65 55.60 55.55 55.50 55.45 55.40 55.35 55.30 55.25 55.20 55.15 55.10 55.05 55.00 54.95 54.90 54.85 54.80 54.75 54.70 54.65 54.60 54.55 54.50 54.45 54.40 54.35 54.30 54.25 54.20 54.15 54.10 54.05 54.00 53.95 53.90 53.85 53.80 53.75 53.70 53.65 53.60 53.55 53.50 53.45 53.40 53.35 53.30 53.25 53.20 53.15 53.10 53.05 53.00 52.95 52.90 52.85 52.80 52.75 52.70 52.65 52.60 52.55 52.50 52.45 52.40 52.35 52.30 52.25 52.20 52.15 52.10 52.05 52.00 51.95 51.90 51.85 51.80 51.75 51.70 51.65 51.60 51.55 51.50 51.45 51.40 51.35 51.30 51.25 51.20 51.15 51.10 51.05
71.75 71.70 71.65 71.60 71.55 71.50 71.45 71.40 71.35 71.30 71.25 71.20 71.15 71.10 71.05 71.00 70.95 70.90 70.85 70.80 70.75 70.70 70.65 70.60 70.55 70.50 70.45 70.40 70.35 70.30 70.25 70.20 70.15 70.10 70.05 70.00 69.95 69.90 69.85 69.80 69.75 69.70 69.65 69.60 69.55 69.50 69.45 69.40 69.35 69.30 69.25 69.20 69.15 69.10 69.05 69.00 68.95 68.90 68.85 68.80 68.75 68.70 68.65 68.60 68.55 68.50 68.45 68.40 68.35 68.30 68.25 68.20 68.15 68.10 68.05 68.00 67.95 67.90 67.85 67.80 67.75 67.70 67.65 67.60 67.55 67.50 67.45 67.40 67.35 67.30 67.25 67.20 67.15 67.10 67.05 67.00 66.95 66.90 66.85 66.80 66.75 66.70 66.65 66.60 66.55 66.50 66.45 66.40 66.35 66.30 66.25 66.20 66.15 66.10 66.05 66.00 65.95 65.90 65.85 65.80 65.75 65.70 65.65 65.60 65.55 65.50 65.45 65.40 65.35 65.30 65.25 65.20 65.15 65.10 65.05 65.00 64.95 64.90 64.85 64.80 64.75 64.70 64.65 64.60 64.55 64.50 64.45 64.40 64.35 64.30 64.25 64.20 64.15 64.10 64.05 64.00 63.95 63.90 63.85 63.80 63.75 63.70 63.65 63.60 63.55 63.50 63.45 63.40 63.35 63.30 63.25 63.20 63.15 63.10 63.05 63.00 62.95 62.90 62.85 62.80 62.75 62.70 62.65 62.60 62.55 62.50 62.45 62.40 62.35 62.30 62.25 62.20 62.15 62.10 62.05 62.00 61.95 61.90 61.85 61.80 61.75 61.70 61.65 61.60 61.55 61.50 61.45 61.40 61.35 61.30 61.25 61.20 61.15 61.10 61.05 61.00 60.95 60.90 60.85 60.80 60.75 60.70 60.65 60.60 60.55 60.50 60.45 60.40 60.35 60.30 60.25 60.20 60.15 60.10 60.05 60.00 59.95 59.90 59.85 59.80 59.75 59.70 59.65 59.60 59.55 59.50 59.45 59.40 59.35 59.30 59.25 59.20 59.15 59.10 59.05 59.00 58.95 58.90 58.85 58.80 58.75 58.70 58.65 58.60 58.55 58.50 58.45 58.40 58.35 58.30 58.25 58.20 58.15 58.10 58.05 58.00 57.95 57.90 57.85 57.80 57.75 57.70 57.65 57.60 57.55 57.50 57.45 57.40 57.35 57.30 57.25 57.20 57.15 57.10 57.05 57.00 56.95 56.90 56.85 56.80 56.75 56.70 56.65 56.60 56.55 56.50 56.45 56.40 56.35 56.30 56.25 56.20 56.15 56.10 56.05 56.00 55.95 55.90 55.85 55.80 55.75 55.70 55.65 55.60 55.55 55.50 55.45 55.40 55.35 55.30 55.25 55.20 55.15 55.10 55.05 55.00 54.95 54.90 54.85 54.80 54.75 54.70 54.65 54.60 54.55 54.50 54.45 54.40 54.35 54.30 54.25 54.20 54.15 54.10 54.05 54.00 53.95 53.90 53.85 53.80 53.75 53.70 53.65 53.60 53.55 53.50 53.45 53.40 53.35 53.30 53.25 53.20 53.15 53.10 53.05 53.00 52.95 52.90 52.85 52.80 52.75 52.70 52.65 52.60 52.55 52.50 52.45 52.40 52.35 52.30 52.25 52.20 52.15 52.10 52.05 52.00 51.95 51.90 51.85 51.80
72.50 72.45 72.40 72.35 72.30 72.25 72.20 72.15 72.10 72.05 72.00 71.95 71.90 71.85 71.80 71.75 71.70 71.65 71.60 71.55 71.50 71.45 71.40 71.35 71.30 71.25 71.20 71.15 71.10 71.05 71.00 70.95 70.90 70.85 70.80 70.75 70.70 70.65 70.60 70.55 70.50 70.45 70.40 70.35 70.30 70.25 70.20 70.15 70.10 70.05 70.00 69.95 69.90 69.85 69.80 69.75 69.70 69.65 69.60 69.55 69.50 69.45 69.40 69.35 69.30 69.25 69.20 69.15 69.10 69.05 69.00 68.95 68.90 68.85 68.80 68.75 68.70 68.65 68.60 68.55 68.50 68.45 68.40 68.35 68.30 68.25 68.20 68.15 68.10 68.05 68.00 67.95 67.90 67.85 67.80 67.75 67.70 67.65 67.60 67.55 67.50 67.45 67.40 67.35 67.30 67.25 67.20 67.15 67.10 67.05 67.00 66.95 66.90 66.85 66.80 66.75 66.70 66.65 66.60 66.55 66.50 66.45 66.40 66.35 66.30 66.25 66.20 66.15 66.10 66.05 66.00 65.95 65.90 65.85 65.80 65.75 65.70 65.65 65.60 65.55 65.50 65.45 65.40 65.35 65.30 65.25 65.20 65.15 65.10 65.05 65.00 64.95 64.90 64.85 64.80 64.75 64.70 64.65 64.60 64.55 64.50 64.45 64.40 64.35 64.30 64.25 64.20 64.15 64.10 64.05 64.00 63.95 63.90 63.85 63.80 63.75 63.70 63.65 63.60 63.55 63.50 63.45 63.40 63.35 63.30 63.25 63.20 63.15 63.10 63.05 63.00 62.95 62.90 62.85 62.80 62.75 62.70 62.65 62.60 62.55 62.50 62.45 62.40 62.35 62.30 62.25 62.20 62.15 62.10 62.05 62.00 61.95 61.90 61.85 61.80 61.75 61.70 61.65 61.60 61.55 61.50 61.45 61.40 61.35 61.30 61.25 61.20 61.15 61.10 61.05 61.00 60.95 60.90 60.85 60.80 60.75 60.70 60.65 60.60 60.55 60.50 60.45 60.40 60.35 60.30 60.25 60.20 60.15 60.10 60.05 60.00 59.95 59.90 59.85 59.80 59.75 59.70 59.65 59.60 59.55 59.50 59.45 59.40 59.35 59.30 59.25 59.20 59.15 59.10 59.05 59.00 58.95 58.90 58.85 58.80 58.75 58.70 58.65 58.60 58.55 58.50 58.45 58.40 58.35 58.30 58.25 58.20 58.15 58.10 58.05 58.00 57.95 57.90 57.85 57.80 57.75 57.70 57.65 57.60 57.55 57.50 57.45 57.40 57.35 57.30 57.25 57.20 57.15 57.10 57.05 57.00 56.95 56.90 56.85 56.80 56.75 56.70 56.65 56.60 56.55 56.50 56.45 56.40 56.35 56.30 56.25 56.20 56.15 56.10 56.05 56.00 55.95 55.90 55.85 55.80 55.75 55.70 55.65 55.60 55.55 55.50 55.45 55.40 55.35 55.30 55.25 55.20 55.15 55.10 55.05 55.00 54.95 54.90 54.85 54.80 54.75 54.70 54.65 54.60 54.55 54.50 54.45 54.40 54.35 54.30 54.25 54.20 54.15 54.10 54.05 54.00 53.95 53.90 53.85 53.80 53.75 53.70 53.65 53.60 53.55 53.50 53.45 53.40 53.35 53.30 53.25 53.20 53.15 53.10 53.05 53.00 52.95 52.90 52.85 52.80 52.75 52.70 52.65 52.60 52.55
73.25 73.20 73.15 73.10 73.05 73.00 72.95 72.90 72.85 72.80 72.75 72.70 72.65 72.60 72.55 72.50 72.45 72.40 72.35 72.30 72.25 72.20 72.15 72.10 72.05 72.00 71.95 71.90 71.85 71.80 71.75 71.70 71.65 71.60 71.55 71.50 71.45 71.40 71.35 71.30 71.25 71.20 71.15 71.10 71.05 71.00 70.95 70.90 70.85 70.80 70.75 70.70 70.65 70.60 70.55 70.50 70.45 70.40 70.35 70.30 70.25 70.20 70.15 70.10 70.05 70.00 69.95 69.90 69.85 69.80 69.75 69.70 69.65 69.60 69.55 69.50 69.45 69.40 69.35 69.30 69.25 69.20 69.15 69.10 69.05 69.00 68.95 68.90 68.85 68.80 68.75 68.70 68.65 68.60 68.55 68.50 68.45 68.40 68.35 68.30 68.25 68.20 68.15 68.10 68.05 68.00 67.95 67.90 67.85 67.80 67.75 67.70 67.65 67.60 67.55 67.50 67.45 67.40 67.35 67.30 67.25 67.20 67.15 67.10 67.05 67.00 66.95 66.90 66.85 66.80 66.75 66.70 66.65 66.60 66.55 66.50 66.45 66.40 66.35 66.30 66.25 66.20 66.15 66.10 66.05 66.00 65.95 65.90 65.85 65.80 65.75 65.70 65.65 65.60 65.55 65.50 65.45 65.40 65.35 65.30 65.25 65.20 65.15 65.10 65.05 65.00 64.95 64.90 64.85 64.80 64.75 64.70 64.65 64.60 64.55 64.50 64.45 64.40 64.35 64.30 64.25 64.20 64.15 64.10 64.05 64.00 63.95 63.90 63.85 63.80 63.75 63.70 63.65 63.60 63.55 63.50 63.45 63.40 63.35 63.30 63.25 63.20 63.15 63.10 63.05 63.00 62.95 62.90 62.85 62.80 62.75 62.70 62.65 62.60 62.55 62.50 62.45 62.40 62.35 62.30 62.25 62.20 62.15 62.10 62.05 62.00 61.95 61.90 61.85 61.80 61.75 61.70 61.65 61.60 61.55 61.50 61.45 61.40 61.35 61.30 61.25 61.20 61.15 61.10 61.05 61.00 60.95 60.90 60.85 60.80 60.75 60.70 60.65 60.60 60.55 60.50 60.45 60.40 60.35 60.30 60.25 60.20 60.15 60.10 60.05 60.00 59.95 59.90 59.85 59.80 59.75 59.70 59.65 59.60 59.55 59.50 59.45 59.40 59.35 59.30 59.25 59.20 59.15 59.10 59.05 59.00 58.95 58.90 58.85 58.80 58.75 58.70 58.65 58.60 58.55 58.50 58.45 58.40 58.35 58.30 58.25 58.20 58.15 58.10 58.05 58.00 57.95 57.90 57.85 57.80 57.75 57.70 57.65 57.60 57.55 57.50 57.45 57.40 57.35 57.30 57.25 57.20 57.15 57.10 57.05 57.00 56.95 56.90 56.85 56.80 56.75 56.70 56.65 56.60 56.55 56.50 56.45 56.40 56.35 56.30 56.25 56.20 56.15 56.10 56.05 56.00 55.95 55.90 55.85 55.80 55.75 55.70 55.65 55.60 55.55 55.50 55.45 55.40 55.35 55.30 55.25 55.20 55.15 55.10 55.05 55.00 54.95 54.90 54.85 54.80 54.75 54.70 54.65 54.60 54.55 54.50 54.45 54.40 54.35 54.30 54.25 54.20 54.15 54.10 54.05 54.00 53.95 53.90 53.85 53.80 53.75 53.70 53.65 53.60 53.55 53.50 53.45 53.40 53.35 53.30
74.00 73.95 73.90 73.85 73.80 73.75 73.70 73.65 73.60 73.55 73.50 73.45 73.40 73.35 73.30 73.25 73.20 73.15 73.10 73.05 73.00 72.95 72.90 72.85 72.80 72.75 72.70 72.65 72.60 72.55 72.50 72.45 72.40 72.35 72.30 72.25 72.20 72.15 72.10 72.05 72.00 71.95 71.90 71.85 71.80 71.75 71.70 71.65 71.60 71.55 71.50 71.45 71.40 71.35 71.30 71.25 71.20 71.15 71.10 71.05 71.00 70.95 70.90 70.85 70.80 70.75 70.70 70.65 70.60 70.55 70.50 70.45 70.40 70.35 70.30 70.25 70.20 70.15 70.10 70.05 70.00 69.95 69.90 69.85 69.80 69.75 69.70 69.65 69.60 69.55 69.50 69.45 69.40 69.35 69.30 69.25 69.20 69.15 69.10 69.05 69.00 68.95 68.90 68.85 68.80 68.75 68.70 68.65 68.60 68.55 68.50 68.45 68.40 68.35 68.30 68.25 68.20 68.15 68.10 68.05 68.00 67.95 67.90 67.85 67.80 67.75 67.70 67.65 67.60 67.55 67.50 67.45 67.40 67.35 67.30 67.25 67.20 67.15 67.10 67.05 67.00 66.95 66.90 66.85 66.80 66.75 66.70 66.65 66.60 66.55 66.50 66.45 66.40 66.35 66.30 66.25 66.20 66.15 66.10 66.05 66.00 65.95 65.90 65.85 65.80 65.75 65.70 65.65 65.60 65.55 65.50 65.45 65.40 65.35 65.30 65.25 65.20 65.15 65.10 65.05 65.00 64.95 64.90 64.85 64.80 64.75 64.70 64.65 64.60 64.55 64.50 64.45 64.40 64.35 64.30 64.25 64.20 64.15 64.10 64.05 64.00 63.95 63.90 63.85 63.80 63.75 63.70 63.65 63.60 63.55 63.50 63.45 63.40 63.35 63.30 63.25 63.20 63.15 63.10 63.05 63.00 62.95 62.90 62.85 62.80 62.75 62.70 62.65 62.60 62.55 62.50 62.45 62.40 62.35 62.30 62.25 62.20 62.15 62.10 62.05 62.00 61.95 61.90 61.85 61.80 61.75 61.70 61.65 61.60 61.55 61.50 61.45 61.40 61.35 61.30 61.25 61.20 61.15 61.10 61.05 61.00 60.95 60.90 60.85 60.80 60.75 60.70 60.65 60.60 60.55 60.50 60.45 60.40 60.35 60.30 60.25 60.20 60.15 60.10 60.05 60.00 59.95 59.90 59.85 59.80 59.75 59.70 59.65 59.60 59.55 59.50 59.45 59.40 59.35 59.30 59.25 59.20 59.15 59.10 59.05 59.00 58.95 58.90 58.85 58.80 58.75 58.70 58.65 58.60 58.55 58.50 58.45 58.40 58.35 58.30 58.25 58.20 58.15 58.10 58.05 58.00 57.95 57.90 57.85 57.80 57.75 57.70 57.65 57.60 57.55 57.50 57.45 57.40 57.35 57.30 57.25 57.20 57.15 57.10 57.05 57.00 56.95 56.90 56.85 56.80 56.75 56.70 56.65 56.60 56.55 56.50 56.45 56.40 56.35 56.30 56.25 56.20 56.15 56.10 56.05 56.00 55.95 55.90 55.85 55.80 55.75 55.70 55.65 55.60 55.55 55.50 55.45 55.40 55.35 55.30 55.25 55.20 55.15 55.10 55.05 55.00 54.95 54.90 54.85 54.80 54.75 54.70 54.65 54.60 54.55 54.50 54.45 54.40 54.35 54.30 54.25 54.20 54.15 54.10 54.05
74.75 74.70 74.65 74.60 74.55 74.50 74.45 74.40 74.35 74.30 74.25 74.20 74.15 74.10 74.05 74.00 73.95 73.90 73.85 73.80 73.75 73.70 73.65 73.60 73.55 73.50 73.45 73.40 73.35 73.30 73.25 73.20 73.15 73.10 73.05 73.00 72.95 72.90 72.85 72.80 72.75 72.70 72.65 72.60 72.55 72.50 72.45 72.40 72.35 72.30 72.25 72.20 72.15 72.10 72.05 72.00 71.95 71.90 71.85 71.80 71.75 71.70 71.65 71.60 71.55 71.50 71.45 71.40 71.35 71.30 71.25 71.20 71.15 71.10 71.05 71.00 70.95 70.90 70.85 70.80 70.75 70.70 70.65 70.60 70.55 70.50 70.45 70.40 70.35 70.30 70.25 70.20 70.15 70.10 70.05 70.00 69.95 69.90 69.85 69.80 69.75 69.70 69.65 69.60 69.55 69.50 69.45 69.40 69.35 69.30 69.25 69.20 69.15 69.10 69.05 69.00 68.95 68.90 68.85 68.80 68.75 68.70 68.65 68.60 68.55 68.50 68.45 68.40 68.35 68.30 68.25 68.20 68.15 68.10 68.05 68.00 67.95 67.90 67.85 67.80 67.75 67.70 67.65 67.60 67.55 67.50 67.45 67.40 67.35 67.30 67.25 67.20 67.15 67.10 67.05 67.00 66.95 66.90 66.85 66.80 66.75 66.70 66.65 66.60 66.55 66.50 66.45 66.40 66.35 66.30 66.25 66.20 66.15 66.10 66.05 66.00 65.95 65.90 65.85 65.80 65.75 65.70 65.65 65.60 65.55 65.50 65.45 65.40 65.35 65.30 65.25 65.20 65.15 65.10 65.05 65.00 64.95 64.90 64.85 64.80 64.75 64.70 64.65 64.60 64.55 64.50 64.45 64.40 64.35 64.30 64.25 64.20 64.15 64.10 64.05 64.00 63.95 63.90 63.85 63.80 63.75 63.70 63.65 63.60 63.55 63.50 63.45 63.40 63.35 63.30 63.25 63.20 63.15 63.10 63.05 63.00 62.95 62.90 62.85 62.80 62.75 62.70 62.65 62.60 62.55 62.50 62.45 62.40 62.35 62.30 62.25 62.20 62.15 62.10 62.05 62.00 61.95 61.90 61.85 61.80 61.75 61.70 61.65 61.60 61.55 61.50 61.45 61.40 61.35 61.30 61.25 61.20 61.15 61.10 61.05 61.00 60.95 60.90 60.85 60.80 60.75 60.70 60.65 60.60 60.55 60.50 60.45 60.40 60.35 60.30 60.25 60.20 60.15 60.10 60.05 60.00 59.95 59.90 59.85 59.80 59.75 59.70 59.65 59.60 59.55 59.50 59.45 59.40 59.35 59.30 59.25 59.20 59.15 59.10 59.05 59.00 58.95 58.90 58.85 58.80 58.75 58.70 58.65 58.60 58.55 58.50 58.45 58.40 58.35 58.30 58.25 58.20 58.15 58.10 58.05 58.00 57.95 57.90 57.85 57.80 57.75 57.70 57.65 57.60 57.55 57.50 57.45 57.40 57.35 57.30 57.25 57.20 57.15 57.10 57.05 57.00 56.95 56.90 56.85 56.80 56.75 56.70 56.65 56.60 56.55 56.50 56.45 56.40 56.35 56.30 56.25 56.20 56.15 56.10 56.05 56.00 55.95 55.90 55.85 55.80 55.75 55.70 55.65 55.60 55.55 55.50 55.45 55.40 55.35 55.30 55.25 55.20 55.15 55.10 55.05 55.00 54.95 54.90 54.85 54.80
75.50 75.45 75.40 75.35 75.30 75.25 75.20 75.15 75.10 75.05 75.00 74.95 74.90 74.85 74.80 74.75 74.70 74.65 74.60 74.55 74.50 74.45 74.40 74.35 74.30 74.25 74.20 74.15 74.10 74.05 74.00 73.95 73.90 73.85 73.80 73.75 73.70 73.65 73.60 73.55 73.50 73.45 73.40 73.35 73.30 73.25 73.20 73.15 73.10 73.05 73.00 72.95 72.90 72.85 72.80 72.75 72.70 72.65 72.60 72.55 72.50 72.45 72.40 72.35 72.30 72.25 72.20 72.15 72.10 72.05 72.00 71.95 71.90 71.85 71.80 71.75 71.70 71.65 71.60 71.55 71.50 71.45 71.40 71.35 71.30 71.25 71.20 71.15 71.10 71.05 71.00 70.95 70.90 70.85 70.80 70.75 70.70 70.65 70.60 70.55 70.50 70.45 70.40 70.35 70.30 70.25 70.20 70.15 70.10 70.05 70.00 69.95 69.90 69.85 69.80 69.75 69.70 69.65 69.60 69.55 69.50 69.45 69.40 69.35 69.30 69.25 69.20 69.15 69.10 69.05 69.00 68.95 68.90 68.85 68.80 68.75 68.70 68.65 68.60 68.55 68.50 68.45 68.40 68.35 68.30 68.25 68.20 68.15 68.10 68.05 68.00 67.95 67.90 67.85 67.80 67.75 67.70 67.65 67.60 67.55 67.50 67.45 67.40 67.35 67.30 67.25 67.20 67.15 67.10 67.05 67.00 66.95 66.90 66.85 66.80 66.75 66.70 66.65 66.60 66.55 66.50 66.45 66.40 66.35 66.30 66.25 66.20 66.15 66.10 66.05 66.00 65.95 65.90 65.85 65.80 65.75 65.70 65.65 65.60 65.55 65.50 65.45 65.40 65.35 65.30 65.25 65.20 65.15 65.10 65.05 65.00 64.95 64.90 64.85 64.80 64.75 64.70 64.65 64.60 64.55 64.50 64.45 64.40 64.35 64.30 64.25 64.20 64.15 64.10 64.05 64.00 63.95 63.90 63.85 63.80 63.75 63.70 63.65 63.60 63.55 63.50 63.45 63.40 63.35 63.30 63.25 63.20 63.15 63.10 63.05 63.00 62.95 62.90 62.85 62.80 62.75 62.70 62.65 62.60 62.55 62.50 62.45 62.40 62.35 62.30 62.25 62.20 62.15 62.10 62.05 62.00 61.95 61.90 61.85 61.80 61.75 61.70 61.65 61.60 61.55 61.50 61.45 61.40 61.35 61.30 61.25 61.20 61.15 61.10 61.05 61.00 60.95 60.90 60.85 60.80 60.75 60.70 60.65 60.60 60.55 60.50 60.45 60.40 60.35 60.30 60.25 60.20 60.15 60.10 60.05 60.00 59.95 59.90 59.85 59.80 59.75 59.70 59.65 59.60 59.55 59.50 59.45 59.40 59.35 59.30 59.25 59.20 59.15 59.10 59.05 59.00 58.95 58.90 58.85 58.80 58.75 58.70 58.65 58.60 58.55 58.50 58.45 58.40 58.35 58.30 58.25 58.20 58.15 58.10 58.05 58.00 57.95 57.90 57.85 57.80 57.75 57.70 57.65 57.60 57.55 57.50 57.45 57.40 57.35 57.30 57.25 57.20 57.15 57.10 57.05 57.00 56.95 56.90 56.85 56.80 56.75 56.70 56.65 56.60 56.55 56.50 56.45 56.40 56.35 56.30 56.25 56.20 56.15 56.10 56.05 56.00 55.95 55.90 55.85 55.80 55.75 55.70 55.65 55.60 55.55
76.25 76.20 76.15 76.10 76.05 76.00 75.95 75.90 75.85 75.80 75.75 75.70 75.65 75.60 75.55 75.50 75.45 75.40 75.35 75.30 75.25 75.20 75.15 75.10 75.05 75.00 74.95 74.90 74.85 74.80 74.75 74.70 74.65 74.60 74.55 74.50 74.45 74.40 74.35 74.30 74.25 74.20 74.15 74.10 74.05 74.00 73.95 73.90 73.85 73.80 73.75 73.70 73.65 73.60 73.55 73.50 73.45 73.40 73.35 73.30 73.25 73.20 73.15 73.10 73.05 73.00 72.95 72.90 72.85 72.80 72.75 72.70 72.65 72.60 72.55 72.50 72.45 72.40 72.35 72.30 72.25 72.20 72.15 72.10 72.05 72.00 71.95 71.90 71.85 71.80 71.75 71.70 71.65 71.60 71.55 71.50 71.45 71.40 71.35 71.30 71.25 71.20 71.15 71.10 71.05 71.00 70.95 70.90 70.85 70.80 70.75 70.70 70.65 70.60 70.55 70.50 70.45 70.40 70.35 70.30 70.25 70.20 70.15 70.10 70.05 70.00 69.95 69.90 69.85 69.80 69.75 69.70 69.65 69.60 69.55 69.50 69.45 69.40 69.35 69.30 69.25 69.20 69.15 69.10 69.05 69.00 68.95 68.90 68.85 68.80 68.75 68.70 68.65 68.60 68.55 68.50 68.45 68.40 68.35 68.30 68.25 68.20 68.15 68.10 68.05 68.00 67.95 67.90 67.85 67.80 67.75 67.70 67.65 67.60 67.55 67.50 67.45 67.40 67.35 67.30 67.25 67.20 67.15 67.10 67.05 67.00 66.95 66.90 66.85 66.80 66.75 66.70 66.65 66.60 66.55 66.50 66.45 66.40 66.35 66.30 66.25 66.20 66.15 66.10 66.05 66.00 65.95 65.90 65.85 65.80 65.75 65.70 65.65 65.60 65.55 65.50 65.45 65.40 65.35 65.30 65.25 65.20 65.15 65.10 65.05 65.00 64.95 64.90 64.85 64.80 64.75 64.70 64.65 64.60 64.55 64.50 64.45 64.40 64.35 64.30 64.25 64.20 64.15 64.10 64.05 64.00 63.95 63.90 63.85 63.80 63.75 63.70 63.65 63.60 63.55 63.50 63.45 63.40 63.35 63.30 63.25 63.20 63.15 63.10 63.05 63.00 62.95 62.90 62.85 62.80 62.75 62.70 62.65 62.60 62.55 62.50 62.45 62.40 62.35 62.30 62.25 62.20 62.15 62.10 62.05 62.00 61.95 61.90 61.85 61.80 61.75 61.70 61.65 61.60 61.55 61.50 61.45 61.40 61.35 61.30 61.25 61.20 61.15 61.10 61.05 61.00 60.95 60.90 60.85 60.80 60.75 60.70 60.65 60.60 60.55 60.50 60.45 60.40 60.35 60.30 60.25 60.20 60.15 60.10 60.05 60.00 59.95 59.90 59.85 59.80 59.75 59.70 59.65 59.60 59.55 59.50 59.45 59.40 59.35 59.30 59.25 59.20 59.15 59.10 59.05 59.00 58.95 58.90 58.85 58.80 58.75 58.70 58.65 58.60 58.55 58.50 58.45 58.40 58.35 58.30 58.25 58.20 58.15 58.10 58.05 58.00 57.95 57.90 57.85 57.80 57.75 57.70 57.65 57.60 57.55 57.50 57.45 57.40 57.35 57.30 57.25 57.20 57.15 57.10 57.05 57.00 56.95 56.90 56.85 56.80 56.75 56.70 56.65 56.60 56.55 56.50 56.45 56.40 56.35 56.30
77.00 76.95 76.90 76.85 76.80 76.75 76.70 76.65 76.60 76.55 76.50 76.45 76.40 76.35 76.30 76.25 76.20 76.15 76.10 76.05 76.00 75.95 75.90 75.85 75.80 75.75 75.70 75.65 75.60 75.55 75.50 75.45 75.40 75.35 75.30 75.25 75.20 75.15 75.10 75.05 75.00 74.95 74.90 74.85 74.80 74.75 74.70 74.65 74.60 74.55 74.50 74.45 74.40 74.35 74.30 74.25 74.20 74.15 74.10 74.05 74.00 73.95 73.90 73.85 73.80 73.75 73.70 73.65 73.60 73.55 73.50 73.45 73.40 73.35 73.30 73.25 73.20 73.15 73.10 73.05 73.00 72.95 72.90 72.85 72.80 72.75 72.70 72.65 72.60 72.55 72.50 72.45 72.40 72.35 72.30 72.25 72.20 72.15 72.10 72.05 72.00 71.95 71.90 71.85 71.80 71.75 71.70 71.65 71.60 71.55 71.50 71.45 71.40 71.35 71.30 71.25 71.20 71.15 71.10 71.05 71.00 70.95 70.90 70.85 70.80 70.75 70.70 70.65 70.60 70.55 70.50 70.45 70.40 70.35 70.30 70.25 70.20 70.15 70.10 70.05 70.00 69.95 69.90 69.85 69.80 69.75 69.70 69.65 69.60 69.55 69.50 69.45 69.40 69.35 69.30 69.25 69.20 69.15 69.10 69.05 69.00 68.95 68.90 68.85 68.80 68.75 68.70 68.65 68.60 68.55 68.50 68.45 68.40 68.35 68.30 68.25 68.20 68.15 68.10 68.05 68.00 67.95 67.90 67.85 67.80 67.75 67.70 67.65 67.60 67.55 67.50 67.45 67.40 67.35 67.30 67.25 67.20 67.15 67.10 67.05 67.00 66.95 66.90 66.85 66.80 66.75 66.70 66.65 66.60 66.55 66.50 66.45 66.40 66.35 66.30 66.25 66.20 66.15 66.10 66.05 66.00 65.95 65.90 65.85 65.80 65.75 65.70 65.65 65.60 65.55 65.50 65.45 65.40 65.35 65.30 65.25 65.20 65.15 65.10 65.05 65.00 64.95 64.90 64.85 64.80 64.75 64.70 64.65 64.60 64.55 64.50 64.45 64.40 64.35 64.30 64.25 64.20 64.15 64.10 64.05 64.00 63.95 63.90 63.85 63.80 63.75 63.70 63.65 63.60 63.55 63.50 63.45 63.40 63.35 63.30 63.25 63.20 63.15 63.10 63.05 63.00 62.95 62.90 62.85 62.80 62.75 62.70 62.65 62.60 62.55 62.50 62.45 62.40 62.35 62.30 62.25 62.20 62.15 62.10 62.05 62.00 61.95 61.90 61.85 61.80 61.75 61.70 61.65 61.60 61.55 61.50 61.45 61.40 61.35 61.30 61.25 61.20 61.15 61.10 61.05 61.00 60.95 60.90 60.85 60.80 60.75 60.70 60.65 60.60 60.55 60.50 60.45 60.40 60.35 60.30 60.25 60.20 60.15 60.10 60.05 60.00 59.95 59.90 59.85 59.80 59.75 59.70 59.65 59.60 59.55 59.50 59.45 59.40 59.35 59.30 59.25 59.20 59.15 59.10 59.05 59.00 58.95 58.90 58.85 58.80 58.75 58.70 58.65 58.60 58.55 58.50 58.45 58.40 58.35 58.30 58.25 58.20 58.15 58.10 58.05 58.00 57.95 57.90 57.85 57.80 57.75 57.70 57.65 57.60 57.55 57.50 57.45 57.40 57.35 57.30 57.25 57.20 57.15 57.10 57.05
77.75 77.70 77.65 77.60 77.55 77.50 77.45 77.40 77.35 77.30 77.25 77.20 77.15 77.10 77.05 77.00 76.95 76.90 76.85 76.80 76.75 76.70 76.65 76.60 76.55 76.50 76.45 76.40 76.35 76.30 76.25 76.20 76.15 76.10 76.05 76.00 75.95 75.90 75.85 75.80 75.75 75.70 75.65 75.60 75.55 75.50 75.45 75.40 75.35 75.30 75.25 75.20 75.15 75.10 75.05 75.00 74.95 74.90 74.85 74.80 74.75 74.70 74.65 74.60 74.55 74.50 74.45 74.40 74.35 74.30 74.25 74.20 74.15 74.10 74.05 74.00 73.95 73.90 73.85 73.80 73.75 73.70 73.65 73.60 73.55 73.50 73.45 73.40 73.35 73.30 73.25 73.20 73.15 73.10 73.05 73.00 72.95 72.90 72.85 72.80 72.75 72.70 72.65 72.60 72.55 72.50 72.45 72.40 72.35 72.30 72.25 72.20 72.15 72.10 72.05 72.00 71.95 71.90 71.85 71.80 71.75 71.70 71.65 71.60 71.55 71.50 71.45 71.40 71.35 71.30 71.25 71.20 71.15 71.10 71.05 71.00 70.95 70.90 70.85 70.80 70.75 70.70 70.65 70.60 70.55 70.50 70.45 70.40 70.35 70.30 70.25 70.20 70.15 70.10 70.05 70.00 69.95 69.90 69.85 69.80 69.75 69.70 69.65 69.60 69.55 69.50 69.45 69.40 69.35 69.30 69.25 69.20 69.15 69.10 69.05 69.00 68.95 68.90 68.85 68.80 68.75 68.70 68.65 68.60 68.55 68.50 68.45 68.40 68.35 68.30 68.25 68.20 68.15 68.10 68.05 68.00 67.95 67.90 67.85 67.80 67.75 67.70 67.65 67.60 67.55 67.50 67.45 67.40 67.35 67.30 67.25 67.20 67.15 67.10 67.05 67.00 66.95 66.90 66.85 66.80 66.75 66.70 66.65 66.60 66.55 66.50 66.45 66.40 66.35 66.30 66.25 66.20 66.15 66.10 66.05 66.00 65.95 65.90 65.85 65.80 65.75 65.70 65.65 65.60 65.55 65.50 65.45 65.40 65.35 65.30 65.25 65.20 65.15 65.10 65.05 65.00 64.95 64.90 64.85 64.80 64.75 64.70 64.65 64.60 64.55 64.50 64.45 64.40 64.35 64.30 64.25 64.20 64.15 64.10 64.05 64.00 63.95 63.90 63.85 63.80 63.75 63.70 63.65 63.60 63.55 63.50 63.45 63.40 63.35 63.30 63.25 63.20 63.15 63.10 63.05 63.00 62.95 62.90 62.85 62.80 62.75 62.70 62.65 62.60 62.55 62.50 62.45 62.40 62.35 62.30 62.25 62.20 62.15 62.10 62.05 62.00 61.95 61.90 61.85 61.80 61.75 61.70 61.65 61.60 61.55 61.50 61.45 61.40 61.35 61.30 61.25 61.20 61.15 61.10 61.05 61.00 60.95 60.90 60.85 60.80 60.75 60.70 60.65 60.60 60.55 60.50 60.45 60.40 60.35 60.30 60.25 60.20 60.15 60.10 60.05 60.00 59.95 59.90 59.85 59.80 59.75 59.70 59.65 59.60 59.55 59.50 59.45 59.40 59.35 59.30 59.25 59.20 59.15 59.10 59.05 59.00 58.95 58.90 58.85 58.80 58.75 58.70 58.65 58.60 58.55 58.50 58.45 58.40 58.35 58.30 58.25 58.20 58.15 58.10 58.05 58.00 57.95 57.90 57.85 57.80
78.50 78.45 78.40 78.35 78.30 78.25 78.20 78.15 78.10 78.05 78.00 77.95 77.90 77.85 77.80 77.75 77.70 77.65 77.60 77.55 77.50 77.45 77.40 77.35 77.30 77.25 77.20 77.15 77.10 77.05 77.00 76.95 76.90 76.85 76.80 76.75 76.70 76.65 76.60 76.55 76.50 76.45 76.40 76.35 76.30 76.25 76.20 76.15 76.10 76.05 76.00 75.95 75.90 75.85 75.80 75.75 75.70 75.65 75.60 75.55 75.50 75.45 75.40 75.35 75.30 75.25 75.20 75.15 75.10 75.05 75.00 74.95 74.90 74.85 74.80 74.75 74.70 74.65 74.60 74.55 74.50 74.45 74.40 74.35 74.30 74.25 74.20 74.15 74.10 74.05 74.00 73.95 73.90 73.85 73.80 73.75 73.70 73.65 73.60 73.55 73.50 73.45 73.40 73.35 73.30 73.25 73.20 73.15 73.10 73.05 73.00 72.95 72.90 72.85 72.80 72.75 72.70 72.65 72.60 72.55 72.50 72.45 72.40 72.35 72.30 72.25 72.20 72.15 72.10 72.05 72.00 71.95 71.90 71.85 71.80 71.75 71.70 71.65 71.60 71.55 71.50 71.45 71.40 71.35 71.30 71.25 71.20 71.15 71.10 71.05 71.00 70.95 70.90 70.85 70.80 70.75 70.70 70.65 70.60 70.55 70.50 70.45 70.40 70.35 70.30 70.25 70.20 70.15 70.10 70.05 70.00 69.95 69.90 69.85 69.80 69.75 69.70 69.65 69.60 69.55 69.50 69.45 69.40 69.35 69.30 69.25 69.20 69.15 69.10 69.05 69.00 68.95 68.90 68.85 68.80 68.75 68.70 68.65 68.60 68.55 68.50 68.45 68.40 68.35 68.30 68.25 68.20 68.15 68.10 68.05 68.00 67.95 67.90 67.85 67.80 67.75 67.70 67.65 67.60 67.55 67.50 67.45 67.40 67.35 67.30 67.25 67.20 67.15 67.10 67.05 67.00 66.95 66.90 66.85 66.80 66.75 66.70 66.65 66.60 66.55 66.50 66.45 66.40 66.35 66.30 66.25 66.20 66.15 66.10 66.05 66.00 65.95 65.90 65.85 65.80 65.75 65.70 65.65 65.60 65.55 65.50 65.45 65.40 65.35 65.30 65.25 65.20 65.15 65.10 65.05 65.00 64.95 64.90 64.85 64.80 64.75 64.70 64.65 64.60 64.55 64.50 64.45 64.40 64.35 64.30 64.25 64.20 64.15 64.10 64.05 64.00 63.95 63.90 63.85 63.80 63.75 63.70 63.65 63.60 63.55 63.50 63.45 63.40 63.35 63.30 63.25 63.20 63.15 63.10 63.05 63.00 62.95 62.90 62.85 62.80 62.75 62.70 62.65 62.60 62.55 62.50 62.45 62.40 62.35 62.30 62.25 62.20 62.15 62.10 62.05 62.00 61.95 61.90 61.85 61.80 61.75 61.70 61.65 61.60 61.55 61.50 61.45 61.40 61.35 61.30 61.25 61.20 61.15 61.10 61.05 61.00 60.95 60.90 60.85 60.80 60.75 60.70 60.65 60.60 60.55 60.50 60.45 60.40 60.35 60.30 60.25 60.20 60.15 60.10 60.05 60.00 59.95 59.90 59.85 59.80 59.75 59.70 59.65 59.60 59.55 59.50 59.45 59.40 59.35 59.30 59.25 59.20 59.15 59.10 59.05 59.00 58.95 58.90 58.85 58.80 58.75 58.70 58.65 58.60 58.55
79.25 79.20 79.15 79.10 79.05 79.00 78.95 78.90 78.85 78.80 78.75 78.70 78.65 78.60 78.55 78.50 78.45 78.40 78.35 78.30 78.25 78.20 78.15 78.10 78.05 78.00 77.95 77.90 77.85 77.80 77.75 77.70 77.65 77.60 77.55 77.50 77.45 77.40 77.35 77.30 77.25 77.20 77.15 77.10 77.05 77.00 76.95 76.90 76.85 76.80 76.75 76.70 76.65 76.60 76.55 76.50 76.45 76.40 76.35 76.30 76.25 76.20 76.15 76.10 76.05 76.00 75.95 75.90 75.85 75.80 75.75 75.70 75.65 75.60 75.55 75.50 75.45 75.40 75.35 75.30 75.25 75.20 75.15 75.10 75.05 75.00 74.95 74.90 74.85 74.80 74.75 74.70 74.65 74.60 74.55 74.50 74.45 74.40 74.35 74.30 74.25 74.20 74.15 74.10 74.05 74.00 73.95 73.90 73.85 73.80 73.75 73.70 73.65 73.60 73.55 73.50 73.45 73.40 73.35 73.30 73.25 73.20 73.15 73.10 73.05 73.00 72.95 72.90 72.85 72.80 72.75 72.70 72.65 72.60 72.55 72.50 72.45 72.40 72.35 72.30 72.25 72.20 72.15 72.10 72.05 72.00 71.95 71.90 71.85 71.80 71.75 71.70 71.65 71.60 71.55 71.50 71.45 71.40 71.35 71.30 71.25 71.20 71.15 71.10 71.05 71.00 70.95 70.90 70.85 70.80 70.75 70.70 70.65 70.60 70.55 70.50 70.45 70.40 70.35 70.30 70.25 70.20 70.15 70.10 70.05 70.00 69.95 69.90 69.85 69.80 69.75 69.70 69.65 69.60 69.55 69.50 69.45 69.40 69.35 69.30 69.25 69.20 69.15 69.10 69.05 69.00 68.95 68.90 68.85 68.80 68.75 68.70 68.65 68.60 68.55 68.50 68.45 68.40 68.35 68.30 68.25 68.20 68.15 68.10 68.05 68.00 67.95 67.90 67.85 67.80 67.75 67.70 67.65 67.60 67.55 67.50 67.45 67.40 67.35 67.30 67.25 67.20 67.15 67.10 67.05 67.00 66.95 66.90 66.85 66.80 66.75 66.70 66.65 66.60 66.55 66.50 66.45 66.40 66.35 66.30 66.25 66.20 66.15 66.10 66.05 66.00 65.95 65.90 65.85 65.80 65.75 65.70 65.65 65.60 65.55 65.50 65.45 65.40 65.35 65.30 65.25 65.20 65.15 65.10 65.05 65.00 64.95 64.90 64.85 64.80 64.75 64.70 64.65 64.60 64.55 64.50 64.45 64.40 64.35 64.30 64.25 64.20 64.15 64.10 64.05 64.00 63.95 63.90 63.85 63.80 63.75 63.70 63.65 63.60 63.55 63.50 63.45 63.40 63.35 63.30 63.25 63.20 63.15 63.10 63.05 63.00 62.95 62.90 62.85 62.80 62.75 62.70 62.65 62.60 62.55 62.50 62.45 62.40 62.35 62.30 62.25 62.20 62.15 62.10 62.05 62.00 61.95 61.90 61.85 61.80 61.75 61.70 61.65 61.60 61.55 61.50 61.45 61.40 61.35 61.30 61.25 61.20 61.15 61.10 61.05 61.00 60.95 60.90 60.85 60.80 60.75 60.70 60.65 60.60 60.55 60.50 60.45 60.40 60.35 60.30 60.25 60.20 60.15 60.10 60.05 60.00 59.95 59.90 59.85 59.80 59.75 59.70 59.65 59.60 59.55 59.50 59.45 59.40 59.35 59.30
80.00 79.95 79.90 79.85 79.80 79.75 79.70 79.65 79.60 79.55 79.50 79.45 79.40 79.35 79.30 79.25 79.20 79.15 79.10 79.05 79.00 78.95 78.90 78.85 78.80 78.75 78.70 78.65 78.60 78.55 78.50 78.45 78.40 78.35 78.30 78.25 78.20 78.15 78.10 78.05 78.00 77.95 77.90 77.85 77.80 77.75 77.70 77.65 77.60 77.55 77.50 77.45 77.40 77.35 77.30 77.25 77.20 77.15 77.10 77.05 77.00 76.95 76.90 76.85 76.80 76.75 76.70 76.65 76.60 76.55 76.50 76.45 76.40 76.35 76.30 76.25 76.20 76.15 76.10 76.05 76.00 75.95 75.90 75.85 75.80 75.75 75.70 75.65 75.60 75.55 75.50 75.45 75.40 75.35 75.30 75.25 75.20 75.15 75.10 75.05 75.00 74.95 74.90 74.85 74.80 74.75 74.70 74.65 74.60 74.55 74.50 74.45 74.40 74.35 74.30 74.25 74.20 74.15 74.10 74.05 74.00 73.95 73.90 73.85 73.80 73.75 73.70 73.65 73.60 73.55 73.50 73.45 73.40 73.35 73.30 73.25 73.20 73.15 73.10 73.05 73.00 72.95 72.90 72.85 72.80 72.75 72.70 72.65 72.60 72.55 72.50 72.45 72.40 72.35 72.30 72.25 72.20 72.15 72.10 72.05 72.00 71.95 71.90 71.85 71.80 71.75 71.70 71.65 71.60 71.55 71.50 71.45 71.40 71.35 71.30 71.25 71.20 71.15 71.10 71.05 71.00 70.95 70.90 70.85 70.80 70.75 70.70 70.65 70.60 70.55 70.50 70.45 70.40 70.35 70.30 70.25 70.20 70.15 70.10 70.05 70.00 69.95 69.90 69.85 69.80 69.75 69.70 69.65 69.60 69.55 69.50 69.45 69.40 69.35 69.30 69.25 69.20 69.15 69.10 69.05 69.00 68.95 68.90 68.85 68.80 68.75 68.70 68.65 68.60 68.55 68.50 68.45 68.40 68.35 68.30 68.25 68.20 68.15 68.10 68.05 68.00 67.95 67.90 67.85 67.80 67.75 67.70 67.65 67.60 67.55 67.50 67.45 67.40 67.35 67.30 67.25 67.20 67.15 67.10 67.05 67.00 66.95 66.90 66.85 66.80 66.75 66.70 66.65 66.60 66.55 66.50 66.45 66.40 66.35 66.30 66.25 66.20 66.15 66.10 66.05 66.00 65.95 65.90 65.85 65.80 65.75 65.70 65.65 65.60 65.55 65.50 65.45 65.40 65.35 65.30 65.25 65.20 65.15 65.10 65.05 65.00 64.95 64.90 64.85 64.80 64.75 64.70 64.65 64.60 64.55 64.50 64.45 64.40 64.35 64.30 64.25 64.20 64.15 64.10 64.05 64.00 63.95 63.90 63.85 63.80 63.75 63.70 63.65 63.60 63.55 63.50 63.45 63.40 63.35 63.30 63.25 63.20 63.15 63.10 63.05 63.00 62.95 62.90 62.85 62.80 62.75 62.70 62.65 62.60 62.55 62.50 62.45 62.40 62.35 62.30 62.25 62.20 62.15 62.10 62.05 62.00 61.95 61.90 61.85 61.80 61.75 61.70 61.65 61.60 61.55 61.50 61.45 61.40 61.35 61.30 61.25 61.20 61.15 61.10 61.05 61.00 60.95 60.90 60.85 60.80 60.75 60.70 60.65 60.60 60.55 60.50 60.45 60.40 60.35 60.30 60.25 60.20 60.15 60.10 60.05
